(Generated by pygerber2gcode_cui_MOD.py )
( 2013-05-27 01:17:55 )
(Initialize)
G92 X0.000000 Y0.000000 Z0.000000

(Start form here)
G0 Z2.000000
G0 X20.497069 Y25.439215
G17
G0 Z-0.425000 F30.000000
G1 X20.497069 Y25.439215 F100.000000
G1 X20.496837 Y25.431837 F100.000000
G1 X20.496142 Y25.424488 F100.000000
G1 X20.494987 Y25.417198 F100.000000
G1 X20.493377 Y25.409994 F100.000000
G1 X20.491318 Y25.402906 F100.000000
G1 X20.488817 Y25.395960 F100.000000
G1 X20.485886 Y25.389186 F100.000000
G1 X20.482535 Y25.382609 F100.000000
G1 X20.478777 Y25.376255 F100.000000
G1 X20.474628 Y25.370150 F100.000000
G1 X20.470104 Y25.364318 F100.000000
G1 X20.465223 Y25.358781 F100.000000
G1 X20.460003 Y25.353561 F100.000000
G1 X20.454466 Y25.348680 F100.000000
G1 X20.448634 Y25.344156 F100.000000
G1 X20.442528 Y25.340006 F100.000000
G1 X20.436175 Y25.336249 F100.000000
G1 X20.429598 Y25.332898 F100.000000
G1 X20.422823 Y25.329966 F100.000000
G1 X20.415878 Y25.327466 F100.000000
G1 X20.408790 Y25.325406 F100.000000
G1 X20.401586 Y25.323796 F100.000000
G1 X20.394295 Y25.322642 F100.000000
G1 X20.386947 Y25.321947 F100.000000
G1 X20.379569 Y25.321715 F100.000000
G1 X20.372191 Y25.321947 F100.000000
G1 X20.364842 Y25.322642 F100.000000
G1 X20.357551 Y25.323796 F100.000000
G1 X20.350348 Y25.325406 F100.000000
G1 X20.343259 Y25.327466 F100.000000
G1 X20.336314 Y25.329966 F100.000000
G1 X20.329540 Y25.332898 F100.000000
G1 X20.322963 Y25.336249 F100.000000
G1 X20.316609 Y25.340006 F100.000000
G1 X20.310504 Y25.344156 F100.000000
G1 X20.304671 Y25.348680 F100.000000
G1 X20.299134 Y25.353561 F100.000000
G1 X20.293915 Y25.358781 F100.000000
G1 X20.289033 Y25.364318 F100.000000
G1 X20.284509 Y25.370150 F100.000000
G1 X20.280360 Y25.376255 F100.000000
G1 X20.276603 Y25.382609 F100.000000
G1 X20.273252 Y25.389186 F100.000000
G1 X20.270320 Y25.395960 F100.000000
G1 X20.267820 Y25.402906 F100.000000
G1 X20.265760 Y25.409994 F100.000000
G1 X20.264150 Y25.417198 F100.000000
G1 X20.262995 Y25.424488 F100.000000
G1 X20.262301 Y25.431837 F100.000000
G1 X20.262069 Y25.439215 F100.000000
G1 X20.262301 Y25.446593 F100.000000
G1 X20.262995 Y25.453942 F100.000000
G1 X20.264150 Y25.461232 F100.000000
G1 X20.265760 Y25.468436 F100.000000
G1 X20.267820 Y25.475524 F100.000000
G1 X20.270320 Y25.482470 F100.000000
G1 X20.273252 Y25.489244 F100.000000
G1 X20.276603 Y25.495821 F100.000000
G1 X20.280360 Y25.502175 F100.000000
G1 X20.284509 Y25.508280 F100.000000
G1 X20.289033 Y25.514112 F100.000000
G1 X20.293915 Y25.519649 F100.000000
G1 X20.299134 Y25.524869 F100.000000
G1 X20.304671 Y25.529750 F100.000000
G1 X20.310504 Y25.534274 F100.000000
G1 X20.316609 Y25.538424 F100.000000
G1 X20.322963 Y25.542181 F100.000000
G1 X20.329540 Y25.545532 F100.000000
G1 X20.336314 Y25.548464 F100.000000
G1 X20.343259 Y25.550964 F100.000000
G1 X20.350348 Y25.553024 F100.000000
G1 X20.357551 Y25.554634 F100.000000
G1 X20.364842 Y25.555788 F100.000000
G1 X20.372191 Y25.556483 F100.000000
G1 X20.379569 Y25.556715 F100.000000
G1 X20.386947 Y25.556483 F100.000000
G1 X20.394295 Y25.555788 F100.000000
G1 X20.401586 Y25.554634 F100.000000
G1 X20.408790 Y25.553024 F100.000000
G1 X20.415878 Y25.550964 F100.000000
G1 X20.422823 Y25.548464 F100.000000
G1 X20.429598 Y25.545532 F100.000000
G1 X20.436175 Y25.542181 F100.000000
G1 X20.442528 Y25.538424 F100.000000
G1 X20.448634 Y25.534274 F100.000000
G1 X20.454466 Y25.529750 F100.000000
G1 X20.460003 Y25.524869 F100.000000
G1 X20.465223 Y25.519649 F100.000000
G1 X20.470104 Y25.514112 F100.000000
G1 X20.474628 Y25.508280 F100.000000
G1 X20.478777 Y25.502175 F100.000000
G1 X20.482535 Y25.495821 F100.000000
G1 X20.485886 Y25.489244 F100.000000
G1 X20.488817 Y25.482470 F100.000000
G1 X20.491318 Y25.475524 F100.000000
G1 X20.493377 Y25.468436 F100.000000
G1 X20.494987 Y25.461232 F100.000000
G1 X20.496142 Y25.453942 F100.000000
G1 X20.496837 Y25.446593 F100.000000
G1 X20.497069 Y25.439215 F100.000000
G0 Z-0.850000 F30.000000
G1 X20.496837 Y25.431837 F100.000000
G1 X20.496142 Y25.424488 F100.000000
G1 X20.494987 Y25.417198 F100.000000
G1 X20.493377 Y25.409994 F100.000000
G1 X20.491318 Y25.402906 F100.000000
G1 X20.488817 Y25.395960 F100.000000
G1 X20.485886 Y25.389186 F100.000000
G1 X20.482535 Y25.382609 F100.000000
G1 X20.478777 Y25.376255 F100.000000
G1 X20.474628 Y25.370150 F100.000000
G1 X20.470104 Y25.364318 F100.000000
G1 X20.465223 Y25.358781 F100.000000
G1 X20.460003 Y25.353561 F100.000000
G1 X20.454466 Y25.348680 F100.000000
G1 X20.448634 Y25.344156 F100.000000
G1 X20.442528 Y25.340006 F100.000000
G1 X20.436175 Y25.336249 F100.000000
G1 X20.429598 Y25.332898 F100.000000
G1 X20.422823 Y25.329966 F100.000000
G1 X20.415878 Y25.327466 F100.000000
G1 X20.408790 Y25.325406 F100.000000
G1 X20.401586 Y25.323796 F100.000000
G1 X20.394295 Y25.322642 F100.000000
G1 X20.386947 Y25.321947 F100.000000
G1 X20.379569 Y25.321715 F100.000000
G1 X20.372191 Y25.321947 F100.000000
G1 X20.364842 Y25.322642 F100.000000
G1 X20.357551 Y25.323796 F100.000000
G1 X20.350348 Y25.325406 F100.000000
G1 X20.343259 Y25.327466 F100.000000
G1 X20.336314 Y25.329966 F100.000000
G1 X20.329540 Y25.332898 F100.000000
G1 X20.322963 Y25.336249 F100.000000
G1 X20.316609 Y25.340006 F100.000000
G1 X20.310504 Y25.344156 F100.000000
G1 X20.304671 Y25.348680 F100.000000
G1 X20.299134 Y25.353561 F100.000000
G1 X20.293915 Y25.358781 F100.000000
G1 X20.289033 Y25.364318 F100.000000
G1 X20.284509 Y25.370150 F100.000000
G1 X20.280360 Y25.376255 F100.000000
G1 X20.276603 Y25.382609 F100.000000
G1 X20.273252 Y25.389186 F100.000000
G1 X20.270320 Y25.395960 F100.000000
G1 X20.267820 Y25.402906 F100.000000
G1 X20.265760 Y25.409994 F100.000000
G1 X20.264150 Y25.417198 F100.000000
G1 X20.262995 Y25.424488 F100.000000
G1 X20.262301 Y25.431837 F100.000000
G1 X20.262069 Y25.439215 F100.000000
G1 X20.262301 Y25.446593 F100.000000
G1 X20.262995 Y25.453942 F100.000000
G1 X20.264150 Y25.461232 F100.000000
G1 X20.265760 Y25.468436 F100.000000
G1 X20.267820 Y25.475524 F100.000000
G1 X20.270320 Y25.482470 F100.000000
G1 X20.273252 Y25.489244 F100.000000
G1 X20.276603 Y25.495821 F100.000000
G1 X20.280360 Y25.502175 F100.000000
G1 X20.284509 Y25.508280 F100.000000
G1 X20.289033 Y25.514112 F100.000000
G1 X20.293915 Y25.519649 F100.000000
G1 X20.299134 Y25.524869 F100.000000
G1 X20.304671 Y25.529750 F100.000000
G1 X20.310504 Y25.534274 F100.000000
G1 X20.316609 Y25.538424 F100.000000
G1 X20.322963 Y25.542181 F100.000000
G1 X20.329540 Y25.545532 F100.000000
G1 X20.336314 Y25.548464 F100.000000
G1 X20.343259 Y25.550964 F100.000000
G1 X20.350348 Y25.553024 F100.000000
G1 X20.357551 Y25.554634 F100.000000
G1 X20.364842 Y25.555788 F100.000000
G1 X20.372191 Y25.556483 F100.000000
G1 X20.379569 Y25.556715 F100.000000
G1 X20.386947 Y25.556483 F100.000000
G1 X20.394295 Y25.555788 F100.000000
G1 X20.401586 Y25.554634 F100.000000
G1 X20.408790 Y25.553024 F100.000000
G1 X20.415878 Y25.550964 F100.000000
G1 X20.422823 Y25.548464 F100.000000
G1 X20.429598 Y25.545532 F100.000000
G1 X20.436175 Y25.542181 F100.000000
G1 X20.442528 Y25.538424 F100.000000
G1 X20.448634 Y25.534274 F100.000000
G1 X20.454466 Y25.529750 F100.000000
G1 X20.460003 Y25.524869 F100.000000
G1 X20.465223 Y25.519649 F100.000000
G1 X20.470104 Y25.514112 F100.000000
G1 X20.474628 Y25.508280 F100.000000
G1 X20.478777 Y25.502175 F100.000000
G1 X20.482535 Y25.495821 F100.000000
G1 X20.485886 Y25.489244 F100.000000
G1 X20.488817 Y25.482470 F100.000000
G1 X20.491318 Y25.475524 F100.000000
G1 X20.493377 Y25.468436 F100.000000
G1 X20.494987 Y25.461232 F100.000000
G1 X20.496142 Y25.453942 F100.000000
G1 X20.496837 Y25.446593 F100.000000
G1 X20.497069 Y25.439215 F100.000000
G0 Z-1.275000 F30.000000
G1 X20.496837 Y25.431837 F100.000000
G1 X20.496142 Y25.424488 F100.000000
G1 X20.494987 Y25.417198 F100.000000
G1 X20.493377 Y25.409994 F100.000000
G1 X20.491318 Y25.402906 F100.000000
G1 X20.488817 Y25.395960 F100.000000
G1 X20.485886 Y25.389186 F100.000000
G1 X20.482535 Y25.382609 F100.000000
G1 X20.478777 Y25.376255 F100.000000
G1 X20.474628 Y25.370150 F100.000000
G1 X20.470104 Y25.364318 F100.000000
G1 X20.465223 Y25.358781 F100.000000
G1 X20.460003 Y25.353561 F100.000000
G1 X20.454466 Y25.348680 F100.000000
G1 X20.448634 Y25.344156 F100.000000
G1 X20.442528 Y25.340006 F100.000000
G1 X20.436175 Y25.336249 F100.000000
G1 X20.429598 Y25.332898 F100.000000
G1 X20.422823 Y25.329966 F100.000000
G1 X20.415878 Y25.327466 F100.000000
G1 X20.408790 Y25.325406 F100.000000
G1 X20.401586 Y25.323796 F100.000000
G1 X20.394295 Y25.322642 F100.000000
G1 X20.386947 Y25.321947 F100.000000
G1 X20.379569 Y25.321715 F100.000000
G1 X20.372191 Y25.321947 F100.000000
G1 X20.364842 Y25.322642 F100.000000
G1 X20.357551 Y25.323796 F100.000000
G1 X20.350348 Y25.325406 F100.000000
G1 X20.343259 Y25.327466 F100.000000
G1 X20.336314 Y25.329966 F100.000000
G1 X20.329540 Y25.332898 F100.000000
G1 X20.322963 Y25.336249 F100.000000
G1 X20.316609 Y25.340006 F100.000000
G1 X20.310504 Y25.344156 F100.000000
G1 X20.304671 Y25.348680 F100.000000
G1 X20.299134 Y25.353561 F100.000000
G1 X20.293915 Y25.358781 F100.000000
G1 X20.289033 Y25.364318 F100.000000
G1 X20.284509 Y25.370150 F100.000000
G1 X20.280360 Y25.376255 F100.000000
G1 X20.276603 Y25.382609 F100.000000
G1 X20.273252 Y25.389186 F100.000000
G1 X20.270320 Y25.395960 F100.000000
G1 X20.267820 Y25.402906 F100.000000
G1 X20.265760 Y25.409994 F100.000000
G1 X20.264150 Y25.417198 F100.000000
G1 X20.262995 Y25.424488 F100.000000
G1 X20.262301 Y25.431837 F100.000000
G1 X20.262069 Y25.439215 F100.000000
G1 X20.262301 Y25.446593 F100.000000
G1 X20.262995 Y25.453942 F100.000000
G1 X20.264150 Y25.461232 F100.000000
G1 X20.265760 Y25.468436 F100.000000
G1 X20.267820 Y25.475524 F100.000000
G1 X20.270320 Y25.482470 F100.000000
G1 X20.273252 Y25.489244 F100.000000
G1 X20.276603 Y25.495821 F100.000000
G1 X20.280360 Y25.502175 F100.000000
G1 X20.284509 Y25.508280 F100.000000
G1 X20.289033 Y25.514112 F100.000000
G1 X20.293915 Y25.519649 F100.000000
G1 X20.299134 Y25.524869 F100.000000
G1 X20.304671 Y25.529750 F100.000000
G1 X20.310504 Y25.534274 F100.000000
G1 X20.316609 Y25.538424 F100.000000
G1 X20.322963 Y25.542181 F100.000000
G1 X20.329540 Y25.545532 F100.000000
G1 X20.336314 Y25.548464 F100.000000
G1 X20.343259 Y25.550964 F100.000000
G1 X20.350348 Y25.553024 F100.000000
G1 X20.357551 Y25.554634 F100.000000
G1 X20.364842 Y25.555788 F100.000000
G1 X20.372191 Y25.556483 F100.000000
G1 X20.379569 Y25.556715 F100.000000
G1 X20.386947 Y25.556483 F100.000000
G1 X20.394295 Y25.555788 F100.000000
G1 X20.401586 Y25.554634 F100.000000
G1 X20.408790 Y25.553024 F100.000000
G1 X20.415878 Y25.550964 F100.000000
G1 X20.422823 Y25.548464 F100.000000
G1 X20.429598 Y25.545532 F100.000000
G1 X20.436175 Y25.542181 F100.000000
G1 X20.442528 Y25.538424 F100.000000
G1 X20.448634 Y25.534274 F100.000000
G1 X20.454466 Y25.529750 F100.000000
G1 X20.460003 Y25.524869 F100.000000
G1 X20.465223 Y25.519649 F100.000000
G1 X20.470104 Y25.514112 F100.000000
G1 X20.474628 Y25.508280 F100.000000
G1 X20.478777 Y25.502175 F100.000000
G1 X20.482535 Y25.495821 F100.000000
G1 X20.485886 Y25.489244 F100.000000
G1 X20.488817 Y25.482470 F100.000000
G1 X20.491318 Y25.475524 F100.000000
G1 X20.493377 Y25.468436 F100.000000
G1 X20.494987 Y25.461232 F100.000000
G1 X20.496142 Y25.453942 F100.000000
G1 X20.496837 Y25.446593 F100.000000
G1 X20.497069 Y25.439215 F100.000000
G0 Z-1.700000 F30.000000
G1 X20.496837 Y25.431837 F100.000000
G1 X20.496142 Y25.424488 F100.000000
G1 X20.494987 Y25.417198 F100.000000
G1 X20.493377 Y25.409994 F100.000000
G1 X20.491318 Y25.402906 F100.000000
G1 X20.488817 Y25.395960 F100.000000
G1 X20.485886 Y25.389186 F100.000000
G1 X20.482535 Y25.382609 F100.000000
G1 X20.478777 Y25.376255 F100.000000
G1 X20.474628 Y25.370150 F100.000000
G1 X20.470104 Y25.364318 F100.000000
G1 X20.465223 Y25.358781 F100.000000
G1 X20.460003 Y25.353561 F100.000000
G1 X20.454466 Y25.348680 F100.000000
G1 X20.448634 Y25.344156 F100.000000
G1 X20.442528 Y25.340006 F100.000000
G1 X20.436175 Y25.336249 F100.000000
G1 X20.429598 Y25.332898 F100.000000
G1 X20.422823 Y25.329966 F100.000000
G1 X20.415878 Y25.327466 F100.000000
G1 X20.408790 Y25.325406 F100.000000
G1 X20.401586 Y25.323796 F100.000000
G1 X20.394295 Y25.322642 F100.000000
G1 X20.386947 Y25.321947 F100.000000
G1 X20.379569 Y25.321715 F100.000000
G1 X20.372191 Y25.321947 F100.000000
G1 X20.364842 Y25.322642 F100.000000
G1 X20.357551 Y25.323796 F100.000000
G1 X20.350348 Y25.325406 F100.000000
G1 X20.343259 Y25.327466 F100.000000
G1 X20.336314 Y25.329966 F100.000000
G1 X20.329540 Y25.332898 F100.000000
G1 X20.322963 Y25.336249 F100.000000
G1 X20.316609 Y25.340006 F100.000000
G1 X20.310504 Y25.344156 F100.000000
G1 X20.304671 Y25.348680 F100.000000
G1 X20.299134 Y25.353561 F100.000000
G1 X20.293915 Y25.358781 F100.000000
G1 X20.289033 Y25.364318 F100.000000
G1 X20.284509 Y25.370150 F100.000000
G1 X20.280360 Y25.376255 F100.000000
G1 X20.276603 Y25.382609 F100.000000
G1 X20.273252 Y25.389186 F100.000000
G1 X20.270320 Y25.395960 F100.000000
G1 X20.267820 Y25.402906 F100.000000
G1 X20.265760 Y25.409994 F100.000000
G1 X20.264150 Y25.417198 F100.000000
G1 X20.262995 Y25.424488 F100.000000
G1 X20.262301 Y25.431837 F100.000000
G1 X20.262069 Y25.439215 F100.000000
G1 X20.262301 Y25.446593 F100.000000
G1 X20.262995 Y25.453942 F100.000000
G1 X20.264150 Y25.461232 F100.000000
G1 X20.265760 Y25.468436 F100.000000
G1 X20.267820 Y25.475524 F100.000000
G1 X20.270320 Y25.482470 F100.000000
G1 X20.273252 Y25.489244 F100.000000
G1 X20.276603 Y25.495821 F100.000000
G1 X20.280360 Y25.502175 F100.000000
G1 X20.284509 Y25.508280 F100.000000
G1 X20.289033 Y25.514112 F100.000000
G1 X20.293915 Y25.519649 F100.000000
G1 X20.299134 Y25.524869 F100.000000
G1 X20.304671 Y25.529750 F100.000000
G1 X20.310504 Y25.534274 F100.000000
G1 X20.316609 Y25.538424 F100.000000
G1 X20.322963 Y25.542181 F100.000000
G1 X20.329540 Y25.545532 F100.000000
G1 X20.336314 Y25.548464 F100.000000
G1 X20.343259 Y25.550964 F100.000000
G1 X20.350348 Y25.553024 F100.000000
G1 X20.357551 Y25.554634 F100.000000
G1 X20.364842 Y25.555788 F100.000000
G1 X20.372191 Y25.556483 F100.000000
G1 X20.379569 Y25.556715 F100.000000
G1 X20.386947 Y25.556483 F100.000000
G1 X20.394295 Y25.555788 F100.000000
G1 X20.401586 Y25.554634 F100.000000
G1 X20.408790 Y25.553024 F100.000000
G1 X20.415878 Y25.550964 F100.000000
G1 X20.422823 Y25.548464 F100.000000
G1 X20.429598 Y25.545532 F100.000000
G1 X20.436175 Y25.542181 F100.000000
G1 X20.442528 Y25.538424 F100.000000
G1 X20.448634 Y25.534274 F100.000000
G1 X20.454466 Y25.529750 F100.000000
G1 X20.460003 Y25.524869 F100.000000
G1 X20.465223 Y25.519649 F100.000000
G1 X20.470104 Y25.514112 F100.000000
G1 X20.474628 Y25.508280 F100.000000
G1 X20.478777 Y25.502175 F100.000000
G1 X20.482535 Y25.495821 F100.000000
G1 X20.485886 Y25.489244 F100.000000
G1 X20.488817 Y25.482470 F100.000000
G1 X20.491318 Y25.475524 F100.000000
G1 X20.493377 Y25.468436 F100.000000
G1 X20.494987 Y25.461232 F100.000000
G1 X20.496142 Y25.453942 F100.000000
G1 X20.496837 Y25.446593 F100.000000
G1 X20.497069 Y25.439215 F100.000000
G0 Z2.000000
G0 X32.435069 Y15.025215
G17
G0 Z-0.425000 F30.000000
G1 X32.435069 Y15.025215 F100.000000
G1 X32.434837 Y15.017837 F100.000000
G1 X32.434142 Y15.010488 F100.000000
G1 X32.432987 Y15.003198 F100.000000
G1 X32.431377 Y14.995994 F100.000000
G1 X32.429318 Y14.988906 F100.000000
G1 X32.426817 Y14.981960 F100.000000
G1 X32.423886 Y14.975186 F100.000000
G1 X32.420535 Y14.968609 F100.000000
G1 X32.416777 Y14.962255 F100.000000
G1 X32.412628 Y14.956150 F100.000000
G1 X32.408104 Y14.950318 F100.000000
G1 X32.403223 Y14.944781 F100.000000
G1 X32.398003 Y14.939561 F100.000000
G1 X32.392466 Y14.934680 F100.000000
G1 X32.386634 Y14.930156 F100.000000
G1 X32.380528 Y14.926006 F100.000000
G1 X32.374175 Y14.922249 F100.000000
G1 X32.367598 Y14.918898 F100.000000
G1 X32.360823 Y14.915966 F100.000000
G1 X32.353878 Y14.913466 F100.000000
G1 X32.346790 Y14.911406 F100.000000
G1 X32.339586 Y14.909796 F100.000000
G1 X32.332295 Y14.908642 F100.000000
G1 X32.324947 Y14.907947 F100.000000
G1 X32.317569 Y14.907715 F100.000000
G1 X32.310191 Y14.907947 F100.000000
G1 X32.302842 Y14.908642 F100.000000
G1 X32.295551 Y14.909796 F100.000000
G1 X32.288348 Y14.911406 F100.000000
G1 X32.281259 Y14.913466 F100.000000
G1 X32.274314 Y14.915966 F100.000000
G1 X32.267540 Y14.918898 F100.000000
G1 X32.260963 Y14.922249 F100.000000
G1 X32.254609 Y14.926006 F100.000000
G1 X32.248504 Y14.930156 F100.000000
G1 X32.242671 Y14.934680 F100.000000
G1 X32.237134 Y14.939561 F100.000000
G1 X32.231915 Y14.944781 F100.000000
G1 X32.227033 Y14.950318 F100.000000
G1 X32.222509 Y14.956150 F100.000000
G1 X32.218360 Y14.962255 F100.000000
G1 X32.214603 Y14.968609 F100.000000
G1 X32.211252 Y14.975186 F100.000000
G1 X32.208320 Y14.981960 F100.000000
G1 X32.205820 Y14.988906 F100.000000
G1 X32.203760 Y14.995994 F100.000000
G1 X32.202150 Y15.003198 F100.000000
G1 X32.200995 Y15.010488 F100.000000
G1 X32.200301 Y15.017837 F100.000000
G1 X32.200069 Y15.025215 F100.000000
G1 X32.200301 Y15.032593 F100.000000
G1 X32.200995 Y15.039942 F100.000000
G1 X32.202150 Y15.047232 F100.000000
G1 X32.203760 Y15.054436 F100.000000
G1 X32.205820 Y15.061524 F100.000000
G1 X32.208320 Y15.068470 F100.000000
G1 X32.211252 Y15.075244 F100.000000
G1 X32.214603 Y15.081821 F100.000000
G1 X32.218360 Y15.088175 F100.000000
G1 X32.222509 Y15.094280 F100.000000
G1 X32.227033 Y15.100112 F100.000000
G1 X32.231915 Y15.105649 F100.000000
G1 X32.237134 Y15.110869 F100.000000
G1 X32.242671 Y15.115750 F100.000000
G1 X32.248504 Y15.120274 F100.000000
G1 X32.254609 Y15.124424 F100.000000
G1 X32.260963 Y15.128181 F100.000000
G1 X32.267540 Y15.131532 F100.000000
G1 X32.274314 Y15.134464 F100.000000
G1 X32.281259 Y15.136964 F100.000000
G1 X32.288348 Y15.139024 F100.000000
G1 X32.295551 Y15.140634 F100.000000
G1 X32.302842 Y15.141788 F100.000000
G1 X32.310191 Y15.142483 F100.000000
G1 X32.317569 Y15.142715 F100.000000
G1 X32.324947 Y15.142483 F100.000000
G1 X32.332295 Y15.141788 F100.000000
G1 X32.339586 Y15.140634 F100.000000
G1 X32.346790 Y15.139024 F100.000000
G1 X32.353878 Y15.136964 F100.000000
G1 X32.360823 Y15.134464 F100.000000
G1 X32.367598 Y15.131532 F100.000000
G1 X32.374175 Y15.128181 F100.000000
G1 X32.380528 Y15.124424 F100.000000
G1 X32.386634 Y15.120274 F100.000000
G1 X32.392466 Y15.115750 F100.000000
G1 X32.398003 Y15.110869 F100.000000
G1 X32.403223 Y15.105649 F100.000000
G1 X32.408104 Y15.100112 F100.000000
G1 X32.412628 Y15.094280 F100.000000
G1 X32.416777 Y15.088175 F100.000000
G1 X32.420535 Y15.081821 F100.000000
G1 X32.423886 Y15.075244 F100.000000
G1 X32.426817 Y15.068470 F100.000000
G1 X32.429318 Y15.061524 F100.000000
G1 X32.431377 Y15.054436 F100.000000
G1 X32.432987 Y15.047232 F100.000000
G1 X32.434142 Y15.039942 F100.000000
G1 X32.434837 Y15.032593 F100.000000
G1 X32.435069 Y15.025215 F100.000000
G0 Z-0.850000 F30.000000
G1 X32.434837 Y15.017837 F100.000000
G1 X32.434142 Y15.010488 F100.000000
G1 X32.432987 Y15.003198 F100.000000
G1 X32.431377 Y14.995994 F100.000000
G1 X32.429318 Y14.988906 F100.000000
G1 X32.426817 Y14.981960 F100.000000
G1 X32.423886 Y14.975186 F100.000000
G1 X32.420535 Y14.968609 F100.000000
G1 X32.416777 Y14.962255 F100.000000
G1 X32.412628 Y14.956150 F100.000000
G1 X32.408104 Y14.950318 F100.000000
G1 X32.403223 Y14.944781 F100.000000
G1 X32.398003 Y14.939561 F100.000000
G1 X32.392466 Y14.934680 F100.000000
G1 X32.386634 Y14.930156 F100.000000
G1 X32.380528 Y14.926006 F100.000000
G1 X32.374175 Y14.922249 F100.000000
G1 X32.367598 Y14.918898 F100.000000
G1 X32.360823 Y14.915966 F100.000000
G1 X32.353878 Y14.913466 F100.000000
G1 X32.346790 Y14.911406 F100.000000
G1 X32.339586 Y14.909796 F100.000000
G1 X32.332295 Y14.908642 F100.000000
G1 X32.324947 Y14.907947 F100.000000
G1 X32.317569 Y14.907715 F100.000000
G1 X32.310191 Y14.907947 F100.000000
G1 X32.302842 Y14.908642 F100.000000
G1 X32.295551 Y14.909796 F100.000000
G1 X32.288348 Y14.911406 F100.000000
G1 X32.281259 Y14.913466 F100.000000
G1 X32.274314 Y14.915966 F100.000000
G1 X32.267540 Y14.918898 F100.000000
G1 X32.260963 Y14.922249 F100.000000
G1 X32.254609 Y14.926006 F100.000000
G1 X32.248504 Y14.930156 F100.000000
G1 X32.242671 Y14.934680 F100.000000
G1 X32.237134 Y14.939561 F100.000000
G1 X32.231915 Y14.944781 F100.000000
G1 X32.227033 Y14.950318 F100.000000
G1 X32.222509 Y14.956150 F100.000000
G1 X32.218360 Y14.962255 F100.000000
G1 X32.214603 Y14.968609 F100.000000
G1 X32.211252 Y14.975186 F100.000000
G1 X32.208320 Y14.981960 F100.000000
G1 X32.205820 Y14.988906 F100.000000
G1 X32.203760 Y14.995994 F100.000000
G1 X32.202150 Y15.003198 F100.000000
G1 X32.200995 Y15.010488 F100.000000
G1 X32.200301 Y15.017837 F100.000000
G1 X32.200069 Y15.025215 F100.000000
G1 X32.200301 Y15.032593 F100.000000
G1 X32.200995 Y15.039942 F100.000000
G1 X32.202150 Y15.047232 F100.000000
G1 X32.203760 Y15.054436 F100.000000
G1 X32.205820 Y15.061524 F100.000000
G1 X32.208320 Y15.068470 F100.000000
G1 X32.211252 Y15.075244 F100.000000
G1 X32.214603 Y15.081821 F100.000000
G1 X32.218360 Y15.088175 F100.000000
G1 X32.222509 Y15.094280 F100.000000
G1 X32.227033 Y15.100112 F100.000000
G1 X32.231915 Y15.105649 F100.000000
G1 X32.237134 Y15.110869 F100.000000
G1 X32.242671 Y15.115750 F100.000000
G1 X32.248504 Y15.120274 F100.000000
G1 X32.254609 Y15.124424 F100.000000
G1 X32.260963 Y15.128181 F100.000000
G1 X32.267540 Y15.131532 F100.000000
G1 X32.274314 Y15.134464 F100.000000
G1 X32.281259 Y15.136964 F100.000000
G1 X32.288348 Y15.139024 F100.000000
G1 X32.295551 Y15.140634 F100.000000
G1 X32.302842 Y15.141788 F100.000000
G1 X32.310191 Y15.142483 F100.000000
G1 X32.317569 Y15.142715 F100.000000
G1 X32.324947 Y15.142483 F100.000000
G1 X32.332295 Y15.141788 F100.000000
G1 X32.339586 Y15.140634 F100.000000
G1 X32.346790 Y15.139024 F100.000000
G1 X32.353878 Y15.136964 F100.000000
G1 X32.360823 Y15.134464 F100.000000
G1 X32.367598 Y15.131532 F100.000000
G1 X32.374175 Y15.128181 F100.000000
G1 X32.380528 Y15.124424 F100.000000
G1 X32.386634 Y15.120274 F100.000000
G1 X32.392466 Y15.115750 F100.000000
G1 X32.398003 Y15.110869 F100.000000
G1 X32.403223 Y15.105649 F100.000000
G1 X32.408104 Y15.100112 F100.000000
G1 X32.412628 Y15.094280 F100.000000
G1 X32.416777 Y15.088175 F100.000000
G1 X32.420535 Y15.081821 F100.000000
G1 X32.423886 Y15.075244 F100.000000
G1 X32.426817 Y15.068470 F100.000000
G1 X32.429318 Y15.061524 F100.000000
G1 X32.431377 Y15.054436 F100.000000
G1 X32.432987 Y15.047232 F100.000000
G1 X32.434142 Y15.039942 F100.000000
G1 X32.434837 Y15.032593 F100.000000
G1 X32.435069 Y15.025215 F100.000000
G0 Z-1.275000 F30.000000
G1 X32.434837 Y15.017837 F100.000000
G1 X32.434142 Y15.010488 F100.000000
G1 X32.432987 Y15.003198 F100.000000
G1 X32.431377 Y14.995994 F100.000000
G1 X32.429318 Y14.988906 F100.000000
G1 X32.426817 Y14.981960 F100.000000
G1 X32.423886 Y14.975186 F100.000000
G1 X32.420535 Y14.968609 F100.000000
G1 X32.416777 Y14.962255 F100.000000
G1 X32.412628 Y14.956150 F100.000000
G1 X32.408104 Y14.950318 F100.000000
G1 X32.403223 Y14.944781 F100.000000
G1 X32.398003 Y14.939561 F100.000000
G1 X32.392466 Y14.934680 F100.000000
G1 X32.386634 Y14.930156 F100.000000
G1 X32.380528 Y14.926006 F100.000000
G1 X32.374175 Y14.922249 F100.000000
G1 X32.367598 Y14.918898 F100.000000
G1 X32.360823 Y14.915966 F100.000000
G1 X32.353878 Y14.913466 F100.000000
G1 X32.346790 Y14.911406 F100.000000
G1 X32.339586 Y14.909796 F100.000000
G1 X32.332295 Y14.908642 F100.000000
G1 X32.324947 Y14.907947 F100.000000
G1 X32.317569 Y14.907715 F100.000000
G1 X32.310191 Y14.907947 F100.000000
G1 X32.302842 Y14.908642 F100.000000
G1 X32.295551 Y14.909796 F100.000000
G1 X32.288348 Y14.911406 F100.000000
G1 X32.281259 Y14.913466 F100.000000
G1 X32.274314 Y14.915966 F100.000000
G1 X32.267540 Y14.918898 F100.000000
G1 X32.260963 Y14.922249 F100.000000
G1 X32.254609 Y14.926006 F100.000000
G1 X32.248504 Y14.930156 F100.000000
G1 X32.242671 Y14.934680 F100.000000
G1 X32.237134 Y14.939561 F100.000000
G1 X32.231915 Y14.944781 F100.000000
G1 X32.227033 Y14.950318 F100.000000
G1 X32.222509 Y14.956150 F100.000000
G1 X32.218360 Y14.962255 F100.000000
G1 X32.214603 Y14.968609 F100.000000
G1 X32.211252 Y14.975186 F100.000000
G1 X32.208320 Y14.981960 F100.000000
G1 X32.205820 Y14.988906 F100.000000
G1 X32.203760 Y14.995994 F100.000000
G1 X32.202150 Y15.003198 F100.000000
G1 X32.200995 Y15.010488 F100.000000
G1 X32.200301 Y15.017837 F100.000000
G1 X32.200069 Y15.025215 F100.000000
G1 X32.200301 Y15.032593 F100.000000
G1 X32.200995 Y15.039942 F100.000000
G1 X32.202150 Y15.047232 F100.000000
G1 X32.203760 Y15.054436 F100.000000
G1 X32.205820 Y15.061524 F100.000000
G1 X32.208320 Y15.068470 F100.000000
G1 X32.211252 Y15.075244 F100.000000
G1 X32.214603 Y15.081821 F100.000000
G1 X32.218360 Y15.088175 F100.000000
G1 X32.222509 Y15.094280 F100.000000
G1 X32.227033 Y15.100112 F100.000000
G1 X32.231915 Y15.105649 F100.000000
G1 X32.237134 Y15.110869 F100.000000
G1 X32.242671 Y15.115750 F100.000000
G1 X32.248504 Y15.120274 F100.000000
G1 X32.254609 Y15.124424 F100.000000
G1 X32.260963 Y15.128181 F100.000000
G1 X32.267540 Y15.131532 F100.000000
G1 X32.274314 Y15.134464 F100.000000
G1 X32.281259 Y15.136964 F100.000000
G1 X32.288348 Y15.139024 F100.000000
G1 X32.295551 Y15.140634 F100.000000
G1 X32.302842 Y15.141788 F100.000000
G1 X32.310191 Y15.142483 F100.000000
G1 X32.317569 Y15.142715 F100.000000
G1 X32.324947 Y15.142483 F100.000000
G1 X32.332295 Y15.141788 F100.000000
G1 X32.339586 Y15.140634 F100.000000
G1 X32.346790 Y15.139024 F100.000000
G1 X32.353878 Y15.136964 F100.000000
G1 X32.360823 Y15.134464 F100.000000
G1 X32.367598 Y15.131532 F100.000000
G1 X32.374175 Y15.128181 F100.000000
G1 X32.380528 Y15.124424 F100.000000
G1 X32.386634 Y15.120274 F100.000000
G1 X32.392466 Y15.115750 F100.000000
G1 X32.398003 Y15.110869 F100.000000
G1 X32.403223 Y15.105649 F100.000000
G1 X32.408104 Y15.100112 F100.000000
G1 X32.412628 Y15.094280 F100.000000
G1 X32.416777 Y15.088175 F100.000000
G1 X32.420535 Y15.081821 F100.000000
G1 X32.423886 Y15.075244 F100.000000
G1 X32.426817 Y15.068470 F100.000000
G1 X32.429318 Y15.061524 F100.000000
G1 X32.431377 Y15.054436 F100.000000
G1 X32.432987 Y15.047232 F100.000000
G1 X32.434142 Y15.039942 F100.000000
G1 X32.434837 Y15.032593 F100.000000
G1 X32.435069 Y15.025215 F100.000000
G0 Z-1.700000 F30.000000
G1 X32.434837 Y15.017837 F100.000000
G1 X32.434142 Y15.010488 F100.000000
G1 X32.432987 Y15.003198 F100.000000
G1 X32.431377 Y14.995994 F100.000000
G1 X32.429318 Y14.988906 F100.000000
G1 X32.426817 Y14.981960 F100.000000
G1 X32.423886 Y14.975186 F100.000000
G1 X32.420535 Y14.968609 F100.000000
G1 X32.416777 Y14.962255 F100.000000
G1 X32.412628 Y14.956150 F100.000000
G1 X32.408104 Y14.950318 F100.000000
G1 X32.403223 Y14.944781 F100.000000
G1 X32.398003 Y14.939561 F100.000000
G1 X32.392466 Y14.934680 F100.000000
G1 X32.386634 Y14.930156 F100.000000
G1 X32.380528 Y14.926006 F100.000000
G1 X32.374175 Y14.922249 F100.000000
G1 X32.367598 Y14.918898 F100.000000
G1 X32.360823 Y14.915966 F100.000000
G1 X32.353878 Y14.913466 F100.000000
G1 X32.346790 Y14.911406 F100.000000
G1 X32.339586 Y14.909796 F100.000000
G1 X32.332295 Y14.908642 F100.000000
G1 X32.324947 Y14.907947 F100.000000
G1 X32.317569 Y14.907715 F100.000000
G1 X32.310191 Y14.907947 F100.000000
G1 X32.302842 Y14.908642 F100.000000
G1 X32.295551 Y14.909796 F100.000000
G1 X32.288348 Y14.911406 F100.000000
G1 X32.281259 Y14.913466 F100.000000
G1 X32.274314 Y14.915966 F100.000000
G1 X32.267540 Y14.918898 F100.000000
G1 X32.260963 Y14.922249 F100.000000
G1 X32.254609 Y14.926006 F100.000000
G1 X32.248504 Y14.930156 F100.000000
G1 X32.242671 Y14.934680 F100.000000
G1 X32.237134 Y14.939561 F100.000000
G1 X32.231915 Y14.944781 F100.000000
G1 X32.227033 Y14.950318 F100.000000
G1 X32.222509 Y14.956150 F100.000000
G1 X32.218360 Y14.962255 F100.000000
G1 X32.214603 Y14.968609 F100.000000
G1 X32.211252 Y14.975186 F100.000000
G1 X32.208320 Y14.981960 F100.000000
G1 X32.205820 Y14.988906 F100.000000
G1 X32.203760 Y14.995994 F100.000000
G1 X32.202150 Y15.003198 F100.000000
G1 X32.200995 Y15.010488 F100.000000
G1 X32.200301 Y15.017837 F100.000000
G1 X32.200069 Y15.025215 F100.000000
G1 X32.200301 Y15.032593 F100.000000
G1 X32.200995 Y15.039942 F100.000000
G1 X32.202150 Y15.047232 F100.000000
G1 X32.203760 Y15.054436 F100.000000
G1 X32.205820 Y15.061524 F100.000000
G1 X32.208320 Y15.068470 F100.000000
G1 X32.211252 Y15.075244 F100.000000
G1 X32.214603 Y15.081821 F100.000000
G1 X32.218360 Y15.088175 F100.000000
G1 X32.222509 Y15.094280 F100.000000
G1 X32.227033 Y15.100112 F100.000000
G1 X32.231915 Y15.105649 F100.000000
G1 X32.237134 Y15.110869 F100.000000
G1 X32.242671 Y15.115750 F100.000000
G1 X32.248504 Y15.120274 F100.000000
G1 X32.254609 Y15.124424 F100.000000
G1 X32.260963 Y15.128181 F100.000000
G1 X32.267540 Y15.131532 F100.000000
G1 X32.274314 Y15.134464 F100.000000
G1 X32.281259 Y15.136964 F100.000000
G1 X32.288348 Y15.139024 F100.000000
G1 X32.295551 Y15.140634 F100.000000
G1 X32.302842 Y15.141788 F100.000000
G1 X32.310191 Y15.142483 F100.000000
G1 X32.317569 Y15.142715 F100.000000
G1 X32.324947 Y15.142483 F100.000000
G1 X32.332295 Y15.141788 F100.000000
G1 X32.339586 Y15.140634 F100.000000
G1 X32.346790 Y15.139024 F100.000000
G1 X32.353878 Y15.136964 F100.000000
G1 X32.360823 Y15.134464 F100.000000
G1 X32.367598 Y15.131532 F100.000000
G1 X32.374175 Y15.128181 F100.000000
G1 X32.380528 Y15.124424 F100.000000
G1 X32.386634 Y15.120274 F100.000000
G1 X32.392466 Y15.115750 F100.000000
G1 X32.398003 Y15.110869 F100.000000
G1 X32.403223 Y15.105649 F100.000000
G1 X32.408104 Y15.100112 F100.000000
G1 X32.412628 Y15.094280 F100.000000
G1 X32.416777 Y15.088175 F100.000000
G1 X32.420535 Y15.081821 F100.000000
G1 X32.423886 Y15.075244 F100.000000
G1 X32.426817 Y15.068470 F100.000000
G1 X32.429318 Y15.061524 F100.000000
G1 X32.431377 Y15.054436 F100.000000
G1 X32.432987 Y15.047232 F100.000000
G1 X32.434142 Y15.039942 F100.000000
G1 X32.434837 Y15.032593 F100.000000
G1 X32.435069 Y15.025215 F100.000000
G0 Z2.000000
G0 X54.279069 Y21.883215
G17
G0 Z-0.425000 F30.000000
G1 X54.279069 Y21.883215 F100.000000
G1 X54.278837 Y21.875837 F100.000000
G1 X54.278142 Y21.868488 F100.000000
G1 X54.276987 Y21.861198 F100.000000
G1 X54.275377 Y21.853994 F100.000000
G1 X54.273318 Y21.846906 F100.000000
G1 X54.270817 Y21.839960 F100.000000
G1 X54.267886 Y21.833186 F100.000000
G1 X54.264535 Y21.826609 F100.000000
G1 X54.260777 Y21.820255 F100.000000
G1 X54.256628 Y21.814150 F100.000000
G1 X54.252104 Y21.808318 F100.000000
G1 X54.247223 Y21.802781 F100.000000
G1 X54.242003 Y21.797561 F100.000000
G1 X54.236466 Y21.792680 F100.000000
G1 X54.230634 Y21.788156 F100.000000
G1 X54.224528 Y21.784006 F100.000000
G1 X54.218175 Y21.780249 F100.000000
G1 X54.211598 Y21.776898 F100.000000
G1 X54.204823 Y21.773966 F100.000000
G1 X54.197878 Y21.771466 F100.000000
G1 X54.190790 Y21.769406 F100.000000
G1 X54.183586 Y21.767796 F100.000000
G1 X54.176295 Y21.766642 F100.000000
G1 X54.168947 Y21.765947 F100.000000
G1 X54.161569 Y21.765715 F100.000000
G1 X54.154191 Y21.765947 F100.000000
G1 X54.146842 Y21.766642 F100.000000
G1 X54.139551 Y21.767796 F100.000000
G1 X54.132348 Y21.769406 F100.000000
G1 X54.125259 Y21.771466 F100.000000
G1 X54.118314 Y21.773966 F100.000000
G1 X54.111540 Y21.776898 F100.000000
G1 X54.104963 Y21.780249 F100.000000
G1 X54.098609 Y21.784006 F100.000000
G1 X54.092504 Y21.788156 F100.000000
G1 X54.086671 Y21.792680 F100.000000
G1 X54.081134 Y21.797561 F100.000000
G1 X54.075915 Y21.802781 F100.000000
G1 X54.071033 Y21.808318 F100.000000
G1 X54.066509 Y21.814150 F100.000000
G1 X54.062360 Y21.820255 F100.000000
G1 X54.058603 Y21.826609 F100.000000
G1 X54.055252 Y21.833186 F100.000000
G1 X54.052320 Y21.839960 F100.000000
G1 X54.049820 Y21.846906 F100.000000
G1 X54.047760 Y21.853994 F100.000000
G1 X54.046150 Y21.861198 F100.000000
G1 X54.044995 Y21.868488 F100.000000
G1 X54.044301 Y21.875837 F100.000000
G1 X54.044069 Y21.883215 F100.000000
G1 X54.044301 Y21.890593 F100.000000
G1 X54.044995 Y21.897942 F100.000000
G1 X54.046150 Y21.905232 F100.000000
G1 X54.047760 Y21.912436 F100.000000
G1 X54.049820 Y21.919524 F100.000000
G1 X54.052320 Y21.926470 F100.000000
G1 X54.055252 Y21.933244 F100.000000
G1 X54.058603 Y21.939821 F100.000000
G1 X54.062360 Y21.946175 F100.000000
G1 X54.066509 Y21.952280 F100.000000
G1 X54.071033 Y21.958112 F100.000000
G1 X54.075915 Y21.963649 F100.000000
G1 X54.081134 Y21.968869 F100.000000
G1 X54.086671 Y21.973750 F100.000000
G1 X54.092504 Y21.978274 F100.000000
G1 X54.098609 Y21.982424 F100.000000
G1 X54.104963 Y21.986181 F100.000000
G1 X54.111540 Y21.989532 F100.000000
G1 X54.118314 Y21.992464 F100.000000
G1 X54.125259 Y21.994964 F100.000000
G1 X54.132348 Y21.997024 F100.000000
G1 X54.139551 Y21.998634 F100.000000
G1 X54.146842 Y21.999788 F100.000000
G1 X54.154191 Y22.000483 F100.000000
G1 X54.161569 Y22.000715 F100.000000
G1 X54.168947 Y22.000483 F100.000000
G1 X54.176295 Y21.999788 F100.000000
G1 X54.183586 Y21.998634 F100.000000
G1 X54.190790 Y21.997024 F100.000000
G1 X54.197878 Y21.994964 F100.000000
G1 X54.204823 Y21.992464 F100.000000
G1 X54.211598 Y21.989532 F100.000000
G1 X54.218175 Y21.986181 F100.000000
G1 X54.224528 Y21.982424 F100.000000
G1 X54.230634 Y21.978274 F100.000000
G1 X54.236466 Y21.973750 F100.000000
G1 X54.242003 Y21.968869 F100.000000
G1 X54.247223 Y21.963649 F100.000000
G1 X54.252104 Y21.958112 F100.000000
G1 X54.256628 Y21.952280 F100.000000
G1 X54.260777 Y21.946175 F100.000000
G1 X54.264535 Y21.939821 F100.000000
G1 X54.267886 Y21.933244 F100.000000
G1 X54.270817 Y21.926470 F100.000000
G1 X54.273318 Y21.919524 F100.000000
G1 X54.275377 Y21.912436 F100.000000
G1 X54.276987 Y21.905232 F100.000000
G1 X54.278142 Y21.897942 F100.000000
G1 X54.278837 Y21.890593 F100.000000
G1 X54.279069 Y21.883215 F100.000000
G0 Z-0.850000 F30.000000
G1 X54.278837 Y21.875837 F100.000000
G1 X54.278142 Y21.868488 F100.000000
G1 X54.276987 Y21.861198 F100.000000
G1 X54.275377 Y21.853994 F100.000000
G1 X54.273318 Y21.846906 F100.000000
G1 X54.270817 Y21.839960 F100.000000
G1 X54.267886 Y21.833186 F100.000000
G1 X54.264535 Y21.826609 F100.000000
G1 X54.260777 Y21.820255 F100.000000
G1 X54.256628 Y21.814150 F100.000000
G1 X54.252104 Y21.808318 F100.000000
G1 X54.247223 Y21.802781 F100.000000
G1 X54.242003 Y21.797561 F100.000000
G1 X54.236466 Y21.792680 F100.000000
G1 X54.230634 Y21.788156 F100.000000
G1 X54.224528 Y21.784006 F100.000000
G1 X54.218175 Y21.780249 F100.000000
G1 X54.211598 Y21.776898 F100.000000
G1 X54.204823 Y21.773966 F100.000000
G1 X54.197878 Y21.771466 F100.000000
G1 X54.190790 Y21.769406 F100.000000
G1 X54.183586 Y21.767796 F100.000000
G1 X54.176295 Y21.766642 F100.000000
G1 X54.168947 Y21.765947 F100.000000
G1 X54.161569 Y21.765715 F100.000000
G1 X54.154191 Y21.765947 F100.000000
G1 X54.146842 Y21.766642 F100.000000
G1 X54.139551 Y21.767796 F100.000000
G1 X54.132348 Y21.769406 F100.000000
G1 X54.125259 Y21.771466 F100.000000
G1 X54.118314 Y21.773966 F100.000000
G1 X54.111540 Y21.776898 F100.000000
G1 X54.104963 Y21.780249 F100.000000
G1 X54.098609 Y21.784006 F100.000000
G1 X54.092504 Y21.788156 F100.000000
G1 X54.086671 Y21.792680 F100.000000
G1 X54.081134 Y21.797561 F100.000000
G1 X54.075915 Y21.802781 F100.000000
G1 X54.071033 Y21.808318 F100.000000
G1 X54.066509 Y21.814150 F100.000000
G1 X54.062360 Y21.820255 F100.000000
G1 X54.058603 Y21.826609 F100.000000
G1 X54.055252 Y21.833186 F100.000000
G1 X54.052320 Y21.839960 F100.000000
G1 X54.049820 Y21.846906 F100.000000
G1 X54.047760 Y21.853994 F100.000000
G1 X54.046150 Y21.861198 F100.000000
G1 X54.044995 Y21.868488 F100.000000
G1 X54.044301 Y21.875837 F100.000000
G1 X54.044069 Y21.883215 F100.000000
G1 X54.044301 Y21.890593 F100.000000
G1 X54.044995 Y21.897942 F100.000000
G1 X54.046150 Y21.905232 F100.000000
G1 X54.047760 Y21.912436 F100.000000
G1 X54.049820 Y21.919524 F100.000000
G1 X54.052320 Y21.926470 F100.000000
G1 X54.055252 Y21.933244 F100.000000
G1 X54.058603 Y21.939821 F100.000000
G1 X54.062360 Y21.946175 F100.000000
G1 X54.066509 Y21.952280 F100.000000
G1 X54.071033 Y21.958112 F100.000000
G1 X54.075915 Y21.963649 F100.000000
G1 X54.081134 Y21.968869 F100.000000
G1 X54.086671 Y21.973750 F100.000000
G1 X54.092504 Y21.978274 F100.000000
G1 X54.098609 Y21.982424 F100.000000
G1 X54.104963 Y21.986181 F100.000000
G1 X54.111540 Y21.989532 F100.000000
G1 X54.118314 Y21.992464 F100.000000
G1 X54.125259 Y21.994964 F100.000000
G1 X54.132348 Y21.997024 F100.000000
G1 X54.139551 Y21.998634 F100.000000
G1 X54.146842 Y21.999788 F100.000000
G1 X54.154191 Y22.000483 F100.000000
G1 X54.161569 Y22.000715 F100.000000
G1 X54.168947 Y22.000483 F100.000000
G1 X54.176295 Y21.999788 F100.000000
G1 X54.183586 Y21.998634 F100.000000
G1 X54.190790 Y21.997024 F100.000000
G1 X54.197878 Y21.994964 F100.000000
G1 X54.204823 Y21.992464 F100.000000
G1 X54.211598 Y21.989532 F100.000000
G1 X54.218175 Y21.986181 F100.000000
G1 X54.224528 Y21.982424 F100.000000
G1 X54.230634 Y21.978274 F100.000000
G1 X54.236466 Y21.973750 F100.000000
G1 X54.242003 Y21.968869 F100.000000
G1 X54.247223 Y21.963649 F100.000000
G1 X54.252104 Y21.958112 F100.000000
G1 X54.256628 Y21.952280 F100.000000
G1 X54.260777 Y21.946175 F100.000000
G1 X54.264535 Y21.939821 F100.000000
G1 X54.267886 Y21.933244 F100.000000
G1 X54.270817 Y21.926470 F100.000000
G1 X54.273318 Y21.919524 F100.000000
G1 X54.275377 Y21.912436 F100.000000
G1 X54.276987 Y21.905232 F100.000000
G1 X54.278142 Y21.897942 F100.000000
G1 X54.278837 Y21.890593 F100.000000
G1 X54.279069 Y21.883215 F100.000000
G0 Z-1.275000 F30.000000
G1 X54.278837 Y21.875837 F100.000000
G1 X54.278142 Y21.868488 F100.000000
G1 X54.276987 Y21.861198 F100.000000
G1 X54.275377 Y21.853994 F100.000000
G1 X54.273318 Y21.846906 F100.000000
G1 X54.270817 Y21.839960 F100.000000
G1 X54.267886 Y21.833186 F100.000000
G1 X54.264535 Y21.826609 F100.000000
G1 X54.260777 Y21.820255 F100.000000
G1 X54.256628 Y21.814150 F100.000000
G1 X54.252104 Y21.808318 F100.000000
G1 X54.247223 Y21.802781 F100.000000
G1 X54.242003 Y21.797561 F100.000000
G1 X54.236466 Y21.792680 F100.000000
G1 X54.230634 Y21.788156 F100.000000
G1 X54.224528 Y21.784006 F100.000000
G1 X54.218175 Y21.780249 F100.000000
G1 X54.211598 Y21.776898 F100.000000
G1 X54.204823 Y21.773966 F100.000000
G1 X54.197878 Y21.771466 F100.000000
G1 X54.190790 Y21.769406 F100.000000
G1 X54.183586 Y21.767796 F100.000000
G1 X54.176295 Y21.766642 F100.000000
G1 X54.168947 Y21.765947 F100.000000
G1 X54.161569 Y21.765715 F100.000000
G1 X54.154191 Y21.765947 F100.000000
G1 X54.146842 Y21.766642 F100.000000
G1 X54.139551 Y21.767796 F100.000000
G1 X54.132348 Y21.769406 F100.000000
G1 X54.125259 Y21.771466 F100.000000
G1 X54.118314 Y21.773966 F100.000000
G1 X54.111540 Y21.776898 F100.000000
G1 X54.104963 Y21.780249 F100.000000
G1 X54.098609 Y21.784006 F100.000000
G1 X54.092504 Y21.788156 F100.000000
G1 X54.086671 Y21.792680 F100.000000
G1 X54.081134 Y21.797561 F100.000000
G1 X54.075915 Y21.802781 F100.000000
G1 X54.071033 Y21.808318 F100.000000
G1 X54.066509 Y21.814150 F100.000000
G1 X54.062360 Y21.820255 F100.000000
G1 X54.058603 Y21.826609 F100.000000
G1 X54.055252 Y21.833186 F100.000000
G1 X54.052320 Y21.839960 F100.000000
G1 X54.049820 Y21.846906 F100.000000
G1 X54.047760 Y21.853994 F100.000000
G1 X54.046150 Y21.861198 F100.000000
G1 X54.044995 Y21.868488 F100.000000
G1 X54.044301 Y21.875837 F100.000000
G1 X54.044069 Y21.883215 F100.000000
G1 X54.044301 Y21.890593 F100.000000
G1 X54.044995 Y21.897942 F100.000000
G1 X54.046150 Y21.905232 F100.000000
G1 X54.047760 Y21.912436 F100.000000
G1 X54.049820 Y21.919524 F100.000000
G1 X54.052320 Y21.926470 F100.000000
G1 X54.055252 Y21.933244 F100.000000
G1 X54.058603 Y21.939821 F100.000000
G1 X54.062360 Y21.946175 F100.000000
G1 X54.066509 Y21.952280 F100.000000
G1 X54.071033 Y21.958112 F100.000000
G1 X54.075915 Y21.963649 F100.000000
G1 X54.081134 Y21.968869 F100.000000
G1 X54.086671 Y21.973750 F100.000000
G1 X54.092504 Y21.978274 F100.000000
G1 X54.098609 Y21.982424 F100.000000
G1 X54.104963 Y21.986181 F100.000000
G1 X54.111540 Y21.989532 F100.000000
G1 X54.118314 Y21.992464 F100.000000
G1 X54.125259 Y21.994964 F100.000000
G1 X54.132348 Y21.997024 F100.000000
G1 X54.139551 Y21.998634 F100.000000
G1 X54.146842 Y21.999788 F100.000000
G1 X54.154191 Y22.000483 F100.000000
G1 X54.161569 Y22.000715 F100.000000
G1 X54.168947 Y22.000483 F100.000000
G1 X54.176295 Y21.999788 F100.000000
G1 X54.183586 Y21.998634 F100.000000
G1 X54.190790 Y21.997024 F100.000000
G1 X54.197878 Y21.994964 F100.000000
G1 X54.204823 Y21.992464 F100.000000
G1 X54.211598 Y21.989532 F100.000000
G1 X54.218175 Y21.986181 F100.000000
G1 X54.224528 Y21.982424 F100.000000
G1 X54.230634 Y21.978274 F100.000000
G1 X54.236466 Y21.973750 F100.000000
G1 X54.242003 Y21.968869 F100.000000
G1 X54.247223 Y21.963649 F100.000000
G1 X54.252104 Y21.958112 F100.000000
G1 X54.256628 Y21.952280 F100.000000
G1 X54.260777 Y21.946175 F100.000000
G1 X54.264535 Y21.939821 F100.000000
G1 X54.267886 Y21.933244 F100.000000
G1 X54.270817 Y21.926470 F100.000000
G1 X54.273318 Y21.919524 F100.000000
G1 X54.275377 Y21.912436 F100.000000
G1 X54.276987 Y21.905232 F100.000000
G1 X54.278142 Y21.897942 F100.000000
G1 X54.278837 Y21.890593 F100.000000
G1 X54.279069 Y21.883215 F100.000000
G0 Z-1.700000 F30.000000
G1 X54.278837 Y21.875837 F100.000000
G1 X54.278142 Y21.868488 F100.000000
G1 X54.276987 Y21.861198 F100.000000
G1 X54.275377 Y21.853994 F100.000000
G1 X54.273318 Y21.846906 F100.000000
G1 X54.270817 Y21.839960 F100.000000
G1 X54.267886 Y21.833186 F100.000000
G1 X54.264535 Y21.826609 F100.000000
G1 X54.260777 Y21.820255 F100.000000
G1 X54.256628 Y21.814150 F100.000000
G1 X54.252104 Y21.808318 F100.000000
G1 X54.247223 Y21.802781 F100.000000
G1 X54.242003 Y21.797561 F100.000000
G1 X54.236466 Y21.792680 F100.000000
G1 X54.230634 Y21.788156 F100.000000
G1 X54.224528 Y21.784006 F100.000000
G1 X54.218175 Y21.780249 F100.000000
G1 X54.211598 Y21.776898 F100.000000
G1 X54.204823 Y21.773966 F100.000000
G1 X54.197878 Y21.771466 F100.000000
G1 X54.190790 Y21.769406 F100.000000
G1 X54.183586 Y21.767796 F100.000000
G1 X54.176295 Y21.766642 F100.000000
G1 X54.168947 Y21.765947 F100.000000
G1 X54.161569 Y21.765715 F100.000000
G1 X54.154191 Y21.765947 F100.000000
G1 X54.146842 Y21.766642 F100.000000
G1 X54.139551 Y21.767796 F100.000000
G1 X54.132348 Y21.769406 F100.000000
G1 X54.125259 Y21.771466 F100.000000
G1 X54.118314 Y21.773966 F100.000000
G1 X54.111540 Y21.776898 F100.000000
G1 X54.104963 Y21.780249 F100.000000
G1 X54.098609 Y21.784006 F100.000000
G1 X54.092504 Y21.788156 F100.000000
G1 X54.086671 Y21.792680 F100.000000
G1 X54.081134 Y21.797561 F100.000000
G1 X54.075915 Y21.802781 F100.000000
G1 X54.071033 Y21.808318 F100.000000
G1 X54.066509 Y21.814150 F100.000000
G1 X54.062360 Y21.820255 F100.000000
G1 X54.058603 Y21.826609 F100.000000
G1 X54.055252 Y21.833186 F100.000000
G1 X54.052320 Y21.839960 F100.000000
G1 X54.049820 Y21.846906 F100.000000
G1 X54.047760 Y21.853994 F100.000000
G1 X54.046150 Y21.861198 F100.000000
G1 X54.044995 Y21.868488 F100.000000
G1 X54.044301 Y21.875837 F100.000000
G1 X54.044069 Y21.883215 F100.000000
G1 X54.044301 Y21.890593 F100.000000
G1 X54.044995 Y21.897942 F100.000000
G1 X54.046150 Y21.905232 F100.000000
G1 X54.047760 Y21.912436 F100.000000
G1 X54.049820 Y21.919524 F100.000000
G1 X54.052320 Y21.926470 F100.000000
G1 X54.055252 Y21.933244 F100.000000
G1 X54.058603 Y21.939821 F100.000000
G1 X54.062360 Y21.946175 F100.000000
G1 X54.066509 Y21.952280 F100.000000
G1 X54.071033 Y21.958112 F100.000000
G1 X54.075915 Y21.963649 F100.000000
G1 X54.081134 Y21.968869 F100.000000
G1 X54.086671 Y21.973750 F100.000000
G1 X54.092504 Y21.978274 F100.000000
G1 X54.098609 Y21.982424 F100.000000
G1 X54.104963 Y21.986181 F100.000000
G1 X54.111540 Y21.989532 F100.000000
G1 X54.118314 Y21.992464 F100.000000
G1 X54.125259 Y21.994964 F100.000000
G1 X54.132348 Y21.997024 F100.000000
G1 X54.139551 Y21.998634 F100.000000
G1 X54.146842 Y21.999788 F100.000000
G1 X54.154191 Y22.000483 F100.000000
G1 X54.161569 Y22.000715 F100.000000
G1 X54.168947 Y22.000483 F100.000000
G1 X54.176295 Y21.999788 F100.000000
G1 X54.183586 Y21.998634 F100.000000
G1 X54.190790 Y21.997024 F100.000000
G1 X54.197878 Y21.994964 F100.000000
G1 X54.204823 Y21.992464 F100.000000
G1 X54.211598 Y21.989532 F100.000000
G1 X54.218175 Y21.986181 F100.000000
G1 X54.224528 Y21.982424 F100.000000
G1 X54.230634 Y21.978274 F100.000000
G1 X54.236466 Y21.973750 F100.000000
G1 X54.242003 Y21.968869 F100.000000
G1 X54.247223 Y21.963649 F100.000000
G1 X54.252104 Y21.958112 F100.000000
G1 X54.256628 Y21.952280 F100.000000
G1 X54.260777 Y21.946175 F100.000000
G1 X54.264535 Y21.939821 F100.000000
G1 X54.267886 Y21.933244 F100.000000
G1 X54.270817 Y21.926470 F100.000000
G1 X54.273318 Y21.919524 F100.000000
G1 X54.275377 Y21.912436 F100.000000
G1 X54.276987 Y21.905232 F100.000000
G1 X54.278142 Y21.897942 F100.000000
G1 X54.278837 Y21.890593 F100.000000
G1 X54.279069 Y21.883215 F100.000000
G0 Z2.000000
G0 X54.279069 Y18.581215
G17
G0 Z-0.425000 F30.000000
G1 Y18.581215 F100.000000
G1 X54.278837 Y18.573837 F100.000000
G1 X54.278142 Y18.566488 F100.000000
G1 X54.276987 Y18.559198 F100.000000
G1 X54.275377 Y18.551994 F100.000000
G1 X54.273318 Y18.544906 F100.000000
G1 X54.270817 Y18.537960 F100.000000
G1 X54.267886 Y18.531186 F100.000000
G1 X54.264535 Y18.524609 F100.000000
G1 X54.260777 Y18.518255 F100.000000
G1 X54.256628 Y18.512150 F100.000000
G1 X54.252104 Y18.506318 F100.000000
G1 X54.247223 Y18.500781 F100.000000
G1 X54.242003 Y18.495561 F100.000000
G1 X54.236466 Y18.490680 F100.000000
G1 X54.230634 Y18.486156 F100.000000
G1 X54.224528 Y18.482006 F100.000000
G1 X54.218175 Y18.478249 F100.000000
G1 X54.211598 Y18.474898 F100.000000
G1 X54.204823 Y18.471966 F100.000000
G1 X54.197878 Y18.469466 F100.000000
G1 X54.190790 Y18.467406 F100.000000
G1 X54.183586 Y18.465796 F100.000000
G1 X54.176295 Y18.464642 F100.000000
G1 X54.168947 Y18.463947 F100.000000
G1 X54.161569 Y18.463715 F100.000000
G1 X54.154191 Y18.463947 F100.000000
G1 X54.146842 Y18.464642 F100.000000
G1 X54.139551 Y18.465796 F100.000000
G1 X54.132348 Y18.467406 F100.000000
G1 X54.125259 Y18.469466 F100.000000
G1 X54.118314 Y18.471966 F100.000000
G1 X54.111540 Y18.474898 F100.000000
G1 X54.104963 Y18.478249 F100.000000
G1 X54.098609 Y18.482006 F100.000000
G1 X54.092504 Y18.486156 F100.000000
G1 X54.086671 Y18.490680 F100.000000
G1 X54.081134 Y18.495561 F100.000000
G1 X54.075915 Y18.500781 F100.000000
G1 X54.071033 Y18.506318 F100.000000
G1 X54.066509 Y18.512150 F100.000000
G1 X54.062360 Y18.518255 F100.000000
G1 X54.058603 Y18.524609 F100.000000
G1 X54.055252 Y18.531186 F100.000000
G1 X54.052320 Y18.537960 F100.000000
G1 X54.049820 Y18.544906 F100.000000
G1 X54.047760 Y18.551994 F100.000000
G1 X54.046150 Y18.559198 F100.000000
G1 X54.044995 Y18.566488 F100.000000
G1 X54.044301 Y18.573837 F100.000000
G1 X54.044069 Y18.581215 F100.000000
G1 X54.044301 Y18.588593 F100.000000
G1 X54.044995 Y18.595942 F100.000000
G1 X54.046150 Y18.603232 F100.000000
G1 X54.047760 Y18.610436 F100.000000
G1 X54.049820 Y18.617524 F100.000000
G1 X54.052320 Y18.624470 F100.000000
G1 X54.055252 Y18.631244 F100.000000
G1 X54.058603 Y18.637821 F100.000000
G1 X54.062360 Y18.644175 F100.000000
G1 X54.066509 Y18.650280 F100.000000
G1 X54.071033 Y18.656112 F100.000000
G1 X54.075915 Y18.661649 F100.000000
G1 X54.081134 Y18.666869 F100.000000
G1 X54.086671 Y18.671750 F100.000000
G1 X54.092504 Y18.676274 F100.000000
G1 X54.098609 Y18.680424 F100.000000
G1 X54.104963 Y18.684181 F100.000000
G1 X54.111540 Y18.687532 F100.000000
G1 X54.118314 Y18.690464 F100.000000
G1 X54.125259 Y18.692964 F100.000000
G1 X54.132348 Y18.695024 F100.000000
G1 X54.139551 Y18.696634 F100.000000
G1 X54.146842 Y18.697788 F100.000000
G1 X54.154191 Y18.698483 F100.000000
G1 X54.161569 Y18.698715 F100.000000
G1 X54.168947 Y18.698483 F100.000000
G1 X54.176295 Y18.697788 F100.000000
G1 X54.183586 Y18.696634 F100.000000
G1 X54.190790 Y18.695024 F100.000000
G1 X54.197878 Y18.692964 F100.000000
G1 X54.204823 Y18.690464 F100.000000
G1 X54.211598 Y18.687532 F100.000000
G1 X54.218175 Y18.684181 F100.000000
G1 X54.224528 Y18.680424 F100.000000
G1 X54.230634 Y18.676274 F100.000000
G1 X54.236466 Y18.671750 F100.000000
G1 X54.242003 Y18.666869 F100.000000
G1 X54.247223 Y18.661649 F100.000000
G1 X54.252104 Y18.656112 F100.000000
G1 X54.256628 Y18.650280 F100.000000
G1 X54.260777 Y18.644175 F100.000000
G1 X54.264535 Y18.637821 F100.000000
G1 X54.267886 Y18.631244 F100.000000
G1 X54.270817 Y18.624470 F100.000000
G1 X54.273318 Y18.617524 F100.000000
G1 X54.275377 Y18.610436 F100.000000
G1 X54.276987 Y18.603232 F100.000000
G1 X54.278142 Y18.595942 F100.000000
G1 X54.278837 Y18.588593 F100.000000
G1 X54.279069 Y18.581215 F100.000000
G0 Z-0.850000 F30.000000
G1 X54.278837 Y18.573837 F100.000000
G1 X54.278142 Y18.566488 F100.000000
G1 X54.276987 Y18.559198 F100.000000
G1 X54.275377 Y18.551994 F100.000000
G1 X54.273318 Y18.544906 F100.000000
G1 X54.270817 Y18.537960 F100.000000
G1 X54.267886 Y18.531186 F100.000000
G1 X54.264535 Y18.524609 F100.000000
G1 X54.260777 Y18.518255 F100.000000
G1 X54.256628 Y18.512150 F100.000000
G1 X54.252104 Y18.506318 F100.000000
G1 X54.247223 Y18.500781 F100.000000
G1 X54.242003 Y18.495561 F100.000000
G1 X54.236466 Y18.490680 F100.000000
G1 X54.230634 Y18.486156 F100.000000
G1 X54.224528 Y18.482006 F100.000000
G1 X54.218175 Y18.478249 F100.000000
G1 X54.211598 Y18.474898 F100.000000
G1 X54.204823 Y18.471966 F100.000000
G1 X54.197878 Y18.469466 F100.000000
G1 X54.190790 Y18.467406 F100.000000
G1 X54.183586 Y18.465796 F100.000000
G1 X54.176295 Y18.464642 F100.000000
G1 X54.168947 Y18.463947 F100.000000
G1 X54.161569 Y18.463715 F100.000000
G1 X54.154191 Y18.463947 F100.000000
G1 X54.146842 Y18.464642 F100.000000
G1 X54.139551 Y18.465796 F100.000000
G1 X54.132348 Y18.467406 F100.000000
G1 X54.125259 Y18.469466 F100.000000
G1 X54.118314 Y18.471966 F100.000000
G1 X54.111540 Y18.474898 F100.000000
G1 X54.104963 Y18.478249 F100.000000
G1 X54.098609 Y18.482006 F100.000000
G1 X54.092504 Y18.486156 F100.000000
G1 X54.086671 Y18.490680 F100.000000
G1 X54.081134 Y18.495561 F100.000000
G1 X54.075915 Y18.500781 F100.000000
G1 X54.071033 Y18.506318 F100.000000
G1 X54.066509 Y18.512150 F100.000000
G1 X54.062360 Y18.518255 F100.000000
G1 X54.058603 Y18.524609 F100.000000
G1 X54.055252 Y18.531186 F100.000000
G1 X54.052320 Y18.537960 F100.000000
G1 X54.049820 Y18.544906 F100.000000
G1 X54.047760 Y18.551994 F100.000000
G1 X54.046150 Y18.559198 F100.000000
G1 X54.044995 Y18.566488 F100.000000
G1 X54.044301 Y18.573837 F100.000000
G1 X54.044069 Y18.581215 F100.000000
G1 X54.044301 Y18.588593 F100.000000
G1 X54.044995 Y18.595942 F100.000000
G1 X54.046150 Y18.603232 F100.000000
G1 X54.047760 Y18.610436 F100.000000
G1 X54.049820 Y18.617524 F100.000000
G1 X54.052320 Y18.624470 F100.000000
G1 X54.055252 Y18.631244 F100.000000
G1 X54.058603 Y18.637821 F100.000000
G1 X54.062360 Y18.644175 F100.000000
G1 X54.066509 Y18.650280 F100.000000
G1 X54.071033 Y18.656112 F100.000000
G1 X54.075915 Y18.661649 F100.000000
G1 X54.081134 Y18.666869 F100.000000
G1 X54.086671 Y18.671750 F100.000000
G1 X54.092504 Y18.676274 F100.000000
G1 X54.098609 Y18.680424 F100.000000
G1 X54.104963 Y18.684181 F100.000000
G1 X54.111540 Y18.687532 F100.000000
G1 X54.118314 Y18.690464 F100.000000
G1 X54.125259 Y18.692964 F100.000000
G1 X54.132348 Y18.695024 F100.000000
G1 X54.139551 Y18.696634 F100.000000
G1 X54.146842 Y18.697788 F100.000000
G1 X54.154191 Y18.698483 F100.000000
G1 X54.161569 Y18.698715 F100.000000
G1 X54.168947 Y18.698483 F100.000000
G1 X54.176295 Y18.697788 F100.000000
G1 X54.183586 Y18.696634 F100.000000
G1 X54.190790 Y18.695024 F100.000000
G1 X54.197878 Y18.692964 F100.000000
G1 X54.204823 Y18.690464 F100.000000
G1 X54.211598 Y18.687532 F100.000000
G1 X54.218175 Y18.684181 F100.000000
G1 X54.224528 Y18.680424 F100.000000
G1 X54.230634 Y18.676274 F100.000000
G1 X54.236466 Y18.671750 F100.000000
G1 X54.242003 Y18.666869 F100.000000
G1 X54.247223 Y18.661649 F100.000000
G1 X54.252104 Y18.656112 F100.000000
G1 X54.256628 Y18.650280 F100.000000
G1 X54.260777 Y18.644175 F100.000000
G1 X54.264535 Y18.637821 F100.000000
G1 X54.267886 Y18.631244 F100.000000
G1 X54.270817 Y18.624470 F100.000000
G1 X54.273318 Y18.617524 F100.000000
G1 X54.275377 Y18.610436 F100.000000
G1 X54.276987 Y18.603232 F100.000000
G1 X54.278142 Y18.595942 F100.000000
G1 X54.278837 Y18.588593 F100.000000
G1 X54.279069 Y18.581215 F100.000000
G0 Z-1.275000 F30.000000
G1 X54.278837 Y18.573837 F100.000000
G1 X54.278142 Y18.566488 F100.000000
G1 X54.276987 Y18.559198 F100.000000
G1 X54.275377 Y18.551994 F100.000000
G1 X54.273318 Y18.544906 F100.000000
G1 X54.270817 Y18.537960 F100.000000
G1 X54.267886 Y18.531186 F100.000000
G1 X54.264535 Y18.524609 F100.000000
G1 X54.260777 Y18.518255 F100.000000
G1 X54.256628 Y18.512150 F100.000000
G1 X54.252104 Y18.506318 F100.000000
G1 X54.247223 Y18.500781 F100.000000
G1 X54.242003 Y18.495561 F100.000000
G1 X54.236466 Y18.490680 F100.000000
G1 X54.230634 Y18.486156 F100.000000
G1 X54.224528 Y18.482006 F100.000000
G1 X54.218175 Y18.478249 F100.000000
G1 X54.211598 Y18.474898 F100.000000
G1 X54.204823 Y18.471966 F100.000000
G1 X54.197878 Y18.469466 F100.000000
G1 X54.190790 Y18.467406 F100.000000
G1 X54.183586 Y18.465796 F100.000000
G1 X54.176295 Y18.464642 F100.000000
G1 X54.168947 Y18.463947 F100.000000
G1 X54.161569 Y18.463715 F100.000000
G1 X54.154191 Y18.463947 F100.000000
G1 X54.146842 Y18.464642 F100.000000
G1 X54.139551 Y18.465796 F100.000000
G1 X54.132348 Y18.467406 F100.000000
G1 X54.125259 Y18.469466 F100.000000
G1 X54.118314 Y18.471966 F100.000000
G1 X54.111540 Y18.474898 F100.000000
G1 X54.104963 Y18.478249 F100.000000
G1 X54.098609 Y18.482006 F100.000000
G1 X54.092504 Y18.486156 F100.000000
G1 X54.086671 Y18.490680 F100.000000
G1 X54.081134 Y18.495561 F100.000000
G1 X54.075915 Y18.500781 F100.000000
G1 X54.071033 Y18.506318 F100.000000
G1 X54.066509 Y18.512150 F100.000000
G1 X54.062360 Y18.518255 F100.000000
G1 X54.058603 Y18.524609 F100.000000
G1 X54.055252 Y18.531186 F100.000000
G1 X54.052320 Y18.537960 F100.000000
G1 X54.049820 Y18.544906 F100.000000
G1 X54.047760 Y18.551994 F100.000000
G1 X54.046150 Y18.559198 F100.000000
G1 X54.044995 Y18.566488 F100.000000
G1 X54.044301 Y18.573837 F100.000000
G1 X54.044069 Y18.581215 F100.000000
G1 X54.044301 Y18.588593 F100.000000
G1 X54.044995 Y18.595942 F100.000000
G1 X54.046150 Y18.603232 F100.000000
G1 X54.047760 Y18.610436 F100.000000
G1 X54.049820 Y18.617524 F100.000000
G1 X54.052320 Y18.624470 F100.000000
G1 X54.055252 Y18.631244 F100.000000
G1 X54.058603 Y18.637821 F100.000000
G1 X54.062360 Y18.644175 F100.000000
G1 X54.066509 Y18.650280 F100.000000
G1 X54.071033 Y18.656112 F100.000000
G1 X54.075915 Y18.661649 F100.000000
G1 X54.081134 Y18.666869 F100.000000
G1 X54.086671 Y18.671750 F100.000000
G1 X54.092504 Y18.676274 F100.000000
G1 X54.098609 Y18.680424 F100.000000
G1 X54.104963 Y18.684181 F100.000000
G1 X54.111540 Y18.687532 F100.000000
G1 X54.118314 Y18.690464 F100.000000
G1 X54.125259 Y18.692964 F100.000000
G1 X54.132348 Y18.695024 F100.000000
G1 X54.139551 Y18.696634 F100.000000
G1 X54.146842 Y18.697788 F100.000000
G1 X54.154191 Y18.698483 F100.000000
G1 X54.161569 Y18.698715 F100.000000
G1 X54.168947 Y18.698483 F100.000000
G1 X54.176295 Y18.697788 F100.000000
G1 X54.183586 Y18.696634 F100.000000
G1 X54.190790 Y18.695024 F100.000000
G1 X54.197878 Y18.692964 F100.000000
G1 X54.204823 Y18.690464 F100.000000
G1 X54.211598 Y18.687532 F100.000000
G1 X54.218175 Y18.684181 F100.000000
G1 X54.224528 Y18.680424 F100.000000
G1 X54.230634 Y18.676274 F100.000000
G1 X54.236466 Y18.671750 F100.000000
G1 X54.242003 Y18.666869 F100.000000
G1 X54.247223 Y18.661649 F100.000000
G1 X54.252104 Y18.656112 F100.000000
G1 X54.256628 Y18.650280 F100.000000
G1 X54.260777 Y18.644175 F100.000000
G1 X54.264535 Y18.637821 F100.000000
G1 X54.267886 Y18.631244 F100.000000
G1 X54.270817 Y18.624470 F100.000000
G1 X54.273318 Y18.617524 F100.000000
G1 X54.275377 Y18.610436 F100.000000
G1 X54.276987 Y18.603232 F100.000000
G1 X54.278142 Y18.595942 F100.000000
G1 X54.278837 Y18.588593 F100.000000
G1 X54.279069 Y18.581215 F100.000000
G0 Z-1.700000 F30.000000
G1 X54.278837 Y18.573837 F100.000000
G1 X54.278142 Y18.566488 F100.000000
G1 X54.276987 Y18.559198 F100.000000
G1 X54.275377 Y18.551994 F100.000000
G1 X54.273318 Y18.544906 F100.000000
G1 X54.270817 Y18.537960 F100.000000
G1 X54.267886 Y18.531186 F100.000000
G1 X54.264535 Y18.524609 F100.000000
G1 X54.260777 Y18.518255 F100.000000
G1 X54.256628 Y18.512150 F100.000000
G1 X54.252104 Y18.506318 F100.000000
G1 X54.247223 Y18.500781 F100.000000
G1 X54.242003 Y18.495561 F100.000000
G1 X54.236466 Y18.490680 F100.000000
G1 X54.230634 Y18.486156 F100.000000
G1 X54.224528 Y18.482006 F100.000000
G1 X54.218175 Y18.478249 F100.000000
G1 X54.211598 Y18.474898 F100.000000
G1 X54.204823 Y18.471966 F100.000000
G1 X54.197878 Y18.469466 F100.000000
G1 X54.190790 Y18.467406 F100.000000
G1 X54.183586 Y18.465796 F100.000000
G1 X54.176295 Y18.464642 F100.000000
G1 X54.168947 Y18.463947 F100.000000
G1 X54.161569 Y18.463715 F100.000000
G1 X54.154191 Y18.463947 F100.000000
G1 X54.146842 Y18.464642 F100.000000
G1 X54.139551 Y18.465796 F100.000000
G1 X54.132348 Y18.467406 F100.000000
G1 X54.125259 Y18.469466 F100.000000
G1 X54.118314 Y18.471966 F100.000000
G1 X54.111540 Y18.474898 F100.000000
G1 X54.104963 Y18.478249 F100.000000
G1 X54.098609 Y18.482006 F100.000000
G1 X54.092504 Y18.486156 F100.000000
G1 X54.086671 Y18.490680 F100.000000
G1 X54.081134 Y18.495561 F100.000000
G1 X54.075915 Y18.500781 F100.000000
G1 X54.071033 Y18.506318 F100.000000
G1 X54.066509 Y18.512150 F100.000000
G1 X54.062360 Y18.518255 F100.000000
G1 X54.058603 Y18.524609 F100.000000
G1 X54.055252 Y18.531186 F100.000000
G1 X54.052320 Y18.537960 F100.000000
G1 X54.049820 Y18.544906 F100.000000
G1 X54.047760 Y18.551994 F100.000000
G1 X54.046150 Y18.559198 F100.000000
G1 X54.044995 Y18.566488 F100.000000
G1 X54.044301 Y18.573837 F100.000000
G1 X54.044069 Y18.581215 F100.000000
G1 X54.044301 Y18.588593 F100.000000
G1 X54.044995 Y18.595942 F100.000000
G1 X54.046150 Y18.603232 F100.000000
G1 X54.047760 Y18.610436 F100.000000
G1 X54.049820 Y18.617524 F100.000000
G1 X54.052320 Y18.624470 F100.000000
G1 X54.055252 Y18.631244 F100.000000
G1 X54.058603 Y18.637821 F100.000000
G1 X54.062360 Y18.644175 F100.000000
G1 X54.066509 Y18.650280 F100.000000
G1 X54.071033 Y18.656112 F100.000000
G1 X54.075915 Y18.661649 F100.000000
G1 X54.081134 Y18.666869 F100.000000
G1 X54.086671 Y18.671750 F100.000000
G1 X54.092504 Y18.676274 F100.000000
G1 X54.098609 Y18.680424 F100.000000
G1 X54.104963 Y18.684181 F100.000000
G1 X54.111540 Y18.687532 F100.000000
G1 X54.118314 Y18.690464 F100.000000
G1 X54.125259 Y18.692964 F100.000000
G1 X54.132348 Y18.695024 F100.000000
G1 X54.139551 Y18.696634 F100.000000
G1 X54.146842 Y18.697788 F100.000000
G1 X54.154191 Y18.698483 F100.000000
G1 X54.161569 Y18.698715 F100.000000
G1 X54.168947 Y18.698483 F100.000000
G1 X54.176295 Y18.697788 F100.000000
G1 X54.183586 Y18.696634 F100.000000
G1 X54.190790 Y18.695024 F100.000000
G1 X54.197878 Y18.692964 F100.000000
G1 X54.204823 Y18.690464 F100.000000
G1 X54.211598 Y18.687532 F100.000000
G1 X54.218175 Y18.684181 F100.000000
G1 X54.224528 Y18.680424 F100.000000
G1 X54.230634 Y18.676274 F100.000000
G1 X54.236466 Y18.671750 F100.000000
G1 X54.242003 Y18.666869 F100.000000
G1 X54.247223 Y18.661649 F100.000000
G1 X54.252104 Y18.656112 F100.000000
G1 X54.256628 Y18.650280 F100.000000
G1 X54.260777 Y18.644175 F100.000000
G1 X54.264535 Y18.637821 F100.000000
G1 X54.267886 Y18.631244 F100.000000
G1 X54.270817 Y18.624470 F100.000000
G1 X54.273318 Y18.617524 F100.000000
G1 X54.275377 Y18.610436 F100.000000
G1 X54.276987 Y18.603232 F100.000000
G1 X54.278142 Y18.595942 F100.000000
G1 X54.278837 Y18.588593 F100.000000
G1 X54.279069 Y18.581215 F100.000000
G0 Z2.000000
G0 X8.774969 Y51.347215
G17
G0 Z-0.425000 F30.000000
G1 X8.774969 Y51.347215 F100.000000
G1 X8.774561 Y51.334255 F100.000000
G1 X8.773341 Y51.321346 F100.000000
G1 X8.771313 Y51.308539 F100.000000
G1 X8.768484 Y51.295885 F100.000000
G1 X8.764867 Y51.283434 F100.000000
G1 X8.760475 Y51.271234 F100.000000
G1 X8.755325 Y51.259334 F100.000000
G1 X8.749438 Y51.247781 F100.000000
G1 X8.742838 Y51.236620 F100.000000
G1 X8.735550 Y51.225896 F100.000000
G1 X8.727603 Y51.215651 F100.000000
G1 X8.719028 Y51.205924 F100.000000
G1 X8.709859 Y51.196756 F100.000000
G1 X8.700133 Y51.188181 F100.000000
G1 X8.689888 Y51.180234 F100.000000
G1 X8.679163 Y51.172946 F100.000000
G1 X8.668003 Y51.166345 F100.000000
G1 X8.656450 Y51.160459 F100.000000
G1 X8.644550 Y51.155309 F100.000000
G1 X8.632350 Y51.150917 F100.000000
G1 X8.619898 Y51.147299 F100.000000
G1 X8.607244 Y51.144471 F100.000000
G1 X8.594438 Y51.142443 F100.000000
G1 X8.581529 Y51.141222 F100.000000
G1 X8.568569 Y51.140815 F100.000000
G1 X8.555609 Y51.141222 F100.000000
G1 X8.542700 Y51.142443 F100.000000
G1 X8.529893 Y51.144471 F100.000000
G1 X8.517239 Y51.147299 F100.000000
G1 X8.504788 Y51.150917 F100.000000
G1 X8.492588 Y51.155309 F100.000000
G1 X8.480688 Y51.160459 F100.000000
G1 X8.469135 Y51.166345 F100.000000
G1 X8.457974 Y51.172946 F100.000000
G1 X8.447250 Y51.180234 F100.000000
G1 X8.437004 Y51.188181 F100.000000
G1 X8.427278 Y51.196756 F100.000000
G1 X8.418110 Y51.205924 F100.000000
G1 X8.409535 Y51.215651 F100.000000
G1 X8.401588 Y51.225896 F100.000000
G1 X8.394299 Y51.236620 F100.000000
G1 X8.387699 Y51.247781 F100.000000
G1 X8.381812 Y51.259334 F100.000000
G1 X8.376663 Y51.271234 F100.000000
G1 X8.372271 Y51.283434 F100.000000
G1 X8.368653 Y51.295885 F100.000000
G1 X8.365825 Y51.308539 F100.000000
G1 X8.363796 Y51.321346 F100.000000
G1 X8.362576 Y51.334255 F100.000000
G1 X8.362169 Y51.347215 F100.000000
G1 X8.362576 Y51.360175 F100.000000
G1 X8.363796 Y51.373084 F100.000000
G1 X8.365825 Y51.385891 F100.000000
G1 X8.368653 Y51.398545 F100.000000
G1 X8.372271 Y51.410996 F100.000000
G1 X8.376663 Y51.423196 F100.000000
G1 X8.381812 Y51.435096 F100.000000
G1 X8.387699 Y51.446649 F100.000000
G1 X8.394299 Y51.457810 F100.000000
G1 X8.401588 Y51.468534 F100.000000
G1 X8.409535 Y51.478779 F100.000000
G1 X8.418110 Y51.488506 F100.000000
G1 X8.427278 Y51.497674 F100.000000
G1 X8.437004 Y51.506249 F100.000000
G1 X8.447250 Y51.514196 F100.000000
G1 X8.457974 Y51.521484 F100.000000
G1 X8.469135 Y51.528085 F100.000000
G1 X8.480688 Y51.533971 F100.000000
G1 X8.492588 Y51.539121 F100.000000
G1 X8.504788 Y51.543513 F100.000000
G1 X8.517239 Y51.547131 F100.000000
G1 X8.529893 Y51.549959 F100.000000
G1 X8.542700 Y51.551987 F100.000000
G1 X8.555609 Y51.553208 F100.000000
G1 X8.568569 Y51.553615 F100.000000
G1 X8.581529 Y51.553208 F100.000000
G1 X8.594438 Y51.551987 F100.000000
G1 X8.607244 Y51.549959 F100.000000
G1 X8.619898 Y51.547131 F100.000000
G1 X8.632350 Y51.543513 F100.000000
G1 X8.644550 Y51.539121 F100.000000
G1 X8.656450 Y51.533971 F100.000000
G1 X8.668003 Y51.528085 F100.000000
G1 X8.679163 Y51.521484 F100.000000
G1 X8.689888 Y51.514196 F100.000000
G1 X8.700133 Y51.506249 F100.000000
G1 X8.709859 Y51.497674 F100.000000
G1 X8.719028 Y51.488506 F100.000000
G1 X8.727603 Y51.478779 F100.000000
G1 X8.735550 Y51.468534 F100.000000
G1 X8.742838 Y51.457810 F100.000000
G1 X8.749438 Y51.446649 F100.000000
G1 X8.755325 Y51.435096 F100.000000
G1 X8.760475 Y51.423196 F100.000000
G1 X8.764867 Y51.410996 F100.000000
G1 X8.768484 Y51.398545 F100.000000
G1 X8.771313 Y51.385891 F100.000000
G1 X8.773341 Y51.373084 F100.000000
G1 X8.774561 Y51.360175 F100.000000
G1 X8.774969 Y51.347215 F100.000000
G0 Z-0.850000 F30.000000
G1 X8.774561 Y51.334255 F100.000000
G1 X8.773341 Y51.321346 F100.000000
G1 X8.771313 Y51.308539 F100.000000
G1 X8.768484 Y51.295885 F100.000000
G1 X8.764867 Y51.283434 F100.000000
G1 X8.760475 Y51.271234 F100.000000
G1 X8.755325 Y51.259334 F100.000000
G1 X8.749438 Y51.247781 F100.000000
G1 X8.742838 Y51.236620 F100.000000
G1 X8.735550 Y51.225896 F100.000000
G1 X8.727603 Y51.215651 F100.000000
G1 X8.719028 Y51.205924 F100.000000
G1 X8.709859 Y51.196756 F100.000000
G1 X8.700133 Y51.188181 F100.000000
G1 X8.689888 Y51.180234 F100.000000
G1 X8.679163 Y51.172946 F100.000000
G1 X8.668003 Y51.166345 F100.000000
G1 X8.656450 Y51.160459 F100.000000
G1 X8.644550 Y51.155309 F100.000000
G1 X8.632350 Y51.150917 F100.000000
G1 X8.619898 Y51.147299 F100.000000
G1 X8.607244 Y51.144471 F100.000000
G1 X8.594438 Y51.142443 F100.000000
G1 X8.581529 Y51.141222 F100.000000
G1 X8.568569 Y51.140815 F100.000000
G1 X8.555609 Y51.141222 F100.000000
G1 X8.542700 Y51.142443 F100.000000
G1 X8.529893 Y51.144471 F100.000000
G1 X8.517239 Y51.147299 F100.000000
G1 X8.504788 Y51.150917 F100.000000
G1 X8.492588 Y51.155309 F100.000000
G1 X8.480688 Y51.160459 F100.000000
G1 X8.469135 Y51.166345 F100.000000
G1 X8.457974 Y51.172946 F100.000000
G1 X8.447250 Y51.180234 F100.000000
G1 X8.437004 Y51.188181 F100.000000
G1 X8.427278 Y51.196756 F100.000000
G1 X8.418110 Y51.205924 F100.000000
G1 X8.409535 Y51.215651 F100.000000
G1 X8.401588 Y51.225896 F100.000000
G1 X8.394299 Y51.236620 F100.000000
G1 X8.387699 Y51.247781 F100.000000
G1 X8.381812 Y51.259334 F100.000000
G1 X8.376663 Y51.271234 F100.000000
G1 X8.372271 Y51.283434 F100.000000
G1 X8.368653 Y51.295885 F100.000000
G1 X8.365825 Y51.308539 F100.000000
G1 X8.363796 Y51.321346 F100.000000
G1 X8.362576 Y51.334255 F100.000000
G1 X8.362169 Y51.347215 F100.000000
G1 X8.362576 Y51.360175 F100.000000
G1 X8.363796 Y51.373084 F100.000000
G1 X8.365825 Y51.385891 F100.000000
G1 X8.368653 Y51.398545 F100.000000
G1 X8.372271 Y51.410996 F100.000000
G1 X8.376663 Y51.423196 F100.000000
G1 X8.381812 Y51.435096 F100.000000
G1 X8.387699 Y51.446649 F100.000000
G1 X8.394299 Y51.457810 F100.000000
G1 X8.401588 Y51.468534 F100.000000
G1 X8.409535 Y51.478779 F100.000000
G1 X8.418110 Y51.488506 F100.000000
G1 X8.427278 Y51.497674 F100.000000
G1 X8.437004 Y51.506249 F100.000000
G1 X8.447250 Y51.514196 F100.000000
G1 X8.457974 Y51.521484 F100.000000
G1 X8.469135 Y51.528085 F100.000000
G1 X8.480688 Y51.533971 F100.000000
G1 X8.492588 Y51.539121 F100.000000
G1 X8.504788 Y51.543513 F100.000000
G1 X8.517239 Y51.547131 F100.000000
G1 X8.529893 Y51.549959 F100.000000
G1 X8.542700 Y51.551987 F100.000000
G1 X8.555609 Y51.553208 F100.000000
G1 X8.568569 Y51.553615 F100.000000
G1 X8.581529 Y51.553208 F100.000000
G1 X8.594438 Y51.551987 F100.000000
G1 X8.607244 Y51.549959 F100.000000
G1 X8.619898 Y51.547131 F100.000000
G1 X8.632350 Y51.543513 F100.000000
G1 X8.644550 Y51.539121 F100.000000
G1 X8.656450 Y51.533971 F100.000000
G1 X8.668003 Y51.528085 F100.000000
G1 X8.679163 Y51.521484 F100.000000
G1 X8.689888 Y51.514196 F100.000000
G1 X8.700133 Y51.506249 F100.000000
G1 X8.709859 Y51.497674 F100.000000
G1 X8.719028 Y51.488506 F100.000000
G1 X8.727603 Y51.478779 F100.000000
G1 X8.735550 Y51.468534 F100.000000
G1 X8.742838 Y51.457810 F100.000000
G1 X8.749438 Y51.446649 F100.000000
G1 X8.755325 Y51.435096 F100.000000
G1 X8.760475 Y51.423196 F100.000000
G1 X8.764867 Y51.410996 F100.000000
G1 X8.768484 Y51.398545 F100.000000
G1 X8.771313 Y51.385891 F100.000000
G1 X8.773341 Y51.373084 F100.000000
G1 X8.774561 Y51.360175 F100.000000
G1 X8.774969 Y51.347215 F100.000000
G0 Z-1.275000 F30.000000
G1 X8.774561 Y51.334255 F100.000000
G1 X8.773341 Y51.321346 F100.000000
G1 X8.771313 Y51.308539 F100.000000
G1 X8.768484 Y51.295885 F100.000000
G1 X8.764867 Y51.283434 F100.000000
G1 X8.760475 Y51.271234 F100.000000
G1 X8.755325 Y51.259334 F100.000000
G1 X8.749438 Y51.247781 F100.000000
G1 X8.742838 Y51.236620 F100.000000
G1 X8.735550 Y51.225896 F100.000000
G1 X8.727603 Y51.215651 F100.000000
G1 X8.719028 Y51.205924 F100.000000
G1 X8.709859 Y51.196756 F100.000000
G1 X8.700133 Y51.188181 F100.000000
G1 X8.689888 Y51.180234 F100.000000
G1 X8.679163 Y51.172946 F100.000000
G1 X8.668003 Y51.166345 F100.000000
G1 X8.656450 Y51.160459 F100.000000
G1 X8.644550 Y51.155309 F100.000000
G1 X8.632350 Y51.150917 F100.000000
G1 X8.619898 Y51.147299 F100.000000
G1 X8.607244 Y51.144471 F100.000000
G1 X8.594438 Y51.142443 F100.000000
G1 X8.581529 Y51.141222 F100.000000
G1 X8.568569 Y51.140815 F100.000000
G1 X8.555609 Y51.141222 F100.000000
G1 X8.542700 Y51.142443 F100.000000
G1 X8.529893 Y51.144471 F100.000000
G1 X8.517239 Y51.147299 F100.000000
G1 X8.504788 Y51.150917 F100.000000
G1 X8.492588 Y51.155309 F100.000000
G1 X8.480688 Y51.160459 F100.000000
G1 X8.469135 Y51.166345 F100.000000
G1 X8.457974 Y51.172946 F100.000000
G1 X8.447250 Y51.180234 F100.000000
G1 X8.437004 Y51.188181 F100.000000
G1 X8.427278 Y51.196756 F100.000000
G1 X8.418110 Y51.205924 F100.000000
G1 X8.409535 Y51.215651 F100.000000
G1 X8.401588 Y51.225896 F100.000000
G1 X8.394299 Y51.236620 F100.000000
G1 X8.387699 Y51.247781 F100.000000
G1 X8.381812 Y51.259334 F100.000000
G1 X8.376663 Y51.271234 F100.000000
G1 X8.372271 Y51.283434 F100.000000
G1 X8.368653 Y51.295885 F100.000000
G1 X8.365825 Y51.308539 F100.000000
G1 X8.363796 Y51.321346 F100.000000
G1 X8.362576 Y51.334255 F100.000000
G1 X8.362169 Y51.347215 F100.000000
G1 X8.362576 Y51.360175 F100.000000
G1 X8.363796 Y51.373084 F100.000000
G1 X8.365825 Y51.385891 F100.000000
G1 X8.368653 Y51.398545 F100.000000
G1 X8.372271 Y51.410996 F100.000000
G1 X8.376663 Y51.423196 F100.000000
G1 X8.381812 Y51.435096 F100.000000
G1 X8.387699 Y51.446649 F100.000000
G1 X8.394299 Y51.457810 F100.000000
G1 X8.401588 Y51.468534 F100.000000
G1 X8.409535 Y51.478779 F100.000000
G1 X8.418110 Y51.488506 F100.000000
G1 X8.427278 Y51.497674 F100.000000
G1 X8.437004 Y51.506249 F100.000000
G1 X8.447250 Y51.514196 F100.000000
G1 X8.457974 Y51.521484 F100.000000
G1 X8.469135 Y51.528085 F100.000000
G1 X8.480688 Y51.533971 F100.000000
G1 X8.492588 Y51.539121 F100.000000
G1 X8.504788 Y51.543513 F100.000000
G1 X8.517239 Y51.547131 F100.000000
G1 X8.529893 Y51.549959 F100.000000
G1 X8.542700 Y51.551987 F100.000000
G1 X8.555609 Y51.553208 F100.000000
G1 X8.568569 Y51.553615 F100.000000
G1 X8.581529 Y51.553208 F100.000000
G1 X8.594438 Y51.551987 F100.000000
G1 X8.607244 Y51.549959 F100.000000
G1 X8.619898 Y51.547131 F100.000000
G1 X8.632350 Y51.543513 F100.000000
G1 X8.644550 Y51.539121 F100.000000
G1 X8.656450 Y51.533971 F100.000000
G1 X8.668003 Y51.528085 F100.000000
G1 X8.679163 Y51.521484 F100.000000
G1 X8.689888 Y51.514196 F100.000000
G1 X8.700133 Y51.506249 F100.000000
G1 X8.709859 Y51.497674 F100.000000
G1 X8.719028 Y51.488506 F100.000000
G1 X8.727603 Y51.478779 F100.000000
G1 X8.735550 Y51.468534 F100.000000
G1 X8.742838 Y51.457810 F100.000000
G1 X8.749438 Y51.446649 F100.000000
G1 X8.755325 Y51.435096 F100.000000
G1 X8.760475 Y51.423196 F100.000000
G1 X8.764867 Y51.410996 F100.000000
G1 X8.768484 Y51.398545 F100.000000
G1 X8.771313 Y51.385891 F100.000000
G1 X8.773341 Y51.373084 F100.000000
G1 X8.774561 Y51.360175 F100.000000
G1 X8.774969 Y51.347215 F100.000000
G0 Z-1.700000 F30.000000
G1 X8.774561 Y51.334255 F100.000000
G1 X8.773341 Y51.321346 F100.000000
G1 X8.771313 Y51.308539 F100.000000
G1 X8.768484 Y51.295885 F100.000000
G1 X8.764867 Y51.283434 F100.000000
G1 X8.760475 Y51.271234 F100.000000
G1 X8.755325 Y51.259334 F100.000000
G1 X8.749438 Y51.247781 F100.000000
G1 X8.742838 Y51.236620 F100.000000
G1 X8.735550 Y51.225896 F100.000000
G1 X8.727603 Y51.215651 F100.000000
G1 X8.719028 Y51.205924 F100.000000
G1 X8.709859 Y51.196756 F100.000000
G1 X8.700133 Y51.188181 F100.000000
G1 X8.689888 Y51.180234 F100.000000
G1 X8.679163 Y51.172946 F100.000000
G1 X8.668003 Y51.166345 F100.000000
G1 X8.656450 Y51.160459 F100.000000
G1 X8.644550 Y51.155309 F100.000000
G1 X8.632350 Y51.150917 F100.000000
G1 X8.619898 Y51.147299 F100.000000
G1 X8.607244 Y51.144471 F100.000000
G1 X8.594438 Y51.142443 F100.000000
G1 X8.581529 Y51.141222 F100.000000
G1 X8.568569 Y51.140815 F100.000000
G1 X8.555609 Y51.141222 F100.000000
G1 X8.542700 Y51.142443 F100.000000
G1 X8.529893 Y51.144471 F100.000000
G1 X8.517239 Y51.147299 F100.000000
G1 X8.504788 Y51.150917 F100.000000
G1 X8.492588 Y51.155309 F100.000000
G1 X8.480688 Y51.160459 F100.000000
G1 X8.469135 Y51.166345 F100.000000
G1 X8.457974 Y51.172946 F100.000000
G1 X8.447250 Y51.180234 F100.000000
G1 X8.437004 Y51.188181 F100.000000
G1 X8.427278 Y51.196756 F100.000000
G1 X8.418110 Y51.205924 F100.000000
G1 X8.409535 Y51.215651 F100.000000
G1 X8.401588 Y51.225896 F100.000000
G1 X8.394299 Y51.236620 F100.000000
G1 X8.387699 Y51.247781 F100.000000
G1 X8.381812 Y51.259334 F100.000000
G1 X8.376663 Y51.271234 F100.000000
G1 X8.372271 Y51.283434 F100.000000
G1 X8.368653 Y51.295885 F100.000000
G1 X8.365825 Y51.308539 F100.000000
G1 X8.363796 Y51.321346 F100.000000
G1 X8.362576 Y51.334255 F100.000000
G1 X8.362169 Y51.347215 F100.000000
G1 X8.362576 Y51.360175 F100.000000
G1 X8.363796 Y51.373084 F100.000000
G1 X8.365825 Y51.385891 F100.000000
G1 X8.368653 Y51.398545 F100.000000
G1 X8.372271 Y51.410996 F100.000000
G1 X8.376663 Y51.423196 F100.000000
G1 X8.381812 Y51.435096 F100.000000
G1 X8.387699 Y51.446649 F100.000000
G1 X8.394299 Y51.457810 F100.000000
G1 X8.401588 Y51.468534 F100.000000
G1 X8.409535 Y51.478779 F100.000000
G1 X8.418110 Y51.488506 F100.000000
G1 X8.427278 Y51.497674 F100.000000
G1 X8.437004 Y51.506249 F100.000000
G1 X8.447250 Y51.514196 F100.000000
G1 X8.457974 Y51.521484 F100.000000
G1 X8.469135 Y51.528085 F100.000000
G1 X8.480688 Y51.533971 F100.000000
G1 X8.492588 Y51.539121 F100.000000
G1 X8.504788 Y51.543513 F100.000000
G1 X8.517239 Y51.547131 F100.000000
G1 X8.529893 Y51.549959 F100.000000
G1 X8.542700 Y51.551987 F100.000000
G1 X8.555609 Y51.553208 F100.000000
G1 X8.568569 Y51.553615 F100.000000
G1 X8.581529 Y51.553208 F100.000000
G1 X8.594438 Y51.551987 F100.000000
G1 X8.607244 Y51.549959 F100.000000
G1 X8.619898 Y51.547131 F100.000000
G1 X8.632350 Y51.543513 F100.000000
G1 X8.644550 Y51.539121 F100.000000
G1 X8.656450 Y51.533971 F100.000000
G1 X8.668003 Y51.528085 F100.000000
G1 X8.679163 Y51.521484 F100.000000
G1 X8.689888 Y51.514196 F100.000000
G1 X8.700133 Y51.506249 F100.000000
G1 X8.709859 Y51.497674 F100.000000
G1 X8.719028 Y51.488506 F100.000000
G1 X8.727603 Y51.478779 F100.000000
G1 X8.735550 Y51.468534 F100.000000
G1 X8.742838 Y51.457810 F100.000000
G1 X8.749438 Y51.446649 F100.000000
G1 X8.755325 Y51.435096 F100.000000
G1 X8.760475 Y51.423196 F100.000000
G1 X8.764867 Y51.410996 F100.000000
G1 X8.768484 Y51.398545 F100.000000
G1 X8.771313 Y51.385891 F100.000000
G1 X8.773341 Y51.373084 F100.000000
G1 X8.774561 Y51.360175 F100.000000
G1 X8.774969 Y51.347215 F100.000000
G0 Z2.000000
G0 X12.711969 Y54.903215
G17
G0 Z-0.425000 F30.000000
G1 X12.711969 Y54.903215 F100.000000
G1 X12.711561 Y54.890255 F100.000000
G1 X12.710341 Y54.877346 F100.000000
G1 X12.708313 Y54.864539 F100.000000
G1 X12.705484 Y54.851885 F100.000000
G1 X12.701867 Y54.839434 F100.000000
G1 X12.697475 Y54.827234 F100.000000
G1 X12.692325 Y54.815334 F100.000000
G1 X12.686438 Y54.803781 F100.000000
G1 X12.679838 Y54.792620 F100.000000
G1 X12.672550 Y54.781896 F100.000000
G1 X12.664603 Y54.771651 F100.000000
G1 X12.656028 Y54.761924 F100.000000
G1 X12.646859 Y54.752756 F100.000000
G1 X12.637133 Y54.744181 F100.000000
G1 X12.626888 Y54.736234 F100.000000
G1 X12.616163 Y54.728946 F100.000000
G1 X12.605003 Y54.722345 F100.000000
G1 X12.593450 Y54.716459 F100.000000
G1 X12.581550 Y54.711309 F100.000000
G1 X12.569350 Y54.706917 F100.000000
G1 X12.556898 Y54.703299 F100.000000
G1 X12.544244 Y54.700471 F100.000000
G1 X12.531438 Y54.698443 F100.000000
G1 X12.518529 Y54.697222 F100.000000
G1 X12.505569 Y54.696815 F100.000000
G1 X12.492609 Y54.697222 F100.000000
G1 X12.479700 Y54.698443 F100.000000
G1 X12.466893 Y54.700471 F100.000000
G1 X12.454239 Y54.703299 F100.000000
G1 X12.441788 Y54.706917 F100.000000
G1 X12.429588 Y54.711309 F100.000000
G1 X12.417688 Y54.716459 F100.000000
G1 X12.406135 Y54.722345 F100.000000
G1 X12.394974 Y54.728946 F100.000000
G1 X12.384250 Y54.736234 F100.000000
G1 X12.374004 Y54.744181 F100.000000
G1 X12.364278 Y54.752756 F100.000000
G1 X12.355110 Y54.761924 F100.000000
G1 X12.346535 Y54.771651 F100.000000
G1 X12.338588 Y54.781896 F100.000000
G1 X12.331299 Y54.792620 F100.000000
G1 X12.324699 Y54.803781 F100.000000
G1 X12.318812 Y54.815334 F100.000000
G1 X12.313663 Y54.827234 F100.000000
G1 X12.309271 Y54.839434 F100.000000
G1 X12.305653 Y54.851885 F100.000000
G1 X12.302825 Y54.864539 F100.000000
G1 X12.300796 Y54.877346 F100.000000
G1 X12.299576 Y54.890255 F100.000000
G1 X12.299169 Y54.903215 F100.000000
G1 X12.299576 Y54.916175 F100.000000
G1 X12.300796 Y54.929084 F100.000000
G1 X12.302825 Y54.941891 F100.000000
G1 X12.305653 Y54.954545 F100.000000
G1 X12.309271 Y54.966996 F100.000000
G1 X12.313663 Y54.979196 F100.000000
G1 X12.318812 Y54.991096 F100.000000
G1 X12.324699 Y55.002649 F100.000000
G1 X12.331299 Y55.013810 F100.000000
G1 X12.338588 Y55.024534 F100.000000
G1 X12.346535 Y55.034779 F100.000000
G1 X12.355110 Y55.044506 F100.000000
G1 X12.364278 Y55.053674 F100.000000
G1 X12.374004 Y55.062249 F100.000000
G1 X12.384250 Y55.070196 F100.000000
G1 X12.394974 Y55.077484 F100.000000
G1 X12.406135 Y55.084085 F100.000000
G1 X12.417688 Y55.089971 F100.000000
G1 X12.429588 Y55.095121 F100.000000
G1 X12.441788 Y55.099513 F100.000000
G1 X12.454239 Y55.103131 F100.000000
G1 X12.466893 Y55.105959 F100.000000
G1 X12.479700 Y55.107987 F100.000000
G1 X12.492609 Y55.109208 F100.000000
G1 X12.505569 Y55.109615 F100.000000
G1 X12.518529 Y55.109208 F100.000000
G1 X12.531438 Y55.107987 F100.000000
G1 X12.544244 Y55.105959 F100.000000
G1 X12.556898 Y55.103131 F100.000000
G1 X12.569350 Y55.099513 F100.000000
G1 X12.581550 Y55.095121 F100.000000
G1 X12.593450 Y55.089971 F100.000000
G1 X12.605003 Y55.084085 F100.000000
G1 X12.616163 Y55.077484 F100.000000
G1 X12.626888 Y55.070196 F100.000000
G1 X12.637133 Y55.062249 F100.000000
G1 X12.646859 Y55.053674 F100.000000
G1 X12.656028 Y55.044506 F100.000000
G1 X12.664603 Y55.034779 F100.000000
G1 X12.672550 Y55.024534 F100.000000
G1 X12.679838 Y55.013810 F100.000000
G1 X12.686438 Y55.002649 F100.000000
G1 X12.692325 Y54.991096 F100.000000
G1 X12.697475 Y54.979196 F100.000000
G1 X12.701867 Y54.966996 F100.000000
G1 X12.705484 Y54.954545 F100.000000
G1 X12.708313 Y54.941891 F100.000000
G1 X12.710341 Y54.929084 F100.000000
G1 X12.711561 Y54.916175 F100.000000
G1 X12.711969 Y54.903215 F100.000000
G0 Z-0.850000 F30.000000
G1 X12.711561 Y54.890255 F100.000000
G1 X12.710341 Y54.877346 F100.000000
G1 X12.708313 Y54.864539 F100.000000
G1 X12.705484 Y54.851885 F100.000000
G1 X12.701867 Y54.839434 F100.000000
G1 X12.697475 Y54.827234 F100.000000
G1 X12.692325 Y54.815334 F100.000000
G1 X12.686438 Y54.803781 F100.000000
G1 X12.679838 Y54.792620 F100.000000
G1 X12.672550 Y54.781896 F100.000000
G1 X12.664603 Y54.771651 F100.000000
G1 X12.656028 Y54.761924 F100.000000
G1 X12.646859 Y54.752756 F100.000000
G1 X12.637133 Y54.744181 F100.000000
G1 X12.626888 Y54.736234 F100.000000
G1 X12.616163 Y54.728946 F100.000000
G1 X12.605003 Y54.722345 F100.000000
G1 X12.593450 Y54.716459 F100.000000
G1 X12.581550 Y54.711309 F100.000000
G1 X12.569350 Y54.706917 F100.000000
G1 X12.556898 Y54.703299 F100.000000
G1 X12.544244 Y54.700471 F100.000000
G1 X12.531438 Y54.698443 F100.000000
G1 X12.518529 Y54.697222 F100.000000
G1 X12.505569 Y54.696815 F100.000000
G1 X12.492609 Y54.697222 F100.000000
G1 X12.479700 Y54.698443 F100.000000
G1 X12.466893 Y54.700471 F100.000000
G1 X12.454239 Y54.703299 F100.000000
G1 X12.441788 Y54.706917 F100.000000
G1 X12.429588 Y54.711309 F100.000000
G1 X12.417688 Y54.716459 F100.000000
G1 X12.406135 Y54.722345 F100.000000
G1 X12.394974 Y54.728946 F100.000000
G1 X12.384250 Y54.736234 F100.000000
G1 X12.374004 Y54.744181 F100.000000
G1 X12.364278 Y54.752756 F100.000000
G1 X12.355110 Y54.761924 F100.000000
G1 X12.346535 Y54.771651 F100.000000
G1 X12.338588 Y54.781896 F100.000000
G1 X12.331299 Y54.792620 F100.000000
G1 X12.324699 Y54.803781 F100.000000
G1 X12.318812 Y54.815334 F100.000000
G1 X12.313663 Y54.827234 F100.000000
G1 X12.309271 Y54.839434 F100.000000
G1 X12.305653 Y54.851885 F100.000000
G1 X12.302825 Y54.864539 F100.000000
G1 X12.300796 Y54.877346 F100.000000
G1 X12.299576 Y54.890255 F100.000000
G1 X12.299169 Y54.903215 F100.000000
G1 X12.299576 Y54.916175 F100.000000
G1 X12.300796 Y54.929084 F100.000000
G1 X12.302825 Y54.941891 F100.000000
G1 X12.305653 Y54.954545 F100.000000
G1 X12.309271 Y54.966996 F100.000000
G1 X12.313663 Y54.979196 F100.000000
G1 X12.318812 Y54.991096 F100.000000
G1 X12.324699 Y55.002649 F100.000000
G1 X12.331299 Y55.013810 F100.000000
G1 X12.338588 Y55.024534 F100.000000
G1 X12.346535 Y55.034779 F100.000000
G1 X12.355110 Y55.044506 F100.000000
G1 X12.364278 Y55.053674 F100.000000
G1 X12.374004 Y55.062249 F100.000000
G1 X12.384250 Y55.070196 F100.000000
G1 X12.394974 Y55.077484 F100.000000
G1 X12.406135 Y55.084085 F100.000000
G1 X12.417688 Y55.089971 F100.000000
G1 X12.429588 Y55.095121 F100.000000
G1 X12.441788 Y55.099513 F100.000000
G1 X12.454239 Y55.103131 F100.000000
G1 X12.466893 Y55.105959 F100.000000
G1 X12.479700 Y55.107987 F100.000000
G1 X12.492609 Y55.109208 F100.000000
G1 X12.505569 Y55.109615 F100.000000
G1 X12.518529 Y55.109208 F100.000000
G1 X12.531438 Y55.107987 F100.000000
G1 X12.544244 Y55.105959 F100.000000
G1 X12.556898 Y55.103131 F100.000000
G1 X12.569350 Y55.099513 F100.000000
G1 X12.581550 Y55.095121 F100.000000
G1 X12.593450 Y55.089971 F100.000000
G1 X12.605003 Y55.084085 F100.000000
G1 X12.616163 Y55.077484 F100.000000
G1 X12.626888 Y55.070196 F100.000000
G1 X12.637133 Y55.062249 F100.000000
G1 X12.646859 Y55.053674 F100.000000
G1 X12.656028 Y55.044506 F100.000000
G1 X12.664603 Y55.034779 F100.000000
G1 X12.672550 Y55.024534 F100.000000
G1 X12.679838 Y55.013810 F100.000000
G1 X12.686438 Y55.002649 F100.000000
G1 X12.692325 Y54.991096 F100.000000
G1 X12.697475 Y54.979196 F100.000000
G1 X12.701867 Y54.966996 F100.000000
G1 X12.705484 Y54.954545 F100.000000
G1 X12.708313 Y54.941891 F100.000000
G1 X12.710341 Y54.929084 F100.000000
G1 X12.711561 Y54.916175 F100.000000
G1 X12.711969 Y54.903215 F100.000000
G0 Z-1.275000 F30.000000
G1 X12.711561 Y54.890255 F100.000000
G1 X12.710341 Y54.877346 F100.000000
G1 X12.708313 Y54.864539 F100.000000
G1 X12.705484 Y54.851885 F100.000000
G1 X12.701867 Y54.839434 F100.000000
G1 X12.697475 Y54.827234 F100.000000
G1 X12.692325 Y54.815334 F100.000000
G1 X12.686438 Y54.803781 F100.000000
G1 X12.679838 Y54.792620 F100.000000
G1 X12.672550 Y54.781896 F100.000000
G1 X12.664603 Y54.771651 F100.000000
G1 X12.656028 Y54.761924 F100.000000
G1 X12.646859 Y54.752756 F100.000000
G1 X12.637133 Y54.744181 F100.000000
G1 X12.626888 Y54.736234 F100.000000
G1 X12.616163 Y54.728946 F100.000000
G1 X12.605003 Y54.722345 F100.000000
G1 X12.593450 Y54.716459 F100.000000
G1 X12.581550 Y54.711309 F100.000000
G1 X12.569350 Y54.706917 F100.000000
G1 X12.556898 Y54.703299 F100.000000
G1 X12.544244 Y54.700471 F100.000000
G1 X12.531438 Y54.698443 F100.000000
G1 X12.518529 Y54.697222 F100.000000
G1 X12.505569 Y54.696815 F100.000000
G1 X12.492609 Y54.697222 F100.000000
G1 X12.479700 Y54.698443 F100.000000
G1 X12.466893 Y54.700471 F100.000000
G1 X12.454239 Y54.703299 F100.000000
G1 X12.441788 Y54.706917 F100.000000
G1 X12.429588 Y54.711309 F100.000000
G1 X12.417688 Y54.716459 F100.000000
G1 X12.406135 Y54.722345 F100.000000
G1 X12.394974 Y54.728946 F100.000000
G1 X12.384250 Y54.736234 F100.000000
G1 X12.374004 Y54.744181 F100.000000
G1 X12.364278 Y54.752756 F100.000000
G1 X12.355110 Y54.761924 F100.000000
G1 X12.346535 Y54.771651 F100.000000
G1 X12.338588 Y54.781896 F100.000000
G1 X12.331299 Y54.792620 F100.000000
G1 X12.324699 Y54.803781 F100.000000
G1 X12.318812 Y54.815334 F100.000000
G1 X12.313663 Y54.827234 F100.000000
G1 X12.309271 Y54.839434 F100.000000
G1 X12.305653 Y54.851885 F100.000000
G1 X12.302825 Y54.864539 F100.000000
G1 X12.300796 Y54.877346 F100.000000
G1 X12.299576 Y54.890255 F100.000000
G1 X12.299169 Y54.903215 F100.000000
G1 X12.299576 Y54.916175 F100.000000
G1 X12.300796 Y54.929084 F100.000000
G1 X12.302825 Y54.941891 F100.000000
G1 X12.305653 Y54.954545 F100.000000
G1 X12.309271 Y54.966996 F100.000000
G1 X12.313663 Y54.979196 F100.000000
G1 X12.318812 Y54.991096 F100.000000
G1 X12.324699 Y55.002649 F100.000000
G1 X12.331299 Y55.013810 F100.000000
G1 X12.338588 Y55.024534 F100.000000
G1 X12.346535 Y55.034779 F100.000000
G1 X12.355110 Y55.044506 F100.000000
G1 X12.364278 Y55.053674 F100.000000
G1 X12.374004 Y55.062249 F100.000000
G1 X12.384250 Y55.070196 F100.000000
G1 X12.394974 Y55.077484 F100.000000
G1 X12.406135 Y55.084085 F100.000000
G1 X12.417688 Y55.089971 F100.000000
G1 X12.429588 Y55.095121 F100.000000
G1 X12.441788 Y55.099513 F100.000000
G1 X12.454239 Y55.103131 F100.000000
G1 X12.466893 Y55.105959 F100.000000
G1 X12.479700 Y55.107987 F100.000000
G1 X12.492609 Y55.109208 F100.000000
G1 X12.505569 Y55.109615 F100.000000
G1 X12.518529 Y55.109208 F100.000000
G1 X12.531438 Y55.107987 F100.000000
G1 X12.544244 Y55.105959 F100.000000
G1 X12.556898 Y55.103131 F100.000000
G1 X12.569350 Y55.099513 F100.000000
G1 X12.581550 Y55.095121 F100.000000
G1 X12.593450 Y55.089971 F100.000000
G1 X12.605003 Y55.084085 F100.000000
G1 X12.616163 Y55.077484 F100.000000
G1 X12.626888 Y55.070196 F100.000000
G1 X12.637133 Y55.062249 F100.000000
G1 X12.646859 Y55.053674 F100.000000
G1 X12.656028 Y55.044506 F100.000000
G1 X12.664603 Y55.034779 F100.000000
G1 X12.672550 Y55.024534 F100.000000
G1 X12.679838 Y55.013810 F100.000000
G1 X12.686438 Y55.002649 F100.000000
G1 X12.692325 Y54.991096 F100.000000
G1 X12.697475 Y54.979196 F100.000000
G1 X12.701867 Y54.966996 F100.000000
G1 X12.705484 Y54.954545 F100.000000
G1 X12.708313 Y54.941891 F100.000000
G1 X12.710341 Y54.929084 F100.000000
G1 X12.711561 Y54.916175 F100.000000
G1 X12.711969 Y54.903215 F100.000000
G0 Z-1.700000 F30.000000
G1 X12.711561 Y54.890255 F100.000000
G1 X12.710341 Y54.877346 F100.000000
G1 X12.708313 Y54.864539 F100.000000
G1 X12.705484 Y54.851885 F100.000000
G1 X12.701867 Y54.839434 F100.000000
G1 X12.697475 Y54.827234 F100.000000
G1 X12.692325 Y54.815334 F100.000000
G1 X12.686438 Y54.803781 F100.000000
G1 X12.679838 Y54.792620 F100.000000
G1 X12.672550 Y54.781896 F100.000000
G1 X12.664603 Y54.771651 F100.000000
G1 X12.656028 Y54.761924 F100.000000
G1 X12.646859 Y54.752756 F100.000000
G1 X12.637133 Y54.744181 F100.000000
G1 X12.626888 Y54.736234 F100.000000
G1 X12.616163 Y54.728946 F100.000000
G1 X12.605003 Y54.722345 F100.000000
G1 X12.593450 Y54.716459 F100.000000
G1 X12.581550 Y54.711309 F100.000000
G1 X12.569350 Y54.706917 F100.000000
G1 X12.556898 Y54.703299 F100.000000
G1 X12.544244 Y54.700471 F100.000000
G1 X12.531438 Y54.698443 F100.000000
G1 X12.518529 Y54.697222 F100.000000
G1 X12.505569 Y54.696815 F100.000000
G1 X12.492609 Y54.697222 F100.000000
G1 X12.479700 Y54.698443 F100.000000
G1 X12.466893 Y54.700471 F100.000000
G1 X12.454239 Y54.703299 F100.000000
G1 X12.441788 Y54.706917 F100.000000
G1 X12.429588 Y54.711309 F100.000000
G1 X12.417688 Y54.716459 F100.000000
G1 X12.406135 Y54.722345 F100.000000
G1 X12.394974 Y54.728946 F100.000000
G1 X12.384250 Y54.736234 F100.000000
G1 X12.374004 Y54.744181 F100.000000
G1 X12.364278 Y54.752756 F100.000000
G1 X12.355110 Y54.761924 F100.000000
G1 X12.346535 Y54.771651 F100.000000
G1 X12.338588 Y54.781896 F100.000000
G1 X12.331299 Y54.792620 F100.000000
G1 X12.324699 Y54.803781 F100.000000
G1 X12.318812 Y54.815334 F100.000000
G1 X12.313663 Y54.827234 F100.000000
G1 X12.309271 Y54.839434 F100.000000
G1 X12.305653 Y54.851885 F100.000000
G1 X12.302825 Y54.864539 F100.000000
G1 X12.300796 Y54.877346 F100.000000
G1 X12.299576 Y54.890255 F100.000000
G1 X12.299169 Y54.903215 F100.000000
G1 X12.299576 Y54.916175 F100.000000
G1 X12.300796 Y54.929084 F100.000000
G1 X12.302825 Y54.941891 F100.000000
G1 X12.305653 Y54.954545 F100.000000
G1 X12.309271 Y54.966996 F100.000000
G1 X12.313663 Y54.979196 F100.000000
G1 X12.318812 Y54.991096 F100.000000
G1 X12.324699 Y55.002649 F100.000000
G1 X12.331299 Y55.013810 F100.000000
G1 X12.338588 Y55.024534 F100.000000
G1 X12.346535 Y55.034779 F100.000000
G1 X12.355110 Y55.044506 F100.000000
G1 X12.364278 Y55.053674 F100.000000
G1 X12.374004 Y55.062249 F100.000000
G1 X12.384250 Y55.070196 F100.000000
G1 X12.394974 Y55.077484 F100.000000
G1 X12.406135 Y55.084085 F100.000000
G1 X12.417688 Y55.089971 F100.000000
G1 X12.429588 Y55.095121 F100.000000
G1 X12.441788 Y55.099513 F100.000000
G1 X12.454239 Y55.103131 F100.000000
G1 X12.466893 Y55.105959 F100.000000
G1 X12.479700 Y55.107987 F100.000000
G1 X12.492609 Y55.109208 F100.000000
G1 X12.505569 Y55.109615 F100.000000
G1 X12.518529 Y55.109208 F100.000000
G1 X12.531438 Y55.107987 F100.000000
G1 X12.544244 Y55.105959 F100.000000
G1 X12.556898 Y55.103131 F100.000000
G1 X12.569350 Y55.099513 F100.000000
G1 X12.581550 Y55.095121 F100.000000
G1 X12.593450 Y55.089971 F100.000000
G1 X12.605003 Y55.084085 F100.000000
G1 X12.616163 Y55.077484 F100.000000
G1 X12.626888 Y55.070196 F100.000000
G1 X12.637133 Y55.062249 F100.000000
G1 X12.646859 Y55.053674 F100.000000
G1 X12.656028 Y55.044506 F100.000000
G1 X12.664603 Y55.034779 F100.000000
G1 X12.672550 Y55.024534 F100.000000
G1 X12.679838 Y55.013810 F100.000000
G1 X12.686438 Y55.002649 F100.000000
G1 X12.692325 Y54.991096 F100.000000
G1 X12.697475 Y54.979196 F100.000000
G1 X12.701867 Y54.966996 F100.000000
G1 X12.705484 Y54.954545 F100.000000
G1 X12.708313 Y54.941891 F100.000000
G1 X12.710341 Y54.929084 F100.000000
G1 X12.711561 Y54.916175 F100.000000
G1 X12.711969 Y54.903215 F100.000000
G0 Z2.000000
G0 X12.711969 Y47.029215
G17
G0 Z-0.425000 F30.000000
G1 Y47.029215 F100.000000
G1 X12.711561 Y47.016255 F100.000000
G1 X12.710341 Y47.003346 F100.000000
G1 X12.708313 Y46.990539 F100.000000
G1 X12.705484 Y46.977885 F100.000000
G1 X12.701867 Y46.965434 F100.000000
G1 X12.697475 Y46.953234 F100.000000
G1 X12.692325 Y46.941334 F100.000000
G1 X12.686438 Y46.929781 F100.000000
G1 X12.679838 Y46.918620 F100.000000
G1 X12.672550 Y46.907896 F100.000000
G1 X12.664603 Y46.897651 F100.000000
G1 X12.656028 Y46.887924 F100.000000
G1 X12.646859 Y46.878756 F100.000000
G1 X12.637133 Y46.870181 F100.000000
G1 X12.626888 Y46.862234 F100.000000
G1 X12.616163 Y46.854946 F100.000000
G1 X12.605003 Y46.848345 F100.000000
G1 X12.593450 Y46.842459 F100.000000
G1 X12.581550 Y46.837309 F100.000000
G1 X12.569350 Y46.832917 F100.000000
G1 X12.556898 Y46.829299 F100.000000
G1 X12.544244 Y46.826471 F100.000000
G1 X12.531438 Y46.824443 F100.000000
G1 X12.518529 Y46.823222 F100.000000
G1 X12.505569 Y46.822815 F100.000000
G1 X12.492609 Y46.823222 F100.000000
G1 X12.479700 Y46.824443 F100.000000
G1 X12.466893 Y46.826471 F100.000000
G1 X12.454239 Y46.829299 F100.000000
G1 X12.441788 Y46.832917 F100.000000
G1 X12.429588 Y46.837309 F100.000000
G1 X12.417688 Y46.842459 F100.000000
G1 X12.406135 Y46.848345 F100.000000
G1 X12.394974 Y46.854946 F100.000000
G1 X12.384250 Y46.862234 F100.000000
G1 X12.374004 Y46.870181 F100.000000
G1 X12.364278 Y46.878756 F100.000000
G1 X12.355110 Y46.887924 F100.000000
G1 X12.346535 Y46.897651 F100.000000
G1 X12.338588 Y46.907896 F100.000000
G1 X12.331299 Y46.918620 F100.000000
G1 X12.324699 Y46.929781 F100.000000
G1 X12.318812 Y46.941334 F100.000000
G1 X12.313663 Y46.953234 F100.000000
G1 X12.309271 Y46.965434 F100.000000
G1 X12.305653 Y46.977885 F100.000000
G1 X12.302825 Y46.990539 F100.000000
G1 X12.300796 Y47.003346 F100.000000
G1 X12.299576 Y47.016255 F100.000000
G1 X12.299169 Y47.029215 F100.000000
G1 X12.299576 Y47.042175 F100.000000
G1 X12.300796 Y47.055084 F100.000000
G1 X12.302825 Y47.067891 F100.000000
G1 X12.305653 Y47.080545 F100.000000
G1 X12.309271 Y47.092996 F100.000000
G1 X12.313663 Y47.105196 F100.000000
G1 X12.318812 Y47.117096 F100.000000
G1 X12.324699 Y47.128649 F100.000000
G1 X12.331299 Y47.139810 F100.000000
G1 X12.338588 Y47.150534 F100.000000
G1 X12.346535 Y47.160779 F100.000000
G1 X12.355110 Y47.170506 F100.000000
G1 X12.364278 Y47.179674 F100.000000
G1 X12.374004 Y47.188249 F100.000000
G1 X12.384250 Y47.196196 F100.000000
G1 X12.394974 Y47.203484 F100.000000
G1 X12.406135 Y47.210085 F100.000000
G1 X12.417688 Y47.215971 F100.000000
G1 X12.429588 Y47.221121 F100.000000
G1 X12.441788 Y47.225513 F100.000000
G1 X12.454239 Y47.229131 F100.000000
G1 X12.466893 Y47.231959 F100.000000
G1 X12.479700 Y47.233987 F100.000000
G1 X12.492609 Y47.235208 F100.000000
G1 X12.505569 Y47.235615 F100.000000
G1 X12.518529 Y47.235208 F100.000000
G1 X12.531438 Y47.233987 F100.000000
G1 X12.544244 Y47.231959 F100.000000
G1 X12.556898 Y47.229131 F100.000000
G1 X12.569350 Y47.225513 F100.000000
G1 X12.581550 Y47.221121 F100.000000
G1 X12.593450 Y47.215971 F100.000000
G1 X12.605003 Y47.210085 F100.000000
G1 X12.616163 Y47.203484 F100.000000
G1 X12.626888 Y47.196196 F100.000000
G1 X12.637133 Y47.188249 F100.000000
G1 X12.646859 Y47.179674 F100.000000
G1 X12.656028 Y47.170506 F100.000000
G1 X12.664603 Y47.160779 F100.000000
G1 X12.672550 Y47.150534 F100.000000
G1 X12.679838 Y47.139810 F100.000000
G1 X12.686438 Y47.128649 F100.000000
G1 X12.692325 Y47.117096 F100.000000
G1 X12.697475 Y47.105196 F100.000000
G1 X12.701867 Y47.092996 F100.000000
G1 X12.705484 Y47.080545 F100.000000
G1 X12.708313 Y47.067891 F100.000000
G1 X12.710341 Y47.055084 F100.000000
G1 X12.711561 Y47.042175 F100.000000
G1 X12.711969 Y47.029215 F100.000000
G0 Z-0.850000 F30.000000
G1 X12.711561 Y47.016255 F100.000000
G1 X12.710341 Y47.003346 F100.000000
G1 X12.708313 Y46.990539 F100.000000
G1 X12.705484 Y46.977885 F100.000000
G1 X12.701867 Y46.965434 F100.000000
G1 X12.697475 Y46.953234 F100.000000
G1 X12.692325 Y46.941334 F100.000000
G1 X12.686438 Y46.929781 F100.000000
G1 X12.679838 Y46.918620 F100.000000
G1 X12.672550 Y46.907896 F100.000000
G1 X12.664603 Y46.897651 F100.000000
G1 X12.656028 Y46.887924 F100.000000
G1 X12.646859 Y46.878756 F100.000000
G1 X12.637133 Y46.870181 F100.000000
G1 X12.626888 Y46.862234 F100.000000
G1 X12.616163 Y46.854946 F100.000000
G1 X12.605003 Y46.848345 F100.000000
G1 X12.593450 Y46.842459 F100.000000
G1 X12.581550 Y46.837309 F100.000000
G1 X12.569350 Y46.832917 F100.000000
G1 X12.556898 Y46.829299 F100.000000
G1 X12.544244 Y46.826471 F100.000000
G1 X12.531438 Y46.824443 F100.000000
G1 X12.518529 Y46.823222 F100.000000
G1 X12.505569 Y46.822815 F100.000000
G1 X12.492609 Y46.823222 F100.000000
G1 X12.479700 Y46.824443 F100.000000
G1 X12.466893 Y46.826471 F100.000000
G1 X12.454239 Y46.829299 F100.000000
G1 X12.441788 Y46.832917 F100.000000
G1 X12.429588 Y46.837309 F100.000000
G1 X12.417688 Y46.842459 F100.000000
G1 X12.406135 Y46.848345 F100.000000
G1 X12.394974 Y46.854946 F100.000000
G1 X12.384250 Y46.862234 F100.000000
G1 X12.374004 Y46.870181 F100.000000
G1 X12.364278 Y46.878756 F100.000000
G1 X12.355110 Y46.887924 F100.000000
G1 X12.346535 Y46.897651 F100.000000
G1 X12.338588 Y46.907896 F100.000000
G1 X12.331299 Y46.918620 F100.000000
G1 X12.324699 Y46.929781 F100.000000
G1 X12.318812 Y46.941334 F100.000000
G1 X12.313663 Y46.953234 F100.000000
G1 X12.309271 Y46.965434 F100.000000
G1 X12.305653 Y46.977885 F100.000000
G1 X12.302825 Y46.990539 F100.000000
G1 X12.300796 Y47.003346 F100.000000
G1 X12.299576 Y47.016255 F100.000000
G1 X12.299169 Y47.029215 F100.000000
G1 X12.299576 Y47.042175 F100.000000
G1 X12.300796 Y47.055084 F100.000000
G1 X12.302825 Y47.067891 F100.000000
G1 X12.305653 Y47.080545 F100.000000
G1 X12.309271 Y47.092996 F100.000000
G1 X12.313663 Y47.105196 F100.000000
G1 X12.318812 Y47.117096 F100.000000
G1 X12.324699 Y47.128649 F100.000000
G1 X12.331299 Y47.139810 F100.000000
G1 X12.338588 Y47.150534 F100.000000
G1 X12.346535 Y47.160779 F100.000000
G1 X12.355110 Y47.170506 F100.000000
G1 X12.364278 Y47.179674 F100.000000
G1 X12.374004 Y47.188249 F100.000000
G1 X12.384250 Y47.196196 F100.000000
G1 X12.394974 Y47.203484 F100.000000
G1 X12.406135 Y47.210085 F100.000000
G1 X12.417688 Y47.215971 F100.000000
G1 X12.429588 Y47.221121 F100.000000
G1 X12.441788 Y47.225513 F100.000000
G1 X12.454239 Y47.229131 F100.000000
G1 X12.466893 Y47.231959 F100.000000
G1 X12.479700 Y47.233987 F100.000000
G1 X12.492609 Y47.235208 F100.000000
G1 X12.505569 Y47.235615 F100.000000
G1 X12.518529 Y47.235208 F100.000000
G1 X12.531438 Y47.233987 F100.000000
G1 X12.544244 Y47.231959 F100.000000
G1 X12.556898 Y47.229131 F100.000000
G1 X12.569350 Y47.225513 F100.000000
G1 X12.581550 Y47.221121 F100.000000
G1 X12.593450 Y47.215971 F100.000000
G1 X12.605003 Y47.210085 F100.000000
G1 X12.616163 Y47.203484 F100.000000
G1 X12.626888 Y47.196196 F100.000000
G1 X12.637133 Y47.188249 F100.000000
G1 X12.646859 Y47.179674 F100.000000
G1 X12.656028 Y47.170506 F100.000000
G1 X12.664603 Y47.160779 F100.000000
G1 X12.672550 Y47.150534 F100.000000
G1 X12.679838 Y47.139810 F100.000000
G1 X12.686438 Y47.128649 F100.000000
G1 X12.692325 Y47.117096 F100.000000
G1 X12.697475 Y47.105196 F100.000000
G1 X12.701867 Y47.092996 F100.000000
G1 X12.705484 Y47.080545 F100.000000
G1 X12.708313 Y47.067891 F100.000000
G1 X12.710341 Y47.055084 F100.000000
G1 X12.711561 Y47.042175 F100.000000
G1 X12.711969 Y47.029215 F100.000000
G0 Z-1.275000 F30.000000
G1 X12.711561 Y47.016255 F100.000000
G1 X12.710341 Y47.003346 F100.000000
G1 X12.708313 Y46.990539 F100.000000
G1 X12.705484 Y46.977885 F100.000000
G1 X12.701867 Y46.965434 F100.000000
G1 X12.697475 Y46.953234 F100.000000
G1 X12.692325 Y46.941334 F100.000000
G1 X12.686438 Y46.929781 F100.000000
G1 X12.679838 Y46.918620 F100.000000
G1 X12.672550 Y46.907896 F100.000000
G1 X12.664603 Y46.897651 F100.000000
G1 X12.656028 Y46.887924 F100.000000
G1 X12.646859 Y46.878756 F100.000000
G1 X12.637133 Y46.870181 F100.000000
G1 X12.626888 Y46.862234 F100.000000
G1 X12.616163 Y46.854946 F100.000000
G1 X12.605003 Y46.848345 F100.000000
G1 X12.593450 Y46.842459 F100.000000
G1 X12.581550 Y46.837309 F100.000000
G1 X12.569350 Y46.832917 F100.000000
G1 X12.556898 Y46.829299 F100.000000
G1 X12.544244 Y46.826471 F100.000000
G1 X12.531438 Y46.824443 F100.000000
G1 X12.518529 Y46.823222 F100.000000
G1 X12.505569 Y46.822815 F100.000000
G1 X12.492609 Y46.823222 F100.000000
G1 X12.479700 Y46.824443 F100.000000
G1 X12.466893 Y46.826471 F100.000000
G1 X12.454239 Y46.829299 F100.000000
G1 X12.441788 Y46.832917 F100.000000
G1 X12.429588 Y46.837309 F100.000000
G1 X12.417688 Y46.842459 F100.000000
G1 X12.406135 Y46.848345 F100.000000
G1 X12.394974 Y46.854946 F100.000000
G1 X12.384250 Y46.862234 F100.000000
G1 X12.374004 Y46.870181 F100.000000
G1 X12.364278 Y46.878756 F100.000000
G1 X12.355110 Y46.887924 F100.000000
G1 X12.346535 Y46.897651 F100.000000
G1 X12.338588 Y46.907896 F100.000000
G1 X12.331299 Y46.918620 F100.000000
G1 X12.324699 Y46.929781 F100.000000
G1 X12.318812 Y46.941334 F100.000000
G1 X12.313663 Y46.953234 F100.000000
G1 X12.309271 Y46.965434 F100.000000
G1 X12.305653 Y46.977885 F100.000000
G1 X12.302825 Y46.990539 F100.000000
G1 X12.300796 Y47.003346 F100.000000
G1 X12.299576 Y47.016255 F100.000000
G1 X12.299169 Y47.029215 F100.000000
G1 X12.299576 Y47.042175 F100.000000
G1 X12.300796 Y47.055084 F100.000000
G1 X12.302825 Y47.067891 F100.000000
G1 X12.305653 Y47.080545 F100.000000
G1 X12.309271 Y47.092996 F100.000000
G1 X12.313663 Y47.105196 F100.000000
G1 X12.318812 Y47.117096 F100.000000
G1 X12.324699 Y47.128649 F100.000000
G1 X12.331299 Y47.139810 F100.000000
G1 X12.338588 Y47.150534 F100.000000
G1 X12.346535 Y47.160779 F100.000000
G1 X12.355110 Y47.170506 F100.000000
G1 X12.364278 Y47.179674 F100.000000
G1 X12.374004 Y47.188249 F100.000000
G1 X12.384250 Y47.196196 F100.000000
G1 X12.394974 Y47.203484 F100.000000
G1 X12.406135 Y47.210085 F100.000000
G1 X12.417688 Y47.215971 F100.000000
G1 X12.429588 Y47.221121 F100.000000
G1 X12.441788 Y47.225513 F100.000000
G1 X12.454239 Y47.229131 F100.000000
G1 X12.466893 Y47.231959 F100.000000
G1 X12.479700 Y47.233987 F100.000000
G1 X12.492609 Y47.235208 F100.000000
G1 X12.505569 Y47.235615 F100.000000
G1 X12.518529 Y47.235208 F100.000000
G1 X12.531438 Y47.233987 F100.000000
