(Generated by pygerber2gcode_cui_MOD.py )
( 2013-05-27 01:17:55 )
(Initialize)
G92 X0.000000 Y0.000000 Z0.000000

(Start form here)
G0 Z2.000000
G0 X45.403381 Y13.183340
G1 Z-0.040000 F60.000000
G1 X45.419305 Y13.167835 F100.000000
G1 X45.437937 Y13.155718 F100.000000
G1 X45.446872 Y13.140994 F100.000000
G1 X45.459211 Y13.128979 F100.000000
G1 X45.466831 Y13.108100 F100.000000
G1 X45.478361 Y13.089098 F100.000000
G1 X45.811101 Y12.088338 F100.000000
G1 X45.818616 Y12.010777 F100.000000
G1 X45.791734 Y11.937636 F100.000000
G1 X45.735779 Y11.883402 F100.000000
G1 X45.661835 Y11.858816 F100.000000
G1 X45.584546 Y11.868749 F100.000000
G1 X45.519220 Y11.911232 F100.000000
G1 X45.478797 Y11.977852 F100.000000
G1 X45.423216 Y12.145020 F100.000000
G1 X45.199087 F100.000000
G1 X45.142954 Y11.977472 F100.000000
G1 X45.102379 Y11.910945 F100.000000
G1 X45.036956 Y11.868611 F100.000000
G1 X44.959645 Y11.858855 F100.000000
G1 X44.885757 Y11.883610 F100.000000
G1 X44.829926 Y11.937971 F100.000000
G1 X44.810021 Y11.992514 F100.000000
G1 X44.801944 Y11.957124 F100.000000
G1 X44.753359 Y11.896200 F100.000000
G1 X44.683151 Y11.862390 F100.000000
G1 X44.605226 F100.000000
G1 X44.535019 Y11.896200 F100.000000
G1 X44.486434 Y11.957124 F100.000000
G1 X44.469094 Y12.033095 F100.000000
G1 Y12.521155 F100.000000
G1 X44.459619 Y12.526020 F100.000000
G1 X44.399498 F100.000000
G1 X44.393238 Y12.522805 F100.000000
G1 X44.390024 Y12.516546 F100.000000
G1 Y12.033095 F100.000000
G1 X44.372684 Y11.957124 F100.000000
G1 X44.324099 Y11.896200 F100.000000
G1 X44.253891 Y11.862390 F100.000000
G1 X44.175966 F100.000000
G1 X44.105759 Y11.896200 F100.000000
G1 X44.057174 Y11.957124 F100.000000
G1 X44.039834 Y12.033095 F100.000000
G0 Z2.000000
G1 Z-0.040000 F60.000000
G1 Y12.558875 F100.000000
G1 X44.040344 Y12.561110 F100.000000
G1 X44.039891 Y12.563357 F100.000000
G1 X44.048990 Y12.598991 F100.000000
G1 X44.057174 Y12.634846 F100.000000
G1 X44.058603 Y12.636638 F100.000000
G1 X44.059170 Y12.638859 F100.000000
G1 X44.107430 Y12.732839 F100.000000
G1 X44.117265 Y12.744545 F100.000000
G1 X44.123544 Y12.758485 F100.000000
G1 X44.142028 Y12.774016 F100.000000
G1 X44.157559 Y12.792499 F100.000000
G1 X44.171499 Y12.798778 F100.000000
G1 X44.183205 Y12.808614 F100.000000
G1 X44.277185 Y12.856874 F100.000000
G1 X44.279406 Y12.857441 F100.000000
G1 X44.281198 Y12.858870 F100.000000
G1 X44.317053 Y12.867054 F100.000000
G1 X44.352687 Y12.876153 F100.000000
G1 X44.354934 Y12.875700 F100.000000
G1 X44.357169 Y12.876210 F100.000000
G1 X44.501949 F100.000000
G1 X44.504184 Y12.875700 F100.000000
G1 X44.506431 Y12.876153 F100.000000
G1 X44.542065 Y12.867054 F100.000000
G1 X44.577920 Y12.858870 F100.000000
G1 X44.578076 Y12.858745 F100.000000
G1 X44.605226 Y12.871820 F100.000000
G1 X44.683151 F100.000000
G1 X44.753359 Y12.838010 F100.000000
G1 X44.801944 Y12.777086 F100.000000
G1 X44.819284 Y12.701115 F100.000000
G1 Y12.113731 F100.000000
G1 X45.146184 Y13.089478 F100.000000
G1 X45.157756 Y13.108453 F100.000000
G1 X45.165424 Y13.129314 F100.000000
G1 X45.177791 Y13.141301 F100.000000
G1 X45.186759 Y13.156005 F100.000000
G1 X45.205419 Y13.168079 F100.000000
G1 X45.221378 Y13.183548 F100.000000
G1 X45.237722 Y13.188982 F100.000000
G1 X45.252181 Y13.198339 F100.000000
G1 X45.274232 Y13.201122 F100.000000
G1 X45.295323 Y13.208134 F100.000000
G1 X45.312405 Y13.205939 F100.000000
G1 X45.329493 Y13.208095 F100.000000
G1 X45.350567 Y13.201034 F100.000000
G1 X45.372612 Y13.198201 F100.000000
G1 X45.387050 Y13.188812 F100.000000
G1 X45.403381 Y13.183340 F100.000000
G0 Z2.000000
G0 X43.861510 Y12.489936
G1 Z-0.040000 F60.000000
G1 X43.876139 Y12.478422 F100.000000
G1 X43.885301 Y12.459706 F100.000000
G1 X43.898189 Y12.443331 F100.000000
G1 X43.943909 Y12.346811 F100.000000
G1 X43.952216 Y12.309306 F100.000000
G1 X43.960764 Y12.271855 F100.000000
G1 Y12.177875 F100.000000
G1 X43.952216 Y12.140424 F100.000000
G1 X43.943909 Y12.102919 F100.000000
G1 X43.898189 Y12.006399 F100.000000
G1 X43.886438 Y11.991469 F100.000000
G1 X43.878449 Y11.974230 F100.000000
G1 X43.862647 Y11.961239 F100.000000
G1 X43.849996 Y11.945164 F100.000000
G1 X43.832931 Y11.936811 F100.000000
G1 X43.818254 Y11.924745 F100.000000
G1 X43.721734 Y11.876485 F100.000000
G1 X43.720440 Y11.876170 F100.000000
G1 X43.719400 Y11.875340 F100.000000
G1 X43.682650 Y11.866952 F100.000000
G1 X43.646029 Y11.858019 F100.000000
G1 X43.644727 Y11.858296 F100.000000
G1 X43.643429 Y11.858000 F100.000000
G1 X43.404669 F100.000000
G1 X43.402434 Y11.858510 F100.000000
G1 X43.400187 Y11.858057 F100.000000
G1 X43.364553 Y11.867156 F100.000000
G1 X43.361157 Y11.867931 F100.000000
G1 X43.349651 Y11.862390 F100.000000
G1 X43.271726 F100.000000
G1 X43.201519 Y11.896200 F100.000000
G1 X43.152934 Y11.957124 F100.000000
G1 X43.135594 Y12.033095 F100.000000
G1 Y12.558875 F100.000000
G1 X43.135673 Y12.559223 F100.000000
G1 X43.135595 Y12.559572 F100.000000
G1 X43.144339 Y12.597192 F100.000000
G1 X43.152934 Y12.634846 F100.000000
G1 X43.153156 Y12.635125 F100.000000
G1 X43.153237 Y12.635473 F100.000000
G1 X43.198957 Y12.729453 F100.000000
G1 X43.210298 Y12.743559 F100.000000
G1 X43.217908 Y12.759980 F100.000000
G1 X43.234404 Y12.773541 F100.000000
G1 X43.247784 Y12.790183 F100.000000
G1 X43.264122 Y12.797971 F100.000000
G1 X43.278104 Y12.809465 F100.000000
G1 X43.374624 Y12.857725 F100.000000
G1 X43.375917 Y12.858040 F100.000000
G1 X43.376958 Y12.858870 F100.000000
G1 X43.413708 Y12.867258 F100.000000
G1 X43.450329 Y12.876191 F100.000000
G1 X43.451631 Y12.875914 F100.000000
G1 X43.452929 Y12.876210 F100.000000
G1 X43.643429 F100.000000
G1 X43.644727 Y12.875914 F100.000000
G1 X43.646029 Y12.876191 F100.000000
G1 X43.682650 Y12.867258 F100.000000
G1 X43.719400 Y12.858870 F100.000000
G1 X43.720440 Y12.858040 F100.000000
G1 X43.721734 Y12.857725 F100.000000
G1 X43.818254 Y12.809465 F100.000000
G1 X43.878449 Y12.759980 F100.000000
G1 X43.911213 Y12.689278 F100.000000
G1 X43.910056 Y12.611362 F100.000000
G1 X43.875207 Y12.541664 F100.000000
G1 X43.836062 Y12.511387 F100.000000
G1 X43.849996 Y12.504566 F100.000000
G1 X43.861510 Y12.489936 F100.000000
G0 Z2.000000
G0 X43.485784 Y12.239000
G1 Z-0.040000 F60.000000
G1 Y12.208190 F100.000000
G1 X43.602094 F100.000000
G1 X43.607583 Y12.210934 F100.000000
G1 X43.610574 Y12.217248 F100.000000
G1 Y12.232482 F100.000000
G1 X43.608479 Y12.236905 F100.000000
G1 X43.604056 Y12.239000 F100.000000
G1 X43.485784 F100.000000
G0 Z2.000000
G0 X43.008264 Y13.033855
G1 Z-0.040000 F60.000000
G1 Y12.177875 F100.000000
G1 X43.007968 Y12.176577 F100.000000
G1 X43.008244 Y12.175275 F100.000000
G1 X42.999312 Y12.138654 F100.000000
G1 X42.990924 Y12.101904 F100.000000
G1 X42.990094 Y12.100863 F100.000000
G1 X42.989778 Y12.099570 F100.000000
G1 X42.941518 Y12.003050 F100.000000
G1 X42.931216 Y11.990518 F100.000000
G1 X42.924553 Y11.975725 F100.000000
G1 X42.906778 Y11.960789 F100.000000
G1 X42.892034 Y11.942854 F100.000000
G1 X42.877314 Y11.936033 F100.000000
G1 X42.864893 Y11.925596 F100.000000
G1 X42.770913 Y11.877336 F100.000000
G1 X42.695411 Y11.858057 F100.000000
G1 X42.619021 Y11.873447 F100.000000
G1 X42.556873 Y11.920457 F100.000000
G1 X42.521277 Y11.989776 F100.000000
G1 X42.519282 Y12.067675 F100.000000
G1 X42.551284 Y12.138725 F100.000000
G1 X42.610945 Y12.188854 F100.000000
G1 X42.653934 Y12.210929 F100.000000
G1 X42.658074 Y12.219209 F100.000000
G1 Y13.033855 F100.000000
G1 X42.675414 Y13.109826 F100.000000
G1 X42.723999 Y13.170750 F100.000000
G1 X42.794206 Y13.204560 F100.000000
G1 X42.872131 F100.000000
G1 X42.942339 Y13.170750 F100.000000
G1 X42.990924 Y13.109826 F100.000000
G1 X43.008264 Y13.033855 F100.000000
G0 Z2.000000
G0 X41.982793 Y11.867156
G1 Z-0.040000 F60.000000
G1 X41.946938 Y11.875340 F100.000000
G1 X41.945146 Y11.876769 F100.000000
G1 X41.942925 Y11.877336 F100.000000
G1 X41.848945 Y11.925596 F100.000000
G1 X41.828134 Y11.943082 F100.000000
G1 X41.805118 Y11.957544 F100.000000
G1 X41.756858 Y12.005804 F100.000000
G1 X41.742396 Y12.028820 F100.000000
G1 X41.724910 Y12.049631 F100.000000
G1 X41.676650 Y12.143611 F100.000000
G1 X41.676083 Y12.145832 F100.000000
G1 X41.674654 Y12.147624 F100.000000
G1 X41.666470 Y12.183479 F100.000000
G1 X41.657371 Y12.219113 F100.000000
G1 X41.657824 Y12.221360 F100.000000
G1 X41.657314 Y12.223595 F100.000000
G1 Y12.510615 F100.000000
G1 X41.657824 Y12.512850 F100.000000
G1 X41.657371 Y12.515097 F100.000000
G1 X41.666470 Y12.550731 F100.000000
G1 X41.674654 Y12.586586 F100.000000
G1 X41.676083 Y12.588378 F100.000000
G1 X41.676650 Y12.590599 F100.000000
G1 X41.724910 Y12.684579 F100.000000
G1 X41.742396 Y12.705390 F100.000000
G1 X41.756858 Y12.728406 F100.000000
G1 X41.805118 Y12.776666 F100.000000
G1 X41.828134 Y12.791128 F100.000000
G1 X41.848945 Y12.808614 F100.000000
G1 X41.942925 Y12.856874 F100.000000
G1 X41.945146 Y12.857441 F100.000000
G1 X41.946938 Y12.858870 F100.000000
G1 X41.982793 Y12.867054 F100.000000
G1 X42.018427 Y12.876153 F100.000000
G1 X42.020674 Y12.875700 F100.000000
G1 X42.022909 Y12.876210 F100.000000
G1 X42.165149 F100.000000
G1 X42.166447 Y12.875914 F100.000000
G1 X42.167749 Y12.876191 F100.000000
G1 X42.204370 Y12.867258 F100.000000
G1 X42.241120 Y12.858870 F100.000000
G1 X42.242160 Y12.858040 F100.000000
G1 X42.243454 Y12.857725 F100.000000
G1 X42.339974 Y12.809465 F100.000000
G1 X42.361683 Y12.791618 F100.000000
G1 X42.385480 Y12.776666 F100.000000
G1 X42.433740 Y12.728406 F100.000000
G1 X42.449187 Y12.703821 F100.000000
G1 X42.467380 Y12.681193 F100.000000
G1 X42.513100 Y12.587213 F100.000000
G1 X42.513181 Y12.586865 F100.000000
G1 X42.513404 Y12.586586 F100.000000
G1 X42.521998 Y12.548932 F100.000000
G1 X42.530742 Y12.511312 F100.000000
G1 X42.530664 Y12.510963 F100.000000
G1 X42.530744 Y12.510615 F100.000000
G1 Y12.223595 F100.000000
G1 X42.530664 Y12.223247 F100.000000
G1 X42.530742 Y12.222898 F100.000000
G1 X42.521998 Y12.185278 F100.000000
G1 X42.513404 Y12.147624 F100.000000
G1 X42.513181 Y12.147345 F100.000000
G1 X42.513100 Y12.146997 F100.000000
G1 X42.467380 Y12.053017 F100.000000
G1 X42.449187 Y12.030389 F100.000000
G1 X42.433740 Y12.005804 F100.000000
G1 X42.385480 Y11.957544 F100.000000
G1 X42.361683 Y11.942592 F100.000000
G1 X42.339974 Y11.924745 F100.000000
G1 X42.243454 Y11.876485 F100.000000
G1 X42.242160 Y11.876170 F100.000000
G1 X42.241120 Y11.875340 F100.000000
G1 X42.204370 Y11.866952 F100.000000
G1 X42.167749 Y11.858019 F100.000000
G1 X42.166447 Y11.858296 F100.000000
G1 X42.165149 Y11.858000 F100.000000
G1 X42.022909 F100.000000
G1 X42.020674 Y11.858510 F100.000000
G1 X42.018427 Y11.858057 F100.000000
G1 X41.982793 Y11.867156 F100.000000
G0 Z2.000000
G0 X42.123814 Y12.208190
G1 Z-0.040000 F60.000000
G1 X42.157950 Y12.225258 F100.000000
G1 X42.165335 Y12.232643 F100.000000
G1 X42.180554 Y12.263926 F100.000000
G1 Y12.470284 F100.000000
G1 X42.165335 Y12.501567 F100.000000
G1 X42.157950 Y12.508952 F100.000000
G1 X42.123814 Y12.526020 F100.000000
G1 X42.065238 F100.000000
G1 X42.033330 Y12.509635 F100.000000
G1 X42.023889 Y12.500193 F100.000000
G1 X42.007504 Y12.468286 F100.000000
G1 Y12.265924 F100.000000
G1 X42.023889 Y12.234017 F100.000000
G1 X42.033330 Y12.224575 F100.000000
G1 X42.065238 Y12.208190 F100.000000
G1 X42.123814 F100.000000
G0 Z2.000000
G0 X41.301025 Y12.867054
G1 Z-0.040000 F60.000000
G1 X41.336880 Y12.858870 F100.000000
G1 X41.338672 Y12.857441 F100.000000
G1 X41.340893 Y12.856874 F100.000000
G1 X41.434873 Y12.808614 F100.000000
G1 X41.455684 Y12.791128 F100.000000
G1 X41.478700 Y12.776666 F100.000000
G1 X41.526960 Y12.728406 F100.000000
G1 X41.541421 Y12.705390 F100.000000
G1 X41.558907 Y12.684579 F100.000000
G1 X41.607167 Y12.590599 F100.000000
G1 X41.607735 Y12.588378 F100.000000
G1 X41.609164 Y12.586586 F100.000000
G1 X41.617348 Y12.550731 F100.000000
G1 X41.626446 Y12.515097 F100.000000
G1 X41.625994 Y12.512850 F100.000000
G1 X41.626504 Y12.510615 F100.000000
G1 Y12.223595 F100.000000
G1 X41.625994 Y12.221360 F100.000000
G1 X41.626446 Y12.219113 F100.000000
G1 X41.617348 Y12.183479 F100.000000
G1 X41.609164 Y12.147624 F100.000000
G1 X41.607735 Y12.145832 F100.000000
G1 X41.607167 Y12.143611 F100.000000
G1 X41.558907 Y12.049631 F100.000000
G1 X41.541421 Y12.028820 F100.000000
G1 X41.526960 Y12.005804 F100.000000
G1 X41.478700 Y11.957544 F100.000000
G1 X41.455684 Y11.943082 F100.000000
G1 X41.434873 Y11.925596 F100.000000
G1 X41.421953 Y11.918961 F100.000000
G1 X41.475056 Y11.908263 F100.000000
G1 X41.537204 Y11.861253 F100.000000
G1 X41.572800 Y11.791934 F100.000000
G1 X41.574795 Y11.714035 F100.000000
G1 X41.542793 Y11.642985 F100.000000
G1 X41.483133 Y11.592856 F100.000000
G1 X41.389153 Y11.544596 F100.000000
G1 X41.386932 Y11.544029 F100.000000
G1 X41.385140 Y11.542600 F100.000000
G1 X41.349285 Y11.534416 F100.000000
G1 X41.313651 Y11.525317 F100.000000
G1 X41.311404 Y11.525770 F100.000000
G1 X41.309169 Y11.525260 F100.000000
G1 X41.164389 F100.000000
G1 X41.162154 Y11.525770 F100.000000
G1 X41.159907 Y11.525317 F100.000000
G1 X41.124273 Y11.534416 F100.000000
G1 X41.088418 Y11.542600 F100.000000
G1 X41.086626 Y11.544029 F100.000000
G1 X41.084405 Y11.544596 F100.000000
G1 X40.990425 Y11.592856 F100.000000
G1 X40.971389 Y11.608850 F100.000000
G1 X40.949988 Y11.621504 F100.000000
G1 X40.901728 Y11.667224 F100.000000
G1 X40.884855 Y11.692533 F100.000000
G1 X40.865539 Y11.716030 F100.000000
G1 X40.817279 Y11.812550 F100.000000
G1 X40.816964 Y11.813843 F100.000000
G1 X40.816134 Y11.814884 F100.000000
G1 X40.807746 Y11.851634 F100.000000
G1 X40.798813 Y11.888255 F100.000000
G1 X40.799090 Y11.889557 F100.000000
G1 X40.798794 Y11.890855 F100.000000
G1 Y12.701115 F100.000000
G1 X40.816134 Y12.777086 F100.000000
G1 X40.864719 Y12.838010 F100.000000
G1 X40.934926 Y12.871820 F100.000000
G1 X41.012851 F100.000000
G1 X41.025174 Y12.865886 F100.000000
G1 X41.031188 Y12.867258 F100.000000
G1 X41.067809 Y12.876191 F100.000000
G1 X41.069111 Y12.875914 F100.000000
G1 X41.070409 Y12.876210 F100.000000
G1 X41.260909 F100.000000
G1 X41.263144 Y12.875700 F100.000000
G1 X41.265391 Y12.876153 F100.000000
G1 X41.301025 Y12.867054 F100.000000
G0 Z2.000000
G0 X41.148984 Y12.526020
G1 Z-0.040000 F60.000000
G1 Y12.208190 F100.000000
G1 X41.218579 F100.000000
G1 X41.250487 Y12.224575 F100.000000
G1 X41.259929 Y12.234017 F100.000000
G1 X41.276314 Y12.265924 F100.000000
G1 Y12.468286 F100.000000
G1 X41.259929 Y12.500193 F100.000000
G1 X41.250487 Y12.509635 F100.000000
G1 X41.218579 Y12.526020 F100.000000
G1 X41.148984 F100.000000
G0 Z2.000000
G0 X28.108789 Y39.609710
G1 Z-0.040000 F60.000000
G1 X28.124194 F100.000000
G1 Y39.673750 F100.000000
G1 X28.079894 Y39.688780 F100.000000
G1 X28.043223 F100.000000
G1 X27.965783 Y39.662967 F100.000000
G1 X27.919815 Y39.615756 F100.000000
G1 X27.892636 Y39.562829 F100.000000
G1 X27.854624 Y39.412781 F100.000000
G1 Y39.314209 F100.000000
G1 X27.892870 Y39.163237 F100.000000
G1 X27.920487 Y39.108004 F100.000000
G1 X27.964754 Y39.062540 F100.000000
G1 X28.041798 Y39.038210 F100.000000
G1 X28.116718 F100.000000
G1 X28.174431 Y39.066287 F100.000000
G1 X28.250332 Y39.083929 F100.000000
G1 X28.326371 Y39.066891 F100.000000
G1 X28.387488 Y39.018549 F100.000000
G1 X28.421577 Y38.948476 F100.000000
G1 X28.421887 Y38.870552 F100.000000
G1 X28.388357 Y38.800211 F100.000000
G1 X28.327627 Y38.751383 F100.000000
G1 X28.233647 Y38.705663 F100.000000
G1 X28.233299 Y38.705583 F100.000000
G1 X28.233020 Y38.705360 F100.000000
G1 X28.195365 Y38.696766 F100.000000
G1 X28.157746 Y38.688021 F100.000000
G1 X28.157397 Y38.688099 F100.000000
G1 X28.157049 Y38.688020 F100.000000
G1 X28.014809 F100.000000
G1 X27.988736 Y38.693971 F100.000000
G1 X27.962082 Y38.696147 F100.000000
G1 X27.817302 Y38.741867 F100.000000
G1 X27.813906 Y38.743859 F100.000000
G1 X27.810000 Y38.744351 F100.000000
G1 X27.780447 Y38.763476 F100.000000
G1 X27.750079 Y38.781280 F100.000000
G1 X27.747883 Y38.784547 F100.000000
G1 X27.744578 Y38.786686 F100.000000
G1 X27.650598 Y38.883206 F100.000000
G1 X27.636560 Y38.906223 F100.000000
G1 X27.619439 Y38.927050 F100.000000
G1 X27.571179 Y39.023570 F100.000000
G1 X27.566686 Y39.041992 F100.000000
G1 X27.558056 Y39.058876 F100.000000
G1 X27.509796 Y39.249376 F100.000000
G1 X27.509279 Y39.271145 F100.000000
G1 X27.504434 Y39.292375 F100.000000
G1 Y39.434615 F100.000000
G1 X27.509279 Y39.455845 F100.000000
G1 X27.509796 Y39.477614 F100.000000
G1 X27.558056 Y39.668114 F100.000000
G1 X27.567109 Y39.685826 F100.000000
G1 X27.572030 Y39.705099 F100.000000
G1 X27.620290 Y39.799079 F100.000000
G1 X27.637040 Y39.819014 F100.000000
G1 X27.650598 Y39.841244 F100.000000
G1 X27.744578 Y39.937764 F100.000000
G1 X27.746696 Y39.939135 F100.000000
G1 X27.748070 Y39.941251 F100.000000
G1 X27.779309 Y39.960238 F100.000000
G1 X27.810000 Y39.980099 F100.000000
G1 X27.812503 Y39.980414 F100.000000
G1 X27.814659 Y39.981725 F100.000000
G1 X27.959439 Y40.029985 F100.000000
G1 X27.987410 Y40.032716 F100.000000
G1 X28.014809 Y40.038970 F100.000000
G1 X28.108789 F100.000000
G1 X28.136635 Y40.032614 F100.000000
G1 X28.165046 Y40.029686 F100.000000
G1 X28.307286 Y39.981426 F100.000000
G1 X28.308012 Y39.980980 F100.000000
G1 X28.308859 Y39.980884 F100.000000
G1 X28.341163 Y39.960587 F100.000000
G1 X28.373658 Y39.940597 F100.000000
G1 X28.374118 Y39.939879 F100.000000
G1 X28.374840 Y39.939426 F100.000000
G1 X28.423100 Y39.891166 F100.000000
G1 X28.438728 Y39.866293 F100.000000
G1 X28.457044 Y39.843326 F100.000000
G1 X28.459260 Y39.833617 F100.000000
G1 X28.464558 Y39.825185 F100.000000
G1 X28.467847 Y39.795994 F100.000000
G1 X28.474384 Y39.767355 F100.000000
G1 Y39.434615 F100.000000
G1 X28.469994 Y39.415381 F100.000000
G1 Y39.395653 F100.000000
G1 X28.461434 Y39.377878 F100.000000
G1 X28.457044 Y39.358644 F100.000000
G1 X28.444743 Y39.343220 F100.000000
G1 X28.436184 Y39.325445 F100.000000
G1 X28.420759 Y39.313145 F100.000000
G1 X28.408459 Y39.297720 F100.000000
G1 X28.390684 Y39.289160 F100.000000
G1 X28.375260 Y39.276860 F100.000000
G1 X28.356026 Y39.272470 F100.000000
G1 X28.338251 Y39.263910 F100.000000
G1 X28.318523 F100.000000
G1 X28.299289 Y39.259520 F100.000000
G1 X28.108789 F100.000000
G1 X28.032818 Y39.276860 F100.000000
G1 X27.971894 Y39.325445 F100.000000
G1 X27.938084 Y39.395653 F100.000000
G1 Y39.473577 F100.000000
G1 X27.971894 Y39.543785 F100.000000
G1 X28.032818 Y39.592370 F100.000000
G1 X28.108789 Y39.609710 F100.000000
G0 Z2.000000
G0 X28.610062 Y38.734200
G1 Z-0.040000 F60.000000
G1 X28.591356 Y38.761360 F100.000000
G1 X28.570794 Y38.787144 F100.000000
G1 X28.569404 Y38.793233 F100.000000
G1 X28.565862 Y38.798376 F100.000000
G1 X28.560792 Y38.830963 F100.000000
G1 X28.553454 Y38.863115 F100.000000
G1 Y39.863875 F100.000000
G1 X28.570794 Y39.939846 F100.000000
G1 X28.619379 Y40.000770 F100.000000
G1 X28.689586 Y40.034580 F100.000000
G1 X28.767511 F100.000000
G1 X28.837719 Y40.000770 F100.000000
G1 X28.886304 Y39.939846 F100.000000
G1 X28.903644 Y39.863875 F100.000000
G1 Y39.522810 F100.000000
G1 X29.148000 Y39.950705 F100.000000
G1 X29.170317 Y39.974986 F100.000000
G1 X29.190879 Y40.000770 F100.000000
G1 X29.196505 Y40.003479 F100.000000
G1 X29.200732 Y40.008078 F100.000000
G1 X29.231373 Y40.020271 F100.000000
G1 X29.261086 Y40.034580 F100.000000
G1 X29.267332 F100.000000
G1 X29.273134 Y40.036889 F100.000000
G1 X29.306032 Y40.034580 F100.000000
G1 X29.339011 F100.000000
G1 X29.344638 Y40.031870 F100.000000
G1 X29.350868 Y40.031433 F100.000000
G1 X29.379506 Y40.015079 F100.000000
G1 X29.409219 Y40.000770 F100.000000
G1 X29.413112 Y39.995887 F100.000000
G1 X29.418536 Y39.992790 F100.000000
G1 X29.437242 Y39.965630 F100.000000
G1 X29.457804 Y39.939846 F100.000000
G1 X29.459194 Y39.933757 F100.000000
G1 X29.462736 Y39.928614 F100.000000
G1 X29.467805 Y39.896027 F100.000000
G1 X29.475144 Y39.863875 F100.000000
G1 Y38.863115 F100.000000
G1 X29.457804 Y38.787144 F100.000000
G1 X29.409219 Y38.726220 F100.000000
G1 X29.339011 Y38.692410 F100.000000
G1 X29.261086 F100.000000
G1 X29.190879 Y38.726220 F100.000000
G1 X29.142294 Y38.787144 F100.000000
G1 X29.124954 Y38.863115 F100.000000
G1 Y39.204180 F100.000000
G1 X28.880598 Y38.776285 F100.000000
G1 X28.858281 Y38.752004 F100.000000
G1 X28.837719 Y38.726220 F100.000000
G1 X28.832092 Y38.723511 F100.000000
G1 X28.827866 Y38.718912 F100.000000
G1 X28.797224 Y38.706719 F100.000000
G1 X28.767511 Y38.692410 F100.000000
G1 X28.761266 F100.000000
G1 X28.755463 Y38.690101 F100.000000
G1 X28.722565 Y38.692410 F100.000000
G1 X28.689586 F100.000000
G1 X28.683960 Y38.695120 F100.000000
G1 X28.677730 Y38.695557 F100.000000
G1 X28.649092 Y38.711911 F100.000000
G1 X28.619379 Y38.726220 F100.000000
G1 X28.615485 Y38.731103 F100.000000
G1 X28.610062 Y38.734200 F100.000000
G0 Z2.000000
G0 X29.640674 Y38.753945
G1 Z-0.040000 F60.000000
G1 X29.632114 Y38.771720 F100.000000
G1 X29.619814 Y38.787144 F100.000000
G1 X29.615424 Y38.806378 F100.000000
G1 X29.606864 Y38.824153 F100.000000
G1 Y38.843881 F100.000000
G1 X29.602474 Y38.863115 F100.000000
G1 Y39.863875 F100.000000
G1 X29.606864 Y39.883109 F100.000000
G1 Y39.902837 F100.000000
G1 X29.615424 Y39.920612 F100.000000
G1 X29.619814 Y39.939846 F100.000000
G1 X29.632114 Y39.955270 F100.000000
G1 X29.640674 Y39.973045 F100.000000
G1 X29.656098 Y39.985345 F100.000000
G1 X29.668399 Y40.000770 F100.000000
G1 X29.686174 Y40.009330 F100.000000
G1 X29.701598 Y40.021630 F100.000000
G1 X29.720832 Y40.026020 F100.000000
G1 X29.738606 Y40.034580 F100.000000
G1 X29.758335 F100.000000
G1 X29.777569 Y40.038970 F100.000000
G1 X30.016329 F100.000000
G1 X30.044175 Y40.032614 F100.000000
G1 X30.072586 Y40.029686 F100.000000
G1 X30.214826 Y39.981426 F100.000000
G1 X30.216568 Y39.980355 F100.000000
G1 X30.218597 Y39.980099 F100.000000
G1 X30.249672 Y39.959990 F100.000000
G0 Z2.000000
G1 Z-0.040000 F60.000000
G1 X30.281198 Y39.940597 F100.000000
G1 X30.282302 Y39.938875 F100.000000
G1 X30.284019 Y39.937764 F100.000000
G1 X30.377999 Y39.841244 F100.000000
G1 X30.391557 Y39.819014 F100.000000
G1 X30.408307 Y39.799079 F100.000000
G1 X30.456567 Y39.705099 F100.000000
G1 X30.461489 Y39.685826 F100.000000
G1 X30.470542 Y39.668114 F100.000000
G1 X30.518802 Y39.477614 F100.000000
G1 X30.519318 Y39.455845 F100.000000
G1 X30.524164 Y39.434615 F100.000000
G1 Y39.292375 F100.000000
G1 X30.519318 Y39.271145 F100.000000
G1 X30.518802 Y39.249376 F100.000000
G1 X30.470542 Y39.058876 F100.000000
G1 X30.461912 Y39.041992 F100.000000
G1 X30.457418 Y39.023570 F100.000000
G1 X30.409158 Y38.927050 F100.000000
G1 X30.392038 Y38.906223 F100.000000
G1 X30.377999 Y38.883206 F100.000000
G1 X30.284019 Y38.786686 F100.000000
G1 X30.281097 Y38.784795 F100.000000
G1 X30.279170 Y38.781895 F100.000000
G1 X30.248518 Y38.763713 F100.000000
G1 X30.218597 Y38.744351 F100.000000
G1 X30.215143 Y38.743916 F100.000000
G1 X30.212149 Y38.742140 F100.000000
G1 X30.069909 Y38.696420 F100.000000
G1 X30.042829 Y38.694069 F100.000000
G1 X30.016329 Y38.688020 F100.000000
G1 X29.777569 F100.000000
G1 X29.758335 Y38.692410 F100.000000
G1 X29.738606 F100.000000
G1 X29.720832 Y38.700970 F100.000000
G1 X29.701598 Y38.705360 F100.000000
G1 X29.686174 Y38.717660 F100.000000
G1 X29.668399 Y38.726220 F100.000000
G1 X29.656098 Y38.741645 F100.000000
G1 X29.640674 Y38.753945 F100.000000
G0 Z2.000000
G0 X29.952664 Y39.688780
G1 Z-0.040000 F60.000000
G1 Y39.038210 F100.000000
G1 X29.988880 F100.000000
G1 X30.063511 Y39.062199 F100.000000
G1 X30.108111 Y39.108004 F100.000000
G1 X30.135728 Y39.163237 F100.000000
G1 X30.173974 Y39.314209 F100.000000
G1 Y39.412781 F100.000000
G1 X30.135962 Y39.562829 F100.000000
G1 X30.108783 Y39.615756 F100.000000
G1 X30.062469 Y39.663322 F100.000000
G1 X29.987434 Y39.688780 F100.000000
G1 X29.952664 F100.000000
G0 Z2.000000
G0 X25.149689 Y15.756900
G1 Z-0.040000 F60.000000
G1 X24.943784 F100.000000
G1 Y15.550995 F100.000000
G1 X24.926444 Y15.475024 F100.000000
G1 X24.877859 Y15.414100 F100.000000
G1 X24.807651 Y15.380290 F100.000000
G1 X24.729726 F100.000000
G1 X24.659519 Y15.414100 F100.000000
G1 X24.610934 Y15.475024 F100.000000
G1 X24.593594 Y15.550995 F100.000000
G1 Y15.756900 F100.000000
G1 X24.387689 F100.000000
G1 X24.311718 Y15.774240 F100.000000
G1 X24.250794 Y15.822825 F100.000000
G1 X24.216984 Y15.893033 F100.000000
G1 Y15.970957 F100.000000
G1 X24.250794 Y16.041165 F100.000000
G1 X24.311718 Y16.089750 F100.000000
G1 X24.387689 Y16.107090 F100.000000
G1 X24.593594 F100.000000
G1 Y16.312995 F100.000000
G1 X24.610934 Y16.388966 F100.000000
G1 X24.659519 Y16.449890 F100.000000
G1 X24.729726 Y16.483700 F100.000000
G1 X24.807651 F100.000000
G1 X24.877859 Y16.449890 F100.000000
G1 X24.926444 Y16.388966 F100.000000
G1 X24.943784 Y16.312995 F100.000000
G1 Y16.107090 F100.000000
G1 X25.149689 F100.000000
G1 X25.225660 Y16.089750 F100.000000
G1 X25.286584 Y16.041165 F100.000000
G1 X25.320394 Y15.970957 F100.000000
G1 Y15.893033 F100.000000
G1 X25.286584 Y15.822825 F100.000000
G1 X25.225660 Y15.774240 F100.000000
G1 X25.149689 Y15.756900 F100.000000
G0 Z2.000000
G0 X24.929358 Y14.997924
G1 Z-0.040000 F60.000000
G1 X24.887899 Y15.063905 F100.000000
G1 X24.879175 Y15.141339 F100.000000
G1 X24.904912 Y15.214891 F100.000000
G1 X24.960013 Y15.269992 F100.000000
G1 X25.033564 Y15.295729 F100.000000
G1 X25.110999 Y15.287004 F100.000000
G1 X25.176980 Y15.245546 F100.000000
G1 X25.225240 Y15.197286 F100.000000
G1 X25.239701 Y15.174270 F100.000000
G1 X25.257187 Y15.153459 F100.000000
G1 X25.305447 Y15.059479 F100.000000
G1 X25.306015 Y15.057258 F100.000000
G1 X25.307444 Y15.055466 F100.000000
G1 X25.315628 Y15.019611 F100.000000
G1 X25.324726 Y14.983977 F100.000000
G1 X25.324274 Y14.981730 F100.000000
G1 X25.324784 Y14.979495 F100.000000
G1 Y14.740735 F100.000000
G1 X25.324488 Y14.739437 F100.000000
G1 X25.324764 Y14.738135 F100.000000
G1 X25.315832 Y14.701514 F100.000000
G1 X25.307444 Y14.664764 F100.000000
G1 X25.306614 Y14.663723 F100.000000
G1 X25.306298 Y14.662430 F100.000000
G1 X25.258038 Y14.565910 F100.000000
G1 X25.238722 Y14.542413 F100.000000
G1 X25.221849 Y14.517104 F100.000000
G1 X25.173589 Y14.471384 F100.000000
G1 X25.152188 Y14.458730 F100.000000
G1 X25.133153 Y14.442736 F100.000000
G1 X25.039173 Y14.394476 F100.000000
G1 X25.036952 Y14.393909 F100.000000
G1 X25.035160 Y14.392480 F100.000000
G1 X24.999305 Y14.384296 F100.000000
G1 X24.963671 Y14.375197 F100.000000
G1 X24.961424 Y14.375650 F100.000000
G1 X24.959189 Y14.375140 F100.000000
G1 X24.720429 F100.000000
G1 X24.719131 Y14.375436 F100.000000
G1 X24.717829 Y14.375159 F100.000000
G1 X24.681208 Y14.384092 F100.000000
G1 X24.644458 Y14.392480 F100.000000
G1 X24.643417 Y14.393310 F100.000000
G1 X24.642124 Y14.393625 F100.000000
G1 X24.545604 Y14.441885 F100.000000
G1 X24.523894 Y14.459732 F100.000000
G1 X24.500098 Y14.474684 F100.000000
G1 X24.454378 Y14.520404 F100.000000
G1 X24.439426 Y14.544200 F100.000000
G1 X24.421579 Y14.565910 F100.000000
G1 X24.373319 Y14.662430 F100.000000
G1 X24.373004 Y14.663723 F100.000000
G1 X24.372174 Y14.664764 F100.000000
G1 X24.363786 Y14.701514 F100.000000
G1 X24.354853 Y14.738135 F100.000000
G1 X24.355130 Y14.739437 F100.000000
G1 X24.354834 Y14.740735 F100.000000
G1 Y14.918399 F100.000000
G1 X24.324024 Y14.915269 F100.000000
G1 Y14.598495 F100.000000
G1 X24.306684 Y14.522524 F100.000000
G1 X24.258099 Y14.461600 F100.000000
G1 X24.193344 Y14.430416 F100.000000
G1 X24.204172 Y14.429367 F100.000000
G1 X25.204932 Y14.096627 F100.000000
G1 X25.224102 Y14.084995 F100.000000
G1 X25.245148 Y14.077260 F100.000000
G1 X25.256997 Y14.065035 F100.000000
G1 X25.271552 Y14.056203 F100.000000
G1 X25.283776 Y14.037406 F100.000000
G1 X25.299382 Y14.021306 F100.000000
G1 X25.304753 Y14.005150 F100.000000
G1 X25.314035 Y13.990878 F100.000000
G1 X25.316893 Y13.968638 F100.000000
G1 X25.323968 Y13.947361 F100.000000
G1 X25.321798 Y13.930475 F100.000000
G1 X25.323968 Y13.913589 F100.000000
G1 X25.316893 Y13.892312 F100.000000
G1 X25.314035 Y13.870072 F100.000000
G1 X25.304753 Y13.855800 F100.000000
G1 X25.299382 Y13.839644 F100.000000
G1 X25.283776 Y13.823544 F100.000000
G1 X25.271552 Y13.804747 F100.000000
G1 X25.256997 Y13.795915 F100.000000
G1 X25.245148 Y13.783690 F100.000000
G1 X25.224102 Y13.775955 F100.000000
G1 X25.204932 Y13.764323 F100.000000
G1 X24.204172 Y13.431583 F100.000000
G1 X24.126611 Y13.424068 F100.000000
G1 X24.053470 Y13.450950 F100.000000
G1 X23.999235 Y13.506904 F100.000000
G1 X23.974650 Y13.580849 F100.000000
G1 X23.984582 Y13.658138 F100.000000
G1 X24.027066 Y13.723463 F100.000000
G1 X24.093685 Y13.763887 F100.000000
G0 Z2.000000
G1 Z-0.040000 F60.000000
G1 X24.594722 Y13.930475 F100.000000
G1 X24.093685 Y14.097063 F100.000000
G1 X24.027066 Y14.137487 F100.000000
G1 X23.984582 Y14.202812 F100.000000
G1 X23.974650 Y14.280101 F100.000000
G1 X23.999235 Y14.354046 F100.000000
G1 X24.053470 Y14.410000 F100.000000
G1 X24.106463 Y14.429477 F100.000000
G1 X24.039759 Y14.461600 F100.000000
G1 X23.991174 Y14.522524 F100.000000
G1 X23.973834 Y14.598495 F100.000000
G1 Y15.073475 F100.000000
G1 X23.976263 Y15.084120 F100.000000
G1 X23.975160 Y15.094982 F100.000000
G1 X23.984845 Y15.121720 F100.000000
G1 X23.991174 Y15.149446 F100.000000
G1 X23.997981 Y15.157982 F100.000000
G1 X24.001700 Y15.168248 F100.000000
G1 X24.022028 Y15.188136 F100.000000
G1 X24.039759 Y15.210370 F100.000000
G1 X24.049596 Y15.215107 F100.000000
G1 X24.057400 Y15.222743 F100.000000
G1 X24.084344 Y15.231841 F100.000000
G1 X24.109966 Y15.244180 F100.000000
G1 X24.120885 F100.000000
G1 X24.131229 Y15.247673 F100.000000
G1 X24.606209 Y15.295933 F100.000000
G1 X24.622525 Y15.293914 F100.000000
G1 X24.638805 Y15.296195 F100.000000
G1 X24.660715 Y15.289187 F100.000000
G1 X24.683544 Y15.286362 F100.000000
G1 X24.697367 Y15.277463 F100.000000
G1 X24.713025 Y15.272455 F100.000000
G1 X24.729725 Y15.256634 F100.000000
G1 X24.749067 Y15.244184 F100.000000
G1 X24.757661 Y15.230169 F100.000000
G1 X24.769595 Y15.218863 F100.000000
G1 X24.777776 Y15.197363 F100.000000
G1 X24.789801 Y15.177753 F100.000000
G1 X24.791463 Y15.161398 F100.000000
G1 X24.797310 Y15.146033 F100.000000
G1 X24.795353 Y15.123113 F100.000000
G1 X24.797678 Y15.100228 F100.000000
G1 X24.792079 Y15.084771 F100.000000
G1 X24.790680 Y15.068391 F100.000000
G1 X24.778972 Y15.048590 F100.000000
G1 X24.771138 Y15.026962 F100.000000
G1 X24.759387 Y15.015465 F100.000000
G1 X24.751019 Y15.001314 F100.000000
G1 X24.722514 Y14.971225 F100.000000
G1 X24.705024 Y14.937166 F100.000000
G1 Y14.782069 F100.000000
G1 X24.722091 Y14.747934 F100.000000
G1 X24.727628 Y14.742398 F100.000000
G1 X24.761763 Y14.725330 F100.000000
G1 X24.916859 F100.000000
G1 X24.950919 Y14.742820 F100.000000
G1 X24.958614 Y14.750111 F100.000000
G1 X24.974594 Y14.782069 F100.000000
G1 Y14.937166 F100.000000
G1 X24.958209 Y14.969073 F100.000000
G1 X24.929358 Y14.997924 F100.000000
G0 Z2.000000
G0 X15.056491 Y37.094469
G1 Z-0.040000 F60.000000
G1 X15.066386 Y37.073923 F100.000000
G1 X15.080605 Y37.056093 F100.000000
G1 X15.085679 Y37.033860 F100.000000
G1 X15.095574 Y37.013313 F100.000000
G1 Y36.990508 F100.000000
G1 X15.100649 Y36.968275 F100.000000
G1 Y34.936275 F100.000000
G1 X15.080605 Y34.848457 F100.000000
G1 X15.024443 Y34.778032 F100.000000
G1 X14.943287 Y34.738950 F100.000000
G1 X14.853211 F100.000000
G1 X14.772054 Y34.778032 F100.000000
G1 X14.715893 Y34.848457 F100.000000
G1 X14.695849 Y34.936275 F100.000000
G1 Y35.701615 F100.000000
G1 X14.319129 F100.000000
G1 X14.305240 Y35.704785 F100.000000
G1 X14.291045 Y35.703573 F100.000000
G1 X14.261808 Y35.714698 F100.000000
G0 Z2.000000
G1 Z-0.040000 F60.000000
G1 X14.231311 Y35.721659 F100.000000
G1 X14.220172 Y35.730541 F100.000000
G1 X14.206857 Y35.735608 F100.000000
G1 X14.062077 Y35.832128 F100.000000
G1 X14.039110 Y35.856371 F100.000000
G1 X14.013451 Y35.877744 F100.000000
G1 X13.939791 Y35.974264 F100.000000
G1 X13.927263 Y36.001764 F100.000000
G1 X13.910768 Y36.027084 F100.000000
G1 X13.839648 Y36.220124 F100.000000
G1 X13.835086 Y36.255409 F100.000000
G1 X13.827169 Y36.290095 F100.000000
G1 Y36.579655 F100.000000
G1 X13.835086 Y36.614341 F100.000000
G1 X13.839648 Y36.649626 F100.000000
G1 X13.910768 Y36.842666 F100.000000
G1 X13.927263 Y36.867986 F100.000000
G1 X13.939791 Y36.895486 F100.000000
G1 X14.013451 Y36.992006 F100.000000
G1 X14.038193 Y37.012616 F100.000000
G1 X14.060057 Y37.036257 F100.000000
G1 X14.204837 Y37.135317 F100.000000
G1 X14.219221 Y37.140990 F100.000000
G1 X14.231311 Y37.150631 F100.000000
G1 X14.260643 Y37.157326 F100.000000
G1 X14.288632 Y37.168364 F100.000000
G1 X14.304054 Y37.167234 F100.000000
G1 X14.319129 Y37.170675 F100.000000
G1 X14.898249 F100.000000
G1 X14.920482 Y37.165600 F100.000000
G1 X14.943287 F100.000000
G1 X14.963834 Y37.155706 F100.000000
G1 X14.986067 Y37.150631 F100.000000
G1 X15.003896 Y37.136412 F100.000000
G1 X15.024443 Y37.126518 F100.000000
G1 X15.038662 Y37.108688 F100.000000
G1 X15.056491 Y37.094469 F100.000000
G0 Z2.000000
G0 X14.695849 Y36.106415
G1 Z-0.040000 F60.000000
G1 Y36.765875 F100.000000
G1 X14.381744 F100.000000
G1 X14.315502 Y36.720551 F100.000000
G1 X14.280074 Y36.674129 F100.000000
G1 X14.231969 Y36.543557 F100.000000
G1 Y36.326193 F100.000000
G1 X14.280074 Y36.195621 F100.000000
G1 X14.314742 Y36.150194 F100.000000
G1 X14.380411 Y36.106415 F100.000000
G1 X14.695849 F100.000000
G0 Z2.000000
G0 X13.335637 Y36.218208
G1 Z-0.040000 F60.000000
G1 X13.215969 Y36.297987 F100.000000
G1 Y35.138675 F100.000000
G1 X13.447909 F100.000000
G1 X13.535727 Y35.118631 F100.000000
G1 X13.606151 Y35.062469 F100.000000
G1 X13.645234 Y34.981313 F100.000000
G1 Y34.891237 F100.000000
G1 X13.606151 Y34.810081 F100.000000
G1 X13.535727 Y34.753919 F100.000000
G1 X13.447909 Y34.733875 F100.000000
G1 X12.576689 F100.000000
G1 X12.488871 Y34.753919 F100.000000
G1 X12.418446 Y34.810081 F100.000000
G1 X12.379363 Y34.891237 F100.000000
G1 Y34.981313 F100.000000
G1 X12.418446 Y35.062469 F100.000000
G1 X12.488871 Y35.118631 F100.000000
G1 X12.576689 Y35.138675 F100.000000
G1 X12.811169 F100.000000
G1 Y36.968275 F100.000000
G1 X12.820941 Y37.011091 F100.000000
G1 X12.830226 Y37.054015 F100.000000
G1 X12.830950 Y37.054944 F100.000000
G1 X12.831213 Y37.056093 F100.000000
G1 X12.858594 Y37.090429 F100.000000
G1 X12.885584 Y37.125073 F100.000000
G1 X12.886640 Y37.125597 F100.000000
G1 X12.887374 Y37.126518 F100.000000
G1 X12.926942 Y37.145573 F100.000000
G1 X12.966291 Y37.165076 F100.000000
G1 X12.967469 Y37.165089 F100.000000
G1 X12.968531 Y37.165600 F100.000000
G1 X13.012447 F100.000000
G1 X13.056362 Y37.166099 F100.000000
G1 X13.057429 Y37.165600 F100.000000
G1 X13.058607 F100.000000
G1 X13.098175 Y37.146546 F100.000000
G1 X13.137957 Y37.127942 F100.000000
G1 X13.138702 Y37.127029 F100.000000
G1 X13.139763 Y37.126518 F100.000000
G1 X13.167145 Y37.092182 F100.000000
G1 X13.194915 Y37.058160 F100.000000
G1 X13.331432 Y36.782730 F100.000000
G1 X13.444247 Y36.632311 F100.000000
G1 X13.560180 Y36.555022 F100.000000
G1 X13.622131 Y36.489632 F100.000000
G1 X13.649575 Y36.403838 F100.000000
G1 X13.637076 Y36.314633 F100.000000
G1 X13.587111 Y36.239684 F100.000000
G1 X13.509575 Y36.193838 F100.000000
G1 X13.419825 Y36.186173 F100.000000
G1 X13.335637 Y36.218208 F100.000000
G0 Z2.000000
G0 X14.412844 Y6.285025
G1 Z-0.040000 F60.000000
G1 X14.421403 Y6.267250 F100.000000
G1 X14.433704 Y6.251826 F100.000000
G1 X14.438094 Y6.232592 F100.000000
G1 X14.446654 Y6.214817 F100.000000
G1 Y6.195089 F100.000000
G1 X14.451044 Y6.175855 F100.000000
G1 Y5.175095 F100.000000
G1 X14.433704 Y5.099124 F100.000000
G1 X14.385119 Y5.038200 F100.000000
G1 X14.314911 Y5.004390 F100.000000
G1 X14.236986 F100.000000
G1 X14.166779 Y5.038200 F100.000000
G1 X14.118194 Y5.099124 F100.000000
G1 X14.100854 Y5.175095 F100.000000
G1 Y5.437713 F100.000000
G1 X13.848107 Y5.074993 F100.000000
G1 X13.790448 Y5.022575 F100.000000
G1 X13.715755 Y5.000365 F100.000000
G1 X13.638823 Y5.012763 F100.000000
G1 X13.574889 Y5.057313 F100.000000
G1 X13.536616 Y5.125191 F100.000000
G1 X13.531584 Y5.202953 F100.000000
G1 X13.560790 Y5.275197 F100.000000
G1 X13.741004 Y5.533825 F100.000000
G1 X13.720124 Y5.544265 F100.000000
G1 X13.698414 Y5.562112 F100.000000
G1 X13.674618 Y5.577064 F100.000000
G1 X13.628898 Y5.622784 F100.000000
G1 X13.613946 Y5.646580 F100.000000
G1 X13.596099 Y5.668290 F100.000000
G1 X13.547839 Y5.764810 F100.000000
G1 X13.547524 Y5.766103 F100.000000
G1 X13.546694 Y5.767144 F100.000000
G1 X13.538306 Y5.803894 F100.000000
G0 Z2.000000
G1 Z-0.040000 F60.000000
G1 X13.529373 Y5.840515 F100.000000
G1 X13.529650 Y5.841817 F100.000000
G1 X13.529354 Y5.843115 F100.000000
G1 Y5.985355 F100.000000
G1 X13.529650 Y5.986653 F100.000000
G1 X13.529373 Y5.987955 F100.000000
G1 X13.538306 Y6.024576 F100.000000
G1 X13.546694 Y6.061326 F100.000000
G1 X13.547524 Y6.062367 F100.000000
G1 X13.547839 Y6.063660 F100.000000
G1 X13.596099 Y6.160180 F100.000000
G1 X13.613946 Y6.181890 F100.000000
G1 X13.628898 Y6.205686 F100.000000
G1 X13.674618 Y6.251406 F100.000000
G1 X13.698414 Y6.266358 F100.000000
G1 X13.720124 Y6.284205 F100.000000
G1 X13.816644 Y6.332465 F100.000000
G1 X13.817937 Y6.332780 F100.000000
G1 X13.818978 Y6.333610 F100.000000
G1 X13.855728 Y6.341998 F100.000000
G1 X13.892349 Y6.350931 F100.000000
G1 X13.893651 Y6.350654 F100.000000
G1 X13.894949 Y6.350950 F100.000000
G1 X14.275949 F100.000000
G1 X14.295183 Y6.346560 F100.000000
G1 X14.314911 F100.000000
G1 X14.332686 Y6.338000 F100.000000
G1 X14.351920 Y6.333610 F100.000000
G1 X14.367344 Y6.321310 F100.000000
G1 X14.385119 Y6.312750 F100.000000
G1 X14.397419 Y6.297325 F100.000000
G1 X14.412844 Y6.285025 F100.000000
G0 Z2.000000
G0 X14.100854 Y5.827710
G1 Z-0.040000 F60.000000
G1 Y6.000760 F100.000000
G1 X13.936283 F100.000000
G1 X13.902148 Y5.983692 F100.000000
G1 X13.896611 Y5.978156 F100.000000
G1 X13.879544 Y5.944021 F100.000000
G1 Y5.884449 F100.000000
G1 X13.896611 Y5.850314 F100.000000
G1 X13.902148 Y5.844778 F100.000000
G1 X13.936283 Y5.827710 F100.000000
G1 X14.100854 F100.000000
G0 Z2.000000
G0 X13.412084 Y6.285025
G1 Z-0.040000 F60.000000
G1 X13.420643 Y6.267250 F100.000000
G1 X13.432944 Y6.251826 F100.000000
G1 X13.437334 Y6.232592 F100.000000
G1 X13.445894 Y6.214817 F100.000000
G1 Y6.195089 F100.000000
G1 X13.450284 Y6.175855 F100.000000
G1 Y5.175095 F100.000000
G1 X13.445894 Y5.155861 F100.000000
G1 Y5.136133 F100.000000
G1 X13.437334 Y5.118358 F100.000000
G1 X13.432944 Y5.099124 F100.000000
G1 X13.420643 Y5.083700 F100.000000
G1 X13.412084 Y5.065925 F100.000000
G1 X13.396659 Y5.053625 F100.000000
G1 X13.384359 Y5.038200 F100.000000
G1 X13.366584 Y5.029640 F100.000000
G1 X13.351160 Y5.017340 F100.000000
G1 X13.331926 Y5.012950 F100.000000
G1 X13.314151 Y5.004390 F100.000000
G1 X13.294423 F100.000000
G1 X13.275189 Y5.000000 F100.000000
G1 X12.797669 F100.000000
G1 X12.721698 Y5.017340 F100.000000
G1 X12.660774 Y5.065925 F100.000000
G1 X12.626964 Y5.136133 F100.000000
G1 Y5.214057 F100.000000
G1 X12.660774 Y5.284265 F100.000000
G1 X12.721698 Y5.332850 F100.000000
G1 X12.797669 Y5.350190 F100.000000
G1 X13.100094 F100.000000
G1 Y5.525780 F100.000000
G1 X12.942449 F100.000000
G1 X12.866478 Y5.543120 F100.000000
G1 X12.805554 Y5.591705 F100.000000
G1 X12.771744 Y5.661913 F100.000000
G1 Y5.739837 F100.000000
G1 X12.805554 Y5.810045 F100.000000
G1 X12.866478 Y5.858630 F100.000000
G1 X12.942449 Y5.875970 F100.000000
G1 X13.100094 F100.000000
G1 Y6.000760 F100.000000
G1 X12.797669 F100.000000
G1 X12.721698 Y6.018100 F100.000000
G1 X12.660774 Y6.066685 F100.000000
G1 X12.626964 Y6.136893 F100.000000
G1 Y6.214817 F100.000000
G1 X12.660774 Y6.285025 F100.000000
G1 X12.721698 Y6.333610 F100.000000
G1 X12.797669 Y6.350950 F100.000000
G1 X13.275189 F100.000000
G1 X13.294423 Y6.346560 F100.000000
G1 X13.314151 F100.000000
G1 X13.331926 Y6.338000 F100.000000
G1 X13.351160 Y6.333610 F100.000000
G1 X13.366584 Y6.321310 F100.000000
G1 X13.384359 Y6.312750 F100.000000
G1 X13.396659 Y6.297325 F100.000000
G1 X13.412084 Y6.285025 F100.000000
G0 Z2.000000
G0 X11.788911 Y6.293406
G1 Z-0.040000 F60.000000
G1 X11.931151 Y6.341666 F100.000000
G1 X11.959563 Y6.344594 F100.000000
G1 X11.987409 Y6.350950 F100.000000
G1 X12.226169 F100.000000
G1 X12.227467 Y6.350654 F100.000000
G1 X12.228769 Y6.350931 F100.000000
G1 X12.265390 Y6.341998 F100.000000
G1 X12.302140 Y6.333610 F100.000000
G1 X12.303180 Y6.332780 F100.000000
G1 X12.304474 Y6.332465 F100.000000
G1 X12.400994 Y6.284205 F100.000000
G1 X12.422703 Y6.266358 F100.000000
G1 X12.446500 Y6.251406 F100.000000
G1 X12.492220 Y6.205686 F100.000000
G1 X12.507172 Y6.181890 F100.000000
G1 X12.525018 Y6.160180 F100.000000
G1 X12.573278 Y6.063660 F100.000000
G1 X12.573594 Y6.062367 F100.000000
G1 X12.574424 Y6.061326 F100.000000
G1 X12.582812 Y6.024576 F100.000000
G1 X12.591744 Y5.987955 F100.000000
G1 X12.591468 Y5.986653 F100.000000
G1 X12.591764 Y5.985355 F100.000000
G1 Y5.891375 F100.000000
G1 X12.591468 Y5.890077 F100.000000
G1 X12.591744 Y5.888775 F100.000000
G1 X12.582812 Y5.852154 F100.000000
G1 X12.574424 Y5.815404 F100.000000
G1 X12.573594 Y5.814363 F100.000000
G1 X12.573278 Y5.813070 F100.000000
G1 X12.525018 Y5.716550 F100.000000
G1 X12.508644 Y5.696631 F100.000000
G1 X12.495519 Y5.674434 F100.000000
G1 X12.449799 Y5.626174 F100.000000
G1 X12.422977 Y5.608292 F100.000000
G1 X12.397645 Y5.588355 F100.000000
G1 X12.301125 Y5.542635 F100.000000
G1 X12.284411 Y5.538933 F100.000000
G1 X12.269168 Y5.531142 F100.000000
G1 X12.097954 Y5.487768 F100.000000
G1 X12.046090 Y5.461135 F100.000000
G1 X12.036649 Y5.451693 F100.000000
G1 X12.020264 Y5.419786 F100.000000
G1 Y5.407924 F100.000000
G1 X12.036649 Y5.376017 F100.000000
G1 X12.046090 Y5.366575 F100.000000
G1 X12.077998 Y5.350190 F100.000000
G1 X12.245534 F100.000000
G1 X12.360411 Y5.389166 F100.000000
G1 X12.437925 Y5.397155 F100.000000
G1 X12.511229 Y5.370720 F100.000000
G1 X12.565804 Y5.315098 F100.000000
G1 X12.590841 Y5.241305 F100.000000
G1 X12.581381 Y5.163957 F100.000000
G1 X12.539298 Y5.098373 F100.000000
G1 X12.472926 Y5.057544 F100.000000
G1 X12.330686 Y5.009284 F100.000000
G1 X12.302275 Y5.006356 F100.000000
G1 X12.274429 Y5.000000 F100.000000
G1 X12.035669 F100.000000
G1 X12.033434 Y5.000510 F100.000000
G1 X12.031187 Y5.000057 F100.000000
G1 X11.995553 Y5.009156 F100.000000
G1 X11.959698 Y5.017340 F100.000000
G1 X11.957906 Y5.018769 F100.000000
G1 X11.955685 Y5.019336 F100.000000
G1 X11.861705 Y5.067596 F100.000000
G1 X11.840894 Y5.085082 F100.000000
G1 X11.817878 Y5.099544 F100.000000
G1 X11.769618 Y5.147804 F100.000000
G1 X11.755156 Y5.170820 F100.000000
G1 X11.737670 Y5.191631 F100.000000
G1 X11.689410 Y5.285611 F100.000000
G1 X11.688843 Y5.287832 F100.000000
G1 X11.687414 Y5.289624 F100.000000
G1 X11.679230 Y5.325479 F100.000000
G1 X11.670131 Y5.361113 F100.000000
G1 X11.670584 Y5.363360 F100.000000
G1 X11.670074 Y5.365595 F100.000000
G1 Y5.462115 F100.000000
G1 X11.670584 Y5.464350 F100.000000
G1 X11.670131 Y5.466597 F100.000000
G1 X11.679230 Y5.502231 F100.000000
G1 X11.687414 Y5.538086 F100.000000
G1 X11.688843 Y5.539878 F100.000000
G1 X11.689410 Y5.542099 F100.000000
G1 X11.737670 Y5.636079 F100.000000
G1 X11.755156 Y5.656890 F100.000000
G1 X11.769618 Y5.679906 F100.000000
G1 X11.817878 Y5.728166 F100.000000
G1 X11.840894 Y5.742628 F100.000000
G1 X11.861705 Y5.760114 F100.000000
G1 X11.955685 Y5.808374 F100.000000
G1 X11.974958 Y5.813295 F100.000000
G1 X11.992670 Y5.822348 F100.000000
G1 X12.166631 Y5.866418 F100.000000
G1 X12.218116 Y5.890806 F100.000000
G1 X12.223423 Y5.896407 F100.000000
G1 X12.241574 Y5.932709 F100.000000
G1 Y5.944021 F100.000000
G1 X12.224506 Y5.978156 F100.000000
G1 X12.218970 Y5.983692 F100.000000
G1 X12.184834 Y6.000760 F100.000000
G1 X12.016303 F100.000000
G1 X11.901426 Y5.961784 F100.000000
G1 X11.823912 Y5.953795 F100.000000
G1 X11.750608 Y5.980230 F100.000000
G1 X11.696033 Y6.035852 F100.000000
G1 X11.670996 Y6.109645 F100.000000
G1 X11.680456 Y6.186993 F100.000000
G1 X11.722540 Y6.252577 F100.000000
G1 X11.788911 Y6.293406 F100.000000
G0 Z2.000000
G0 X11.525079 Y5.038200
G1 Z-0.040000 F60.000000
G1 X11.507304 Y5.029640 F100.000000
G1 X11.491880 Y5.017340 F100.000000
G1 X11.472646 Y5.012950 F100.000000
G1 X11.454871 Y5.004390 F100.000000
G1 X11.435143 F100.000000
G1 X11.415909 Y5.000000 F100.000000
G1 X10.940929 F100.000000
G1 X10.864958 Y5.017340 F100.000000
G1 X10.804034 Y5.065925 F100.000000
G1 X10.770224 Y5.136133 F100.000000
G1 Y5.214057 F100.000000
G1 X10.804034 Y5.284265 F100.000000
G1 X10.864958 Y5.332850 F100.000000
G1 X10.940929 Y5.350190 F100.000000
G1 X11.240814 F100.000000
G1 Y5.525780 F100.000000
G1 X11.083169 F100.000000
G1 X11.007198 Y5.543120 F100.000000
G1 X10.946274 Y5.591705 F100.000000
G1 X10.912464 Y5.661913 F100.000000
G1 Y5.739837 F100.000000
G1 X10.946274 Y5.810045 F100.000000
G1 X11.007198 Y5.858630 F100.000000
G1 X11.083169 Y5.875970 F100.000000
G1 X11.240814 F100.000000
G1 Y6.000760 F100.000000
G1 X10.940929 F100.000000
G1 X10.864958 Y6.018100 F100.000000
G1 X10.804034 Y6.066685 F100.000000
G1 X10.797419 Y6.080422 F100.000000
G1 X10.790804 Y6.066685 F100.000000
G1 X10.729880 Y6.018100 F100.000000
G1 X10.653909 Y6.000760 F100.000000
G1 X10.541984 F100.000000
G1 Y5.175095 F100.000000
G1 X10.524644 Y5.099124 F100.000000
G1 X10.476059 Y5.038200 F100.000000
G1 X10.405851 Y5.004390 F100.000000
G1 X10.327926 F100.000000
G1 X10.257719 Y5.038200 F100.000000
G1 X10.209134 Y5.099124 F100.000000
G1 X10.191794 Y5.175095 F100.000000
G0 Z2.000000
G0 X11.552804 Y6.285025
G1 Z-0.040000 F60.000000
G1 X11.561363 Y6.267250 F100.000000
G1 X11.573664 Y6.251826 F100.000000
G1 X11.578054 Y6.232592 F100.000000
G1 X11.586614 Y6.214817 F100.000000
G1 Y6.195089 F100.000000
G1 X11.591004 Y6.175855 F100.000000
G1 Y5.175095 F100.000000
G1 X11.586614 Y5.155861 F100.000000
G1 Y5.136133 F100.000000
G1 X11.578054 Y5.118358 F100.000000
G1 X11.573664 Y5.099124 F100.000000
G1 X11.561363 Y5.083700 F100.000000
G1 X11.552804 Y5.065925 F100.000000
G1 X11.537379 Y5.053625 F100.000000
G1 X11.525079 Y5.038200 F100.000000
G0 Z2.000000
G0 X10.191794 Y5.175095
G1 Z-0.040000 F60.000000
G1 Y6.000760 F100.000000
G1 X10.082409 F100.000000
G1 X10.006438 Y6.018100 F100.000000
G1 X9.945514 Y6.066685 F100.000000
G1 X9.911704 Y6.136893 F100.000000
G1 Y6.214817 F100.000000
G1 X9.945514 Y6.285025 F100.000000
G1 X10.006438 Y6.333610 F100.000000
G1 X10.082409 Y6.350950 F100.000000
G1 X10.653909 F100.000000
G1 X10.729880 Y6.333610 F100.000000
G1 X10.790804 Y6.285025 F100.000000
G1 X10.797419 Y6.271288 F100.000000
G1 X10.804034 Y6.285025 F100.000000
G1 X10.864958 Y6.333610 F100.000000
G1 X10.940929 Y6.350950 F100.000000
G1 X11.415909 F100.000000
G1 X11.435143 Y6.346560 F100.000000
G1 X11.454871 F100.000000
G1 X11.472646 Y6.338000 F100.000000
G1 X11.491880 Y6.333610 F100.000000
G1 X11.507304 Y6.321310 F100.000000
G1 X11.525079 Y6.312750 F100.000000
G1 X11.537379 Y6.297325 F100.000000
G1 X11.552804 Y6.285025 F100.000000
G0 Z2.000000
G0 X31.499524 Y13.137995
G1 Z-0.040000 F60.000000
G1 Y13.122590 F100.000000
G1 X31.563563 F100.000000
G1 X31.578594 Y13.166890 F100.000000
G1 Y13.203561 F100.000000
G1 X31.552780 Y13.281001 F100.000000
G1 X31.505570 Y13.326969 F100.000000
G1 X31.452643 Y13.354148 F100.000000
G1 X31.302595 Y13.392160 F100.000000
G1 X31.204023 F100.000000
G1 X31.053051 Y13.353914 F100.000000
G1 X30.998888 Y13.326832 F100.000000
G1 X30.954227 Y13.282172 F100.000000
G1 X30.928024 Y13.203561 F100.000000
G1 Y13.132064 F100.000000
G1 X30.956947 Y13.075739 F100.000000
G1 X30.976226 Y13.000237 F100.000000
G1 X30.960837 Y12.923847 F100.000000
G1 X30.913827 Y12.861700 F100.000000
G1 X30.844508 Y12.826103 F100.000000
G1 X30.766609 Y12.824109 F100.000000
G1 X30.695559 Y12.856111 F100.000000
G1 X30.645430 Y12.915771 F100.000000
G1 X30.597170 Y13.009751 F100.000000
G1 X30.596603 Y13.011972 F100.000000
G1 X30.595174 Y13.013764 F100.000000
G1 X30.586990 Y13.049619 F100.000000
G1 X30.577891 Y13.085253 F100.000000
G1 X30.578344 Y13.087500 F100.000000
G1 X30.577834 Y13.089735 F100.000000
G1 Y13.231975 F100.000000
G1 X30.584087 Y13.259374 F100.000000
G1 X30.586819 Y13.287345 F100.000000
G1 X30.635079 Y13.432125 F100.000000
G1 X30.635770 Y13.433262 F100.000000
G1 X30.635919 Y13.434585 F100.000000
G1 X30.655974 Y13.466502 F100.000000
G1 X30.675553 Y13.498714 F100.000000
G1 X30.676670 Y13.499439 F100.000000
G1 X30.677378 Y13.500566 F100.000000
G1 X30.771358 Y13.594546 F100.000000
G1 X30.795154 Y13.609498 F100.000000
G1 X30.816864 Y13.627345 F100.000000
G1 X30.913384 Y13.675605 F100.000000
G1 X30.931806 Y13.680098 F100.000000
G1 X30.948690 Y13.688728 F100.000000
G1 X31.139190 Y13.736988 F100.000000
G1 X31.160959 Y13.737504 F100.000000
G1 X31.182189 Y13.742350 F100.000000
G1 X31.324429 F100.000000
G1 X31.345658 Y13.737504 F100.000000
G1 X31.367428 Y13.736988 F100.000000
G1 X31.557928 Y13.688728 F100.000000
G1 X31.575640 Y13.679675 F100.000000
G1 X31.594913 Y13.674754 F100.000000
G1 X31.688893 Y13.626494 F100.000000
G1 X31.708828 Y13.609743 F100.000000
G1 X31.731058 Y13.596186 F100.000000
G1 X31.827578 Y13.502206 F100.000000
G1 X31.828948 Y13.500088 F100.000000
G1 X31.831064 Y13.498714 F100.000000
G1 X31.850052 Y13.467475 F100.000000
G1 X31.869912 Y13.436783 F100.000000
G1 X31.870228 Y13.434281 F100.000000
G1 X31.871538 Y13.432125 F100.000000
G1 X31.919798 Y13.287345 F100.000000
G1 X31.922530 Y13.259374 F100.000000
G1 X31.928784 Y13.231975 F100.000000
G1 Y13.137995 F100.000000
G1 X31.922428 Y13.110149 F100.000000
G1 X31.919500 Y13.081738 F100.000000
G1 X31.871240 Y12.939498 F100.000000
G1 X31.870793 Y12.938772 F100.000000
G1 X31.870698 Y12.937925 F100.000000
G1 X31.850400 Y12.905621 F100.000000
G1 X31.830410 Y12.873126 F100.000000
G1 X31.829693 Y12.872666 F100.000000
G1 X31.829240 Y12.871944 F100.000000
G1 X31.780980 Y12.823684 F100.000000
G1 X31.756106 Y12.808055 F100.000000
G1 X31.733140 Y12.789740 F100.000000
G1 X31.723431 Y12.787524 F100.000000
G1 X31.714999 Y12.782226 F100.000000
G1 X31.685808 Y12.778937 F100.000000
G1 X31.657169 Y12.772400 F100.000000
G1 X31.324429 F100.000000
G1 X31.305195 Y12.776790 F100.000000
G1 X31.285466 F100.000000
G1 X31.267692 Y12.785350 F100.000000
G1 X31.248458 Y12.789740 F100.000000
G1 X31.233034 Y12.802040 F100.000000
G1 X31.215259 Y12.810600 F100.000000
G1 X31.202958 Y12.826025 F100.000000
G1 X31.187534 Y12.838325 F100.000000
G1 X31.178974 Y12.856100 F100.000000
G1 X31.166674 Y12.871524 F100.000000
G1 X31.162284 Y12.890758 F100.000000
G1 X31.153724 Y12.908533 F100.000000
G1 Y12.928261 F100.000000
G1 X31.149334 Y12.947495 F100.000000
G1 Y13.137995 F100.000000
G1 X31.166674 Y13.213966 F100.000000
G1 X31.215259 Y13.274890 F100.000000
G1 X31.285466 Y13.308700 F100.000000
G1 X31.363391 F100.000000
G1 X31.433599 Y13.274890 F100.000000
G1 X31.482184 Y13.213966 F100.000000
G1 X31.499524 Y13.137995 F100.000000
G0 Z2.000000
G0 X30.624014 Y12.636722
G1 Z-0.040000 F60.000000
G1 X30.651174 Y12.655428 F100.000000
G1 X30.676958 Y12.675990 F100.000000
G1 X30.683046 Y12.677380 F100.000000
G1 X30.688190 Y12.680922 F100.000000
G1 X30.720777 Y12.685992 F100.000000
G1 X30.752929 Y12.693330 F100.000000
G1 X31.753689 F100.000000
G1 X31.829660 Y12.675990 F100.000000
G1 X31.890584 Y12.627405 F100.000000
G1 X31.924394 Y12.557197 F100.000000
G1 Y12.479273 F100.000000
G1 X31.890584 Y12.409065 F100.000000
G1 X31.829660 Y12.360480 F100.000000
G1 X31.753689 Y12.343140 F100.000000
G1 X31.412624 F100.000000
G1 X31.840519 Y12.098784 F100.000000
G1 X31.864800 Y12.076467 F100.000000
G1 X31.890584 Y12.055905 F100.000000
G1 X31.893293 Y12.050278 F100.000000
G1 X31.897891 Y12.046052 F100.000000
G1 X31.910085 Y12.015410 F100.000000
G1 X31.924394 Y11.985697 F100.000000
G1 Y11.979452 F100.000000
G1 X31.926703 Y11.973650 F100.000000
G1 X31.924394 Y11.940752 F100.000000
G1 Y11.907773 F100.000000
G1 X31.921684 Y11.902146 F100.000000
G1 X31.921247 Y11.895916 F100.000000
G1 X31.904893 Y11.867278 F100.000000
G1 X31.890584 Y11.837565 F100.000000
G1 X31.885701 Y11.833671 F100.000000
G1 X31.882604 Y11.828248 F100.000000
G1 X31.855444 Y11.809542 F100.000000
G1 X31.829660 Y11.788980 F100.000000
G1 X31.823571 Y11.787590 F100.000000
G1 X31.818428 Y11.784048 F100.000000
G1 X31.785841 Y11.778978 F100.000000
G1 X31.753689 Y11.771640 F100.000000
G1 X30.752929 F100.000000
G1 X30.676958 Y11.788980 F100.000000
G1 X30.616034 Y11.837565 F100.000000
G1 X30.582224 Y11.907773 F100.000000
G1 Y11.985697 F100.000000
G1 X30.616034 Y12.055905 F100.000000
G1 X30.676958 Y12.104490 F100.000000
G1 X30.752929 Y12.121830 F100.000000
G1 X31.093994 F100.000000
G1 X30.666099 Y12.366186 F100.000000
G1 X30.641818 Y12.388503 F100.000000
G1 X30.616034 Y12.409065 F100.000000
G1 X30.613324 Y12.414692 F100.000000
G1 X30.608726 Y12.418918 F100.000000
G1 X30.596533 Y12.449560 F100.000000
G1 X30.582224 Y12.479273 F100.000000
G1 Y12.485518 F100.000000
G1 X30.579915 Y12.491320 F100.000000
G1 X30.582224 Y12.524218 F100.000000
G1 Y12.557197 F100.000000
G1 X30.584933 Y12.562824 F100.000000
G1 X30.585371 Y12.569054 F100.000000
G1 X30.601725 Y12.597692 F100.000000
G1 X30.616034 Y12.627405 F100.000000
G1 X30.620917 Y12.631299 F100.000000
G1 X30.624014 Y12.636722 F100.000000
G0 Z2.000000
G0 X30.643759 Y11.606110
G1 Z-0.040000 F60.000000
G1 X30.661534 Y11.614670 F100.000000
G1 X30.676958 Y11.626970 F100.000000
G1 X30.696192 Y11.631360 F100.000000
G1 X30.713966 Y11.639920 F100.000000
G1 X30.733695 F100.000000
G1 X30.752929 Y11.644310 F100.000000
G1 X31.753689 F100.000000
G1 X31.772923 Y11.639920 F100.000000
G1 X31.792651 F100.000000
G1 X31.810426 Y11.631360 F100.000000
G1 X31.829660 Y11.626970 F100.000000
G1 X31.845084 Y11.614670 F100.000000
G1 X31.862859 Y11.606110 F100.000000
G1 X31.875159 Y11.590685 F100.000000
G1 X31.890584 Y11.578385 F100.000000
G1 X31.899143 Y11.560610 F100.000000
G1 X31.911444 Y11.545186 F100.000000
G1 X31.915834 Y11.525952 F100.000000
G1 X31.924394 Y11.508177 F100.000000
G1 Y11.488449 F100.000000
G1 X31.928784 Y11.469215 F100.000000
G1 Y11.230455 F100.000000
G1 X31.922428 Y11.202609 F100.000000
G1 X31.919500 Y11.174198 F100.000000
G1 X31.871240 Y11.031958 F100.000000
G1 X31.870168 Y11.030216 F100.000000
G1 X31.869912 Y11.028187 F100.000000
G1 X31.849804 Y10.997112 F100.000000
G0 Z2.000000
G0 Y10.997112
G1 Z-0.040000 F60.000000
G1 X31.830410 Y10.965586 F100.000000
G1 X31.828689 Y10.964482 F100.000000
G1 X31.827578 Y10.962764 F100.000000
G1 X31.731058 Y10.868784 F100.000000
G1 X31.708828 Y10.855227 F100.000000
G1 X31.688893 Y10.838476 F100.000000
G1 X31.594913 Y10.790216 F100.000000
G1 X31.575640 Y10.785295 F100.000000
G1 X31.557928 Y10.776242 F100.000000
G1 X31.367428 Y10.727982 F100.000000
G1 X31.345658 Y10.727466 F100.000000
G1 X31.324429 Y10.722620 F100.000000
G1 X31.182189 F100.000000
G1 X31.160959 Y10.727466 F100.000000
G1 X31.139190 Y10.727982 F100.000000
G1 X30.948690 Y10.776242 F100.000000
G1 X30.931806 Y10.784872 F100.000000
G1 X30.913384 Y10.789365 F100.000000
G1 X30.816864 Y10.837625 F100.000000
G1 X30.795154 Y10.855472 F100.000000
G1 X30.771358 Y10.870424 F100.000000
G1 X30.677378 Y10.964404 F100.000000
G1 X30.676924 Y10.965126 F100.000000
G1 X30.676207 Y10.965586 F100.000000
G1 X30.656217 Y10.998081 F100.000000
G1 X30.635919 Y11.030385 F100.000000
G1 X30.635824 Y11.031232 F100.000000
G1 X30.635378 Y11.031958 F100.000000
G1 X30.587118 Y11.174198 F100.000000
G1 X30.584189 Y11.202609 F100.000000
G1 X30.577834 Y11.230455 F100.000000
G1 Y11.469215 F100.000000
G1 X30.582224 Y11.488449 F100.000000
G1 Y11.508177 F100.000000
G1 X30.590784 Y11.525952 F100.000000
G1 X30.595174 Y11.545186 F100.000000
G1 X30.607474 Y11.560610 F100.000000
G1 X30.616034 Y11.578385 F100.000000
G1 X30.631458 Y11.590685 F100.000000
G1 X30.643759 Y11.606110 F100.000000
G0 Z2.000000
G0 X31.578594 Y11.294120
G1 Z-0.040000 F60.000000
G1 X30.928024 F100.000000
G1 Y11.259350 F100.000000
G1 X30.953878 Y11.183147 F100.000000
G1 X30.998888 Y11.138138 F100.000000
G1 X31.053051 Y11.111056 F100.000000
G1 X31.204023 Y11.072810 F100.000000
G1 X31.302595 F100.000000
G1 X31.452643 Y11.110822 F100.000000
G1 X31.505570 Y11.138001 F100.000000
G1 X31.553135 Y11.184315 F100.000000
G1 X31.578594 Y11.259350 F100.000000
G1 Y11.294120 F100.000000
G0 Z2.000000
G0 X20.357358 Y28.571684
G1 Z-0.040000 F60.000000
G1 X20.315899 Y28.637665 F100.000000
G1 X20.307175 Y28.715099 F100.000000
G1 X20.332912 Y28.788651 F100.000000
G1 X20.388013 Y28.843752 F100.000000
G1 X20.461564 Y28.869489 F100.000000
G1 X20.538999 Y28.860764 F100.000000
G1 X20.604980 Y28.819306 F100.000000
G1 X20.653240 Y28.771046 F100.000000
G1 X20.667701 Y28.748030 F100.000000
G1 X20.685187 Y28.727219 F100.000000
G1 X20.733447 Y28.633239 F100.000000
G1 X20.734015 Y28.631018 F100.000000
G1 X20.735444 Y28.629226 F100.000000
G1 X20.743628 Y28.593371 F100.000000
G1 X20.752726 Y28.557737 F100.000000
G1 X20.752274 Y28.555490 F100.000000
G1 X20.752784 Y28.553255 F100.000000
G1 Y28.314495 F100.000000
G1 X20.752488 Y28.313197 F100.000000
G1 X20.752764 Y28.311895 F100.000000
G1 X20.743832 Y28.275274 F100.000000
G1 X20.735444 Y28.238524 F100.000000
G1 X20.734614 Y28.237483 F100.000000
G1 X20.734298 Y28.236190 F100.000000
G1 X20.686038 Y28.139670 F100.000000
G1 X20.666722 Y28.116173 F100.000000
G1 X20.649849 Y28.090864 F100.000000
G1 X20.601589 Y28.045144 F100.000000
G1 X20.580188 Y28.032490 F100.000000
G1 X20.561153 Y28.016496 F100.000000
G1 X20.467173 Y27.968236 F100.000000
G1 X20.464952 Y27.967669 F100.000000
G1 X20.463160 Y27.966240 F100.000000
G1 X20.427305 Y27.958056 F100.000000
G1 X20.391671 Y27.948957 F100.000000
G1 X20.389424 Y27.949410 F100.000000
G1 X20.387189 Y27.948900 F100.000000
G1 X20.148429 F100.000000
G1 X20.147131 Y27.949196 F100.000000
G1 X20.145829 Y27.948919 F100.000000
G1 X20.109208 Y27.957852 F100.000000
G1 X20.072458 Y27.966240 F100.000000
G1 X20.071417 Y27.967070 F100.000000
G1 X20.070124 Y27.967385 F100.000000
G1 X19.973604 Y28.015645 F100.000000
G1 X19.951894 Y28.033492 F100.000000
G1 X19.928098 Y28.048444 F100.000000
G1 X19.882378 Y28.094164 F100.000000
G1 X19.867426 Y28.117960 F100.000000
G1 X19.849579 Y28.139670 F100.000000
G1 X19.801319 Y28.236190 F100.000000
G1 X19.801004 Y28.237483 F100.000000
G1 X19.800174 Y28.238524 F100.000000
G1 X19.791786 Y28.275274 F100.000000
G1 X19.782853 Y28.311895 F100.000000
G1 X19.783130 Y28.313197 F100.000000
G1 X19.782834 Y28.314495 F100.000000
G1 Y28.492159 F100.000000
G1 X19.752024 Y28.489029 F100.000000
G1 Y28.172255 F100.000000
G1 X19.734684 Y28.096284 F100.000000
G1 X19.686099 Y28.035360 F100.000000
G1 X19.621344 Y28.004176 F100.000000
G1 X19.632172 Y28.003127 F100.000000
G1 X20.632932 Y27.670387 F100.000000
G1 X20.652102 Y27.658755 F100.000000
G1 X20.673148 Y27.651020 F100.000000
G1 X20.684997 Y27.638795 F100.000000
G1 X20.699552 Y27.629963 F100.000000
G1 X20.711776 Y27.611166 F100.000000
G1 X20.727382 Y27.595066 F100.000000
G1 X20.732753 Y27.578910 F100.000000
G1 X20.742035 Y27.564638 F100.000000
G1 X20.744893 Y27.542398 F100.000000
G1 X20.751968 Y27.521121 F100.000000
G1 X20.749798 Y27.504235 F100.000000
G1 X20.751968 Y27.487349 F100.000000
G1 X20.744893 Y27.466072 F100.000000
G1 X20.742035 Y27.443832 F100.000000
G1 X20.732753 Y27.429560 F100.000000
G1 X20.727382 Y27.413404 F100.000000
G1 X20.711776 Y27.397304 F100.000000
G1 X20.699552 Y27.378507 F100.000000
G1 X20.684997 Y27.369675 F100.000000
G1 X20.673148 Y27.357450 F100.000000
G1 X20.652102 Y27.349715 F100.000000
G1 X20.632932 Y27.338083 F100.000000
G1 X19.632172 Y27.005343 F100.000000
G1 X19.554611 Y26.997828 F100.000000
G1 X19.481470 Y27.024710 F100.000000
G1 X19.427235 Y27.080664 F100.000000
G1 X19.402650 Y27.154609 F100.000000
G1 X19.412582 Y27.231898 F100.000000
G1 X19.455066 Y27.297223 F100.000000
G1 X19.521685 Y27.337647 F100.000000
G0 Z2.000000
G1 Z-0.040000 F60.000000
G1 X20.022722 Y27.504235 F100.000000
G1 X19.521685 Y27.670823 F100.000000
G1 X19.455066 Y27.711247 F100.000000
G1 X19.412582 Y27.776572 F100.000000
G1 X19.402650 Y27.853861 F100.000000
G1 X19.427235 Y27.927806 F100.000000
G1 X19.481470 Y27.983760 F100.000000
G1 X19.534463 Y28.003237 F100.000000
G1 X19.467759 Y28.035360 F100.000000
G1 X19.419174 Y28.096284 F100.000000
G1 X19.401834 Y28.172255 F100.000000
G1 Y28.647235 F100.000000
G1 X19.404263 Y28.657880 F100.000000
G1 X19.403160 Y28.668742 F100.000000
G1 X19.412845 Y28.695480 F100.000000
G1 X19.419174 Y28.723206 F100.000000
G1 X19.425981 Y28.731742 F100.000000
G1 X19.429700 Y28.742008 F100.000000
G1 X19.450028 Y28.761896 F100.000000
G1 X19.467759 Y28.784130 F100.000000
G1 X19.477596 Y28.788867 F100.000000
G1 X19.485400 Y28.796503 F100.000000
G1 X19.512344 Y28.805601 F100.000000
G1 X19.537966 Y28.817940 F100.000000
G1 X19.548885 F100.000000
G1 X19.559229 Y28.821433 F100.000000
G1 X20.034209 Y28.869693 F100.000000
G1 X20.050525 Y28.867674 F100.000000
G1 X20.066805 Y28.869955 F100.000000
G1 X20.088715 Y28.862947 F100.000000
G1 X20.111544 Y28.860122 F100.000000
G1 X20.125367 Y28.851223 F100.000000
G1 X20.141025 Y28.846215 F100.000000
G1 X20.157725 Y28.830394 F100.000000
G1 X20.177067 Y28.817944 F100.000000
G1 X20.185661 Y28.803929 F100.000000
G1 X20.197595 Y28.792623 F100.000000
G1 X20.205776 Y28.771123 F100.000000
G1 X20.217801 Y28.751513 F100.000000
G1 X20.219463 Y28.735158 F100.000000
G1 X20.225310 Y28.719793 F100.000000
G1 X20.223353 Y28.696873 F100.000000
G1 X20.225678 Y28.673988 F100.000000
G1 X20.220079 Y28.658531 F100.000000
G1 X20.218680 Y28.642151 F100.000000
G1 X20.206972 Y28.622350 F100.000000
G1 X20.199138 Y28.600722 F100.000000
G1 X20.187387 Y28.589225 F100.000000
G1 X20.179019 Y28.575074 F100.000000
G1 X20.150514 Y28.544985 F100.000000
G1 X20.133024 Y28.510926 F100.000000
G1 Y28.355829 F100.000000
G1 X20.150091 Y28.321694 F100.000000
G1 X20.155628 Y28.316158 F100.000000
G1 X20.189763 Y28.299090 F100.000000
G1 X20.344859 F100.000000
G1 X20.378919 Y28.316580 F100.000000
G1 X20.386614 Y28.323871 F100.000000
G1 X20.402594 Y28.355829 F100.000000
G1 Y28.510926 F100.000000
G1 X20.386209 Y28.542833 F100.000000
G1 X20.357358 Y28.571684 F100.000000
G0 Z2.000000
G0 X54.359524 Y16.693995
G1 Z-0.040000 F60.000000
G1 Y16.678590 F100.000000
G1 X54.423563 Y16.678590 F100.000000
G1 X54.438594 Y16.722890 F100.000000
G1 Y16.759561 F100.000000
G1 X54.412780 Y16.837001 F100.000000
G1 X54.365570 Y16.882969 F100.000000
G1 X54.312643 Y16.910148 F100.000000
G1 X54.162595 Y16.948160 F100.000000
G1 X54.064023 F100.000000
G1 X53.913051 Y16.909914 F100.000000
G1 X53.858888 Y16.882832 F100.000000
G1 X53.814227 Y16.838172 F100.000000
G1 X53.788024 Y16.759561 F100.000000
G1 Y16.688064 F100.000000
G1 X53.816947 Y16.631739 F100.000000
G1 X53.836226 Y16.556237 F100.000000
G1 X53.820837 Y16.479847 F100.000000
G1 X53.773827 Y16.417700 F100.000000
G1 X53.704508 Y16.382103 F100.000000
G1 X53.626609 Y16.380109 F100.000000
G1 X53.555559 Y16.412111 F100.000000
G1 X53.505430 Y16.471771 F100.000000
G1 X53.457170 Y16.565751 F100.000000
G1 X53.456603 Y16.567972 F100.000000
G1 X53.455174 Y16.569764 F100.000000
G1 X53.446990 Y16.605619 F100.000000
G1 X53.437891 Y16.641253 F100.000000
G1 X53.438344 Y16.643500 F100.000000
G1 X53.437834 Y16.645735 F100.000000
G1 Y16.787975 F100.000000
G1 X53.444087 Y16.815374 F100.000000
G1 X53.446819 Y16.843345 F100.000000
G1 X53.495079 Y16.988125 F100.000000
G1 X53.495770 Y16.989262 F100.000000
G1 X53.495919 Y16.990585 F100.000000
G1 X53.515974 Y17.022502 F100.000000
G1 X53.535553 Y17.054714 F100.000000
G1 X53.536670 Y17.055439 F100.000000
G1 X53.537378 Y17.056566 F100.000000
G1 X53.631358 Y17.150546 F100.000000
G1 X53.655154 Y17.165498 F100.000000
G1 X53.676864 Y17.183345 F100.000000
G1 X53.773384 Y17.231605 F100.000000
G1 X53.791806 Y17.236098 F100.000000
G1 X53.808690 Y17.244728 F100.000000
G1 X53.999190 Y17.292988 F100.000000
G1 X54.020959 Y17.293504 F100.000000
G1 X54.042189 Y17.298350 F100.000000
G1 X54.184429 F100.000000
G1 X54.205658 Y17.293504 F100.000000
G1 X54.227428 Y17.292988 F100.000000
G1 X54.417928 Y17.244728 F100.000000
G1 X54.435640 Y17.235675 F100.000000
G1 X54.454913 Y17.230754 F100.000000
G1 X54.548893 Y17.182494 F100.000000
G1 X54.568828 Y17.165743 F100.000000
G1 X54.591058 Y17.152186 F100.000000
G1 X54.687578 Y17.058206 F100.000000
G1 X54.688948 Y17.056088 F100.000000
G1 X54.691064 Y17.054714 F100.000000
G1 X54.710052 Y17.023475 F100.000000
G1 X54.729912 Y16.992783 F100.000000
G1 X54.730228 Y16.990281 F100.000000
G1 X54.731538 Y16.988125 F100.000000
G1 X54.779798 Y16.843345 F100.000000
G1 X54.782530 Y16.815374 F100.000000
G1 X54.788784 Y16.787975 F100.000000
G1 Y16.693995 F100.000000
G1 X54.782428 Y16.666149 F100.000000
G1 X54.779500 Y16.637738 F100.000000
G1 X54.731240 Y16.495498 F100.000000
G1 X54.730793 Y16.494772 F100.000000
G1 X54.730698 Y16.493925 F100.000000
G1 X54.710400 Y16.461621 F100.000000
G1 X54.690410 Y16.429126 F100.000000
G1 X54.689693 Y16.428666 F100.000000
G1 X54.689240 Y16.427944 F100.000000
G1 X54.640980 Y16.379684 F100.000000
G1 X54.616106 Y16.364055 F100.000000
G1 X54.593140 Y16.345740 F100.000000
G1 X54.583431 Y16.343524 F100.000000
G1 X54.574999 Y16.338226 F100.000000
G1 X54.545808 Y16.334937 F100.000000
G1 X54.517169 Y16.328400 F100.000000
G1 X54.184429 F100.000000
G1 X54.165195 Y16.332790 F100.000000
G1 X54.145466 F100.000000
G1 X54.127692 Y16.341350 F100.000000
G1 X54.108458 Y16.345740 F100.000000
G1 X54.093034 Y16.358040 F100.000000
G1 X54.075259 Y16.366600 F100.000000
G1 X54.062958 Y16.382025 F100.000000
G1 X54.047534 Y16.394325 F100.000000
G1 X54.038974 Y16.412100 F100.000000
G1 X54.026674 Y16.427524 F100.000000
G1 X54.022284 Y16.446758 F100.000000
G1 X54.013724 Y16.464533 F100.000000
G1 Y16.484261 F100.000000
G1 X54.009334 Y16.503495 F100.000000
G1 Y16.693995 F100.000000
G1 X54.026674 Y16.769966 F100.000000
G1 X54.075259 Y16.830890 F100.000000
G1 X54.145466 Y16.864700 F100.000000
G1 X54.223391 F100.000000
G1 X54.293599 Y16.830890 F100.000000
G1 X54.342184 Y16.769966 F100.000000
G1 X54.359524 Y16.693995 F100.000000
G0 Z2.000000
G0 X53.484014 Y16.192722
G1 Z-0.040000 F60.000000
G1 X53.511174 Y16.211428 F100.000000
G1 X53.536958 Y16.231990 F100.000000
G1 X53.543046 Y16.233380 F100.000000
G1 X53.548190 Y16.236922 F100.000000
G1 X53.580777 Y16.241992 F100.000000
G1 X53.612929 Y16.249330 F100.000000
G1 X54.613689 F100.000000
G1 X54.689660 Y16.231990 F100.000000
G1 X54.750584 Y16.183405 F100.000000
G1 X54.784394 Y16.113197 F100.000000
G1 Y16.035273 F100.000000
G1 X54.750584 Y15.965065 F100.000000
G1 X54.689660 Y15.916480 F100.000000
G1 X54.613689 Y15.899140 F100.000000
G1 X54.272624 F100.000000
G1 X54.700519 Y15.654784 F100.000000
G1 X54.724800 Y15.632467 F100.000000
G1 X54.750584 Y15.611905 F100.000000
G1 X54.753293 Y15.606278 F100.000000
G1 X54.757891 Y15.602052 F100.000000
G1 X54.770085 Y15.571410 F100.000000
G1 X54.784394 Y15.541697 F100.000000
G1 Y15.535452 F100.000000
G1 X54.786703 Y15.529650 F100.000000
G1 X54.784394 Y15.496752 F100.000000
G1 Y15.463773 F100.000000
G1 X54.781684 Y15.458146 F100.000000
G1 X54.781247 Y15.451916 F100.000000
G1 X54.764893 Y15.423278 F100.000000
G1 X54.750584 Y15.393565 F100.000000
G1 X54.745701 Y15.389671 F100.000000
G1 X54.742604 Y15.384248 F100.000000
G1 X54.715444 Y15.365542 F100.000000
G1 X54.689660 Y15.344980 F100.000000
G1 X54.683571 Y15.343590 F100.000000
G1 X54.678428 Y15.340048 F100.000000
G1 X54.645841 Y15.334978 F100.000000
G1 X54.613689 Y15.327640 F100.000000
G1 X53.612929 F100.000000
G1 X53.536958 Y15.344980 F100.000000
G1 X53.476034 Y15.393565 F100.000000
G1 X53.442224 Y15.463773 F100.000000
G1 Y15.541697 F100.000000
G1 X53.476034 Y15.611905 F100.000000
G1 X53.536958 Y15.660490 F100.000000
G1 X53.612929 Y15.677830 F100.000000
G1 X53.953994 F100.000000
G1 X53.526099 Y15.922186 F100.000000
G1 X53.501818 Y15.944503 F100.000000
G1 X53.476034 Y15.965065 F100.000000
G1 X53.473324 Y15.970692 F100.000000
G1 X53.468726 Y15.974918 F100.000000
G1 X53.456533 Y16.005560 F100.000000
G1 X53.442224 Y16.035273 F100.000000
G1 Y16.041518 F100.000000
G1 X53.439915 Y16.047320 F100.000000
G1 X53.442224 Y16.080218 F100.000000
G1 Y16.113197 F100.000000
G1 X53.444933 Y16.118824 F100.000000
G1 X53.445371 Y16.125054 F100.000000
G1 X53.461725 Y16.153692 F100.000000
G1 X53.476034 Y16.183405 F100.000000
G1 X53.480917 Y16.187299 F100.000000
G1 X53.484014 Y16.192722 F100.000000
G0 Z2.000000
G0 X53.503759 Y15.162110
G1 Z-0.040000 F60.000000
G1 X53.521534 Y15.170670 F100.000000
G1 X53.536958 Y15.182970 F100.000000
G1 X53.556192 Y15.187360 F100.000000
G1 X53.573966 Y15.195920 F100.000000
G1 X53.593695 F100.000000
G1 X53.612929 Y15.200310 F100.000000
G1 X54.613689 F100.000000
G1 X54.632923 Y15.195920 F100.000000
G1 X54.652651 F100.000000
G1 X54.670426 Y15.187360 F100.000000
G1 X54.689660 Y15.182970 F100.000000
G1 X54.705084 Y15.170670 F100.000000
G1 X54.722859 Y15.162110 F100.000000
G1 X54.735159 Y15.146685 F100.000000
G1 X54.750584 Y15.134385 F100.000000
G1 X54.759143 Y15.116610 F100.000000
G1 X54.771444 Y15.101186 F100.000000
G1 X54.775834 Y15.081952 F100.000000
G1 X54.784394 Y15.064177 F100.000000
G1 Y15.044449 F100.000000
G1 X54.788784 Y15.025215 F100.000000
G1 Y14.786455 F100.000000
G1 X54.782428 Y14.758609 F100.000000
G1 X54.779500 Y14.730198 F100.000000
G1 X54.731240 Y14.587958 F100.000000
G1 X54.730168 Y14.586216 F100.000000
G1 X54.729912 Y14.584187 F100.000000
G1 X54.709804 Y14.553112 F100.000000
G0 Z2.000000
G1 Z-0.040000 F60.000000
G1 X54.690410 Y14.521586 F100.000000
G1 X54.688689 Y14.520482 F100.000000
G1 X54.687578 Y14.518764 F100.000000
G1 X54.591058 Y14.424784 F100.000000
G1 X54.568828 Y14.411227 F100.000000
G1 X54.548893 Y14.394476 F100.000000
G1 X54.454913 Y14.346216 F100.000000
G1 X54.435640 Y14.341295 F100.000000
G1 X54.417928 Y14.332242 F100.000000
G1 X54.227428 Y14.283982 F100.000000
G1 X54.205658 Y14.283466 F100.000000
G1 X54.184429 Y14.278620 F100.000000
G1 X54.042189 F100.000000
G1 X54.020959 Y14.283466 F100.000000
G1 X53.999190 Y14.283982 F100.000000
G1 X53.808690 Y14.332242 F100.000000
G1 X53.791806 Y14.340872 F100.000000
G1 X53.773384 Y14.345365 F100.000000
G1 X53.676864 Y14.393625 F100.000000
G1 X53.655154 Y14.411472 F100.000000
G1 X53.631358 Y14.426424 F100.000000
G1 X53.537378 Y14.520404 F100.000000
G1 X53.536924 Y14.521126 F100.000000
G1 X53.536207 Y14.521586 F100.000000
G1 X53.516217 Y14.554081 F100.000000
G1 X53.495919 Y14.586385 F100.000000
G1 X53.495824 Y14.587232 F100.000000
G1 X53.495378 Y14.587958 F100.000000
G1 X53.447118 Y14.730198 F100.000000
G1 X53.444189 Y14.758609 F100.000000
G1 X53.437834 Y14.786455 F100.000000
G1 Y15.025215 F100.000000
G1 X53.442224 Y15.044449 F100.000000
G1 Y15.064177 F100.000000
G1 X53.450784 Y15.081952 F100.000000
G1 X53.455174 Y15.101186 F100.000000
G1 X53.467474 Y15.116610 F100.000000
G1 X53.476034 Y15.134385 F100.000000
G1 X53.491458 Y15.146685 F100.000000
G1 X53.503759 Y15.162110 F100.000000
G0 Z2.000000
G0 X54.438594 Y14.850120
G1 Z-0.040000 F60.000000
G1 X53.788024 F100.000000
G1 Y14.815350 F100.000000
G1 X53.813878 Y14.739147 F100.000000
G1 X53.858888 Y14.694138 F100.000000
G1 X53.913051 Y14.667056 F100.000000
G1 X54.064023 Y14.628810 F100.000000
G1 X54.162595 F100.000000
G1 X54.312643 Y14.666822 F100.000000
G1 X54.365570 Y14.694001 F100.000000
G1 X54.413135 Y14.740315 F100.000000
G1 X54.438594 Y14.815350 F100.000000
G1 Y14.850120 F100.000000
G0 Z2.000000
G0 X54.613689 Y25.662900
G1 Z-0.040000 F60.000000
G1 X54.407784 F100.000000
G1 Y25.456995 F100.000000
G1 X54.390444 Y25.381024 F100.000000
G1 X54.341859 Y25.320100 F100.000000
G1 X54.271651 Y25.286290 F100.000000
G1 X54.193726 F100.000000
G1 X54.123519 Y25.320100 F100.000000
G1 X54.074934 Y25.381024 F100.000000
G1 X54.057594 Y25.456995 F100.000000
G1 Y25.662900 F100.000000
G1 X53.851689 F100.000000
G1 X53.775718 Y25.680240 F100.000000
G1 X53.714794 Y25.728825 F100.000000
G1 X53.680984 Y25.799033 F100.000000
G1 Y25.876957 F100.000000
G1 X53.714794 Y25.947165 F100.000000
G1 X53.775718 Y25.995750 F100.000000
G1 X53.851689 Y26.013090 F100.000000
G1 X54.057594 F100.000000
G1 Y26.218995 F100.000000
G1 X54.074934 Y26.294966 F100.000000
G1 X54.123519 Y26.355890 F100.000000
G1 X54.193726 Y26.389700 F100.000000
G1 X54.271651 F100.000000
G1 X54.341859 Y26.355890 F100.000000
G1 X54.390444 Y26.294966 F100.000000
G1 X54.407784 Y26.218995 F100.000000
G1 Y26.013090 F100.000000
G1 X54.613689 F100.000000
G1 X54.689660 Y25.995750 F100.000000
G1 X54.750584 Y25.947165 F100.000000
G1 X54.784394 Y25.876957 F100.000000
G1 Y25.799033 F100.000000
G1 X54.750584 Y25.728825 F100.000000
G1 X54.689660 Y25.680240 F100.000000
G1 X54.613689 Y25.662900 F100.000000
G0 Z2.000000
G0 X54.393358 Y24.903924
G1 Z-0.040000 F60.000000
G1 X54.351899 Y24.969905 F100.000000
G1 X54.343175 Y25.047339 F100.000000
G1 X54.368912 Y25.120891 F100.000000
G1 X54.424013 Y25.175992 F100.000000
G1 X54.497564 Y25.201729 F100.000000
G1 X54.574999 Y25.193004 F100.000000
G1 X54.640980 Y25.151546 F100.000000
G1 X54.689240 Y25.103286 F100.000000
G1 X54.703701 Y25.080270 F100.000000
G1 X54.721187 Y25.059459 F100.000000
G1 X54.769447 Y24.965479 F100.000000
G1 X54.770015 Y24.963258 F100.000000
G1 X54.771444 Y24.961466 F100.000000
G1 X54.779628 Y24.925611 F100.000000
G1 X54.788726 Y24.889977 F100.000000
G1 X54.788274 Y24.887730 F100.000000
G1 X54.788784 Y24.885495 F100.000000
G1 Y24.646735 F100.000000
G1 X54.788488 Y24.645437 F100.000000
G1 X54.788764 Y24.644135 F100.000000
G1 X54.779832 Y24.607514 F100.000000
G1 X54.771444 Y24.570764 F100.000000
G1 X54.770614 Y24.569723 F100.000000
G1 X54.770298 Y24.568430 F100.000000
G1 X54.722038 Y24.471910 F100.000000
G1 X54.702722 Y24.448413 F100.000000
G1 X54.685849 Y24.423104 F100.000000
G1 X54.637589 Y24.377384 F100.000000
G1 X54.616188 Y24.364730 F100.000000
G1 X54.597153 Y24.348736 F100.000000
G1 X54.503173 Y24.300476 F100.000000
G1 X54.500952 Y24.299909 F100.000000
G1 X54.499160 Y24.298480 F100.000000
G1 X54.463305 Y24.290296 F100.000000
G1 X54.427671 Y24.281197 F100.000000
G1 X54.425424 Y24.281650 F100.000000
G1 X54.423189 Y24.281140 F100.000000
G1 X54.184429 F100.000000
G1 X54.183131 Y24.281436 F100.000000
G1 X54.181829 Y24.281159 F100.000000
G1 X54.145208 Y24.290092 F100.000000
G1 X54.108458 Y24.298480 F100.000000
G1 X54.107417 Y24.299310 F100.000000
G1 X54.106124 Y24.299625 F100.000000
G1 X54.009604 Y24.347885 F100.000000
G1 X53.987894 Y24.365732 F100.000000
G1 X53.964098 Y24.380684 F100.000000
G1 X53.918378 Y24.426404 F100.000000
G1 X53.903426 Y24.450200 F100.000000
G1 X53.885579 Y24.471910 F100.000000
G1 X53.837319 Y24.568430 F100.000000
G1 X53.837004 Y24.569723 F100.000000
G1 X53.836174 Y24.570764 F100.000000
G1 X53.827786 Y24.607514 F100.000000
G1 X53.818853 Y24.644135 F100.000000
G1 X53.819130 Y24.645437 F100.000000
G1 X53.818834 Y24.646735 F100.000000
G1 Y24.824399 F100.000000
G1 X53.788024 Y24.821269 F100.000000
G1 Y24.504495 F100.000000
G1 X53.770684 Y24.428524 F100.000000
G1 X53.722099 Y24.367600 F100.000000
G1 X53.657344 Y24.336416 F100.000000
G1 X53.668172 Y24.335367 F100.000000
G1 X54.668932 Y24.002627 F100.000000
G1 X54.688102 Y23.990995 F100.000000
G1 X54.709148 Y23.983260 F100.000000
G1 X54.720997 Y23.971035 F100.000000
G1 X54.735552 Y23.962203 F100.000000
G1 X54.747776 Y23.943406 F100.000000
G1 X54.763382 Y23.927306 F100.000000
G1 X54.768753 Y23.911150 F100.000000
G1 X54.778035 Y23.896878 F100.000000
G1 X54.780893 Y23.874638 F100.000000
G1 X54.787968 Y23.853361 F100.000000
G1 X54.785798 Y23.836475 F100.000000
G1 X54.787968 Y23.819589 F100.000000
G1 X54.780893 Y23.798312 F100.000000
G1 X54.778035 Y23.776072 F100.000000
G1 X54.768753 Y23.761800 F100.000000
G1 X54.763382 Y23.745644 F100.000000
G1 X54.747776 Y23.729544 F100.000000
G1 X54.735552 Y23.710747 F100.000000
G1 X54.720997 Y23.701915 F100.000000
G1 X54.709148 Y23.689690 F100.000000
G1 X54.688102 Y23.681955 F100.000000
G1 X54.668932 Y23.670323 F100.000000
G1 X53.668172 Y23.337583 F100.000000
G1 X53.590611 Y23.330068 F100.000000
G1 X53.517470 Y23.356950 F100.000000
G1 X53.463235 Y23.412904 F100.000000
G1 X53.438650 Y23.486849 F100.000000
G1 X53.448582 Y23.564138 F100.000000
G1 X53.491066 Y23.629463 F100.000000
G1 X53.557685 Y23.669887 F100.000000
G0 Z2.000000
G1 Z-0.040000 F60.000000
G1 X54.058722 Y23.836475 F100.000000
G1 X53.557685 Y24.003063 F100.000000
G1 X53.491066 Y24.043487 F100.000000
G1 X53.448582 Y24.108812 F100.000000
G1 X53.438650 Y24.186101 F100.000000
G1 X53.463235 Y24.260046 F100.000000
G1 X53.517470 Y24.316000 F100.000000
G1 X53.570463 Y24.335477 F100.000000
G1 X53.503759 Y24.367600 F100.000000
G1 X53.455174 Y24.428524 F100.000000
G1 X53.437834 Y24.504495 F100.000000
G1 Y24.979475 F100.000000
G1 X53.440263 Y24.990120 F100.000000
G1 X53.439160 Y25.000982 F100.000000
G1 X53.448845 Y25.027720 F100.000000
G1 X53.455174 Y25.055446 F100.000000
G1 X53.461981 Y25.063982 F100.000000
G1 X53.465700 Y25.074248 F100.000000
G1 X53.486028 Y25.094136 F100.000000
G1 X53.503759 Y25.116370 F100.000000
G1 X53.513596 Y25.121107 F100.000000
G1 X53.521400 Y25.128743 F100.000000
G1 X53.548344 Y25.137841 F100.000000
G1 X53.573966 Y25.150180 F100.000000
G1 X53.584885 F100.000000
G1 X53.595229 Y25.153673 F100.000000
G1 X54.070209 Y25.201933 F100.000000
G1 X54.086525 Y25.199914 F100.000000
G1 X54.102805 Y25.202195 F100.000000
G1 X54.124715 Y25.195187 F100.000000
G1 X54.147544 Y25.192362 F100.000000
G1 X54.161367 Y25.183463 F100.000000
G1 X54.177025 Y25.178455 F100.000000
G1 X54.193725 Y25.162634 F100.000000
G1 X54.213067 Y25.150184 F100.000000
G1 X54.221661 Y25.136169 F100.000000
G1 X54.233595 Y25.124863 F100.000000
G1 X54.241776 Y25.103363 F100.000000
G1 X54.253801 Y25.083753 F100.000000
G1 X54.255463 Y25.067398 F100.000000
G1 X54.261310 Y25.052033 F100.000000
G1 X54.259353 Y25.029113 F100.000000
G1 X54.261678 Y25.006228 F100.000000
G1 X54.256079 Y24.990771 F100.000000
G1 X54.254680 Y24.974391 F100.000000
G1 X54.242972 Y24.954590 F100.000000
G1 X54.235138 Y24.932962 F100.000000
G1 X54.223387 Y24.921465 F100.000000
G1 X54.215019 Y24.907314 F100.000000
G1 X54.186514 Y24.877225 F100.000000
G1 X54.169024 Y24.843166 F100.000000
G1 Y24.688069 F100.000000
G1 X54.186091 Y24.653934 F100.000000
G1 X54.191628 Y24.648398 F100.000000
G1 X54.225763 Y24.631330 F100.000000
G1 X54.380859 F100.000000
G1 X54.414919 Y24.648820 F100.000000
G1 X54.422614 Y24.656111 F100.000000
G1 X54.438594 Y24.688069 F100.000000
G1 Y24.843166 F100.000000
G1 X54.422209 Y24.875073 F100.000000
G1 X54.393358 Y24.903924 F100.000000
G0 Z2.000000
G0 X5.773459 Y48.241984
G1 Z-0.040000 F60.000000
G1 X5.773275 Y48.244135 F100.000000
G1 X5.294509 F100.000000
G1 X5.206691 Y48.264179 F100.000000
G1 X5.136266 Y48.320341 F100.000000
G1 X5.097183 Y48.401497 F100.000000
G1 Y48.491573 F100.000000
G1 X5.136266 Y48.572729 F100.000000
G1 X5.206691 Y48.628891 F100.000000
G1 X5.294509 Y48.648935 F100.000000
G1 X7.326509 F100.000000
G1 X7.414327 Y48.628891 F100.000000
G1 X7.484751 Y48.572729 F100.000000
G1 X7.523834 Y48.491573 F100.000000
G1 Y48.401497 F100.000000
G1 X7.484751 Y48.320341 F100.000000
G1 X7.414327 Y48.264179 F100.000000
G1 X7.326509 Y48.244135 F100.000000
G1 X6.234138 F100.000000
G1 X6.218868 Y48.232482 F100.000000
G1 X6.175089 Y48.166813 F100.000000
G1 Y48.070937 F100.000000
G1 X6.201759 Y48.030931 F100.000000
G1 X6.299553 Y47.993615 F100.000000
G1 X7.326509 F100.000000
G1 X7.414327 Y47.973571 F100.000000
G1 X7.484751 Y47.917409 F100.000000
G1 X7.523834 Y47.836253 F100.000000
G1 Y47.746177 F100.000000
G1 X7.484751 Y47.665021 F100.000000
G1 X7.414327 Y47.608859 F100.000000
G1 X7.326509 Y47.588815 F100.000000
G1 X6.262249 F100.000000
G1 X6.226451 Y47.596986 F100.000000
G1 X6.190092 Y47.602114 F100.000000
G1 X5.997052 Y47.675774 F100.000000
G1 X5.982668 Y47.685383 F100.000000
G1 X5.966192 Y47.690653 F100.000000
G1 X5.945664 Y47.710101 F100.000000
G1 X5.922150 Y47.725809 F100.000000
G1 X5.913359 Y47.740707 F100.000000
G1 X5.900802 Y47.752604 F100.000000
G1 X5.804282 Y47.897384 F100.000000
G1 X5.799215 Y47.910699 F100.000000
G1 X5.790333 Y47.921837 F100.000000
G1 X5.783372 Y47.952334 F100.000000
G1 X5.772247 Y47.981571 F100.000000
G1 X5.773459 Y47.995766 F100.000000
G1 X5.770289 Y48.009655 F100.000000
G1 Y48.228095 F100.000000
G1 X5.773459 Y48.241984 F100.000000
G0 Z2.000000
G0 X7.124109 Y45.832875
G1 Z-0.040000 F60.000000
G1 Y45.916373 F100.000000
G1 X7.097438 Y45.956379 F100.000000
G1 X6.999645 Y45.993695 F100.000000
G1 X6.175089 F100.000000
G1 Y45.832875 F100.000000
G1 X6.155045 Y45.745057 F100.000000
G1 X6.098883 Y45.674632 F100.000000
G1 X6.017727 Y45.635550 F100.000000
G1 X5.927651 F100.000000
G1 X5.846494 Y45.674632 F100.000000
G1 X5.790333 Y45.745057 F100.000000
G1 X5.770289 Y45.832875 F100.000000
G1 Y45.993695 F100.000000
G1 X5.294509 F100.000000
G1 X5.206691 Y46.013739 F100.000000
G1 X5.136266 Y46.069901 F100.000000
G1 X5.097183 Y46.151057 F100.000000
G1 Y46.241133 F100.000000
G1 X5.136266 Y46.322289 F100.000000
G1 X5.206691 Y46.378451 F100.000000
G1 X5.294509 Y46.398495 F100.000000
G1 X5.770289 F100.000000
G1 Y46.414535 F100.000000
G1 X5.790333 Y46.502353 F100.000000
G1 X5.835758 Y46.559315 F100.000000
G1 X5.790333 Y46.616277 F100.000000
G1 X5.770289 Y46.704095 F100.000000
G1 Y46.864915 F100.000000
G1 X5.294509 F100.000000
G1 X5.206691 Y46.884959 F100.000000
G1 X5.136266 Y46.941121 F100.000000
G1 X5.097183 Y47.022277 F100.000000
G1 Y47.112353 F100.000000
G1 X5.136266 Y47.193509 F100.000000
G1 X5.206691 Y47.249671 F100.000000
G1 X5.294509 Y47.269715 F100.000000
G1 X5.770289 F100.000000
G1 Y47.283215 F100.000000
G1 X5.790333 Y47.371033 F100.000000
G1 X5.846494 Y47.441458 F100.000000
G1 X5.927651 Y47.480540 F100.000000
G1 X6.017727 F100.000000
G1 X6.098883 Y47.441458 F100.000000
G1 X6.155045 Y47.371033 F100.000000
G1 X6.175089 Y47.283215 F100.000000
G1 Y47.269715 F100.000000
G1 X7.036949 F100.000000
G1 X7.072747 Y47.261544 F100.000000
G1 X7.109106 Y47.256416 F100.000000
G1 X7.302146 Y47.182756 F100.000000
G1 X7.316530 Y47.173147 F100.000000
G1 X7.333005 Y47.167877 F100.000000
G1 X7.353534 Y47.148429 F100.000000
G1 X7.377048 Y47.132721 F100.000000
G1 X7.385838 Y47.117823 F100.000000
G1 X7.398396 Y47.105926 F100.000000
G1 X7.494916 Y46.961146 F100.000000
G1 X7.499982 Y46.947831 F100.000000
G1 X7.508865 Y46.936693 F100.000000
G1 X7.515826 Y46.906196 F100.000000
G1 X7.526951 Y46.876959 F100.000000
G1 X7.525739 Y46.862764 F100.000000
G1 X7.528909 Y46.848875 F100.000000
G1 Y46.704095 F100.000000
G1 X7.508865 Y46.616277 F100.000000
G1 X7.452703 Y46.545852 F100.000000
G1 X7.371547 Y46.506770 F100.000000
G1 X7.281471 F100.000000
G1 X7.200314 Y46.545852 F100.000000
G1 X7.144153 Y46.616277 F100.000000
G1 X7.124109 Y46.704095 F100.000000
G1 Y46.787593 F100.000000
G1 X7.097438 Y46.827599 F100.000000
G1 X6.999645 Y46.864915 F100.000000
G1 X6.175089 F100.000000
G1 Y46.704095 F100.000000
G1 X6.155045 Y46.616277 F100.000000
G1 X6.109619 Y46.559315 F100.000000
G1 X6.155045 Y46.502353 F100.000000
G1 X6.175089 Y46.414535 F100.000000
G1 Y46.398495 F100.000000
G1 X7.036949 F100.000000
G1 X7.072747 Y46.390324 F100.000000
G1 X7.109106 Y46.385196 F100.000000
G1 X7.302146 Y46.311536 F100.000000
G1 X7.316530 Y46.301927 F100.000000
G1 X7.333005 Y46.296657 F100.000000
G1 X7.353534 Y46.277209 F100.000000
G1 X7.377048 Y46.261501 F100.000000
G1 X7.385838 Y46.246603 F100.000000
G1 X7.398396 Y46.234706 F100.000000
G1 X7.494916 Y46.089926 F100.000000
G1 X7.499982 Y46.076611 F100.000000
G1 X7.508865 Y46.065473 F100.000000
G1 X7.515826 Y46.034976 F100.000000
G1 X7.526951 Y46.005739 F100.000000
G1 X7.525739 Y45.991544 F100.000000
G1 X7.528909 Y45.977655 F100.000000
G1 Y45.832875 F100.000000
G1 X7.508865 Y45.745057 F100.000000
G1 X7.452703 Y45.674632 F100.000000
G1 X7.371547 Y45.635550 F100.000000
G1 X7.281471 F100.000000
G1 X7.200314 Y45.674632 F100.000000
G1 X7.144153 Y45.745057 F100.000000
G1 X7.124109 Y45.832875 F100.000000
G0 Z2.000000
G0 X7.516002 Y44.833987
G1 Z-0.040000 F60.000000
G1 X7.508865 Y44.802717 F100.000000
G1 X7.500487 Y44.792211 F100.000000
G1 X7.495808 Y44.779614 F100.000000
G1 X7.399288 Y44.632294 F100.000000
G1 X7.373460 Y44.607429 F100.000000
G1 X7.350052 Y44.580272 F100.000000
G1 X7.253532 Y44.509152 F100.000000
G1 X7.228410 Y44.498214 F100.000000
G1 X7.205626 Y44.482994 F100.000000
G1 X7.012586 Y44.409334 F100.000000
G1 X6.976227 Y44.404206 F100.000000
G1 X6.940429 Y44.396035 F100.000000
G1 X6.358769 F100.000000
G1 X6.322971 Y44.404206 F100.000000
G1 X6.286612 Y44.409334 F100.000000
G1 X6.093572 Y44.482994 F100.000000
G1 X6.070788 Y44.498214 F100.000000
G1 X6.045665 Y44.509152 F100.000000
G1 X5.949145 Y44.580272 F100.000000
G1 X5.925738 Y44.607429 F100.000000
G1 X5.899909 Y44.632294 F100.000000
G1 X5.803389 Y44.779614 F100.000000
G1 X5.798711 Y44.792211 F100.000000
G1 X5.790333 Y44.802717 F100.000000
G1 X5.783195 Y44.833987 F100.000000
G1 X5.772028 Y44.864055 F100.000000
G1 X5.773279 Y44.877435 F100.000000
G1 X5.770289 Y44.890535 F100.000000
G1 Y45.180095 F100.000000
G1 X5.773459 Y45.193984 F100.000000
G1 X5.772247 Y45.208179 F100.000000
G1 X5.783372 Y45.237416 F100.000000
G1 X5.787366 Y45.254914 F100.000000
G1 X5.775363 Y45.279837 F100.000000
G1 Y45.369913 F100.000000
G1 X5.814446 Y45.451069 F100.000000
G1 X5.884871 Y45.507231 F100.000000
G1 X5.972689 Y45.527275 F100.000000
G1 X8.004689 F100.000000
G1 X8.092507 Y45.507231 F100.000000
G1 X8.162931 Y45.451069 F100.000000
G1 X8.202014 Y45.369913 F100.000000
G1 Y45.279837 F100.000000
G1 X8.162931 Y45.198681 F100.000000
G1 X8.092507 Y45.142519 F100.000000
G1 X8.004689 Y45.122475 F100.000000
G1 X7.528909 F100.000000
G1 Y44.890535 F100.000000
G1 X7.525919 Y44.877435 F100.000000
G1 X7.527169 Y44.864055 F100.000000
G1 X7.516002 Y44.833987 F100.000000
G0 Z2.000000
G0 X7.121668 Y45.122475
G1 Z-0.040000 F60.000000
G1 X6.177530 F100.000000
G1 X6.175089 Y45.118813 F100.000000
G1 Y44.950934 F100.000000
G1 X6.218567 Y44.884573 F100.000000
G1 X6.263619 Y44.851377 F100.000000
G1 X6.396073 Y44.800835 F100.000000
G1 X6.903125 F100.000000
G1 X7.035579 Y44.851377 F100.000000
G1 X7.080631 Y44.884573 F100.000000
G1 X7.124109 Y44.950934 F100.000000
G1 Y45.118813 F100.000000
G1 X7.121668 Y45.122475 F100.000000
G0 Z2.000000
G0 X7.274819 Y44.215729
G1 Z-0.040000 F60.000000
G1 X7.279225 Y44.215635 F100.000000
G1 X7.315625 Y44.197139 F100.000000
G1 X7.352779 Y44.180213 F100.000000
G1 X7.449299 Y44.106553 F100.000000
G1 X7.453227 Y44.101838 F100.000000
G1 X7.458650 Y44.098967 F100.000000
G1 X7.469910 Y44.083685 F100.000000
G1 X7.484751 Y44.071849 F100.000000
G1 X7.493720 Y44.053225 F100.000000
G1 X7.506950 Y44.037342 F100.000000
G1 X7.508443 Y44.031390 F100.000000
G1 X7.512083 Y44.026450 F100.000000
G1 X7.515598 Y44.007796 F100.000000
G1 X7.523834 Y43.990693 F100.000000
G1 Y43.970022 F100.000000
G1 X7.528863 Y43.949972 F100.000000
G1 X7.527625 Y43.943961 F100.000000
G1 X7.528761 Y43.937931 F100.000000
G1 X7.523834 Y43.919599 F100.000000
G1 Y43.900617 F100.000000
G1 X7.514865 Y43.881993 F100.000000
G1 X7.510696 Y43.861746 F100.000000
G1 X7.506973 Y43.856868 F100.000000
G1 X7.505381 Y43.850942 F100.000000
G1 X7.492988 Y43.836563 F100.000000
G1 X7.484751 Y43.819461 F100.000000
G1 X7.468590 Y43.806572 F100.000000
G1 X7.456049 Y43.790140 F100.000000
G1 X7.450579 Y43.787360 F100.000000
G1 X7.446572 Y43.782712 F100.000000
G1 X7.350052 Y43.711592 F100.000000
G1 X7.315667 Y43.696621 F100.000000
G1 X7.282525 Y43.679072 F100.000000
G1 X7.274670 Y43.678772 F100.000000
G1 X7.267464 Y43.675635 F100.000000
G1 X7.229989 Y43.677066 F100.000000
G1 X7.192514 Y43.675635 F100.000000
G1 X7.185307 Y43.678772 F100.000000
G1 X7.177453 Y43.679072 F100.000000
G1 X7.144310 Y43.696621 F100.000000
G1 X7.109925 Y43.711592 F100.000000
G1 X7.013405 Y43.782712 F100.000000
G1 X7.009399 Y43.787360 F100.000000
G1 X7.003928 Y43.790140 F100.000000
G1 X6.991387 Y43.806572 F100.000000
G1 X6.975226 Y43.819461 F100.000000
G1 X6.966990 Y43.836563 F100.000000
G1 X6.954597 Y43.850942 F100.000000
G1 X6.953004 Y43.856868 F100.000000
G1 X6.949281 Y43.861746 F100.000000
G1 X6.945112 Y43.881993 F100.000000
G1 X6.936143 Y43.900617 F100.000000
G1 Y43.919599 F100.000000
G1 X6.931216 Y43.937931 F100.000000
G1 X6.932352 Y43.943961 F100.000000
G1 X6.931115 Y43.949972 F100.000000
G1 X6.936143 Y43.970022 F100.000000
G1 Y43.990693 F100.000000
G1 X6.944379 Y44.007796 F100.000000
G1 X6.947894 Y44.026450 F100.000000
G1 X6.951534 Y44.031390 F100.000000
G1 X6.953027 Y44.037342 F100.000000
G1 X6.966257 Y44.053225 F100.000000
G1 X6.975226 Y44.071849 F100.000000
G1 X6.990067 Y44.083685 F100.000000
G1 X7.001327 Y44.098967 F100.000000
G1 X7.006751 Y44.101838 F100.000000
G1 X7.010678 Y44.106553 F100.000000
G1 X7.107198 Y44.180213 F100.000000
G1 X7.144353 Y44.197139 F100.000000
G1 X7.180752 Y44.215635 F100.000000
G1 X7.185159 Y44.215729 F100.000000
G1 X7.189169 Y44.217556 F100.000000
G1 X7.229989 Y44.216685 F100.000000
G1 X7.270808 Y44.217556 F100.000000
G1 X7.274819 Y44.215729 F100.000000
G0 Z2.000000
G0 X6.210559
G1 Z-0.040000 F60.000000
G1 X6.214965 Y44.215635 F100.000000
G1 X6.251365 Y44.197139 F100.000000
G1 X6.288519 Y44.180213 F100.000000
G1 X6.385039 Y44.106553 F100.000000
G1 X6.388967 Y44.101838 F100.000000
G1 X6.394390 Y44.098967 F100.000000
G1 X6.405650 Y44.083685 F100.000000
G1 X6.420491 Y44.071849 F100.000000
G1 X6.429460 Y44.053225 F100.000000
G1 X6.442690 Y44.037342 F100.000000
G1 X6.444183 Y44.031390 F100.000000
G1 X6.447823 Y44.026450 F100.000000
G1 X6.451338 Y44.007796 F100.000000
G1 X6.459574 Y43.990693 F100.000000
G1 Y43.970022 F100.000000
G1 X6.464603 Y43.949972 F100.000000
G1 X6.463365 Y43.943961 F100.000000
G1 X6.464501 Y43.937931 F100.000000
G1 X6.459574 Y43.919599 F100.000000
G1 Y43.900617 F100.000000
G1 X6.450605 Y43.881993 F100.000000
G1 X6.446436 Y43.861746 F100.000000
G1 X6.442713 Y43.856868 F100.000000
G1 X6.441121 Y43.850942 F100.000000
G1 X6.428728 Y43.836563 F100.000000
G1 X6.420491 Y43.819461 F100.000000
G1 X6.404330 Y43.806572 F100.000000
G1 X6.391789 Y43.790140 F100.000000
G1 X6.386319 Y43.787360 F100.000000
G1 X6.382312 Y43.782712 F100.000000
G1 X6.285792 Y43.711592 F100.000000
G1 X6.251407 Y43.696621 F100.000000
G1 X6.218265 Y43.679072 F100.000000
G1 X6.210410 Y43.678772 F100.000000
G1 X6.203204 Y43.675635 F100.000000
G1 X6.165729 Y43.677066 F100.000000
G1 X6.128254 Y43.675635 F100.000000
G1 X6.121047 Y43.678772 F100.000000
G1 X6.113193 Y43.679072 F100.000000
G1 X6.080050 Y43.696621 F100.000000
G1 X6.045665 Y43.711592 F100.000000
G1 X5.949145 Y43.782712 F100.000000
G1 X5.945139 Y43.787360 F100.000000
G1 X5.939668 Y43.790140 F100.000000
G1 X5.927127 Y43.806572 F100.000000
G1 X5.910966 Y43.819461 F100.000000
G1 X5.902730 Y43.836563 F100.000000
G1 X5.890337 Y43.850942 F100.000000
G1 X5.888744 Y43.856868 F100.000000
G1 X5.885021 Y43.861746 F100.000000
G1 X5.880852 Y43.881993 F100.000000
G1 X5.871883 Y43.900617 F100.000000
G1 Y43.919599 F100.000000
G1 X5.866956 Y43.937931 F100.000000
G1 X5.868092 Y43.943961 F100.000000
G1 X5.866855 Y43.949972 F100.000000
G1 X5.871883 Y43.970022 F100.000000
G1 Y43.990693 F100.000000
G1 X5.880119 Y44.007796 F100.000000
G1 X5.883634 Y44.026450 F100.000000
G1 X5.887274 Y44.031390 F100.000000
G1 X5.888767 Y44.037342 F100.000000
G1 X5.901997 Y44.053225 F100.000000
G1 X5.910966 Y44.071849 F100.000000
G1 X5.925807 Y44.083685 F100.000000
G1 X5.937067 Y44.098967 F100.000000
G1 X5.942491 Y44.101838 F100.000000
G1 X5.946418 Y44.106553 F100.000000
G1 X6.042938 Y44.180213 F100.000000
G1 X6.080093 Y44.197139 F100.000000
G1 X6.116492 Y44.215635 F100.000000
G1 X6.120899 Y44.215729 F100.000000
G1 X6.124909 Y44.217556 F100.000000
G1 X6.165729 Y44.216685 F100.000000
G1 X6.206548 Y44.217556 F100.000000
G1 X6.210559 Y44.215729 F100.000000
G0 Z2.000000
G0 X5.288434 Y41.951028
G1 Z-0.040000 F60.000000
G1 X5.200915 Y41.929716 F100.000000
G1 X5.112817 Y41.948488 F100.000000
G1 X5.041587 Y42.003626 F100.000000
G1 X5.001335 Y42.084208 F100.000000
G1 X5.000033 Y42.174275 F100.000000
G1 X5.037938 Y42.255988 F100.000000
G1 X5.107543 Y42.313162 F100.000000
G1 X7.721203 Y43.618722 F100.000000
G1 X7.808722 Y43.640034 F100.000000
G1 X7.896821 Y43.621262 F100.000000
G1 X7.968050 Y43.566124 F100.000000
G1 X8.008302 Y43.485542 F100.000000
G1 X8.009605 Y43.395475 F100.000000
G1 X7.971700 Y43.313762 F100.000000
G1 X7.902094 Y43.256588 F100.000000
G1 X5.288434 Y41.951028 F100.000000
G0 Z2.000000
G0 X5.288575 Y40.353438
G1 Z-0.040000 F60.000000
G1 X5.201073 Y40.332058 F100.000000
G1 X5.112959 Y40.350762 F100.000000
G1 X5.041687 Y40.405844 F100.000000
G1 X5.001372 Y40.486395 F100.000000
G1 X5.000000 Y40.576461 F100.000000
G1 X5.037842 Y40.658204 F100.000000
G1 X5.107402 Y40.715432 F100.000000
G1 X7.721062 Y42.023532 F100.000000
G1 X7.808565 Y42.044912 F100.000000
G1 X7.896678 Y42.026208 F100.000000
G1 X7.967950 Y41.971126 F100.000000
G1 X8.008265 Y41.890575 F100.000000
G1 X8.009637 Y41.800509 F100.000000
G1 X7.971796 Y41.718766 F100.000000
G1 X7.902235 Y41.661538 F100.000000
G1 X5.288575 Y40.353438 F100.000000
G0 Z2.000000
G0 X5.900802 Y39.261384
G1 Z-0.040000 F60.000000
G1 X5.804282 Y39.406164 F100.000000
G1 X5.799215 Y39.419479 F100.000000
G1 X5.790333 Y39.430617 F100.000000
G1 X5.783372 Y39.461114 F100.000000
G1 X5.772247 Y39.490351 F100.000000
G1 X5.773459 Y39.504546 F100.000000
G1 X5.770289 Y39.518435 F100.000000
G1 Y39.810535 F100.000000
G1 X5.773459 Y39.824424 F100.000000
G1 X5.772247 Y39.838619 F100.000000
G1 X5.783372 Y39.867856 F100.000000
G1 X5.790333 Y39.898353 F100.000000
G1 X5.799215 Y39.909491 F100.000000
G1 X5.804282 Y39.922806 F100.000000
G1 X5.900802 Y40.067586 F100.000000
G1 X5.926254 Y40.091700 F100.000000
G1 X5.949145 Y40.118258 F100.000000
G1 X6.045665 Y40.189378 F100.000000
G1 X6.070788 Y40.200316 F100.000000
G1 X6.093572 Y40.215536 F100.000000
G1 X6.286612 Y40.289196 F100.000000
G1 X6.322971 Y40.294324 F100.000000
G1 X6.358769 Y40.302495 F100.000000
G1 X6.940429 F100.000000
G1 X6.976227 Y40.294324 F100.000000
G1 X7.012586 Y40.289196 F100.000000
G1 X7.205626 Y40.215536 F100.000000
G1 X7.228410 Y40.200316 F100.000000
G1 X7.253532 Y40.189378 F100.000000
G1 X7.350052 Y40.118258 F100.000000
G1 X7.372943 Y40.091700 F100.000000
G1 X7.398396 Y40.067586 F100.000000
G1 X7.494916 Y39.922806 F100.000000
G1 X7.499982 Y39.909491 F100.000000
G1 X7.508865 Y39.898353 F100.000000
G1 X7.515826 Y39.867856 F100.000000
G1 X7.526951 Y39.838619 F100.000000
G1 X7.525739 Y39.824424 F100.000000
G1 X7.528909 Y39.810535 F100.000000
G1 Y39.518435 F100.000000
G1 X7.525739 Y39.504546 F100.000000
G1 X7.526951 Y39.490351 F100.000000
G1 X7.515826 Y39.461114 F100.000000
G1 X7.508865 Y39.430617 F100.000000
G1 X7.499982 Y39.419479 F100.000000
G1 X7.494916 Y39.406164 F100.000000
G1 X7.398396 Y39.261384 F100.000000
G1 X7.333005 Y39.199433 F100.000000
G1 X7.247212 Y39.171989 F100.000000
G1 X7.158006 Y39.184488 F100.000000
G1 X7.083058 Y39.234453 F100.000000
G1 X7.037211 Y39.311989 F100.000000
G1 X7.029547 Y39.401739 F100.000000
G1 X7.061582 Y39.485926 F100.000000
G1 X7.124109 Y39.579717 F100.000000
G1 Y39.749253 F100.000000
G1 X7.081303 Y39.813462 F100.000000
G1 X7.035579 Y39.847153 F100.000000
G1 X6.903125 Y39.897695 F100.000000
G1 X6.396073 F100.000000
G1 X6.263619 Y39.847153 F100.000000
G1 X6.217894 Y39.813462 F100.000000
G1 X6.175089 Y39.749253 F100.000000
G1 Y39.579717 F100.000000
G1 X6.237616 Y39.485926 F100.000000
G1 X6.269651 Y39.401739 F100.000000
G1 X6.261986 Y39.311989 F100.000000
G1 X6.216139 Y39.234453 F100.000000
G1 X6.141191 Y39.184488 F100.000000
G1 X6.051986 Y39.171989 F100.000000
G1 X5.966192 Y39.199433 F100.000000
G1 X5.900802 Y39.261384 F100.000000
G0 Z2.000000
G0 X6.237616 Y38.608604
G1 Z-0.040000 F60.000000
G1 X6.175089 Y38.514813 F100.000000
G1 Y38.346934 F100.000000
G1 X6.201886 Y38.306033 F100.000000
G1 X6.298347 Y38.270495 F100.000000
G1 X6.349508 F100.000000
G1 X6.351949 Y38.274157 F100.000000
G1 Y38.576095 F100.000000
G1 X6.355119 Y38.589984 F100.000000
G1 X6.353907 Y38.604179 F100.000000
G1 X6.365032 Y38.633416 F100.000000
G1 X6.371993 Y38.663913 F100.000000
G1 X6.380875 Y38.675051 F100.000000
G1 X6.385942 Y38.688366 F100.000000
G1 X6.482462 Y38.833146 F100.000000
G1 X6.495019 Y38.845043 F100.000000
G1 X6.503810 Y38.859941 F100.000000
G1 X6.527324 Y38.875649 F100.000000
G1 X6.547852 Y38.895097 F100.000000
G1 X6.564328 Y38.900367 F100.000000
G1 X6.578712 Y38.909976 F100.000000
G1 X6.771752 Y38.983636 F100.000000
G1 X6.808111 Y38.988764 F100.000000
G1 X6.843909 Y38.996935 F100.000000
G1 X7.036949 F100.000000
G1 X7.072747 Y38.988764 F100.000000
G1 X7.109106 Y38.983636 F100.000000
G1 X7.302146 Y38.909976 F100.000000
G1 X7.316530 Y38.900367 F100.000000
G1 X7.333005 Y38.895097 F100.000000
G1 X7.353534 Y38.875649 F100.000000
G1 X7.377048 Y38.859941 F100.000000
G1 X7.385838 Y38.845043 F100.000000
G1 X7.398396 Y38.833146 F100.000000
G1 X7.494916 Y38.688366 F100.000000
G1 X7.499982 Y38.675051 F100.000000
G1 X7.508865 Y38.663913 F100.000000
G1 X7.515826 Y38.633416 F100.000000
G1 X7.526951 Y38.604179 F100.000000
G1 X7.525739 Y38.589984 F100.000000
G1 X7.528909 Y38.576095 F100.000000
G1 Y38.212875 F100.000000
G1 X7.525739 Y38.198986 F100.000000
G1 X7.526951 Y38.184791 F100.000000
G1 X7.515826 Y38.155554 F100.000000
G1 X7.511832 Y38.138056 F100.000000
G1 X7.523834 Y38.113133 F100.000000
G1 Y38.023057 F100.000000
G1 X7.484751 Y37.941901 F100.000000
G1 X7.414327 Y37.885739 F100.000000
G1 X7.326509 Y37.865695 F100.000000
G1 X6.262249 F100.000000
G1 X6.227562 Y37.873612 F100.000000
G1 X6.192278 Y37.878174 F100.000000
G1 X5.999238 Y37.949294 F100.000000
G1 X5.983099 Y37.959808 F100.000000
G1 X5.964802 Y37.965823 F100.000000
G1 X5.945829 Y37.984087 F100.000000
G1 X5.923764 Y37.998462 F100.000000
G1 X5.913785 Y38.014936 F100.000000
G1 X5.899909 Y38.028294 F100.000000
G1 X5.803389 Y38.175614 F100.000000
G1 X5.798711 Y38.188211 F100.000000
G1 X5.790333 Y38.198717 F100.000000
G1 X5.783195 Y38.229987 F100.000000
G1 X5.772028 Y38.260055 F100.000000
G1 X5.773279 Y38.273435 F100.000000
G1 X5.770289 Y38.286535 F100.000000
G1 Y38.576095 F100.000000
G1 X5.773459 Y38.589984 F100.000000
G1 X5.772247 Y38.604179 F100.000000
G1 X5.783372 Y38.633416 F100.000000
G1 X5.790333 Y38.663913 F100.000000
G1 X5.799215 Y38.675051 F100.000000
G1 X5.804282 Y38.688366 F100.000000
G1 X5.900802 Y38.833146 F100.000000
G1 X5.966192 Y38.895097 F100.000000
G1 X6.051986 Y38.922541 F100.000000
G1 X6.141191 Y38.910042 F100.000000
G1 X6.216139 Y38.860077 F100.000000
G1 X6.261986 Y38.782541 F100.000000
G1 X6.269651 Y38.692791 F100.000000
G1 X6.237616 Y38.608604 F100.000000
G0 Z2.000000
G0 X6.756749 Y38.270495
G1 Z-0.040000 F60.000000
G1 X7.121668 F100.000000
G1 X7.124109 Y38.274157 F100.000000
G1 Y38.514813 F100.000000
G1 X7.097438 Y38.554819 F100.000000
G1 X6.999645 Y38.592135 F100.000000
G1 X6.881213 F100.000000
G1 X6.783419 Y38.554819 F100.000000
G1 X6.756749 Y38.514813 F100.000000
G1 Y38.270495 F100.000000
G0 Z2.000000
G0 X5.770289 Y36.907315
G1 Z-0.040000 F60.000000
G1 Y37.052095 F100.000000
G1 X5.773459 Y37.065984 F100.000000
G1 X5.772247 Y37.080179 F100.000000
G1 X5.783372 Y37.109416 F100.000000
G1 X5.790333 Y37.139913 F100.000000
G1 X5.799215 Y37.151051 F100.000000
G1 X5.804282 Y37.164366 F100.000000
G1 X5.830049 Y37.203018 F100.000000
G1 X5.814446 Y37.215461 F100.000000
G1 X5.775363 Y37.296617 F100.000000
G1 Y37.386693 F100.000000
G1 X5.814446 Y37.467849 F100.000000
G1 X5.884871 Y37.524011 F100.000000
G1 X5.972689 Y37.544055 F100.000000
G1 X7.326509 F100.000000
G1 X7.414327 Y37.524011 F100.000000
G1 X7.484751 Y37.467849 F100.000000
G1 X7.523834 Y37.386693 F100.000000
G1 Y37.296617 F100.000000
G1 X7.484751 Y37.215461 F100.000000
G1 X7.414327 Y37.159299 F100.000000
G1 X7.326509 Y37.139255 F100.000000
G1 X6.394867 F100.000000
G1 X6.264294 Y37.091149 F100.000000
G1 X6.218868 Y37.056482 F100.000000
G1 X6.175089 Y36.990813 F100.000000
G1 Y36.907315 F100.000000
G1 X6.155045 Y36.819497 F100.000000
G1 X6.098883 Y36.749072 F100.000000
G1 X6.017727 Y36.709990 F100.000000
G1 X5.927651 F100.000000
G1 X5.846494 Y36.749072 F100.000000
G1 X5.790333 Y36.819497 F100.000000
G1 X5.770289 Y36.907315 F100.000000
G0 Z2.000000
G0 X5.294509 Y36.601715
G1 Z-0.040000 F60.000000
G1 X7.036949 F100.000000
G1 X7.072747 Y36.593544 F100.000000
G1 X7.109106 Y36.588416 F100.000000
G1 X7.302146 Y36.514756 F100.000000
G1 X7.316530 Y36.505147 F100.000000
G1 X7.333005 Y36.499877 F100.000000
G1 X7.353534 Y36.480429 F100.000000
G1 X7.377048 Y36.464721 F100.000000
G1 X7.385838 Y36.449823 F100.000000
