(Generated by pygerber2gcode_cui_MOD.py )
( 2013-05-27 01:17:55 )
(Initialize)
G92 X0.000000 Y0.000000 Z0.000000

(Start form here)
G0 Z2.000000
G0 X1.075569 Y57.951215
G1 Z-0.475000 F30.000000
G1 X57.209569 F50.000000
G1 Y4.103215 F50.000000
G1 Y3.849215 F50.000000
G1 X-0.194431 F50.000000
G1 Y57.951215 F50.000000
G1 X1.075569 F50.000000
G1 Z-0.950000 F30.000000
G1 X57.209569 F50.000000
G1 Y4.103215 F50.000000
G1 Y3.849215 F50.000000
G1 X-0.194431 F50.000000
G1 Y57.951215 F50.000000
G1 X1.075569 F50.000000
G1 Z-1.425000 F30.000000
G1 X57.209569 F50.000000
G1 Y4.103215 F50.000000
G1 Y3.849215 F50.000000
G1 X-0.194431 F50.000000
G1 Y57.951215 F50.000000
G1 X1.075569 F50.000000
G1 Z-1.900000 F30.000000
G1 X57.209569 F50.000000
G1 Y4.103215 F50.000000
G1 Y3.849215 F50.000000
G1 X-0.194431 F50.000000
G1 Y57.951215 F50.000000
G1 X1.075569 F50.000000

(Goto to Initial position)
G0 Z2.000000
G0 X0.000000 Y0.000000
G0 Z0.000000
