(Generated by ./pygerber2gcode_cui_MOD.py )
( 2013-06-14 21:01:34 )
(Initialize)

(Start form here)
G0 Z0.500000
G0 X87.767012 Y12.500640
G1 Z-0.040000 F60.000000
G1 X87.711486 Y12.494384 F200.000000
G1 X87.674040 Y12.506551 F200.000000
G1 X87.157108 Y12.452219 F200.000000
G1 X86.799998 Y12.246041 F200.000000
G1 Y15.071448 F200.000000
G1 X87.520686 Y15.792135 F200.000000
G1 X87.543379 Y15.787621 F200.000000
G1 X88.040867 Y15.886578 F200.000000
G1 X88.381820 Y16.114395 F200.000000
G1 Y16.097020 F200.000000
G1 X88.404785 Y15.996403 F200.000000
G1 X88.414453 Y15.893652 F200.000000
G1 X88.485573 Y15.677752 F200.000000
G1 X88.491732 Y15.667537 F200.000000
G1 X88.493275 Y15.655710 F200.000000
G1 X88.566139 Y15.544141 F200.000000
G1 X88.634949 Y15.430026 F200.000000
G1 X88.644931 Y15.423496 F200.000000
G1 X88.648208 Y15.418477 F200.000000
G1 X88.647405 Y15.417688 F200.000000
G1 X88.642523 Y15.410068 F200.000000
G1 X88.634949 Y15.405113 F200.000000
G1 X88.564717 Y15.288640 F200.000000
G1 X88.491339 Y15.174122 F200.000000
G1 X88.490246 Y15.165138 F200.000000
G1 X88.485573 Y15.157387 F200.000000
G1 X88.414453 Y14.941487 F200.000000
G1 X88.404785 Y14.838737 F200.000000
G1 X88.381820 Y14.738120 F200.000000
G1 Y14.595880 F200.000000
G1 X88.405035 Y14.494167 F200.000000
G1 X88.415175 Y14.390332 F200.000000
G1 X88.486295 Y14.176972 F200.000000
G1 X88.491884 Y14.167778 F200.000000
G1 X88.493275 Y14.157110 F200.000000
G1 X88.556314 Y14.060585 F200.000000
G1 X88.485573 Y13.943267 F200.000000
G1 X88.414453 Y13.727367 F200.000000
G1 X88.404785 Y13.624617 F200.000000
G1 X88.381820 Y13.524000 F200.000000
G1 Y13.168400 F200.000000
G1 X88.382398 Y13.165865 F200.000000
G1 X88.381839 Y13.163326 F200.000000
G1 X88.414555 Y13.024976 F200.000000
G1 X88.446190 Y12.886375 F200.000000
G1 X88.447811 Y12.884343 F200.000000
G1 X88.448409 Y12.881812 F200.000000
G1 X88.519529 Y12.737032 F200.000000
G1 X88.590132 Y12.649903 F200.000000
G1 X88.651453 Y12.556009 F200.000000
G1 X88.674001 Y12.534239 F200.000000
G1 X87.914219 F200.000000
G1 X87.767012 Y12.500640 F200.000000
G0 Z0.500000
G0 X89.785077 Y16.037225
G1 Z-0.040000 F60.000000
G1 X89.751353 Y16.088864 F200.000000
G1 X89.754458 Y16.089640 F200.000000
G1 X89.810321 F200.000000
G1 X89.816968 Y16.087978 F200.000000
G1 X89.785077 Y16.037225 F200.000000
G0 Z0.500000
G0 X91.075363 Y15.168701
G1 Z-0.040000 F60.000000
G1 X91.001510 Y15.286238 F200.000000
G1 X90.929829 Y15.405113 F200.000000
G1 X90.924712 Y15.408461 F200.000000
G1 X90.921458 Y15.413639 F200.000000
G1 X90.917528 Y15.417570 F200.000000
G1 X90.921458 Y15.421501 F200.000000
G1 X90.924712 Y15.426678 F200.000000
G1 X90.929829 Y15.430026 F200.000000
G1 X91.001510 Y15.548901 F200.000000
G1 X91.075363 Y15.666438 F200.000000
G1 X91.076048 Y15.672515 F200.000000
G1 X91.079206 Y15.677752 F200.000000
G1 X91.150326 Y15.893652 F200.000000
G1 X91.156354 Y15.957717 F200.000000
G1 X91.224504 Y15.903368 F200.000000
G1 X91.274150 Y15.892037 F200.000000
G1 X91.317251 Y15.864920 F200.000000
G1 X91.467541 Y15.847897 F200.000000
G1 X91.614999 Y15.814241 F200.000000
G1 X92.013057 Y15.814241 F200.000000
G1 X92.040556 Y15.776391 F200.000000
G1 X92.495020 Y15.514006 F200.000000
G1 X93.016914 Y15.459153 F200.000000
G1 X93.515999 Y15.621316 F200.000000
G1 X93.905979 Y15.972455 F200.000000
G1 X94.119421 Y16.451855 F200.000000
G1 Y16.976624 F200.000000
G1 X93.905979 Y17.456025 F200.000000
G1 X93.515999 Y17.807164 F200.000000
G1 X93.016914 Y17.969326 F200.000000
G1 X92.495020 Y17.914473 F200.000000
G1 X92.040556 Y17.652088 F200.000000
G1 X92.013057 Y17.614239 F200.000000
G1 X91.988100 Y17.614239 F200.000000
G1 X90.561842 Y19.042169 F200.000000
G1 Y19.143289 F200.000000
G1 X90.350429 Y19.618130 F200.000000
G1 X89.964158 Y19.965930 F200.000000
G1 X89.469820 Y20.126551 F200.000000
G1 X88.952888 Y20.072219 F200.000000
G1 X88.502747 Y19.812330 F200.000000
G1 X88.197229 Y19.391820 F200.000000
G1 X88.089161 Y18.883400 F200.000000
G1 X88.197229 Y18.374980 F200.000000
G1 X88.502747 Y17.954470 F200.000000
G1 X88.952888 Y17.694580 F200.000000
G1 X89.411953 Y17.646331 F200.000000
G1 X89.669476 Y17.388507 F200.000000
G1 X89.596607 Y17.371875 F200.000000
G1 X89.516791 Y17.370232 F200.000000
G1 X89.232311 Y17.299112 F200.000000
G1 X89.168635 Y17.266816 F200.000000
G1 X89.099270 Y17.249897 F200.000000
G1 X88.957030 Y17.178777 F200.000000
G1 X88.876438 Y17.112525 F200.000000
G1 X88.842647 Y17.091293 F200.000000
G1 X88.744421 Y17.585108 F200.000000
G1 X88.462617 Y18.006857 F200.000000
G1 X88.040867 Y18.288662 F200.000000
G1 X87.543379 Y18.387618 F200.000000
G1 X87.045891 Y18.288662 F200.000000
G1 X86.624142 Y18.006857 F200.000000
G1 X86.342337 Y17.585108 F200.000000
G1 X86.243381 Y17.087620 F200.000000
G1 X86.247895 Y17.064926 F200.000000
G1 X85.263604 Y16.080635 F200.000000
G1 X85.183271 Y15.952786 F200.000000
G1 X85.089128 Y15.834735 F200.000000
G1 X85.077738 Y15.784832 F200.000000
G1 X85.050505 Y15.741491 F200.000000
G1 X85.033599 Y15.591447 F200.000000
G1 X85.000000 Y15.444240 F200.000000
G1 Y10.364240 F200.000000
G1 X85.033738 Y10.216426 F200.000000
G1 X85.050926 Y10.065788 F200.000000
G1 X85.077880 Y10.023025 F200.000000
G1 X85.089128 Y9.973745 F200.000000
G1 X85.183659 Y9.855207 F200.000000
G0 Z0.500000
G1 Z-0.040000 F60.000000
G1 X85.264504 Y9.726945 F200.000000
G1 X86.163664 Y8.830325 F200.000000
G1 X86.291100 Y8.750503 F200.000000
G1 X86.408664 Y8.656748 F200.000000
G1 X86.459190 Y8.645216 F200.000000
G1 X86.503110 Y8.617706 F200.000000
G1 X86.652559 Y8.601081 F200.000000
G1 X86.799159 Y8.567621 F200.000000
G1 X88.407067 Y8.567620 F200.000000
G1 X88.419922 Y8.548382 F200.000000
G1 X88.841671 Y8.266578 F200.000000
G1 X89.339159 Y8.167621 F200.000000
G1 X89.599629 Y8.219432 F200.000000
G1 X89.709999 Y8.194241 F200.000000
G1 X91.622999 F200.000000
G1 Y8.119646 F200.000000
G1 X91.565589 Y8.071938 F200.000000
G1 X91.481589 Y8.020706 F200.000000
G1 X91.385069 Y7.926726 F200.000000
G1 X91.325163 Y7.834149 F200.000000
G1 X91.255596 Y7.748595 F200.000000
G1 X91.176033 Y7.587319 F200.000000
G1 X91.060009 Y7.628866 F200.000000
G1 X90.772323 Y7.598568 F200.000000
G1 X90.526273 Y7.446448 F200.000000
G1 X90.506398 Y7.415321 F200.000000
G1 X90.487087 Y7.445676 F200.000000
G1 X90.241294 Y7.598212 F200.000000
G1 X89.953659 Y7.628996 F200.000000
G1 X89.681153 Y7.531932 F200.000000
G1 X89.477748 Y7.326244 F200.000000
G1 X89.383731 Y7.052671 F200.000000
G1 X89.417723 Y6.765398 F200.000000
G1 X89.892703 Y5.431898 F200.000000
G1 X89.929798 Y5.373586 F200.000000
G1 X89.952149 Y5.308189 F200.000000
G1 X90.006450 Y5.253093 F200.000000
G1 X90.047972 Y5.187823 F200.000000
G1 X90.106694 Y5.151381 F200.000000
G1 X90.155207 Y5.102158 F200.000000
G1 X90.228036 Y5.076078 F200.000000
G1 X90.293765 Y5.035287 F200.000000
G1 X90.362484 Y5.027933 F200.000000
G1 X90.427549 Y5.004633 F200.000000
G1 X90.504481 Y5.012735 F200.000000
G1 X90.581399 Y5.004503 F200.000000
G1 X90.646504 Y5.027693 F200.000000
G1 X90.715235 Y5.034931 F200.000000
G1 X90.781033 Y5.075611 F200.000000
G1 X90.853905 Y5.101567 F200.000000
G1 X90.902501 Y5.150708 F200.000000
G1 X90.961285 Y5.187052 F200.000000
G1 X91.002917 Y5.252251 F200.000000
G1 X91.057311 Y5.307255 F200.000000
G1 X91.079772 Y5.372615 F200.000000
G1 X91.116966 Y5.430864 F200.000000
G1 X91.200597 Y5.664408 F200.000000
G1 X91.255596 Y5.552924 F200.000000
G1 X91.325163 Y5.467370 F200.000000
G1 X91.385069 Y5.374794 F200.000000
G1 X91.481589 Y5.280814 F200.000000
G1 X91.565589 Y5.229582 F200.000000
G1 X91.641262 Y5.166697 F200.000000
G1 X91.831762 Y5.070177 F200.000000
G1 X91.838270 Y5.068552 F200.000000
G1 X91.843515 Y5.064370 F200.000000
G1 X91.978297 Y5.033607 F200.000000
G0 Z0.500000
G0 X94.217944 Y7.662943
G1 Z-0.040000 F60.000000
G1 X93.993501 Y7.480441 F200.000000
G1 X93.870471 Y7.218631 F200.000000
G1 X93.873219 Y6.929367 F200.000000
G1 X94.001202 Y6.669942 F200.000000
G1 X94.229072 Y6.491737 F200.000000
G1 X94.427020 Y6.448531 F200.000000
G1 Y6.282082 F200.000000
G1 X94.223495 Y6.235629 F200.000000
G1 X94.195699 Y6.213463 F200.000000
G1 X94.100450 Y6.306206 F200.000000
G1 X94.072604 Y6.323189 F200.000000
G1 X94.052267 Y6.348690 F200.000000
G1 X94.018960 Y6.364730 F200.000000
G1 X93.992820 Y6.390870 F200.000000
G1 X93.919657 Y6.416471 F200.000000
G1 X93.853482 Y6.456831 F200.000000
G1 X93.821024 Y6.460051 F200.000000
G1 X93.791638 Y6.474203 F200.000000
G1 X93.754670 F200.000000
G1 X93.719776 Y6.486412 F200.000000
G1 X93.642751 Y6.477734 F200.000000
G1 X93.565617 Y6.485385 F200.000000
G1 X93.534977 Y6.474203 F200.000000
G1 X93.502361 F200.000000
G1 X93.469054 Y6.458163 F200.000000
G1 X93.441019 Y6.455004 F200.000000
G1 Y6.889520 F200.000000
G1 X93.423478 Y6.966371 F200.000000
G1 X93.422103 Y7.045187 F200.000000
G1 X93.328123 Y7.426187 F200.000000
G1 X93.294808 Y7.492389 F200.000000
G1 X93.276862 Y7.564297 F200.000000
G1 X93.180342 Y7.754797 F200.000000
G1 X93.115986 Y7.832240 F200.000000
G1 X94.146999 F200.000000
G1 Y8.194241 F200.000000
G1 X94.728108 F200.000000
G1 X94.712374 Y8.179273 F200.000000
G1 X94.671751 Y8.159710 F200.000000
G1 X94.608709 Y8.080658 F200.000000
G1 X94.535451 Y8.010968 F200.000000
G1 X94.380914 Y7.778133 F200.000000
G1 X94.312248 Y7.709467 F200.000000
G1 X94.217944 Y7.662943 F200.000000
G0 Z0.500000
G0 X90.148011 Y20.381809
G1 Z-0.040000 F60.000000
G1 X90.213996 Y20.350033 F200.000000
G1 X90.271255 Y20.304370 F200.000000
G1 X90.342656 Y20.288073 F200.000000
G1 X90.408641 Y20.256297 F200.000000
G1 X90.481878 F200.000000
G1 X90.553279 Y20.240000 F200.000000
G1 X91.505779 F200.000000
G1 X91.787804 Y20.304370 F200.000000
G1 X91.838519 Y20.344815 F200.000000
G1 X91.889235 Y20.304370 F200.000000
G1 X91.960636 Y20.288073 F200.000000
G1 X92.026621 Y20.256297 F200.000000
G1 X92.099858 F200.000000
G1 X92.137061 Y20.247805 F200.000000
G1 X92.040556 Y20.192088 F200.000000
G1 X91.732105 Y19.767541 F200.000000
G0 Z0.500000
G0 X93.664589 Y23.296788
G1 Z-0.040000 F60.000000
G1 X93.632812 Y23.230803 F200.000000
G1 X93.587150 Y23.173544 F200.000000
G1 X93.570853 Y23.102143 F200.000000
G1 X93.562565 Y23.084932 F200.000000
G1 X93.392878 Y23.254619 F200.000000
G1 X93.390199 Y23.256302 F200.000000
G1 X93.388491 Y23.258965 F200.000000
G1 X93.267860 Y23.333173 F200.000000
G1 X93.147940 Y23.408524 F200.000000
G1 X93.144797 Y23.408878 F200.000000
G1 X93.142102 Y23.410536 F200.000000
G1 X92.857622 Y23.507056 F200.000000
G1 X92.752151 Y23.517926 F200.000000
G1 X92.648779 Y23.541519 F200.000000
G1 X92.171259 F200.000000
G1 X92.099858 Y23.525223 F200.000000
G1 X92.026621 F200.000000
G1 X91.960636 Y23.493446 F200.000000
G1 X91.889235 Y23.477149 F200.000000
G1 X91.831976 Y23.431486 F200.000000
G1 X91.765991 Y23.399710 F200.000000
G1 X91.720328 Y23.342451 F200.000000
G1 X91.663069 Y23.296788 F200.000000
G1 X91.631292 Y23.230803 F200.000000
G1 X91.585630 Y23.173544 F200.000000
G1 X91.569333 Y23.102143 F200.000000
G1 X91.537556 Y23.036158 F200.000000
G1 Y22.962921 F200.000000
G1 X91.521260 Y22.891520 F200.000000
G1 Y21.536466 F200.000000
G1 X91.505779 Y21.539999 F200.000000
G1 X91.203279 F200.000000
G1 Y22.891520 F200.000000
G1 X91.138909 Y23.173544 F200.000000
G1 X90.958547 Y23.399710 F200.000000
G1 X90.697918 Y23.525223 F200.000000
G1 X90.408641 F200.000000
G1 X90.148011 Y23.399710 F200.000000
G1 X89.967650 Y23.173544 F200.000000
G1 X89.903280 Y22.891520 F200.000000
G1 Y20.890000 F200.000000
G1 X89.919576 Y20.818599 F200.000000
G1 Y20.745361 F200.000000
G1 X89.951353 Y20.679377 F200.000000
G1 X89.967650 Y20.607975 F200.000000
G1 X90.013312 Y20.550716 F200.000000
G1 X90.045089 Y20.484732 F200.000000
G1 X90.102348 Y20.439069 F200.000000
G1 X90.148011 Y20.381809 F200.000000
G0 Z0.500000
G0 X91.732105 Y19.767541
G1 Z-0.040000 F60.000000
G1 X91.622999 Y19.254240 F200.000000
G1 X91.732105 Y18.740938 F200.000000
G1 X92.040556 Y18.316391 F200.000000
G1 X92.495020 Y18.054006 F200.000000
G1 X93.016914 Y17.999153 F200.000000
G1 X93.081333 Y18.020084 F200.000000
G1 X93.112636 Y18.016665 F200.000000
G1 X93.258379 Y17.983401 F200.000000
G1 X95.575948 F200.000000
G1 X95.596967 Y17.954470 F200.000000
G1 X96.047108 Y17.694580 F200.000000
G1 X96.564040 Y17.640249 F200.000000
G1 X97.058378 Y17.800869 F200.000000
G1 X97.444649 Y18.148669 F200.000000
G1 X97.656062 Y18.623510 F200.000000
G1 Y19.143289 F200.000000
G1 X97.444649 Y19.618130 F200.000000
G1 X97.058378 Y19.965930 F200.000000
G1 X96.564040 Y20.126551 F200.000000
G1 X96.047108 Y20.072219 F200.000000
G1 X95.596967 Y19.812330 F200.000000
G1 X95.575948 Y19.783399 F200.000000
G1 X94.000646 Y19.783399 F200.000000
G1 X93.905979 Y19.996025 F200.000000
G1 X93.515999 Y20.347164 F200.000000
G1 X93.246295 Y20.434796 F200.000000
G1 X93.267860 Y20.448346 F200.000000
G1 X93.388491 Y20.522554 F200.000000
G1 X93.390199 Y20.525217 F200.000000
G1 X93.392878 Y20.526901 F200.000000
G1 X93.566115 Y20.700137 F200.000000
G1 X93.587150 Y20.607975 F200.000000
G1 X93.767511 Y20.381809 F200.000000
G1 X94.028141 Y20.256297 F200.000000
G1 X94.317418 F200.000000
G1 X94.578047 Y20.381809 F200.000000
G1 X94.737786 Y20.582115 F200.000000
G1 X94.783612 Y20.516773 F200.000000
G1 X94.998250 Y20.322836 F200.000000
G1 X95.275779 Y20.241232 F200.000000
G1 X95.561230 Y20.288125 F200.000000
G1 X95.798066 Y20.454226 F200.000000
G1 X95.939380 Y20.706638 F200.000000
G1 X95.957182 Y20.995366 F200.000000
G1 X95.847946 Y21.263226 F200.000000
G1 X95.650398 Y21.544901 F200.000000
G1 X95.678878 Y21.573381 F200.000000
G1 X95.733484 Y21.660285 F200.000000
G1 X95.799082 Y21.739223 F200.000000
G1 X95.895602 Y21.929723 F200.000000
G1 X95.897226 Y21.936231 F200.000000
G1 X95.901409 Y21.941475 F200.000000
G1 X95.932172 Y22.076257 F200.000000
G0 Z0.500000
G1 Z-0.040000 F60.000000
G1 X95.965647 Y22.210392 F200.000000
G1 X95.964286 Y22.216960 F200.000000
G1 X95.965779 Y22.223500 F200.000000
G1 Y22.510520 F200.000000
G1 X95.964286 Y22.517059 F200.000000
G1 X95.965647 Y22.523628 F200.000000
G1 X95.932172 Y22.657762 F200.000000
G1 X95.901409 Y22.792544 F200.000000
G1 X95.897226 Y22.797788 F200.000000
G1 X95.895602 Y22.804297 F200.000000
G1 X95.799082 Y22.994797 F200.000000
G1 X95.733484 Y23.073734 F200.000000
G1 X95.678878 Y23.160639 F200.000000
G1 X95.584898 Y23.254619 F200.000000
G1 X95.497994 Y23.309225 F200.000000
G1 X95.419056 Y23.374823 F200.000000
G1 X95.228556 Y23.471343 F200.000000
G1 X95.222048 Y23.472967 F200.000000
G1 X95.216804 Y23.477149 F200.000000
G1 X95.082022 Y23.507912 F200.000000
G1 X94.947887 Y23.541387 F200.000000
G1 X94.941319 Y23.540027 F200.000000
G1 X94.934779 Y23.541519 F200.000000
G1 X94.172779 F200.000000
G1 X94.101378 Y23.525223 F200.000000
G1 X94.028141 F200.000000
G1 X93.962156 Y23.493446 F200.000000
G1 X93.890755 Y23.477149 F200.000000
G1 X93.833496 Y23.431486 F200.000000
G1 X93.767511 Y23.399710 F200.000000
G1 X93.721848 Y23.342451 F200.000000
G1 X93.664589 Y23.296788 F200.000000
G0 Z0.500000
G0 X88.646176 Y10.734240
G1 Z-0.040000 F60.000000
G1 X89.171359 F200.000000
G1 X88.841671 Y10.668662 F200.000000
G1 X88.419922 Y10.386857 F200.000000
G1 X88.407067 Y10.367619 F200.000000
G1 X88.375785 Y10.367619 F200.000000
G1 X88.554649 Y10.528669 F200.000000
G1 X88.646176 Y10.734240 F200.000000
G0 Z0.500000
G0 X91.978297 Y5.033607
G1 Z-0.040000 F60.000000
G1 X92.112431 Y5.000132 F200.000000
G1 X92.119000 Y5.001493 F200.000000
G1 X92.125539 Y5.000000 F200.000000
G1 X92.316039 F200.000000
G1 X92.322579 Y5.001493 F200.000000
G1 X92.329147 Y5.000132 F200.000000
G1 X92.463282 Y5.033607 F200.000000
G1 X92.598064 Y5.064370 F200.000000
G1 X92.603308 Y5.068552 F200.000000
G1 X92.609816 Y5.070177 F200.000000
G1 X92.800316 Y5.166697 F200.000000
G1 X92.879254 Y5.232295 F200.000000
G1 X92.966158 Y5.286901 F200.000000
G1 X93.041303 Y5.362045 F200.000000
G1 X93.051408 Y5.351940 F200.000000
G1 X93.087313 Y5.293069 F200.000000
G1 X93.181293 Y5.196549 F200.000000
G1 X93.215975 Y5.174107 F200.000000
G1 X93.241731 Y5.141809 F200.000000
G1 X93.275038 Y5.125770 F200.000000
G1 X93.301179 Y5.099629 F200.000000
G1 X93.366265 Y5.076854 F200.000000
G1 X93.424157 Y5.039393 F200.000000
G1 X93.465142 Y5.034220 F200.000000
G1 X93.502361 Y5.016297 F200.000000
G1 X93.539329 F200.000000
G1 X93.574222 Y5.004087 F200.000000
G1 X93.642745 Y5.011808 F200.000000
G1 X93.711158 Y5.003174 F200.000000
G1 X93.750328 Y5.016297 F200.000000
G1 X93.791638 F200.000000
G1 X93.824945 Y5.032337 F200.000000
G1 X93.861680 Y5.036476 F200.000000
G1 X93.920067 Y5.073163 F200.000000
G1 X93.985452 Y5.095068 F200.000000
G1 X94.015049 Y5.123886 F200.000000
G1 X94.052267 Y5.141809 F200.000000
G1 X94.075317 Y5.170712 F200.000000
G1 X94.083611 Y5.175924 F200.000000
G1 X94.223495 Y5.064370 F200.000000
G1 X94.505519 Y5.000000 F200.000000
G1 X95.648519 F200.000000
G1 X95.930544 Y5.064370 F200.000000
G1 X96.156709 Y5.244732 F200.000000
G1 X96.282222 Y5.505361 F200.000000
G1 Y5.794638 F200.000000
G1 X96.156709 Y6.055268 F200.000000
G1 X95.930544 Y6.235629 F200.000000
G1 X95.727019 Y6.282082 F200.000000
G1 Y7.651520 F200.000000
G1 X95.704520 Y7.750096 F200.000000
G1 X95.695710 Y7.850823 F200.000000
G1 X95.672682 Y7.889587 F200.000000
G1 X95.662649 Y7.933544 F200.000000
G1 X95.599607 Y8.012596 F200.000000
G1 X95.547966 Y8.099525 F200.000000
G1 X95.510399 Y8.124459 F200.000000
G1 X95.482287 Y8.159710 F200.000000
G1 X95.410584 Y8.194241 F200.000000
G1 X96.059999 F200.000000
G1 X96.171553 Y8.219702 F200.000000
G1 X96.433379 Y8.167621 F200.000000
G1 X96.930867 Y8.266578 F200.000000
G1 X97.352617 Y8.548382 F200.000000
G1 X97.365472 Y8.567620 F200.000000
G1 X98.973379 Y8.567621 F200.000000
G1 X99.120586 Y8.601220 F200.000000
G1 X99.270630 Y8.618125 F200.000000
G1 X99.313971 Y8.645358 F200.000000
G1 X99.363874 Y8.656748 F200.000000
G1 X99.481925 Y8.750891 F200.000000
G1 X99.609775 Y8.831224 F200.000000
G1 X100.506395 Y9.727844 F200.000000
G1 X100.586728 Y9.855694 F200.000000
G1 X100.680870 Y9.973745 F200.000000
G1 X100.692261 Y10.023648 F200.000000
G1 X100.719493 Y10.066989 F200.000000
G1 X100.736399 Y10.217032 F200.000000
G1 X100.769998 Y10.364240 F200.000000
G1 Y15.444240 F200.000000
G1 X100.736475 Y15.591115 F200.000000
G1 X100.719723 Y15.740834 F200.000000
G1 X100.692338 Y15.784491 F200.000000
G1 X100.680870 Y15.834735 F200.000000
G1 X100.586940 Y15.952520 F200.000000
G1 X100.506887 Y16.080143 F200.000000
G1 X99.524474 Y17.064076 F200.000000
G1 X99.529158 Y17.087620 F200.000000
G1 X99.430201 Y17.585108 F200.000000
G1 X99.148397 Y18.006857 F200.000000
G1 X98.726647 Y18.288662 F200.000000
G1 X98.229159 Y18.387618 F200.000000
G1 X97.731671 Y18.288662 F200.000000
G1 X97.309922 Y18.006857 F200.000000
G1 X97.028117 Y17.585108 F200.000000
G1 X96.929161 Y17.087620 F200.000000
G1 X97.028117 Y16.590132 F200.000000
G1 X97.309922 Y16.168382 F200.000000
G1 X97.731671 Y15.886578 F200.000000
G1 X98.229159 Y15.787621 F200.000000
G1 X98.251002 Y15.791966 F200.000000
G1 X98.970000 Y15.071855 F200.000000
G1 Y12.241626 F200.000000
G1 X98.854158 Y12.345930 F200.000000
G1 X98.359820 Y12.506551 F200.000000
G1 X98.268407 Y12.496943 F200.000000
G1 X95.954715 Y14.810635 F200.000000
G1 X95.826865 Y14.890968 F200.000000
G1 X95.708814 Y14.985111 F200.000000
G1 X95.658911 Y14.996501 F200.000000
G1 X95.615570 Y15.023734 F200.000000
G1 X95.465526 Y15.040640 F200.000000
G1 X95.318319 Y15.074239 F200.000000
G1 X93.730264 F200.000000
G1 X93.515999 Y15.267164 F200.000000
G1 X93.016914 Y15.429326 F200.000000
G1 X92.495020 Y15.374473 F200.000000
G1 X92.040556 Y15.112088 F200.000000
G1 X91.732105 Y14.687541 F200.000000
G1 X91.622999 Y14.174240 F200.000000
G1 X91.732105 Y13.660938 F200.000000
G1 X92.040556 Y13.236391 F200.000000
G1 X92.495020 Y12.974006 F200.000000
G1 X93.016914 Y12.919153 F200.000000
G1 X93.515999 Y13.081316 F200.000000
G1 X93.730264 Y13.274240 F200.000000
G1 X94.945527 F200.000000
G1 X96.985313 Y11.234455 F200.000000
G1 X97.087229 Y10.754980 F200.000000
G1 X97.368663 Y10.367619 F200.000000
G1 X97.365472 Y10.367619 F200.000000
G1 X97.352617 Y10.386857 F200.000000
G1 X96.930867 Y10.668662 F200.000000
G1 X96.433379 Y10.767618 F200.000000
G1 X95.935891 Y10.668662 F200.000000
G1 X95.514142 Y10.386857 F200.000000
G1 X95.251802 Y9.994239 F200.000000
G1 X94.146999 Y9.994239 F200.000000
G1 Y10.356240 F200.000000
G1 X91.622999 F200.000000
G1 Y9.994239 F200.000000
G1 X90.520736 Y9.994239 F200.000000
G1 X90.258397 Y10.386857 F200.000000
G1 X89.836647 Y10.668662 F200.000000
G1 X89.506960 Y10.734240 F200.000000
G1 X92.013057 F200.000000
G1 X92.040556 Y10.696391 F200.000000
G1 X92.495020 Y10.434006 F200.000000
G1 X93.016914 Y10.379153 F200.000000
G1 X93.515999 Y10.541316 F200.000000
G1 X93.905979 Y10.892455 F200.000000
G1 X94.119421 Y11.371855 F200.000000
G1 Y11.896624 F200.000000
G1 X93.905979 Y12.376025 F200.000000
G1 X93.515999 Y12.727164 F200.000000
G1 X93.016914 Y12.889326 F200.000000
G1 X92.495020 Y12.834473 F200.000000
G1 X92.040556 Y12.572088 F200.000000
G1 X92.013057 Y12.534239 F200.000000
G1 X90.992512 F200.000000
G1 X91.079206 Y12.678012 F200.000000
G1 X91.150326 Y12.893912 F200.000000
G1 X91.159994 Y12.996663 F200.000000
G1 X91.182959 Y13.097280 F200.000000
G1 Y13.452880 F200.000000
G1 X91.181859 Y13.457697 F200.000000
G1 X91.182887 Y13.462531 F200.000000
G1 X91.149727 Y13.598479 F200.000000
G1 X91.118589 Y13.734904 F200.000000
G1 X91.115508 Y13.738768 F200.000000
G1 X91.114337 Y13.743568 F200.000000
G1 X91.043217 Y13.885808 F200.000000
G1 X90.980511 Y13.962088 F200.000000
G1 X90.961893 Y13.992904 F200.000000
G1 X91.043217 Y14.091831 F200.000000
G1 X91.114337 Y14.234071 F200.000000
G1 X91.115508 Y14.238872 F200.000000
G1 X91.118589 Y14.242735 F200.000000
G1 X91.149727 Y14.379161 F200.000000
G1 X91.182887 Y14.515108 F200.000000
G1 X91.181859 Y14.519942 F200.000000
G1 X91.182959 Y14.524760 F200.000000
G1 Y14.738120 F200.000000
G1 X91.159994 Y14.838737 F200.000000
G1 X91.150326 Y14.941487 F200.000000
G1 X91.079206 Y15.157387 F200.000000
G1 X91.076048 Y15.162624 F200.000000
G1 X91.075363 Y15.168701 F200.000000

(Goto to Initial position)
G0 Z0.500000
G0 X0.000000 Y0.000000
G0 Z0.000000
