(Generated by ./pygerber2gcode_cui_MOD.py )
( 2013-06-18 10:00:09 )
(Initialize)

(Start form here)
G0 Z0.500000 F40.000000
G0 X125.229159 Y17.085080
G0 Z-2.000000 F40.000000 D0.609600
G0 Z0.500000
G0 X125.229159 Y11.263400
G0 Z-2.000000 F40.000000 D0.609600
G0 Z0.500000
G0 X123.430839 Y18.883400
G0 Z-2.000000 F40.000000 D0.609600
G0 Z0.500000
G0 X123.430839 Y9.465080
G0 Z-2.000000 F40.000000 D0.609600
G0 Z0.500000
G0 X116.339159 Y18.883400
G0 Z-2.000000 F40.000000 D0.609600
G0 Z0.500000
G0 X116.339159 Y9.465080
G0 Z-2.000000 F40.000000 D0.609600
G0 Z0.500000
G0 X114.540839 Y17.085080
G0 Z-2.000000 F40.000000 D0.609600
G0 Z0.500000
G0 X114.540839 Y11.263400
G0 Z-2.000000 F40.000000 D0.609600
G0 Z0.500000
G0 X119.884999 Y19.254240
G0 Z-2.000000 F40.000000 D1.016000
G0 Z0.500000
G0 X119.884999 Y16.714240
G0 Z-2.000000 F40.000000 D1.016000
G0 Z0.500000
G0 X119.884999 Y14.174240
G0 Z-2.000000 F40.000000 D1.016000
G0 Z0.500000
G0 X119.884999 Y11.634240
G0 Z-2.000000 F40.000000 D1.016000
G0 Z0.500000
G0 X119.884999 Y9.094240
G0 Z-2.000000 F40.000000 D1.016000
G0 Z0.500000

(Goto to Initial position)
G0 Z0.500000
G0 X0.000000 Y0.000000
G0 Z0.000000
