(Generated by ./pygerber2gcode_cui_MOD.py )
( 2013-10-19 12:20:24 )
(Initialize)

(Start form here)
G0 Z0.500000
G0 X108.044999 Y43.539240
G1 Z-0.850000 F10.000000
G1 Y50.524240 F20.000000
G1 X103.599999 Y54.969240 F20.000000
G1 X92.169999 F20.000000
G1 X87.724999 Y50.524240 F20.000000
G1 Y37.824240 F20.000000
G1 X92.169999 Y33.379240 F20.000000
G1 X103.599999 F20.000000
G1 X108.044999 Y37.824240 F20.000000
G1 Y43.539240 F20.000000
G1 Z-1.700000 F10.000000
G1 Y50.524240 F20.000000
G1 X103.599999 Y54.969240 F20.000000
G1 X92.169999 F20.000000
G1 X87.724999 Y50.524240 F20.000000
G1 Y37.824240 F20.000000
G1 X92.169999 Y33.379240 F20.000000
G1 X103.599999 F20.000000
G1 X108.044999 Y37.824240 F20.000000
G1 Y43.539240 F20.000000

(Goto to Initial position)
G0 Z0.500000
G0 X0.000000 Y0.000000
G0 Z0.000000
