(Generated by ./pygerber2gcode_cui_MOD.py )
( 2013-10-19 12:20:24 )
(Initialize)

(Start form here)
G0 Z0.500000
G0 X95.567496 Y45.633223
G1 Z-0.040000 F60.000000
G1 X95.638616 Y45.704343 F200.000000
G1 X95.639867 Y45.706335 F200.000000
G1 X95.641835 Y45.707622 F200.000000
G1 X95.669405 Y45.753343 F200.000000
G1 X95.697810 Y45.798550 F200.000000
G1 X95.698073 Y45.800887 F200.000000
G1 X95.699288 Y45.802901 F200.000000
G1 X95.770408 Y46.018801 F200.000000
G1 X95.774126 Y46.058321 F200.000000
G1 X95.782959 Y46.097020 F200.000000
G1 Y46.239260 F200.000000
G1 X95.774030 Y46.278380 F200.000000
G1 X95.770130 Y46.318317 F200.000000
G1 X95.699010 Y46.531677 F200.000000
G1 X95.698610 Y46.532333 F200.000000
G1 X95.698531 Y46.533098 F200.000000
G1 X95.669736 Y46.579839 F200.000000
G1 X95.641221 Y46.626752 F200.000000
G1 X95.640576 Y46.627170 F200.000000
G1 X95.640173 Y46.627825 F200.000000
G1 X95.497933 Y46.772605 F200.000000
G1 X95.462511 Y46.795302 F200.000000
G1 X95.429825 Y46.821788 F200.000000
G1 X95.285045 Y46.892908 F200.000000
G1 X95.259168 Y46.899027 F200.000000
G1 X95.235453 Y46.911055 F200.000000
G1 X94.950973 Y46.982175 F200.000000
G1 X94.920274 Y46.982807 F200.000000
G1 X94.890339 Y46.989639 F200.000000
G1 X94.674439 F200.000000
G1 X94.644504 Y46.982807 F200.000000
G1 X94.613805 Y46.982175 F200.000000
G1 X94.329325 Y46.911055 F200.000000
G1 X94.304835 Y46.898634 F200.000000
G1 X94.278156 Y46.892126 F200.000000
G1 X94.135916 Y46.821006 F200.000000
G1 X94.104919 Y46.795525 F200.000000
G1 X94.070943 Y46.774176 F200.000000
G1 X93.926163 Y46.629396 F200.000000
G1 X93.925152 Y46.627787 F200.000000
G1 X93.923557 Y46.626752 F200.000000
G1 X93.895603 Y46.580761 F200.000000
G1 X93.866969 Y46.535189 F200.000000
G1 X93.866756 Y46.533301 F200.000000
G1 X93.865769 Y46.531677 F200.000000
G1 X93.794649 Y46.318317 F200.000000
G1 X93.790748 Y46.278380 F200.000000
G1 X93.781820 Y46.239260 F200.000000
G1 Y46.097020 F200.000000
G1 X93.790652 Y46.058321 F200.000000
G1 X93.794371 Y46.018801 F200.000000
G1 X93.865491 Y45.802901 F200.000000
G1 X93.867860 Y45.798973 F200.000000
G1 X93.868453 Y45.794424 F200.000000
G1 X93.896478 Y45.751512 F200.000000
G1 X93.922943 Y45.707622 F200.000000
G1 X93.926782 Y45.705111 F200.000000
G1 X93.929291 Y45.701270 F200.000000
G1 X94.002951 Y45.630150 F200.000000
G1 X94.098181 Y45.572617 F200.000000
G1 X94.208944 Y45.562101 F200.000000
G1 X94.313300 Y45.600685 F200.000000
G1 X94.390581 Y45.680725 F200.000000
G1 X94.425480 Y45.786371 F200.000000
G1 X94.411085 Y45.896696 F200.000000
G1 X94.350248 Y45.989850 F200.000000
G1 X94.321050 Y46.018040 F200.000000
G1 X94.281819 Y46.137136 F200.000000
G1 Y46.198690 F200.000000
G1 X94.321447 Y46.317574 F200.000000
G1 X94.395809 Y46.391936 F200.000000
G1 X94.477217 Y46.432640 F200.000000
G1 X94.705216 Y46.489640 F200.000000
G1 X94.859563 F200.000000
G1 X95.088426 Y46.432424 F200.000000
G1 X95.171128 Y46.391799 F200.000000
G1 X95.242963 Y46.318681 F200.000000
G1 X95.282960 Y46.198690 F200.000000
G1 Y46.137136 F200.000000
G1 X95.243002 Y46.015835 F200.000000
G1 X95.213943 Y45.986776 F200.000000
G1 X95.154749 Y45.892569 F200.000000
G1 X95.142291 Y45.782009 F200.000000
G1 X95.179038 Y45.676992 F200.000000
G1 X95.257711 Y45.598319 F200.000000
G1 X95.362728 Y45.561572 F200.000000
G1 X95.473289 Y45.574029 F200.000000
G1 X95.567496 Y45.633223 F200.000000
G0 Z0.500000
G0 X94.424440 Y44.595880
G1 Z-0.040000 F60.000000
G1 Y44.561399 F200.000000
G1 X94.306835 Y44.561399 F200.000000
G1 X94.281819 Y44.636449 F200.000000
G1 Y44.698004 F200.000000
G1 X94.321411 Y44.818193 F200.000000
G1 X94.394794 Y44.890289 F200.000000
G1 X94.477217 Y44.931500 F200.000000
G1 X94.705216 Y44.988500 F200.000000
G1 X94.859563 F200.000000
G1 X95.088426 Y44.931284 F200.000000
G1 X95.172149 Y44.890157 F200.000000
G1 X95.243002 Y44.819304 F200.000000
G1 X95.282960 Y44.698004 F200.000000
G1 Y44.583777 F200.000000
G1 X95.238233 Y44.494323 F200.000000
G1 X95.211867 Y44.386232 F200.000000
G1 X95.235011 Y44.277405 F200.000000
G1 X95.303082 Y44.189398 F200.000000
G1 X95.402596 Y44.139641 F200.000000
G1 X95.513844 Y44.137989 F200.000000
G1 X95.614792 Y44.184769 F200.000000
G1 X95.685446 Y44.270716 F200.000000
G1 X95.756566 Y44.412956 F200.000000
G1 X95.757016 Y44.414803 F200.000000
G1 X95.758201 Y44.416289 F200.000000
G1 X95.770177 Y44.468760 F200.000000
G1 X95.782931 Y44.521048 F200.000000
G1 X95.782536 Y44.522907 F200.000000
G1 X95.782959 Y44.524760 F200.000000
G1 Y44.738120 F200.000000
G1 X95.774126 Y44.776819 F200.000000
G1 X95.770408 Y44.816338 F200.000000
G1 X95.699288 Y45.032238 F200.000000
G1 X95.698073 Y45.034252 F200.000000
G1 X95.697810 Y45.036589 F200.000000
G1 X95.669405 Y45.081796 F200.000000
G1 X95.641835 Y45.127517 F200.000000
G1 X95.639867 Y45.128805 F200.000000
G1 X95.638616 Y45.130796 F200.000000
G1 X95.496376 Y45.273036 F200.000000
G1 X95.461670 Y45.294843 F200.000000
G1 X95.429825 Y45.320648 F200.000000
G1 X95.285045 Y45.391768 F200.000000
G1 X95.259168 Y45.397887 F200.000000
G1 X95.235453 Y45.409915 F200.000000
G1 X94.950973 Y45.481035 F200.000000
G1 X94.920274 Y45.481667 F200.000000
G1 X94.890339 Y45.488499 F200.000000
G1 X94.674439 F200.000000
G1 X94.644504 Y45.481667 F200.000000
G1 X94.613805 Y45.481035 F200.000000
G1 X94.329325 Y45.409915 F200.000000
G1 X94.304835 Y45.397494 F200.000000
G1 X94.278156 Y45.390986 F200.000000
G1 X94.135916 Y45.319866 F200.000000
G1 X94.105755 Y45.295073 F200.000000
G1 X94.072514 Y45.274594 F200.000000
G1 X93.927734 Y45.132354 F200.000000
G1 X93.925856 Y45.129423 F200.000000
G1 X93.922943 Y45.127517 F200.000000
G1 X93.895931 Y45.082720 F200.000000
G1 X93.867709 Y45.038674 F200.000000
G1 X93.867288 Y45.035219 F200.000000
G1 X93.865491 Y45.032238 F200.000000
G1 X93.794371 Y44.816338 F200.000000
G1 X93.790652 Y44.776819 F200.000000
G1 X93.781820 Y44.738120 F200.000000
G1 Y44.595880 F200.000000
G1 X93.790748 Y44.556759 F200.000000
G1 X93.794649 Y44.516823 F200.000000
G1 X93.865769 Y44.303463 F200.000000
G1 X93.867918 Y44.299927 F200.000000
G1 X93.868453 Y44.295824 F200.000000
G1 X93.896713 Y44.252552 F200.000000
G1 X93.923557 Y44.208388 F200.000000
G1 X93.927028 Y44.206134 F200.000000
G1 X93.929291 Y44.202670 F200.000000
G1 X94.002951 Y44.131550 F200.000000
G1 X94.037014 Y44.110971 F200.000000
G1 X94.068128 Y44.086158 F200.000000
G1 X94.084132 Y44.082505 F200.000000
G1 X94.098181 Y44.074017 F200.000000
G1 X94.137800 Y44.070256 F200.000000
G1 X94.176599 Y44.061400 F200.000000
G1 X94.674439 F200.000000
G1 X94.701901 Y44.067668 F200.000000
G1 X94.730069 F200.000000
G1 X94.755448 Y44.079890 F200.000000
G1 X94.782910 Y44.086158 F200.000000
G1 X94.804933 Y44.103720 F200.000000
G1 X94.830311 Y44.115942 F200.000000
G1 X94.847874 Y44.137965 F200.000000
G1 X94.869897 Y44.155527 F200.000000
G1 X94.882119 Y44.180906 F200.000000
G1 X94.899681 Y44.202929 F200.000000
G1 X94.905949 Y44.230391 F200.000000
G1 X94.918171 Y44.255770 F200.000000
G1 Y44.283938 F200.000000
G1 X94.924439 Y44.311400 F200.000000
G1 Y44.595880 F200.000000
G1 X94.899681 Y44.704351 F200.000000
G1 X94.830311 Y44.791337 F200.000000
G1 X94.730069 Y44.839611 F200.000000
G1 X94.618809 F200.000000
G1 X94.518567 Y44.791337 F200.000000
G1 X94.449197 Y44.704351 F200.000000
G1 X94.424440 Y44.595880 F200.000000
G0 Z0.500000
G0 X95.699288 Y42.803161
G1 Z-0.040000 F60.000000
G1 X95.770408 Y43.019061 F200.000000
G1 X95.774126 Y43.058581 F200.000000
G1 X95.782959 Y43.097280 F200.000000
G1 Y43.452880 F200.000000
G1 X95.782536 Y43.454733 F200.000000
G1 X95.782931 Y43.456592 F200.000000
G1 X95.770177 Y43.508879 F200.000000
G1 X95.758201 Y43.561351 F200.000000
G1 X95.757016 Y43.562836 F200.000000
G1 X95.756566 Y43.564683 F200.000000
G1 X95.685446 Y43.706923 F200.000000
G1 X95.661328 Y43.736261 F200.000000
G1 X95.641689 Y43.768768 F200.000000
G1 X95.570569 Y43.842428 F200.000000
G1 X95.534456 Y43.866013 F200.000000
G1 X95.500945 Y43.893168 F200.000000
G1 X95.356165 Y43.964288 F200.000000
G1 X95.355192 Y43.964518 F200.000000
G1 X95.354410 Y43.965142 F200.000000
G1 X95.301102 Y43.977309 F200.000000
G1 X95.247891 Y43.989892 F200.000000
G1 X95.246914 Y43.989677 F200.000000
G1 X95.245939 Y43.989899 F200.000000
G1 X95.103699 F200.000000
G1 X95.101846 Y43.989476 F200.000000
G1 X95.099987 Y43.989872 F200.000000
G1 X95.047700 Y43.977118 F200.000000
G1 X94.995228 Y43.965142 F200.000000
G1 X94.993742 Y43.963957 F200.000000
G1 X94.991896 Y43.963506 F200.000000
G1 X94.849656 Y43.892386 F200.000000
G1 X94.817002 Y43.865542 F200.000000
G1 X94.781609 Y43.842428 F200.000000
G1 X94.710489 Y43.768768 F200.000000
G1 X94.690850 Y43.736261 F200.000000
G1 X94.666733 Y43.706923 F200.000000
G1 X94.595613 Y43.564683 F200.000000
G1 X94.589105 Y43.538004 F200.000000
G1 X94.576684 Y43.513514 F200.000000
G1 X94.512434 Y43.256516 F200.000000
G1 X94.469610 Y43.172343 F200.000000
G1 X94.455230 Y43.157963 F200.000000
G1 X94.402062 Y43.131379 F200.000000
G1 X94.377856 F200.000000
G1 X94.322679 Y43.158968 F200.000000
G1 X94.308047 Y43.173095 F200.000000
G1 X94.281819 Y43.226488 F200.000000
G1 Y43.483884 F200.000000
G1 X94.340388 Y43.661681 F200.000000
G1 X94.350810 Y43.772452 F200.000000
G1 X94.312139 Y43.876776 F200.000000
G1 X94.232034 Y43.953990 F200.000000
G1 X94.126359 Y43.988800 F200.000000
G1 X94.016046 Y43.974313 F200.000000
G1 X93.922943 Y43.913397 F200.000000
G1 X93.865491 Y43.818118 F200.000000
G1 X93.794371 Y43.602218 F200.000000
G1 X93.790652 Y43.562699 F200.000000
G1 X93.781820 Y43.524000 F200.000000
G1 Y43.168400 F200.000000
G1 X93.782042 Y43.167425 F200.000000
G1 X93.781827 Y43.166448 F200.000000
G1 X93.794410 Y43.113237 F200.000000
G1 X93.806577 Y43.059929 F200.000000
G1 X93.807201 Y43.059147 F200.000000
G1 X93.807431 Y43.058174 F200.000000
G1 X93.878551 Y42.913394 F200.000000
G1 X93.905706 Y42.879883 F200.000000
G1 X93.929291 Y42.843770 F200.000000
G1 X94.002951 Y42.772650 F200.000000
G1 X94.035458 Y42.753011 F200.000000
G1 X94.064796 Y42.728893 F200.000000
G1 X94.207036 Y42.657773 F200.000000
G1 X94.208882 Y42.657323 F200.000000
G1 X94.210368 Y42.656138 F200.000000
G1 X94.262840 Y42.644162 F200.000000
G1 X94.315127 Y42.631408 F200.000000
G1 X94.316986 Y42.631803 F200.000000
G1 X94.318839 Y42.631380 F200.000000
G1 X94.461079 F200.000000
G1 X94.462932 Y42.631803 F200.000000
G1 X94.464791 Y42.631408 F200.000000
G1 X94.517079 Y42.644162 F200.000000
G1 X94.569550 Y42.656138 F200.000000
G1 X94.571036 Y42.657323 F200.000000
G1 X94.572882 Y42.657773 F200.000000
G1 X94.715122 Y42.728893 F200.000000
G1 X94.746120 Y42.754375 F200.000000
G1 X94.780096 Y42.775723 F200.000000
G1 X94.851216 Y42.846843 F200.000000
G1 X94.872109 Y42.880095 F200.000000
G1 X94.897258 Y42.910256 F200.000000
G1 X94.970918 Y43.055036 F200.000000
G1 X94.977823 Y43.082505 F200.000000
G1 X94.990635 Y43.107766 F200.000000
G1 X95.055099 Y43.365622 F200.000000
G1 X95.096808 Y43.449040 F200.000000
G1 X95.111565 Y43.464324 F200.000000
G1 X95.162716 Y43.489900 F200.000000
G1 X95.187851 F200.000000
G1 X95.241244 Y43.463672 F200.000000
G1 X95.255371 Y43.449040 F200.000000
G1 X95.282960 Y43.393863 F200.000000
G1 Y43.137396 F200.000000
G1 X95.224391 Y42.959598 F200.000000
G1 X95.213968 Y42.848827 F200.000000
G1 X95.252639 Y42.744503 F200.000000
G1 X95.332745 Y42.667290 F200.000000
G1 X95.438419 Y42.632479 F200.000000
G1 X95.548732 Y42.646967 F200.000000
G1 X95.641835 Y42.707882 F200.000000
G1 X95.699288 Y42.803161 F200.000000
G0 Z0.500000
G0 X95.747175 Y37.067782
G1 Z-0.040000 F60.000000
G1 X95.505647 Y36.393303 F200.000000
G1 X95.265545 Y37.067385 F200.000000
G1 X95.205827 Y37.161260 F200.000000
G1 X95.111291 Y37.219927 F200.000000
G1 X95.000662 Y37.231767 F200.000000
G1 X94.895852 Y37.194435 F200.000000
G1 X94.817620 Y37.115324 F200.000000
G1 X94.781459 Y37.010104 F200.000000
G1 X94.794533 Y36.899615 F200.000000
G1 X95.269513 Y35.566115 F200.000000
G1 X95.283781 Y35.543687 F200.000000
G1 X95.292377 Y35.518534 F200.000000
G1 X95.313262 Y35.497343 F200.000000
G1 X95.329232 Y35.472240 F200.000000
G1 X95.351817 Y35.458223 F200.000000
G1 X95.370476 Y35.439291 F200.000000
G1 X95.398487 Y35.429261 F200.000000
G1 X95.423767 Y35.413572 F200.000000
G1 X95.450198 Y35.410743 F200.000000
G1 X95.475223 Y35.401782 F200.000000
G1 X95.504812 Y35.404898 F200.000000
G1 X95.534396 Y35.401732 F200.000000
G1 X95.559436 Y35.410651 F200.000000
G1 X95.585871 Y35.413435 F200.000000
G1 X95.611178 Y35.429081 F200.000000
G1 X95.639206 Y35.439064 F200.000000
G1 X95.657897 Y35.457965 F200.000000
G1 X95.680506 Y35.471943 F200.000000
G1 X95.696518 Y35.497020 F200.000000
G1 X95.717439 Y35.518175 F200.000000
G1 X95.726078 Y35.543313 F200.000000
G1 X95.740383 Y35.565717 F200.000000
G1 X96.217903 Y36.899217 F200.000000
G1 X96.231164 Y37.009684 F200.000000
G1 X96.195181 Y37.114965 F200.000000
G1 X96.117082 Y37.194208 F200.000000
G1 X96.012335 Y37.231717 F200.000000
G1 X95.901687 Y37.220064 F200.000000
G1 X95.807052 Y37.161557 F200.000000
G1 X95.747175 Y37.067782 F200.000000
G0 Z0.500000
G0 X97.068908 Y35.412926
G1 Z-0.040000 F60.000000
G1 X97.120498 Y35.400051 F200.000000
G1 X97.123024 Y35.400574 F200.000000
G1 X97.125539 Y35.400000 F200.000000
G1 X97.316039 F200.000000
G1 X97.318554 Y35.400574 F200.000000
G1 X97.321081 Y35.400051 F200.000000
G1 X97.372671 Y35.412926 F200.000000
G1 X97.424510 Y35.424758 F200.000000
G1 X97.426527 Y35.426366 F200.000000
G1 X97.429030 Y35.426991 F200.000000
G1 X97.619530 Y35.523511 F200.000000
G1 X97.649891 Y35.548741 F200.000000
G1 X97.683316 Y35.569743 F200.000000
G1 X97.777296 Y35.663723 F200.000000
G1 X97.798298 Y35.697148 F200.000000
G1 X97.823528 Y35.727509 F200.000000
G1 X97.920048 Y35.918009 F200.000000
G1 X97.926950 Y35.945665 F200.000000
G1 X97.939764 Y35.971128 F200.000000
G1 X98.033744 Y36.352128 F200.000000
G1 X98.034272 Y36.382441 F200.000000
G1 X98.041019 Y36.412000 F200.000000
G1 Y36.889520 F200.000000
G1 X98.034272 Y36.919078 F200.000000
G1 X98.033744 Y36.949392 F200.000000
G1 X97.939764 Y37.330392 F200.000000
G1 X97.926950 Y37.355854 F200.000000
G1 X97.920048 Y37.383511 F200.000000
G1 X97.823528 Y37.574011 F200.000000
G1 X97.798298 Y37.604371 F200.000000
G1 X97.777296 Y37.637796 F200.000000
G1 X97.683316 Y37.731776 F200.000000
G1 X97.649891 Y37.752778 F200.000000
G1 X97.619530 Y37.778008 F200.000000
G1 X97.429030 Y37.874528 F200.000000
G1 X97.426527 Y37.875153 F200.000000
G1 X97.424510 Y37.876762 F200.000000
G1 X97.372671 Y37.888594 F200.000000
G1 X97.321081 Y37.901469 F200.000000
G1 X97.318554 Y37.900945 F200.000000
G1 X97.316039 Y37.901519 F200.000000
G1 X97.125539 F200.000000
G1 X97.123024 Y37.900945 F200.000000
G1 X97.120498 Y37.901469 F200.000000
G1 X97.068908 Y37.888594 F200.000000
G1 X97.017068 Y37.876762 F200.000000
G1 X97.015051 Y37.875153 F200.000000
G1 X97.012548 Y37.874528 F200.000000
G1 X96.822048 Y37.778008 F200.000000
G1 X96.792943 Y37.753822 F200.000000
G1 X96.760635 Y37.734117 F200.000000
G1 X96.664115 Y37.640137 F200.000000
G1 X96.641075 Y37.604531 F200.000000
G1 X96.614318 Y37.571626 F200.000000
G1 X96.520338 Y37.381126 F200.000000
G1 X96.514216 Y37.355432 F200.000000
G1 X96.502195 Y37.331914 F200.000000
G1 X96.405675 Y36.950914 F200.000000
G1 X96.404938 Y36.919831 F200.000000
G1 X96.398020 Y36.889520 F200.000000
G1 Y36.412000 F200.000000
G1 X96.404938 Y36.381688 F200.000000
G1 X96.405675 Y36.350606 F200.000000
G1 X96.502195 Y35.969606 F200.000000
G1 X96.514216 Y35.946087 F200.000000
G1 X96.520338 Y35.920394 F200.000000
G1 X96.614318 Y35.729894 F200.000000
G1 X96.641075 Y35.696988 F200.000000
G1 X96.664115 Y35.661382 F200.000000
G1 X96.760635 Y35.567402 F200.000000
G1 X96.792943 Y35.547698 F200.000000
G1 X96.822048 Y35.523511 F200.000000
G1 X97.012548 Y35.426991 F200.000000
G1 X97.015051 Y35.426366 F200.000000
G1 X97.017068 Y35.424758 F200.000000
G1 X97.068908 Y35.412926 F200.000000
G0 Z0.500000
G0 X97.185259 Y37.401520
G1 Z-0.040000 F60.000000
G1 X97.256320 F200.000000
G1 X97.357967 Y37.350019 F200.000000
G1 X97.395538 Y37.312448 F200.000000
G1 X97.461143 Y37.182964 F200.000000
G1 X97.541020 Y36.859142 F200.000000
G1 Y36.442378 F200.000000
G1 X97.461143 Y36.118556 F200.000000
G1 X97.395538 Y35.989072 F200.000000
G1 X97.357967 Y35.951501 F200.000000
G1 X97.256320 Y35.899999 F200.000000
G1 X97.185259 F200.000000
G1 X97.082088 Y35.952272 F200.000000
G1 X97.043710 Y35.989641 F200.000000
G1 X96.980407 Y36.117956 F200.000000
G1 X96.898019 Y36.443174 F200.000000
G1 Y36.858345 F200.000000
G1 X96.980407 Y37.183563 F200.000000
G1 X97.043710 Y37.311878 F200.000000
G1 X97.082088 Y37.349247 F200.000000
G1 X97.185259 Y37.401520 F200.000000
G0 Z0.500000
G0 X98.991947 Y35.774511
G1 Z-0.040000 F60.000000
G1 X98.982101 Y35.802650 F200.000000
G1 X98.978368 Y35.832228 F200.000000
G1 X98.963960 Y35.854494 F200.000000
G1 X98.955200 Y35.879528 F200.000000
G1 X98.934119 Y35.900608 F200.000000
G1 X98.917923 Y35.925637 F200.000000
G1 X98.821403 Y36.019617 F200.000000
G1 X98.810693 Y36.026149 F200.000000
G1 X98.802871 Y36.035957 F200.000000
G1 X98.790061 Y36.042127 F200.000000
G1 X98.780007 Y36.052180 F200.000000
G1 X98.751868 Y36.062027 F200.000000
G1 X98.726416 Y36.077550 F200.000000
G1 X98.713932 Y36.078788 F200.000000
G1 X98.702629 Y36.084231 F200.000000
G1 X98.688411 F200.000000
G1 X98.674990 Y36.088927 F200.000000
G1 X98.645365 Y36.085590 F200.000000
G1 X98.615699 Y36.088532 F200.000000
G1 X98.603914 Y36.084231 F200.000000
G1 X98.591369 F200.000000
G1 X98.578559 Y36.078062 F200.000000
G1 X98.564430 Y36.076470 F200.000000
G1 X98.539187 Y36.060609 F200.000000
G1 X98.511181 Y36.050388 F200.000000
G1 X98.502429 Y36.041400 F200.000000
G1 X98.491127 Y36.035957 F200.000000
G1 X98.482262 Y36.024841 F200.000000
G1 X98.470223 Y36.017276 F200.000000
G1 X98.376243 Y35.923296 F200.000000
G1 X98.362132 Y35.900840 F200.000000
G1 X98.343130 Y35.882338 F200.000000
G1 X98.332910 Y35.854332 F200.000000
G1 X98.317049 Y35.829089 F200.000000
G1 X98.314079 Y35.802735 F200.000000
G1 X98.304987 Y35.777820 F200.000000
G1 X98.307929 Y35.748154 F200.000000
G1 X98.304591 Y35.718529 F200.000000
G1 X98.313351 Y35.693495 F200.000000
G1 X98.315969 Y35.667103 F200.000000
G1 X98.331492 Y35.641651 F200.000000
G0 Z0.500000
G0 Y35.641651
G1 Z-0.040000 F60.000000
G1 X98.341338 Y35.613512 F200.000000
G1 X98.360092 Y35.594758 F200.000000
G1 X98.373902 Y35.572116 F200.000000
G1 X98.467882 Y35.475596 F200.000000
G1 X98.481221 Y35.466964 F200.000000
G1 X98.491127 Y35.454542 F200.000000
G1 X98.503937 Y35.448373 F200.000000
G1 X98.513991 Y35.438319 F200.000000
G1 X98.539025 Y35.429559 F200.000000
G1 X98.561291 Y35.415151 F200.000000
G1 X98.577054 Y35.413162 F200.000000
G1 X98.591369 Y35.406268 F200.000000
G1 X98.605588 F200.000000
G1 X98.619008 Y35.401572 F200.000000
G1 X98.645363 Y35.404541 F200.000000
G1 X98.671676 Y35.401221 F200.000000
G1 X98.686741 Y35.406268 F200.000000
G1 X98.702629 F200.000000
G1 X98.715440 Y35.412437 F200.000000
G1 X98.729569 Y35.414029 F200.000000
G1 X98.752025 Y35.428139 F200.000000
G1 X98.777173 Y35.436564 F200.000000
G1 X98.788557 Y35.447648 F200.000000
G1 X98.802871 Y35.454542 F200.000000
G1 X98.811737 Y35.465659 F200.000000
G1 X98.823776 Y35.473223 F200.000000
G1 X98.920296 Y35.569743 F200.000000
G1 X98.936157 Y35.594986 F200.000000
G1 X98.956954 Y35.616346 F200.000000
G1 X98.965379 Y35.641494 F200.000000
G1 X98.979490 Y35.663950 F200.000000
G1 X98.982828 Y35.693575 F200.000000
G1 X98.992298 Y35.721843 F200.000000
G1 X98.988977 Y35.748156 F200.000000
G1 X98.991947 Y35.774511 F200.000000
G0 Z0.500000
G0 X99.616125 Y36.855818
G1 Z-0.040000 F60.000000
G1 X99.806625 Y36.949798 F200.000000
G1 X99.827020 Y36.966382 F200.000000
G1 Y35.899999 F200.000000
G1 X99.505519 F200.000000
G1 X99.397048 Y35.875242 F200.000000
G1 X99.310062 Y35.805872 F200.000000
G1 X99.261788 Y35.705630 F200.000000
G1 Y35.594370 F200.000000
G1 X99.310062 Y35.494127 F200.000000
G1 X99.397048 Y35.424758 F200.000000
G1 X99.505519 Y35.400000 F200.000000
G1 X100.648519 F200.000000
G1 X100.756990 Y35.424758 F200.000000
G1 X100.843977 Y35.494127 F200.000000
G1 X100.892251 Y35.594370 F200.000000
G1 Y35.705630 F200.000000
G1 X100.843977 Y35.805872 F200.000000
G1 X100.756990 Y35.875242 F200.000000
G1 X100.648519 Y35.899999 F200.000000
G1 X100.327019 F200.000000
G1 Y37.651520 F200.000000
G1 X100.318365 Y37.689434 F200.000000
G1 X100.314977 Y37.728175 F200.000000
G1 X100.306120 Y37.743084 F200.000000
G1 X100.302261 Y37.759991 F200.000000
G1 X100.278014 Y37.790395 F200.000000
G1 X100.258152 Y37.823829 F200.000000
G1 X100.243704 Y37.833419 F200.000000
G1 X100.232891 Y37.846977 F200.000000
G1 X100.197854 Y37.863851 F200.000000
G1 X100.165452 Y37.885356 F200.000000
G1 X100.148273 Y37.887727 F200.000000
G1 X100.132649 Y37.895251 F200.000000
G1 X100.093760 F200.000000
G1 X100.055237 Y37.900569 F200.000000
G1 X100.038731 Y37.895251 F200.000000
G1 X100.021389 F200.000000
G1 X99.986351 Y37.878378 F200.000000
G1 X99.949336 Y37.866454 F200.000000
G1 X99.936771 Y37.854502 F200.000000
G1 X99.921147 Y37.846977 F200.000000
G1 X99.896900 Y37.816573 F200.000000
G1 X99.868724 Y37.789769 F200.000000
G1 X99.692056 Y37.523589 F200.000000
G1 X99.548415 Y37.379948 F200.000000
G1 X99.394913 Y37.304221 F200.000000
G1 X99.308589 Y37.234028 F200.000000
G1 X99.261270 Y37.133332 F200.000000
G1 X99.262327 Y37.022076 F200.000000
G1 X99.311551 Y36.922297 F200.000000
G1 X99.399193 Y36.853757 F200.000000
G1 X99.507894 Y36.830031 F200.000000
G1 X99.616125 Y36.855818 F200.000000
G0 Z0.500000
G0 X95.397407 Y50.694542
G1 Z-0.040000 F60.000000
G1 X95.422786 Y50.682320 F200.000000
G1 X95.444808 Y50.664758 F200.000000
G1 X95.472270 Y50.658490 F200.000000
G1 X95.497649 Y50.646268 F200.000000
G1 X95.525817 F200.000000
G1 X95.553279 Y50.640000 F200.000000
G1 X96.505779 F200.000000
G1 X96.614250 Y50.664758 F200.000000
G1 X96.701237 Y50.734127 F200.000000
G1 X96.749511 Y50.834370 F200.000000
G1 Y50.945630 F200.000000
G1 X96.701237 Y51.045872 F200.000000
G1 X96.614250 Y51.115242 F200.000000
G1 X96.505779 Y51.139999 F200.000000
G1 X95.803279 F200.000000
G1 Y52.891520 F200.000000
G1 X95.778521 Y52.999991 F200.000000
G1 X95.709151 Y53.086977 F200.000000
G1 X95.608909 Y53.135251 F200.000000
G1 X95.497649 F200.000000
G1 X95.397407 Y53.086977 F200.000000
G1 X95.328037 Y52.999991 F200.000000
G1 X95.303280 Y52.891520 F200.000000
G1 Y50.890000 F200.000000
G1 X95.309548 Y50.862538 F200.000000
G1 Y50.834370 F200.000000
G1 X95.321769 Y50.808991 F200.000000
G1 X95.328037 Y50.781529 F200.000000
G1 X95.345600 Y50.759506 F200.000000
G1 X95.357822 Y50.734127 F200.000000
G1 X95.379844 Y50.716565 F200.000000
G1 X95.397407 Y50.694542 F200.000000
G0 Z0.500000
G0 X96.975802 Y53.047392
G1 Z-0.040000 F60.000000
G1 X96.963580 Y53.022013 F200.000000
G1 X96.946017 Y52.999991 F200.000000
G1 X96.939749 Y52.972529 F200.000000
G1 X96.927528 Y52.947150 F200.000000
G1 Y52.918982 F200.000000
G1 X96.921260 Y52.891520 F200.000000
G1 Y50.890000 F200.000000
G1 X96.927528 Y50.862538 F200.000000
G1 Y50.834370 F200.000000
G1 X96.939749 Y50.808991 F200.000000
G1 X96.946017 Y50.781529 F200.000000
G1 X96.963580 Y50.759506 F200.000000
G1 X96.975802 Y50.734127 F200.000000
G1 X96.997824 Y50.716565 F200.000000
G1 X97.015387 Y50.694542 F200.000000
G1 X97.040766 Y50.682320 F200.000000
G1 X97.062788 Y50.664758 F200.000000
G1 X97.090250 Y50.658490 F200.000000
G1 X97.115629 Y50.646268 F200.000000
G1 X97.143797 F200.000000
G1 X97.171259 Y50.640000 F200.000000
G1 X97.648779 F200.000000
G1 X97.688537 Y50.649075 F200.000000
G1 X97.729103 Y50.653255 F200.000000
G1 X98.013583 Y50.749775 F200.000000
G1 X98.014620 Y50.750413 F200.000000
G1 X98.015829 Y50.750549 F200.000000
G1 X98.061952 Y50.779530 F200.000000
G0 Z0.500000
G1 Z-0.040000 F60.000000
G1 X98.108348 Y50.808072 F200.000000
G1 X98.109005 Y50.809096 F200.000000
G1 X98.110036 Y50.809743 F200.000000
G1 X98.300536 Y51.000243 F200.000000
G1 X98.321538 Y51.033668 F200.000000
G1 X98.346768 Y51.064029 F200.000000
G1 X98.443288 Y51.254529 F200.000000
G1 X98.450190 Y51.282185 F200.000000
G1 X98.463004 Y51.307648 F200.000000
G1 X98.556984 Y51.688648 F200.000000
G1 X98.557512 Y51.718961 F200.000000
G1 X98.564259 Y51.748520 F200.000000
G1 Y52.033000 F200.000000
G1 X98.557512 Y52.062558 F200.000000
G1 X98.556984 Y52.092872 F200.000000
G1 X98.463004 Y52.473872 F200.000000
G1 X98.450190 Y52.499334 F200.000000
G1 X98.443288 Y52.526991 F200.000000
G1 X98.346768 Y52.717491 F200.000000
G1 X98.321538 Y52.747851 F200.000000
G1 X98.300536 Y52.781276 F200.000000
G1 X98.110036 Y52.971776 F200.000000
G1 X98.109005 Y52.972424 F200.000000
G1 X98.108348 Y52.973448 F200.000000
G1 X98.061952 Y53.001989 F200.000000
G1 X98.015829 Y53.030970 F200.000000
G1 X98.014620 Y53.031106 F200.000000
G1 X98.013583 Y53.031744 F200.000000
G1 X97.729103 Y53.128264 F200.000000
G1 X97.688537 Y53.132445 F200.000000
G1 X97.648779 Y53.141519 F200.000000
G1 X97.171259 F200.000000
G1 X97.143797 Y53.135251 F200.000000
G1 X97.115629 F200.000000
G1 X97.090250 Y53.123030 F200.000000
G1 X97.062788 Y53.116762 F200.000000
G1 X97.040766 Y53.099199 F200.000000
G1 X97.015387 Y53.086977 F200.000000
G1 X96.997824 Y53.064955 F200.000000
G1 X96.975802 Y53.047392 F200.000000
G0 Z0.500000
G0 X97.421259 Y51.139999
G1 Z-0.040000 F60.000000
G1 Y52.641520 F200.000000
G1 X97.607523 F200.000000
G1 X97.797715 Y52.576991 F200.000000
G1 X97.918778 Y52.455928 F200.000000
G1 X97.984383 Y52.326444 F200.000000
G1 X98.064260 Y52.002622 F200.000000
G1 Y51.778898 F200.000000
G1 X97.984383 Y51.455076 F200.000000
G1 X97.918778 Y51.325592 F200.000000
G1 X97.797715 Y51.204529 F200.000000
G1 X97.607523 Y51.139999 F200.000000
G1 X97.421259 F200.000000
G0 Z0.500000
G0 X98.977322 Y53.047392
G1 Z-0.040000 F60.000000
G1 X98.965100 Y53.022013 F200.000000
G1 X98.947537 Y52.999991 F200.000000
G1 X98.941269 Y52.972529 F200.000000
G1 X98.929048 Y52.947150 F200.000000
G1 Y52.918982 F200.000000
G1 X98.922780 Y52.891520 F200.000000
G1 Y50.890000 F200.000000
G1 X98.947537 Y50.781529 F200.000000
G1 X99.016907 Y50.694542 F200.000000
G1 X99.117149 Y50.646268 F200.000000
G1 X99.228409 F200.000000
G1 X99.328651 Y50.694542 F200.000000
G1 X99.398021 Y50.781529 F200.000000
G1 X99.422779 Y50.890000 F200.000000
G1 Y51.592500 F200.000000
G1 X99.517738 Y51.592500 F200.000000
G1 X100.111100 Y50.746451 F200.000000
G1 X100.193653 Y50.671860 F200.000000
G1 X100.300394 Y50.640474 F200.000000
G1 X100.410183 Y50.658509 F200.000000
G1 X100.501274 Y50.722395 F200.000000
G1 X100.555625 Y50.819476 F200.000000
G1 X100.562472 Y50.930525 F200.000000
G1 X100.520459 Y51.033548 F200.000000
G1 X100.093329 Y51.642574 F200.000000
G1 X100.238270 Y51.716011 F200.000000
G1 X100.268631 Y51.741241 F200.000000
G1 X100.302056 Y51.762243 F200.000000
G1 X100.396036 Y51.856223 F200.000000
G1 X100.417038 Y51.889648 F200.000000
G1 X100.442268 Y51.920009 F200.000000
G1 X100.538788 Y52.110509 F200.000000
G1 X100.539413 Y52.113012 F200.000000
G1 X100.541021 Y52.115029 F200.000000
G1 X100.552853 Y52.166868 F200.000000
G0 Z0.500000
G1 Z-0.040000 F60.000000
G1 X100.565728 Y52.218458 F200.000000
G1 X100.565205 Y52.220984 F200.000000
G1 X100.565779 Y52.223500 F200.000000
G1 Y52.510520 F200.000000
G1 X100.565205 Y52.513035 F200.000000
G1 X100.565728 Y52.515561 F200.000000
G1 X100.552853 Y52.567151 F200.000000
G1 X100.541021 Y52.618991 F200.000000
G1 X100.539413 Y52.621008 F200.000000
G1 X100.538788 Y52.623511 F200.000000
G1 X100.442268 Y52.814011 F200.000000
G1 X100.417038 Y52.844371 F200.000000
G1 X100.396036 Y52.877796 F200.000000
G1 X100.302056 Y52.971776 F200.000000
G1 X100.268631 Y52.992778 F200.000000
G1 X100.238270 Y53.018008 F200.000000
G1 X100.047770 Y53.114528 F200.000000
G1 X100.045267 Y53.115153 F200.000000
G1 X100.043250 Y53.116762 F200.000000
G1 X99.991411 Y53.128594 F200.000000
G1 X99.939821 Y53.141469 F200.000000
G1 X99.937294 Y53.140945 F200.000000
G1 X99.934779 Y53.141519 F200.000000
G1 X99.172779 F200.000000
G1 X99.145317 Y53.135251 F200.000000
G1 X99.117149 F200.000000
G1 X99.091770 Y53.123030 F200.000000
G1 X99.064308 Y53.116762 F200.000000
G1 X99.042286 Y53.099199 F200.000000
G1 X99.016907 Y53.086977 F200.000000
G1 X98.999344 Y53.064955 F200.000000
G1 X98.977322 Y53.047392 F200.000000
G0 Z0.500000
G0 X99.422779 Y52.092499
G1 Z-0.040000 F60.000000
G1 Y52.641520 F200.000000
G1 X99.875060 F200.000000
G1 X99.976707 Y52.590019 F200.000000
G1 X100.014278 Y52.552448 F200.000000
G1 X100.065780 Y52.450800 F200.000000
G1 Y52.283219 F200.000000
G1 X100.014278 Y52.181572 F200.000000
G1 X99.976707 Y52.144001 F200.000000
G1 X99.875060 Y52.092499 F200.000000
G1 X99.422779 F200.000000
G0 Z0.500000
G0 X96.425638 Y46.257461
G1 Z-0.040000 F60.000000
G1 X96.449583 Y46.242396 F200.000000
G1 X96.533078 Y46.232939 F200.000000
G1 X96.614999 Y46.214241 F200.000000
G1 X97.185459 Y46.214240 F200.000000
G1 X97.187627 Y46.207569 F200.000000
G1 X97.618627 Y45.894429 F200.000000
G1 X98.151372 F200.000000
G1 X98.582372 Y46.207569 F200.000000
G1 X98.746999 Y46.714240 F200.000000
G1 X98.582372 Y47.220911 F200.000000
G1 X98.151372 Y47.534050 F200.000000
G1 X97.618627 F200.000000
G1 X97.187627 Y47.220911 F200.000000
G1 X97.185459 Y47.214239 F200.000000
G1 X96.822277 F200.000000
G1 X95.180791 Y48.857650 F200.000000
G1 X95.189158 Y48.883400 F200.000000
G1 X95.026822 Y49.383016 F200.000000
G1 X94.601823 Y49.691796 F200.000000
G1 X94.076495 F200.000000
G1 X93.651496 Y49.383016 F200.000000
G1 X93.489161 Y48.883400 F200.000000
G1 X93.651496 Y48.383783 F200.000000
G1 X94.076495 Y48.075003 F200.000000
G1 X94.549137 F200.000000
G1 X96.261239 Y46.360894 F200.000000
G1 X96.332362 Y46.316147 F200.000000
G1 X96.398058 Y46.263756 F200.000000
G1 X96.425638 Y46.257461 F200.000000
G0 Z0.500000
G0 X100.507537 Y44.631051
G1 Z-0.040000 F60.000000
G1 X100.483458 Y44.646181 F200.000000
G1 X100.400101 Y44.655573 F200.000000
G1 X100.318319 Y44.674239 F200.000000
G1 X98.584540 F200.000000
G1 X98.582372 Y44.680911 F200.000000
G1 X98.151372 Y44.994050 F200.000000
G1 X97.618627 F200.000000
G1 X97.187627 Y44.680911 F200.000000
G1 X97.022999 Y44.174240 F200.000000
G1 X97.187627 Y43.667569 F200.000000
G1 X97.618627 Y43.354429 F200.000000
G1 X98.151372 F200.000000
G1 X98.582372 Y43.667569 F200.000000
G1 X98.584540 Y43.674240 F200.000000
G1 X100.111213 F200.000000
G1 X102.414203 Y41.371250 F200.000000
G1 X102.379161 Y41.263400 F200.000000
G1 X102.541496 Y40.763783 F200.000000
G1 X102.966495 Y40.455003 F200.000000
G1 X103.491823 F200.000000
G1 X103.916822 Y40.763783 F200.000000
G1 X104.079158 Y41.263400 F200.000000
G1 X103.916822 Y41.763016 F200.000000
G1 X103.491823 Y42.071796 F200.000000
G1 X103.127868 F200.000000
G1 X100.671872 Y44.527793 F200.000000
G1 X100.600845 Y44.572422 F200.000000
G1 X100.535261 Y44.624723 F200.000000
G1 X100.507537 Y44.631051 F200.000000
G0 Z0.500000
G0 X92.832437 Y42.115573
G1 Z-0.040000 F60.000000
G1 X92.749080 Y42.106181 F200.000000
G1 X92.725002 Y42.091051 F200.000000
G1 X92.697278 Y42.084723 F200.000000
G1 X92.681068 Y42.071796 F200.000000
G1 X92.280715 F200.000000
G1 X91.855716 Y41.763016 F200.000000
G1 X91.693381 Y41.263400 F200.000000
G1 X91.855716 Y40.763783 F200.000000
G1 X92.280715 Y40.455003 F200.000000
G1 X92.806043 F200.000000
G1 X93.231042 Y40.763783 F200.000000
G1 X93.351411 Y41.134241 F200.000000
G1 X97.185459 Y41.134241 F200.000000
G1 X97.187627 Y41.127569 F200.000000
G1 X97.618627 Y40.814429 F200.000000
G1 X98.151372 F200.000000
G1 X98.582372 Y41.127569 F200.000000
G1 X98.746999 Y41.634240 F200.000000
G1 X98.582372 Y42.140911 F200.000000
G1 X98.151372 Y42.454050 F200.000000
G1 X97.618627 F200.000000
G1 X97.187627 Y42.140911 F200.000000
G1 X97.185459 Y42.134239 F200.000000
G1 X92.914219 Y42.134239 F200.000000
G1 X92.832437 Y42.115573 F200.000000
G0 Z0.500000
G0 X97.187627 Y49.760911
G1 Z-0.040000 F60.000000
G1 X97.022999 Y49.254240 F200.000000
G1 X97.187627 Y48.747569 F200.000000
G1 X97.618627 Y48.434429 F200.000000
G1 X98.039540 F200.000000
G1 X98.041438 Y48.432916 F200.000000
G1 X98.069996 Y48.426398 F200.000000
G1 X98.094852 Y48.410898 F200.000000
G1 X98.177411 Y48.401881 F200.000000
G1 X98.258379 Y48.383401 F200.000000
G1 X100.746243 F200.000000
G1 X101.170715 Y48.075003 F200.000000
G1 X101.696043 F200.000000
G1 X102.121042 Y48.383783 F200.000000
G1 X102.283378 Y48.883400 F200.000000
G1 X102.121042 Y49.383016 F200.000000
G1 X101.696043 Y49.691796 F200.000000
G1 X101.170715 F200.000000
G1 X100.746243 Y49.383399 F200.000000
G1 X98.705033 F200.000000
G1 X98.582372 Y49.760911 F200.000000
G1 X98.151372 Y50.074050 F200.000000
G1 X97.618627 F200.000000
G1 X97.187627 Y49.760911 F200.000000
G0 Z0.500000
G0 X101.059999 Y38.594241
G1 Z-0.040000 F60.000000
G1 X101.141781 Y38.612907 F200.000000
G1 X101.225138 Y38.622299 F200.000000
G1 X101.228816 Y38.624609 F200.000000
G1 X101.561462 Y38.576782 F200.000000
G1 X102.022753 Y38.787446 F200.000000
G1 X102.138544 Y38.967621 F200.000000
G1 X103.973379 F200.000000
G1 X104.055161 Y38.986287 F200.000000
G1 X104.138518 Y38.995679 F200.000000
G1 X104.162597 Y39.010808 F200.000000
G1 X104.190321 Y39.017136 F200.000000
G1 X104.255905 Y39.069437 F200.000000
G1 X104.326932 Y39.114067 F200.000000
G1 X105.223552 Y40.010687 F200.000000
G1 X105.268182 Y40.081714 F200.000000
G1 X105.320483 Y40.147298 F200.000000
G1 X105.326811 Y40.175022 F200.000000
G1 X105.341940 Y40.199100 F200.000000
G1 X105.351332 Y40.282458 F200.000000
G1 X105.369998 Y40.364240 F200.000000
G1 Y45.444240 F200.000000
G1 X105.351374 Y45.525837 F200.000000
G1 X105.342068 Y45.609014 F200.000000
G1 X105.326854 Y45.633268 F200.000000
G1 X105.320483 Y45.661181 F200.000000
G1 X105.268299 Y45.726617 F200.000000
G1 X105.223825 Y45.797519 F200.000000
G1 X104.092701 Y46.930394 F200.000000
G1 Y47.341179 F200.000000
G1 X103.818533 Y47.767793 F200.000000
G1 X103.357242 Y47.978457 F200.000000
G1 X102.855286 Y47.906287 F200.000000
G1 X102.472032 Y47.574196 F200.000000
G1 X102.329161 Y47.087620 F200.000000
G1 X102.472032 Y46.601044 F200.000000
G1 X102.855286 Y46.268952 F200.000000
G1 X103.357242 Y46.196782 F200.000000
G1 X103.394893 Y46.213976 F200.000000
G1 X104.370000 Y45.237360 F200.000000
G1 Y40.571346 F200.000000
G1 X103.766273 Y39.967619 F200.000000
G1 X102.138544 F200.000000
G1 X102.022753 Y40.147793 F200.000000
G1 X101.561462 Y40.358457 F200.000000
G1 X101.059506 Y40.286287 F200.000000
G1 X100.676252 Y39.954196 F200.000000
G1 X100.570560 Y39.594239 F200.000000
G1 X98.746999 Y39.594239 F200.000000
G1 Y39.956240 F200.000000
G1 X97.022999 F200.000000
G1 Y39.594239 F200.000000
G1 X95.202701 F200.000000
G1 Y39.721179 F200.000000
G1 X94.928533 Y40.147793 F200.000000
G1 X94.467242 Y40.358457 F200.000000
G1 X93.965286 Y40.286287 F200.000000
G1 X93.597524 Y39.967619 F200.000000
G1 X92.005851 F200.000000
G1 X91.399998 Y40.571761 F200.000000
G1 Y45.237133 F200.000000
G1 X92.398844 Y46.235979 F200.000000
G1 X92.671462 Y46.196782 F200.000000
G1 X93.132753 Y46.407446 F200.000000
G1 X93.406921 Y46.834061 F200.000000
G1 Y47.341179 F200.000000
G1 X93.132753 Y47.767793 F200.000000
G1 X92.671462 Y47.978457 F200.000000
G1 X92.169506 Y47.906287 F200.000000
G1 X91.786252 Y47.574196 F200.000000
G1 X91.643381 Y47.087620 F200.000000
G1 X91.687163 Y46.938510 F200.000000
G1 X90.546446 Y45.797793 F200.000000
G1 X90.501817 Y45.726765 F200.000000
G1 X90.449515 Y45.661181 F200.000000
G1 X90.443188 Y45.633457 F200.000000
G1 X90.428058 Y45.609379 F200.000000
G1 X90.418666 Y45.526021 F200.000000
G1 X90.400000 Y45.444240 F200.000000
G1 Y40.364240 F200.000000
G1 X90.418743 Y40.282121 F200.000000
G1 X90.428292 Y40.198433 F200.000000
G1 X90.443267 Y40.174676 F200.000000
G1 X90.449515 Y40.147298 F200.000000
G1 X90.502033 Y40.081444 F200.000000
G1 X90.546947 Y40.010187 F200.000000
G1 X91.446107 Y39.113567 F200.000000
G1 X91.516904 Y39.069222 F200.000000
G1 X91.582218 Y39.017136 F200.000000
G1 X91.610287 Y39.010729 F200.000000
G1 X91.634688 Y38.995446 F200.000000
G1 X91.717715 Y38.986210 F200.000000
G1 X91.799159 Y38.967621 F200.000000
G1 X93.597524 F200.000000
G1 X93.965286 Y38.648952 F200.000000
G1 X94.467242 Y38.576782 F200.000000
G1 X94.563102 Y38.620560 F200.000000
G1 X94.627404 Y38.613092 F200.000000
G1 X94.709999 Y38.594241 F200.000000
G1 X97.022999 F200.000000
G1 Y38.232240 F200.000000
G1 X98.746999 F200.000000
G1 Y38.594241 F200.000000
G1 X101.059999 F200.000000

(Goto to Initial position)
G0 Z0.500000
G0 X0.000000 Y0.000000
G0 Z0.000000
