(Generated by ./pygerber2gcode_cui_MOD.py )
( 2013-06-14 21:01:34 )
(Initialize)

(Start form here)
G0 Z0.500000
G0 X103.044999 Y13.539240
G1 Z-2.000000 F20.000000
G1 Y20.524240 F30.000000
G1 X98.599999 Y24.969240 F30.000000
G1 X87.169999 F30.000000
G1 X82.724999 Y20.524240 F30.000000
G1 Y7.824240 F30.000000
G1 X87.169999 Y3.379240 F30.000000
G1 X98.599999 F30.000000
G1 X103.044999 Y7.824240 F30.000000
G1 Y13.539240 F30.000000

(Goto to Initial position)
G0 Z0.500000
G0 X0.000000 Y0.000000
G0 Z0.000000
