(Generated by ./pygerber2gcode_cui_MOD.py )
( 2013-06-14 21:01:34 )
(Initialize)

(Start form here)
G0 Z0.500000
G0 X90.540979 Y15.659740
G1 Z-0.040000 F60.000000
G1 X90.612099 Y15.730860 F200.000000
G1 X90.613163 Y15.732552 F200.000000
G1 X90.614836 Y15.733647 F200.000000
G1 X90.638270 Y15.772510 F200.000000
G1 X90.662414 Y15.810935 F200.000000
G1 X90.662638 Y15.812922 F200.000000
G1 X90.663670 Y15.814634 F200.000000
G1 X90.734790 Y16.030534 F200.000000
G1 X90.737951 Y16.064126 F200.000000
G1 X90.745459 Y16.097020 F200.000000
G1 Y16.239260 F200.000000
G1 X90.737869 Y16.272512 F200.000000
G1 X90.734554 Y16.306458 F200.000000
G1 X90.663434 Y16.519818 F200.000000
G1 X90.663095 Y16.520376 F200.000000
G1 X90.663027 Y16.521026 F200.000000
G1 X90.638551 Y16.560756 F200.000000
G1 X90.614314 Y16.600632 F200.000000
G1 X90.613766 Y16.600988 F200.000000
G1 X90.613423 Y16.601544 F200.000000
G1 X90.471183 Y16.746324 F200.000000
G1 X90.441074 Y16.765616 F200.000000
G1 X90.413291 Y16.788130 F200.000000
G1 X90.268511 Y16.859250 F200.000000
G1 X90.246516 Y16.864451 F200.000000
G1 X90.226358 Y16.874675 F200.000000
G1 X89.941878 Y16.945795 F200.000000
G1 X89.915784 Y16.946332 F200.000000
G1 X89.890339 Y16.952139 F200.000000
G1 X89.674439 F200.000000
G1 X89.648994 Y16.946332 F200.000000
G1 X89.622900 Y16.945795 F200.000000
G1 X89.338420 Y16.874675 F200.000000
G1 X89.317603 Y16.864117 F200.000000
G1 X89.294926 Y16.858585 F200.000000
G1 X89.152686 Y16.787465 F200.000000
G1 X89.126339 Y16.765806 F200.000000
G1 X89.097459 Y16.747660 F200.000000
G1 X88.952679 Y16.602880 F200.000000
G1 X88.951820 Y16.601512 F200.000000
G1 X88.950465 Y16.600632 F200.000000
G1 X88.926703 Y16.561539 F200.000000
G1 X88.902364 Y16.522804 F200.000000
G1 X88.902183 Y16.521199 F200.000000
G1 X88.901344 Y16.519818 F200.000000
G1 X88.830224 Y16.306458 F200.000000
G1 X88.826909 Y16.272512 F200.000000
G1 X88.819320 Y16.239260 F200.000000
G1 Y16.097020 F200.000000
G1 X88.826827 Y16.064126 F200.000000
G1 X88.829988 Y16.030534 F200.000000
G1 X88.901108 Y15.814634 F200.000000
G1 X88.903122 Y15.811295 F200.000000
G1 X88.903626 Y15.807428 F200.000000
G1 X88.927447 Y15.770954 F200.000000
G1 X88.949943 Y15.733647 F200.000000
G1 X88.953206 Y15.731512 F200.000000
G1 X88.955338 Y15.728247 F200.000000
G1 X89.028998 Y15.657127 F200.000000
G1 X89.109944 Y15.608225 F200.000000
G1 X89.204092 Y15.599286 F200.000000
G1 X89.292795 Y15.632082 F200.000000
G1 X89.358483 Y15.700117 F200.000000
G1 X89.388148 Y15.789915 F200.000000
G1 X89.375912 Y15.883691 F200.000000
G1 X89.324200 Y15.962872 F200.000000
G1 X89.288334 Y15.997502 F200.000000
G1 X89.244319 Y16.131118 F200.000000
G1 Y16.204776 F200.000000
G1 X89.288671 Y16.337831 F200.000000
G1 X89.373595 Y16.422756 F200.000000
G1 X89.464128 Y16.468022 F200.000000
G1 X89.700599 Y16.527140 F200.000000
G1 X89.864179 F200.000000
G1 X90.101385 Y16.467839 F200.000000
G1 X90.193399 Y16.422639 F200.000000
G1 X90.275794 Y16.338772 F200.000000
G1 X90.320460 Y16.204776 F200.000000
G1 Y16.131118 F200.000000
G1 X90.275827 Y15.995628 F200.000000
G1 X90.240459 Y15.960260 F200.000000
G1 X90.190144 Y15.880184 F200.000000
G1 X90.179556 Y15.786207 F200.000000
G1 X90.210791 Y15.696943 F200.000000
G1 X90.277663 Y15.630071 F200.000000
G1 X90.366927 Y15.598836 F200.000000
G1 X90.460903 Y15.609425 F200.000000
G1 X90.540979 Y15.659740 F200.000000
G0 Z0.500000
G0 X89.461940 Y14.595880
G1 Z-0.040000 F60.000000
G1 Y14.523899 F200.000000
G1 X89.279807 F200.000000
G1 X89.244319 Y14.630364 F200.000000
G1 Y14.704021 F200.000000
G1 X89.288640 Y14.838567 F200.000000
G1 X89.372733 Y14.921185 F200.000000
G1 X89.464128 Y14.966882 F200.000000
G1 X89.700599 Y15.026000 F200.000000
G1 X89.864179 F200.000000
G1 X90.101385 Y14.966699 F200.000000
G1 X90.194266 Y14.921073 F200.000000
G1 X90.275827 Y14.839512 F200.000000
G1 X90.320460 Y14.704021 F200.000000
G1 Y14.574924 F200.000000
G1 X90.271774 Y14.477552 F200.000000
G1 X90.249363 Y14.385675 F200.000000
G1 X90.269036 Y14.293172 F200.000000
G1 X90.326896 Y14.218366 F200.000000
G1 X90.411483 Y14.176073 F200.000000
G1 X90.506044 Y14.174669 F200.000000
G1 X90.591849 Y14.214432 F200.000000
G1 X90.651905 Y14.287487 F200.000000
G1 X90.723025 Y14.429727 F200.000000
G1 X90.723408 Y14.431296 F200.000000
G1 X90.724415 Y14.432560 F200.000000
G1 X90.734595 Y14.477160 F200.000000
G1 X90.745435 Y14.521604 F200.000000
G1 X90.745099 Y14.523185 F200.000000
G1 X90.745459 Y14.524760 F200.000000
G1 Y14.738120 F200.000000
G1 X90.737951 Y14.771014 F200.000000
G1 X90.734790 Y14.804605 F200.000000
G1 X90.663670 Y15.020505 F200.000000
G1 X90.662638 Y15.022217 F200.000000
G1 X90.662414 Y15.024204 F200.000000
G1 X90.638270 Y15.062629 F200.000000
G1 X90.614836 Y15.101492 F200.000000
G1 X90.613163 Y15.102587 F200.000000
G1 X90.612099 Y15.104280 F200.000000
G1 X90.469859 Y15.246520 F200.000000
G1 X90.440360 Y15.265056 F200.000000
G1 X90.413291 Y15.286990 F200.000000
G1 X90.268511 Y15.358110 F200.000000
G1 X90.246516 Y15.363311 F200.000000
G1 X90.226358 Y15.373535 F200.000000
G1 X89.941878 Y15.444655 F200.000000
G1 X89.915784 Y15.445192 F200.000000
G1 X89.890339 Y15.450999 F200.000000
G1 X89.674439 F200.000000
G1 X89.648994 Y15.445192 F200.000000
G1 X89.622900 Y15.444655 F200.000000
G1 X89.338420 Y15.373535 F200.000000
G1 X89.317603 Y15.362977 F200.000000
G1 X89.294926 Y15.357445 F200.000000
G1 X89.152686 Y15.286325 F200.000000
G1 X89.127050 Y15.265251 F200.000000
G1 X89.098795 Y15.247843 F200.000000
G1 X88.954015 Y15.105603 F200.000000
G1 X88.952419 Y15.103112 F200.000000
G1 X88.949943 Y15.101492 F200.000000
G1 X88.926982 Y15.063415 F200.000000
G1 X88.902993 Y15.025976 F200.000000
G1 X88.902636 Y15.023039 F200.000000
G1 X88.901108 Y15.020505 F200.000000
G1 X88.829988 Y14.804605 F200.000000
G1 X88.826827 Y14.771014 F200.000000
G1 X88.819320 Y14.738120 F200.000000
G1 Y14.595880 F200.000000
G1 X88.826909 Y14.562627 F200.000000
G1 X88.830224 Y14.528681 F200.000000
G1 X88.901344 Y14.315321 F200.000000
G1 X88.903171 Y14.312316 F200.000000
G1 X88.903626 Y14.308828 F200.000000
G1 X88.927647 Y14.272047 F200.000000
G1 X88.950465 Y14.234507 F200.000000
G1 X88.953415 Y14.232592 F200.000000
G1 X88.955338 Y14.229647 F200.000000
G1 X89.028998 Y14.158527 F200.000000
G1 X89.057952 Y14.141035 F200.000000
G1 X89.084399 Y14.119944 F200.000000
G1 X89.098002 Y14.116839 F200.000000
G1 X89.109944 Y14.109625 F200.000000
G1 X89.143620 Y14.106427 F200.000000
G1 X89.176599 Y14.098900 F200.000000
G1 X89.674439 F200.000000
G1 X89.697782 Y14.104228 F200.000000
G1 X89.721725 F200.000000
G1 X89.743297 Y14.114616 F200.000000
G1 X89.766639 Y14.119944 F200.000000
G1 X89.785359 Y14.134872 F200.000000
G1 X89.806931 Y14.145261 F200.000000
G1 X89.821859 Y14.163980 F200.000000
G1 X89.840578 Y14.178908 F200.000000
G1 X89.850967 Y14.200480 F200.000000
G1 X89.865895 Y14.219200 F200.000000
G1 X89.871223 Y14.242542 F200.000000
G1 X89.881611 Y14.264114 F200.000000
G1 Y14.288057 F200.000000
G1 X89.886939 Y14.311400 F200.000000
G1 Y14.595880 F200.000000
G1 X89.865895 Y14.688080 F200.000000
G1 X89.806931 Y14.762019 F200.000000
G1 X89.721725 Y14.803052 F200.000000
G1 X89.627154 F200.000000
G1 X89.541948 Y14.762019 F200.000000
G1 X89.482984 Y14.688080 F200.000000
G1 X89.461940 Y14.595880 F200.000000
G0 Z0.500000
G0 X90.663670 Y12.814894
G1 Z-0.040000 F60.000000
G1 X90.734790 Y13.030794 F200.000000
G1 X90.737951 Y13.064386 F200.000000
G1 X90.745459 Y13.097280 F200.000000
G1 Y13.452880 F200.000000
G1 X90.745099 Y13.454455 F200.000000
G1 X90.745435 Y13.456035 F200.000000
G1 X90.734595 Y13.500479 F200.000000
G1 X90.724415 Y13.545080 F200.000000
G1 X90.723408 Y13.546343 F200.000000
G1 X90.723025 Y13.547912 F200.000000
G1 X90.651905 Y13.690152 F200.000000
G1 X90.631405 Y13.715090 F200.000000
G1 X90.614712 Y13.742721 F200.000000
G1 X90.543592 Y13.816381 F200.000000
G1 X90.512896 Y13.836428 F200.000000
G1 X90.484411 Y13.859510 F200.000000
G1 X90.339631 Y13.930630 F200.000000
G1 X90.338804 Y13.930825 F200.000000
G1 X90.338139 Y13.931355 F200.000000
G1 X90.292828 Y13.941697 F200.000000
G1 X90.247598 Y13.952393 F200.000000
G1 X90.246768 Y13.952210 F200.000000
G1 X90.245939 Y13.952399 F200.000000
G1 X90.103699 F200.000000
G1 X90.102124 Y13.952040 F200.000000
G1 X90.100544 Y13.952376 F200.000000
G1 X90.056100 Y13.941535 F200.000000
G1 X90.011499 Y13.931355 F200.000000
G1 X90.010236 Y13.930348 F200.000000
G1 X90.008666 Y13.929965 F200.000000
G1 X89.866426 Y13.858845 F200.000000
G1 X89.838670 Y13.836028 F200.000000
G1 X89.808587 Y13.816381 F200.000000
G1 X89.737467 Y13.742721 F200.000000
G1 X89.720774 Y13.715090 F200.000000
G1 X89.700274 Y13.690152 F200.000000
G1 X89.629154 Y13.547912 F200.000000
G1 X89.623622 Y13.525236 F200.000000
G1 X89.613064 Y13.504418 F200.000000
G1 X89.547784 Y13.243298 F200.000000
G1 X89.500334 Y13.150035 F200.000000
G1 X89.477443 Y13.127144 F200.000000
G1 X89.410915 Y13.093879 F200.000000
G1 X89.369004 F200.000000
G1 X89.300767 Y13.127998 F200.000000
G1 X89.277281 Y13.150674 F200.000000
G1 X89.244319 Y13.217775 F200.000000
G1 Y13.489901 F200.000000
G1 X89.304770 Y13.673414 F200.000000
G1 X89.313630 Y13.767570 F200.000000
G1 X89.280759 Y13.856245 F200.000000
G1 X89.212669 Y13.921876 F200.000000
G1 X89.122846 Y13.951465 F200.000000
G1 X89.029080 Y13.939151 F200.000000
G1 X88.949943 Y13.887372 F200.000000
G1 X88.901108 Y13.806385 F200.000000
G1 X88.829988 Y13.590485 F200.000000
G1 X88.826827 Y13.556894 F200.000000
G1 X88.819320 Y13.524000 F200.000000
G1 Y13.168400 F200.000000
G1 X88.819509 Y13.167571 F200.000000
G1 X88.819326 Y13.166741 F200.000000
G1 X88.830021 Y13.121511 F200.000000
G1 X88.840364 Y13.076200 F200.000000
G1 X88.840894 Y13.075535 F200.000000
G1 X88.841089 Y13.074708 F200.000000
G1 X88.912209 Y12.929928 F200.000000
G1 X88.935291 Y12.901443 F200.000000
G1 X88.955338 Y12.870747 F200.000000
G1 X89.028998 Y12.799627 F200.000000
G1 X89.056629 Y12.782934 F200.000000
G1 X89.081566 Y12.762434 F200.000000
G1 X89.223806 Y12.691314 F200.000000
G1 X89.225376 Y12.690931 F200.000000
G1 X89.226639 Y12.689924 F200.000000
G1 X89.271240 Y12.679744 F200.000000
G1 X89.315684 Y12.668903 F200.000000
G1 X89.317264 Y12.669239 F200.000000
G1 X89.318839 Y12.668880 F200.000000
G1 X89.461079 F200.000000
G1 X89.462654 Y12.669239 F200.000000
G1 X89.464234 Y12.668903 F200.000000
G1 X89.508679 Y12.679744 F200.000000
G1 X89.553279 Y12.689924 F200.000000
G1 X89.554542 Y12.690931 F200.000000
G1 X89.556112 Y12.691314 F200.000000
G1 X89.698352 Y12.762434 F200.000000
G1 X89.724700 Y12.784093 F200.000000
G1 X89.753579 Y12.802240 F200.000000
G1 X89.824699 Y12.873360 F200.000000
G1 X89.842458 Y12.901623 F200.000000
G1 X89.863836 Y12.927260 F200.000000
G1 X89.937496 Y13.072040 F200.000000
G1 X89.943364 Y13.095389 F200.000000
G1 X89.954254 Y13.116861 F200.000000
G1 X90.019717 Y13.378711 F200.000000
G1 X90.065837 Y13.470952 F200.000000
G1 X90.089049 Y13.494993 F200.000000
G1 X90.153864 Y13.527400 F200.000000
G1 X90.196564 F200.000000
G1 X90.263665 Y13.494438 F200.000000
G1 X90.286341 Y13.470952 F200.000000
G1 X90.320460 Y13.402715 F200.000000
G1 Y13.131378 F200.000000
G1 X90.260008 Y12.947865 F200.000000
G1 X90.251149 Y12.853710 F200.000000
G1 X90.284019 Y12.765035 F200.000000
G1 X90.352109 Y12.699403 F200.000000
G1 X90.441932 Y12.669814 F200.000000
G1 X90.535698 Y12.682129 F200.000000
G1 X90.614836 Y12.733907 F200.000000
G1 X90.663670 Y12.814894 F200.000000
G0 Z0.500000
G0 X90.782480 Y7.055140
G1 Z-0.040000 F60.000000
G1 X90.505553 Y6.281807 F200.000000
G1 X90.230219 Y7.054802 F200.000000
G1 X90.179458 Y7.134596 F200.000000
G1 X90.099103 Y7.184463 F200.000000
G1 X90.005069 Y7.194527 F200.000000
G1 X89.915980 Y7.162795 F200.000000
G1 X89.849483 Y7.095551 F200.000000
G1 X89.818746 Y7.006113 F200.000000
G1 X89.829859 Y6.912197 F200.000000
G1 X90.304839 Y5.578697 F200.000000
G1 X90.316966 Y5.559634 F200.000000
G1 X90.324274 Y5.538254 F200.000000
G1 X90.342026 Y5.520242 F200.000000
G1 X90.355600 Y5.498904 F200.000000
G1 X90.374798 Y5.486990 F200.000000
G1 X90.390658 Y5.470898 F200.000000
G1 X90.414467 Y5.462372 F200.000000
G1 X90.435955 Y5.449036 F200.000000
G1 X90.458421 Y5.446632 F200.000000
G1 X90.479692 Y5.439015 F200.000000
G1 X90.504843 Y5.441663 F200.000000
G1 X90.529989 Y5.438972 F200.000000
G1 X90.551274 Y5.446553 F200.000000
G1 X90.573744 Y5.448920 F200.000000
G1 X90.595254 Y5.462219 F200.000000
G1 X90.619078 Y5.470705 F200.000000
G1 X90.634965 Y5.486770 F200.000000
G1 X90.654183 Y5.498651 F200.000000
G1 X90.667793 Y5.519967 F200.000000
G1 X90.685576 Y5.537949 F200.000000
G1 X90.692919 Y5.559316 F200.000000
G1 X90.705079 Y5.578359 F200.000000
G1 X91.182599 Y6.911859 F200.000000
G1 X91.193870 Y7.005757 F200.000000
G1 X91.163285 Y7.095245 F200.000000
G1 X91.096901 Y7.162602 F200.000000
G1 X91.007866 Y7.194485 F200.000000
G1 X90.913815 Y7.184579 F200.000000
G1 X90.833375 Y7.134848 F200.000000
G1 X90.782480 Y7.055140 F200.000000
G0 Z0.500000
G0 X92.077402 Y5.448487
G1 Z-0.040000 F60.000000
G1 X92.121254 Y5.437543 F200.000000
G1 X92.123401 Y5.437988 F200.000000
G1 X92.125539 Y5.437500 F200.000000
G1 X92.316039 F200.000000
G1 X92.318177 Y5.437988 F200.000000
G1 X92.320325 Y5.437543 F200.000000
G1 X92.364176 Y5.448487 F200.000000
G1 X92.408239 Y5.458544 F200.000000
G1 X92.409954 Y5.459911 F200.000000
G1 X92.412082 Y5.460442 F200.000000
G1 X92.602582 Y5.556962 F200.000000
G1 X92.628388 Y5.578408 F200.000000
G1 X92.656799 Y5.596260 F200.000000
G1 X92.750779 Y5.690240 F200.000000
G1 X92.768631 Y5.718651 F200.000000
G1 X92.790077 Y5.744457 F200.000000
G1 X92.886597 Y5.934957 F200.000000
G1 X92.892463 Y5.958465 F200.000000
G1 X92.903355 Y5.980108 F200.000000
G1 X92.997335 Y6.361108 F200.000000
G1 X92.997784 Y6.386875 F200.000000
G1 X93.003519 Y6.412000 F200.000000
G1 Y6.889520 F200.000000
G1 X92.997784 Y6.914644 F200.000000
G1 X92.997335 Y6.940411 F200.000000
G1 X92.903355 Y7.321411 F200.000000
G1 X92.892463 Y7.343054 F200.000000
G1 X92.886597 Y7.366562 F200.000000
G1 X92.790077 Y7.557062 F200.000000
G1 X92.768631 Y7.582869 F200.000000
G1 X92.750779 Y7.611280 F200.000000
G1 X92.656799 Y7.705260 F200.000000
G1 X92.628388 Y7.723112 F200.000000
G1 X92.602582 Y7.744557 F200.000000
G1 X92.412082 Y7.841077 F200.000000
G1 X92.409954 Y7.841608 F200.000000
G1 X92.408239 Y7.842975 F200.000000
G1 X92.364176 Y7.853032 F200.000000
G1 X92.320325 Y7.863976 F200.000000
G1 X92.318177 Y7.863531 F200.000000
G1 X92.316039 Y7.864019 F200.000000
G1 X92.125539 F200.000000
G1 X92.123401 Y7.863531 F200.000000
G1 X92.121254 Y7.863976 F200.000000
G1 X92.077402 Y7.853032 F200.000000
G1 X92.033339 Y7.842975 F200.000000
G1 X92.031625 Y7.841608 F200.000000
G1 X92.029497 Y7.841077 F200.000000
G1 X91.838997 Y7.744557 F200.000000
G1 X91.814258 Y7.723999 F200.000000
G1 X91.786796 Y7.707250 F200.000000
G1 X91.690276 Y7.613270 F200.000000
G1 X91.670691 Y7.583004 F200.000000
G1 X91.647948 Y7.555035 F200.000000
G1 X91.553968 Y7.364535 F200.000000
G1 X91.548765 Y7.342695 F200.000000
G1 X91.538547 Y7.322704 F200.000000
G1 X91.442027 Y6.941704 F200.000000
G1 X91.441400 Y6.915284 F200.000000
G1 X91.435520 Y6.889520 F200.000000
G1 Y6.412000 F200.000000
G1 X91.441400 Y6.386235 F200.000000
G1 X91.442027 Y6.359815 F200.000000
G1 X91.538547 Y5.978815 F200.000000
G1 X91.548765 Y5.958824 F200.000000
G1 X91.553968 Y5.936985 F200.000000
G1 X91.647948 Y5.746485 F200.000000
G1 X91.670691 Y5.718515 F200.000000
G1 X91.690276 Y5.688250 F200.000000
G1 X91.786796 Y5.594270 F200.000000
G1 X91.814258 Y5.577521 F200.000000
G1 X91.838997 Y5.556962 F200.000000
G1 X92.029497 Y5.460442 F200.000000
G1 X92.031625 Y5.459911 F200.000000
G1 X92.033339 Y5.458544 F200.000000
G1 X92.077402 Y5.448487 F200.000000
G0 Z0.500000
G0 X92.176301 Y7.439020
G1 Z-0.040000 F60.000000
G1 X92.265278 F200.000000
G1 X92.380253 Y7.380766 F200.000000
G1 X92.426285 Y7.334734 F200.000000
G1 X92.496528 Y7.196097 F200.000000
G1 X92.578520 Y6.863698 F200.000000
G1 Y6.437821 F200.000000
G1 X92.496528 Y6.105422 F200.000000
G1 X92.426285 Y5.966786 F200.000000
G1 X92.380253 Y5.920754 F200.000000
G1 X92.265278 Y5.862499 F200.000000
G1 X92.176301 F200.000000
G1 X92.060031 Y5.921409 F200.000000
G1 X92.012931 Y5.967270 F200.000000
G1 X91.945027 Y6.104913 F200.000000
G1 X91.860519 Y6.438498 F200.000000
G1 Y6.863022 F200.000000
G1 X91.945027 Y7.196606 F200.000000
G1 X92.012931 Y7.334250 F200.000000
G1 X92.060031 Y7.380110 F200.000000
G1 X92.176301 Y7.439020 F200.000000
G0 Z0.500000
G0 X93.954683 Y5.770312
G1 Z-0.040000 F60.000000
G1 X93.946313 Y5.794231 F200.000000
G1 X93.943141 Y5.819372 F200.000000
G1 X93.930893 Y5.838298 F200.000000
G1 X93.923448 Y5.859576 F200.000000
G1 X93.905529 Y5.877495 F200.000000
G1 X93.891763 Y5.898770 F200.000000
G1 X93.795243 Y5.992750 F200.000000
G1 X93.786139 Y5.998302 F200.000000
G1 X93.779491 Y6.006639 F200.000000
G1 X93.768602 Y6.011882 F200.000000
G1 X93.760056 Y6.020428 F200.000000
G1 X93.736137 Y6.028798 F200.000000
G1 X93.714503 Y6.041993 F200.000000
G1 X93.703892 Y6.043045 F200.000000
G1 X93.694285 Y6.047672 F200.000000
G1 X93.682199 F200.000000
G1 X93.670792 Y6.051663 F200.000000
G1 X93.645610 Y6.048826 F200.000000
G1 X93.620394 Y6.051327 F200.000000
G1 X93.610377 Y6.047672 F200.000000
G1 X93.599714 F200.000000
G1 X93.588825 Y6.042428 F200.000000
G1 X93.576815 Y6.041075 F200.000000
G1 X93.555359 Y6.027593 F200.000000
G1 X93.531554 Y6.018905 F200.000000
G1 X93.524115 Y6.011265 F200.000000
G1 X93.514508 Y6.006639 F200.000000
G1 X93.506972 Y5.997190 F200.000000
G1 X93.496739 Y5.990760 F200.000000
G1 X93.402759 Y5.896780 F200.000000
G1 X93.390765 Y5.877692 F200.000000
G1 X93.374614 Y5.861965 F200.000000
G1 X93.365926 Y5.838160 F200.000000
G1 X93.352444 Y5.816704 F200.000000
G1 X93.349920 Y5.794302 F200.000000
G1 X93.342192 Y5.773125 F200.000000
G1 X93.344693 Y5.747908 F200.000000
G1 X93.341856 Y5.722727 F200.000000
G1 X93.349301 Y5.701449 F200.000000
G1 X93.351526 Y5.679016 F200.000000
G1 X93.364721 Y5.657382 F200.000000
G0 Z0.500000
G0 Y5.657382
G1 Z-0.040000 F60.000000
G1 X93.373091 Y5.633463 F200.000000
G1 X93.389031 Y5.617523 F200.000000
G1 X93.400769 Y5.598276 F200.000000
G1 X93.494749 Y5.501756 F200.000000
G1 X93.506088 Y5.494419 F200.000000
G1 X93.514508 Y5.483861 F200.000000
G1 X93.525397 Y5.478617 F200.000000
G1 X93.533943 Y5.470071 F200.000000
G1 X93.555221 Y5.462625 F200.000000
G1 X93.574147 Y5.450378 F200.000000
G1 X93.587546 Y5.448687 F200.000000
G1 X93.599714 Y5.442828 F200.000000
G1 X93.611799 F200.000000
G1 X93.623207 Y5.438836 F200.000000
G1 X93.645608 Y5.441360 F200.000000
G1 X93.667974 Y5.438538 F200.000000
G1 X93.680780 Y5.442828 F200.000000
G1 X93.694285 F200.000000
G1 X93.705174 Y5.448072 F200.000000
G1 X93.717183 Y5.449425 F200.000000
G1 X93.736271 Y5.461419 F200.000000
G1 X93.757647 Y5.468580 F200.000000
G1 X93.767323 Y5.478001 F200.000000
G1 X93.779491 Y5.483861 F200.000000
G1 X93.787026 Y5.493310 F200.000000
G1 X93.797259 Y5.499740 F200.000000
G1 X93.893779 Y5.596260 F200.000000
G1 X93.907261 Y5.617716 F200.000000
G1 X93.924939 Y5.635872 F200.000000
G1 X93.932100 Y5.657248 F200.000000
G1 X93.944094 Y5.676335 F200.000000
G1 X93.946931 Y5.701517 F200.000000
G1 X93.954981 Y5.725545 F200.000000
G1 X93.952159 Y5.747911 F200.000000
G1 X93.954683 Y5.770312 F200.000000
G0 Z0.500000
G0 X94.599534 Y6.889449
G1 Z-0.040000 F60.000000
G1 X94.790034 Y6.983429 F200.000000
G1 X94.816929 Y7.005298 F200.000000
G1 X94.846279 Y7.023740 F200.000000
G1 X94.864520 Y7.041980 F200.000000
G1 Y5.862499 F200.000000
G1 X94.505519 F200.000000
G1 X94.413319 Y5.841455 F200.000000
G1 X94.339380 Y5.782491 F200.000000
G1 X94.298347 Y5.697285 F200.000000
G1 Y5.602714 F200.000000
G1 X94.339380 Y5.517508 F200.000000
G1 X94.413319 Y5.458544 F200.000000
G1 X94.505519 Y5.437500 F200.000000
G1 X95.648519 F200.000000
G1 X95.740719 Y5.458544 F200.000000
G1 X95.814658 Y5.517508 F200.000000
G1 X95.855691 Y5.602714 F200.000000
G1 Y5.697285 F200.000000
G1 X95.814658 Y5.782491 F200.000000
G1 X95.740719 Y5.841455 F200.000000
G1 X95.648519 Y5.862499 F200.000000
G1 X95.289519 F200.000000
G1 Y7.651520 F200.000000
G1 X95.282163 Y7.683747 F200.000000
G1 X95.279283 Y7.716676 F200.000000
G1 X95.271755 Y7.729349 F200.000000
G1 X95.268475 Y7.743720 F200.000000
G1 X95.247865 Y7.769564 F200.000000
G1 X95.230982 Y7.797983 F200.000000
G1 X95.218701 Y7.806134 F200.000000
G1 X95.209511 Y7.817659 F200.000000
G1 X95.179729 Y7.832001 F200.000000
G1 X95.152187 Y7.850281 F200.000000
G1 X95.137585 Y7.852296 F200.000000
G1 X95.124305 Y7.858692 F200.000000
G1 X95.091249 F200.000000
G1 X95.058504 Y7.863211 F200.000000
G1 X95.044474 Y7.858692 F200.000000
G1 X95.029734 F200.000000
G1 X94.999951 Y7.844349 F200.000000
G1 X94.968488 Y7.834214 F200.000000
G1 X94.957808 Y7.824054 F200.000000
G1 X94.944528 Y7.817659 F200.000000
G1 X94.923918 Y7.791815 F200.000000
G1 X94.899968 Y7.769032 F200.000000
G1 X94.721225 Y7.499726 F200.000000
G1 X94.570556 Y7.349056 F200.000000
G1 X94.411504 Y7.270591 F200.000000
G1 X94.338129 Y7.210927 F200.000000
G1 X94.297907 Y7.125335 F200.000000
G1 X94.298806 Y7.030768 F200.000000
G1 X94.340647 Y6.945956 F200.000000
G1 X94.415142 Y6.887697 F200.000000
G1 X94.507538 Y6.867530 F200.000000
G1 X94.599534 Y6.889449 F200.000000
G0 Z0.500000
G0 X90.420788 Y20.723861
G1 Z-0.040000 F60.000000
G1 X90.442360 Y20.713472 F200.000000
G1 X90.461079 Y20.698544 F200.000000
G1 X90.484422 Y20.693216 F200.000000
G1 X90.505994 Y20.682828 F200.000000
G1 X90.529937 F200.000000
G1 X90.553279 Y20.677500 F200.000000
G1 X91.505779 F200.000000
G1 X91.597979 Y20.698544 F200.000000
G1 X91.671918 Y20.757508 F200.000000
G1 X91.712951 Y20.842714 F200.000000
G1 Y20.937285 F200.000000
G1 X91.671918 Y21.022491 F200.000000
G1 X91.597979 Y21.081455 F200.000000
G1 X91.505779 Y21.102499 F200.000000
G1 X90.765779 F200.000000
G1 Y22.891520 F200.000000
G1 X90.744735 Y22.983720 F200.000000
G1 X90.685771 Y23.057659 F200.000000
G1 X90.600565 Y23.098692 F200.000000
G1 X90.505994 F200.000000
G1 X90.420788 Y23.057659 F200.000000
G1 X90.361824 Y22.983720 F200.000000
G1 X90.340780 Y22.891520 F200.000000
G1 Y20.890000 F200.000000
G1 X90.346107 Y20.866657 F200.000000
G1 Y20.842714 F200.000000
G1 X90.356496 Y20.821142 F200.000000
G1 X90.361824 Y20.797800 F200.000000
G1 X90.376752 Y20.779080 F200.000000
G1 X90.387140 Y20.757508 F200.000000
G1 X90.405860 Y20.742580 F200.000000
G1 X90.420788 Y20.723861 F200.000000
G0 Z0.500000
G0 X92.005120 Y23.024011
G1 Z-0.040000 F60.000000
G1 X91.994732 Y23.002439 F200.000000
G1 X91.979804 Y22.983720 F200.000000
G1 X91.974476 Y22.960377 F200.000000
G1 X91.964087 Y22.938805 F200.000000
G1 Y22.914862 F200.000000
G1 X91.958760 Y22.891520 F200.000000
G1 Y20.890000 F200.000000
G1 X91.964087 Y20.866657 F200.000000
G1 Y20.842714 F200.000000
G1 X91.974476 Y20.821142 F200.000000
G1 X91.979804 Y20.797800 F200.000000
G1 X91.994732 Y20.779080 F200.000000
G1 X92.005120 Y20.757508 F200.000000
G1 X92.023840 Y20.742580 F200.000000
G1 X92.038768 Y20.723861 F200.000000
G1 X92.060340 Y20.713472 F200.000000
G1 X92.079059 Y20.698544 F200.000000
G1 X92.102402 Y20.693216 F200.000000
G1 X92.123974 Y20.682828 F200.000000
G1 X92.147917 F200.000000
G1 X92.171259 Y20.677500 F200.000000
G1 X92.648779 F200.000000
G1 X92.682574 Y20.685213 F200.000000
G1 X92.717055 Y20.688767 F200.000000
G1 X93.001535 Y20.785287 F200.000000
G1 X93.002416 Y20.785829 F200.000000
G1 X93.003443 Y20.785945 F200.000000
G1 X93.042648 Y20.810579 F200.000000
G0 Z0.500000
G1 Z-0.040000 F60.000000
G1 X93.082085 Y20.834839 F200.000000
G1 X93.082643 Y20.835709 F200.000000
G1 X93.083519 Y20.836260 F200.000000
G1 X93.274019 Y21.026760 F200.000000
G1 X93.291871 Y21.055171 F200.000000
G1 X93.313317 Y21.080977 F200.000000
G1 X93.409837 Y21.271477 F200.000000
G1 X93.415703 Y21.294985 F200.000000
G1 X93.426595 Y21.316628 F200.000000
G1 X93.520575 Y21.697628 F200.000000
G1 X93.521024 Y21.723395 F200.000000
G1 X93.526759 Y21.748520 F200.000000
G1 Y22.033000 F200.000000
G1 X93.521024 Y22.058124 F200.000000
G1 X93.520575 Y22.083891 F200.000000
G1 X93.426595 Y22.464891 F200.000000
G1 X93.415703 Y22.486534 F200.000000
G1 X93.409837 Y22.510042 F200.000000
G1 X93.313317 Y22.700542 F200.000000
G1 X93.291871 Y22.726349 F200.000000
G1 X93.274019 Y22.754760 F200.000000
G1 X93.083519 Y22.945260 F200.000000
G1 X93.082643 Y22.945810 F200.000000
G1 X93.082085 Y22.946681 F200.000000
G1 X93.042648 Y22.970941 F200.000000
G1 X93.003443 Y22.995575 F200.000000
G1 X93.002416 Y22.995690 F200.000000
G1 X93.001535 Y22.996232 F200.000000
G1 X92.717055 Y23.092752 F200.000000
G1 X92.682574 Y23.096306 F200.000000
G1 X92.648779 Y23.104019 F200.000000
G1 X92.171259 F200.000000
G1 X92.147917 Y23.098692 F200.000000
G1 X92.123974 F200.000000
G1 X92.102402 Y23.088303 F200.000000
G1 X92.079059 Y23.082975 F200.000000
G1 X92.060340 Y23.068047 F200.000000
G1 X92.038768 Y23.057659 F200.000000
G1 X92.023840 Y23.038939 F200.000000
G1 X92.005120 Y23.024011 F200.000000
G0 Z0.500000
G0 X92.383759 Y21.102499
G1 Z-0.040000 F60.000000
G1 Y22.679020 F200.000000
G1 X92.613712 F200.000000
G1 X92.818047 Y22.609692 F200.000000
G1 X92.949525 Y22.478214 F200.000000
G1 X93.019768 Y22.339577 F200.000000
G1 X93.101760 Y22.007178 F200.000000
G1 Y21.774341 F200.000000
G1 X93.019768 Y21.441942 F200.000000
G1 X92.949525 Y21.303306 F200.000000
G1 X92.818047 Y21.171827 F200.000000
G1 X92.613712 Y21.102499 F200.000000
G1 X92.383759 F200.000000
G0 Z0.500000
G0 X94.006640 Y23.024011
G1 Z-0.040000 F60.000000
G1 X93.996252 Y23.002439 F200.000000
G1 X93.981324 Y22.983720 F200.000000
G1 X93.975996 Y22.960377 F200.000000
G1 X93.965607 Y22.938805 F200.000000
G1 Y22.914862 F200.000000
G1 X93.960280 Y22.891520 F200.000000
G1 Y20.890000 F200.000000
G1 X93.981324 Y20.797800 F200.000000
G1 X94.040288 Y20.723861 F200.000000
G1 X94.125494 Y20.682828 F200.000000
G1 X94.220065 F200.000000
G1 X94.305271 Y20.723861 F200.000000
G1 X94.364235 Y20.797800 F200.000000
G1 X94.385279 Y20.890000 F200.000000
G1 Y21.630000 F200.000000
G1 X94.537241 F200.000000
G1 X95.141802 Y20.767983 F200.000000
G1 X95.211972 Y20.704581 F200.000000
G1 X95.302702 Y20.677903 F200.000000
G1 X95.396023 Y20.693233 F200.000000
G1 X95.473450 Y20.747535 F200.000000
G1 X95.519649 Y20.830054 F200.000000
G1 X95.525468 Y20.924447 F200.000000
G1 X95.489757 Y21.012016 F200.000000
G1 X95.037781 Y21.656468 F200.000000
G1 X95.221322 Y21.749462 F200.000000
G1 X95.247128 Y21.770908 F200.000000
G1 X95.275539 Y21.788760 F200.000000
G1 X95.369519 Y21.882740 F200.000000
G1 X95.387371 Y21.911151 F200.000000
G1 X95.408817 Y21.936957 F200.000000
G1 X95.505337 Y22.127457 F200.000000
G1 X95.505868 Y22.129585 F200.000000
G1 X95.507235 Y22.131300 F200.000000
G1 X95.517292 Y22.175363 F200.000000
G0 Z0.500000
G1 Z-0.040000 F60.000000
G1 X95.528236 Y22.219214 F200.000000
G1 X95.527791 Y22.221362 F200.000000
G1 X95.528279 Y22.223500 F200.000000
G1 Y22.510520 F200.000000
G1 X95.527791 Y22.512658 F200.000000
G1 X95.528236 Y22.514805 F200.000000
G1 X95.517292 Y22.558657 F200.000000
G1 X95.507235 Y22.602720 F200.000000
G1 X95.505868 Y22.604434 F200.000000
G1 X95.505337 Y22.606562 F200.000000
G1 X95.408817 Y22.797062 F200.000000
G1 X95.387371 Y22.822869 F200.000000
G1 X95.369519 Y22.851280 F200.000000
G1 X95.275539 Y22.945260 F200.000000
G1 X95.247128 Y22.963112 F200.000000
G1 X95.221322 Y22.984557 F200.000000
G1 X95.030822 Y23.081077 F200.000000
G1 X95.028694 Y23.081608 F200.000000
G1 X95.026979 Y23.082975 F200.000000
G1 X94.982916 Y23.093032 F200.000000
G1 X94.939065 Y23.103976 F200.000000
G1 X94.936917 Y23.103531 F200.000000
G1 X94.934779 Y23.104019 F200.000000
G1 X94.172779 F200.000000
G1 X94.149437 Y23.098692 F200.000000
G1 X94.125494 F200.000000
G1 X94.103922 Y23.088303 F200.000000
G1 X94.080579 Y23.082975 F200.000000
G1 X94.061860 Y23.068047 F200.000000
G1 X94.040288 Y23.057659 F200.000000
G1 X94.025360 Y23.038939 F200.000000
G1 X94.006640 Y23.024011 F200.000000
G0 Z0.500000
G0 X94.385279 Y22.054999
G1 Z-0.040000 F60.000000
G1 Y22.679020 F200.000000
G1 X94.884018 F200.000000
G1 X94.998993 Y22.620766 F200.000000
G1 X95.045025 Y22.574734 F200.000000
G1 X95.103280 Y22.459758 F200.000000
G1 Y22.274261 F200.000000
G1 X95.045025 Y22.159286 F200.000000
G1 X94.998993 Y22.113254 F200.000000
G1 X94.884018 Y22.054999 F200.000000
G1 X94.385279 F200.000000
G0 Z0.500000
G0 X91.439841 Y16.291719
G1 Z-0.040000 F60.000000
G1 X91.461990 Y16.277784 F200.000000
G1 X91.539222 Y16.269036 F200.000000
G1 X91.614999 Y16.251741 F200.000000
G1 X92.210774 Y16.251740 F200.000000
G1 X92.217965 Y16.229611 F200.000000
G1 X92.630215 Y15.930094 F200.000000
G1 X93.139784 F200.000000
G1 X93.552034 Y16.229611 F200.000000
G1 X93.709499 Y16.714240 F200.000000
G1 X93.552034 Y17.198869 F200.000000
G1 X93.139784 Y17.498386 F200.000000
G1 X92.630215 F200.000000
G1 X92.217965 Y17.198869 F200.000000
G1 X92.210774 Y17.176739 F200.000000
G1 X91.806731 Y17.176739 F200.000000
G1 X90.139486 Y18.845939 F200.000000
G1 X90.151658 Y18.883400 F200.000000
G1 X89.996484 Y19.360974 F200.000000
G1 X89.590235 Y19.656132 F200.000000
G1 X89.088083 F200.000000
G1 X88.681834 Y19.360974 F200.000000
G1 X88.526661 Y18.883400 F200.000000
G1 X88.681834 Y18.405825 F200.000000
G1 X89.088083 Y18.110668 F200.000000
G1 X89.566517 F200.000000
G1 X91.287771 Y16.387395 F200.000000
G1 X91.353560 Y16.346004 F200.000000
G1 X91.414328 Y16.297542 F200.000000
G1 X91.439841 Y16.291719 F200.000000
G0 Z0.500000
G0 X95.493345 Y14.596790
G1 Z-0.040000 F60.000000
G1 X95.471073 Y14.610785 F200.000000
G1 X95.393967 Y14.619473 F200.000000
G1 X95.318319 Y14.636739 F200.000000
G1 X93.559224 Y14.636739 F200.000000
G1 X93.552034 Y14.658869 F200.000000
G1 X93.139784 Y14.958386 F200.000000
G1 X92.630215 F200.000000
G1 X92.217965 Y14.658869 F200.000000
G1 X92.060499 Y14.174240 F200.000000
G1 X92.217965 Y13.689611 F200.000000
G1 X92.630215 Y13.390094 F200.000000
G1 X93.139784 F200.000000
G1 X93.552034 Y13.689611 F200.000000
G1 X93.559224 Y13.711741 F200.000000
G1 X95.126746 Y13.711740 F200.000000
G1 X97.455513 Y11.382974 F200.000000
G1 X97.416661 Y11.263400 F200.000000
G1 X97.571834 Y10.785825 F200.000000
G1 X97.978083 Y10.490668 F200.000000
G1 X98.480235 F200.000000
G1 X98.886484 Y10.785825 F200.000000
G1 X99.041658 Y11.263400 F200.000000
G1 X98.886484 Y11.740974 F200.000000
G1 X98.480235 Y12.036132 F200.000000
G1 X98.110500 F200.000000
G1 X95.645356 Y14.501276 F200.000000
G1 X95.579655 Y14.542558 F200.000000
G1 X95.518990 Y14.590937 F200.000000
G1 X95.493345 Y14.596790 F200.000000
G0 Z0.500000
G0 X87.838571 Y12.079473
G1 Z-0.040000 F60.000000
G1 X87.761465 Y12.070785 F200.000000
G1 X87.739193 Y12.056790 F200.000000
G1 X87.713548 Y12.050937 F200.000000
G1 X87.694983 Y12.036132 F200.000000
G1 X87.292303 F200.000000
G1 X86.886054 Y11.740974 F200.000000
G1 X86.730881 Y11.263400 F200.000000
G1 X86.886054 Y10.785825 F200.000000
G1 X87.292303 Y10.490668 F200.000000
G1 X87.794455 F200.000000
G1 X88.200704 Y10.785825 F200.000000
G1 X88.326096 Y11.171741 F200.000000
G1 X92.210774 Y11.171740 F200.000000
G1 X92.217965 Y11.149611 F200.000000
G1 X92.630215 Y10.850094 F200.000000
G1 X93.139784 F200.000000
G1 X93.552034 Y11.149611 F200.000000
G1 X93.709499 Y11.634240 F200.000000
G1 X93.552034 Y12.118869 F200.000000
G1 X93.139784 Y12.418386 F200.000000
G1 X92.630215 F200.000000
G1 X92.217965 Y12.118869 F200.000000
G1 X92.210774 Y12.096739 F200.000000
G1 X87.914219 Y12.096739 F200.000000
G1 X87.838571 Y12.079473 F200.000000
G0 Z0.500000
G0 X92.217965 Y19.738869
G1 Z-0.040000 F60.000000
G1 X92.060499 Y19.254240 F200.000000
G1 X92.217965 Y18.769611 F200.000000
G1 X92.630215 Y18.470094 F200.000000
G1 X93.053456 F200.000000
G1 X93.057708 Y18.466702 F200.000000
G1 X93.084125 Y18.460673 F200.000000
G1 X93.107116 Y18.446336 F200.000000
G1 X93.183484 Y18.437995 F200.000000
G1 X93.258379 Y18.420901 F200.000000
G1 X95.771156 F200.000000
G1 X95.776054 Y18.405825 F200.000000
G1 X96.182303 Y18.110668 F200.000000
G1 X96.684455 F200.000000
G1 X97.090704 Y18.405825 F200.000000
G1 X97.245878 Y18.883400 F200.000000
G1 X97.090704 Y19.360974 F200.000000
G1 X96.684455 Y19.656132 F200.000000
G1 X96.182303 F200.000000
G1 X95.776054 Y19.360974 F200.000000
G1 X95.771156 Y19.345899 F200.000000
G1 X93.679717 F200.000000
G1 X93.552034 Y19.738869 F200.000000
G1 X93.139784 Y20.038386 F200.000000
G1 X92.630215 F200.000000
G1 X92.217965 Y19.738869 F200.000000
G0 Z0.500000
G0 X96.059999 Y8.631741
G1 Z-0.040000 F60.000000
G1 X96.135647 Y8.649007 F200.000000
G1 X96.160671 Y8.651826 F200.000000
G1 X96.166853 Y8.647335 F200.000000
G1 X96.699906 F200.000000
G1 X97.131155 Y8.960656 F200.000000
G1 X97.145603 Y9.005120 F200.000000
G1 X98.973379 Y9.005121 F200.000000
G1 X99.049027 Y9.022387 F200.000000
G1 X99.126133 Y9.031074 F200.000000
G1 X99.148405 Y9.045069 F200.000000
G1 X99.174050 Y9.050922 F200.000000
G1 X99.234715 Y9.099301 F200.000000
G1 X99.300416 Y9.140583 F200.000000
G1 X100.197036 Y10.037203 F200.000000
G1 X100.238318 Y10.102904 F200.000000
G1 X100.286697 Y10.163569 F200.000000
G1 X100.292550 Y10.189214 F200.000000
G1 X100.306544 Y10.211486 F200.000000
G1 X100.315232 Y10.288592 F200.000000
G1 X100.332498 Y10.364240 F200.000000
G1 Y15.444240 F200.000000
G1 X100.315271 Y15.519717 F200.000000
G1 X100.306662 Y15.596656 F200.000000
G1 X100.292590 Y15.619091 F200.000000
G1 X100.286697 Y15.644911 F200.000000
G1 X100.238427 Y15.705439 F200.000000
G1 X100.197288 Y15.771023 F200.000000
G1 X99.040360 Y16.929742 F200.000000
G1 X99.091658 Y17.087620 F200.000000
G1 X98.926935 Y17.594584 F200.000000
G1 X98.495686 Y17.907904 F200.000000
G1 X97.962633 F200.000000
G1 X97.531383 Y17.594584 F200.000000
G1 X97.366661 Y17.087620 F200.000000
G1 X97.531383 Y16.580656 F200.000000
G1 X97.962633 Y16.267335 F200.000000
G1 X98.394609 F200.000000
G1 X99.407500 Y15.252876 F200.000000
G1 Y10.555813 F200.000000
G1 X98.781806 Y9.930119 F200.000000
G1 X97.145603 Y9.930119 F200.000000
G1 X97.131155 Y9.974584 F200.000000
G1 X96.699906 Y10.287904 F200.000000
G1 X96.166853 F200.000000
G1 X95.735603 Y9.974584 F200.000000
G1 X95.599837 Y9.556739 F200.000000
G1 X93.709499 Y9.556739 F200.000000
G1 Y9.918740 F200.000000
G1 X92.060499 F200.000000
G1 Y9.556739 F200.000000
G1 X90.172701 Y9.556739 F200.000000
G1 X90.036935 Y9.974584 F200.000000
G1 X89.605686 Y10.287904 F200.000000
G1 X89.072633 F200.000000
G1 X88.641383 Y9.974584 F200.000000
G1 X88.626936 Y9.930119 F200.000000
G1 X86.990350 Y9.930119 F200.000000
G1 X86.362498 Y10.556196 F200.000000
G1 Y15.252666 F200.000000
G1 X87.377167 Y16.267335 F200.000000
G1 X87.809906 F200.000000
G1 X88.241155 Y16.580656 F200.000000
G1 X88.405878 Y17.087620 F200.000000
G1 X88.241155 Y17.594584 F200.000000
G1 X87.809906 Y17.907904 F200.000000
G1 X87.276853 F200.000000
G1 X86.845603 Y17.594584 F200.000000
G1 X86.680881 Y17.087620 F200.000000
G1 X86.731995 Y16.930308 F200.000000
G1 X85.572963 Y15.771276 F200.000000
G1 X85.531681 Y15.705576 F200.000000
G1 X85.483302 Y15.644911 F200.000000
G1 X85.477449 Y15.619266 F200.000000
G1 X85.463454 Y15.596994 F200.000000
G1 X85.454766 Y15.519888 F200.000000
G1 X85.437500 Y15.444240 F200.000000
G1 Y10.364240 F200.000000
G1 X85.454837 Y10.288280 F200.000000
G1 X85.463670 Y10.210869 F200.000000
G1 X85.477522 Y10.188894 F200.000000
G1 X85.483302 Y10.163569 F200.000000
G1 X85.531880 Y10.102654 F200.000000
G1 X85.573426 Y10.036741 F200.000000
G1 X86.472586 Y9.140121 F200.000000
G1 X86.538073 Y9.099102 F200.000000
G1 X86.598488 Y9.050922 F200.000000
G1 X86.624453 Y9.044996 F200.000000
G1 X86.647023 Y9.030859 F200.000000
G1 X86.723823 Y9.022316 F200.000000
G1 X86.799159 Y9.005121 F200.000000
G1 X88.626936 Y9.005120 F200.000000
G1 X88.641383 Y8.960656 F200.000000
G1 X89.072633 Y8.647335 F200.000000
G1 X89.605686 F200.000000
G1 X89.611720 Y8.651719 F200.000000
G1 X89.633599 Y8.649178 F200.000000
G1 X89.709999 Y8.631741 F200.000000
G1 X92.060499 F200.000000
G1 Y8.269740 F200.000000
G1 X93.709499 F200.000000
G1 Y8.631741 F200.000000
G1 X96.059999 F200.000000

(Goto to Initial position)
G0 Z0.500000
G0 X0.000000 Y0.000000
G0 Z0.000000
