(Generated by ./pygerber2gcode_cui_MOD.py )
( 2013-06-18 10:00:09 )
(Initialize)

(Start form here)
G0 Z0.500000
G0 X130.044999 Y13.539240
G1 Z-0.285714 F20.000000
G1 Y20.524240 F30.000000
G1 X125.599999 Y24.969240 F30.000000
G1 X114.169999 F30.000000
G1 X109.724999 Y20.524240 F30.000000
G1 Y7.824240 F30.000000
G1 X114.169999 Y3.379240 F30.000000
G1 X125.599999 F30.000000
G1 X130.044999 Y7.824240 F30.000000
G1 Y13.539240 F30.000000
G1 Z-0.571429 F20.000000
G1 Y20.524240 F30.000000
G1 X125.599999 Y24.969240 F30.000000
G1 X114.169999 F30.000000
G1 X109.724999 Y20.524240 F30.000000
G1 Y7.824240 F30.000000
G1 X114.169999 Y3.379240 F30.000000
G1 X125.599999 F30.000000
G1 X130.044999 Y7.824240 F30.000000
G1 Y13.539240 F30.000000
G1 Z-0.857143 F20.000000
G1 Y20.524240 F30.000000
G1 X125.599999 Y24.969240 F30.000000
G1 X114.169999 F30.000000
G1 X109.724999 Y20.524240 F30.000000
G1 Y7.824240 F30.000000
G1 X114.169999 Y3.379240 F30.000000
G1 X125.599999 F30.000000
G1 X130.044999 Y7.824240 F30.000000
G1 Y13.539240 F30.000000
G1 Z-1.142857 F20.000000
G1 Y20.524240 F30.000000
G1 X125.599999 Y24.969240 F30.000000
G1 X114.169999 F30.000000
G1 X109.724999 Y20.524240 F30.000000
G1 Y7.824240 F30.000000
G1 X114.169999 Y3.379240 F30.000000
G1 X125.599999 F30.000000
G1 X130.044999 Y7.824240 F30.000000
G1 Y13.539240 F30.000000
G1 Z-1.428571 F20.000000
G1 Y20.524240 F30.000000
G1 X125.599999 Y24.969240 F30.000000
G1 X114.169999 F30.000000
G1 X109.724999 Y20.524240 F30.000000
G1 Y7.824240 F30.000000
G1 X114.169999 Y3.379240 F30.000000
G1 X125.599999 F30.000000
G1 X130.044999 Y7.824240 F30.000000
G1 Y13.539240 F30.000000
G1 Z-1.714286 F20.000000
G1 Y20.524240 F30.000000
G1 X125.599999 Y24.969240 F30.000000
G1 X114.169999 F30.000000
G1 X109.724999 Y20.524240 F30.000000
G1 Y7.824240 F30.000000
G1 X114.169999 Y3.379240 F30.000000
G1 X125.599999 F30.000000
G1 X130.044999 Y7.824240 F30.000000
G1 Y13.539240 F30.000000
G1 Z-2.000000 F20.000000
G1 Y20.524240 F30.000000
G1 X125.599999 Y24.969240 F30.000000
G1 X114.169999 F30.000000
G1 X109.724999 Y20.524240 F30.000000
G1 Y7.824240 F30.000000
G1 X114.169999 Y3.379240 F30.000000
G1 X125.599999 F30.000000
G1 X130.044999 Y7.824240 F30.000000
G1 Y13.539240 F30.000000

(Goto to Initial position)
G0 Z0.500000
G0 X0.000000 Y0.000000
G0 Z0.000000
