(Generated by ./pygerber2gcode_cui_MOD.py )
( 2013-06-18 10:00:09 )
(Initialize)

(Start form here)
G0 Z0.500000
G0 X117.709326 Y15.201507
G1 Z-0.040000 F60.000000
G1 X117.567086 Y15.343747 F200.000000
G1 X117.518499 Y15.374277 F200.000000
G1 X117.473915 Y15.410403 F200.000000
G1 X117.365311 Y15.463753 F200.000000
G1 X117.506317 Y15.479641 F200.000000
G1 X117.638206 Y15.562513 F200.000000
G1 X117.709326 Y15.633633 F200.000000
G1 X117.711078 Y15.636421 F200.000000
G1 X117.713834 Y15.638223 F200.000000
G1 X117.752431 Y15.702233 F200.000000
G1 X117.792198 Y15.765522 F200.000000
G1 X117.792567 Y15.768794 F200.000000
G1 X117.794267 Y15.771614 F200.000000
G1 X117.865387 Y15.987514 F200.000000
G1 X117.870593 Y16.042841 F200.000000
G1 X117.882959 Y16.097020 F200.000000
G1 Y16.239260 F200.000000
G1 X117.870458 Y16.294028 F200.000000
G1 X117.864998 Y16.349939 F200.000000
G1 X117.793878 Y16.563299 F200.000000
G1 X117.793319 Y16.564219 F200.000000
G1 X117.793208 Y16.565289 F200.000000
G1 X117.752894 Y16.630727 F200.000000
G1 X117.712974 Y16.696405 F200.000000
G1 X117.712071 Y16.696991 F200.000000
G1 X117.711507 Y16.697907 F200.000000
G1 X117.569267 Y16.842687 F200.000000
G1 X117.519676 Y16.874463 F200.000000
G1 X117.473915 Y16.911543 F200.000000
G1 X117.329135 Y16.982663 F200.000000
G1 X117.292908 Y16.991230 F200.000000
G1 X117.259707 Y17.008069 F200.000000
G1 X116.975227 Y17.079189 F200.000000
G1 X116.932249 Y17.080074 F200.000000
G1 X116.890339 Y17.089639 F200.000000
G1 X116.674439 F200.000000
G1 X116.632530 Y17.080074 F200.000000
G1 X116.589552 Y17.079189 F200.000000
G1 X116.305072 Y17.008069 F200.000000
G1 X116.270785 Y16.990679 F200.000000
G1 X116.233435 Y16.981569 F200.000000
G1 X116.091195 Y16.910449 F200.000000
G1 X116.047799 Y16.874775 F200.000000
G1 X116.000232 Y16.844887 F200.000000
G1 X115.855452 Y16.700107 F200.000000
G1 X115.854036 Y16.697854 F200.000000
G1 X115.851805 Y16.696405 F200.000000
G1 X115.812668 Y16.632017 F200.000000
G1 X115.772580 Y16.568217 F200.000000
G1 X115.772282 Y16.565573 F200.000000
G1 X115.770900 Y16.563299 F200.000000
G1 X115.699780 Y16.349939 F200.000000
G1 X115.694320 Y16.294028 F200.000000
G1 X115.681819 Y16.239260 F200.000000
G1 Y16.097020 F200.000000
G1 X115.694185 Y16.042841 F200.000000
G1 X115.699391 Y15.987514 F200.000000
G1 X115.770511 Y15.771614 F200.000000
G1 X115.773828 Y15.766114 F200.000000
G1 X115.774659 Y15.759745 F200.000000
G1 X115.813893 Y15.699669 F200.000000
G1 X115.850945 Y15.638223 F200.000000
G1 X115.856319 Y15.634707 F200.000000
G1 X115.859831 Y15.629329 F200.000000
G1 X115.933491 Y15.558209 F200.000000
G1 X116.066814 Y15.477664 F200.000000
G1 X116.202198 Y15.464810 F200.000000
G1 X116.091195 Y15.409309 F200.000000
G1 X116.048970 Y15.374598 F200.000000
G1 X116.002432 Y15.345927 F200.000000
G1 X115.857652 Y15.203687 F200.000000
G1 X115.855023 Y15.199584 F200.000000
G1 X115.850945 Y15.196916 F200.000000
G1 X115.813127 Y15.134200 F200.000000
G1 X115.773616 Y15.072536 F200.000000
G1 X115.773028 Y15.067699 F200.000000
G1 X115.770511 Y15.063525 F200.000000
G1 X115.699391 Y14.847625 F200.000000
G1 X115.694185 Y14.792298 F200.000000
G1 X115.681819 Y14.738120 F200.000000
G1 Y14.595880 F200.000000
G1 X115.694320 Y14.541111 F200.000000
G1 X115.699780 Y14.485200 F200.000000
G1 X115.770900 Y14.271840 F200.000000
G1 X115.773909 Y14.266890 F200.000000
G1 X115.774659 Y14.261145 F200.000000
G1 X115.814223 Y14.200565 F200.000000
G1 X115.851805 Y14.138735 F200.000000
G1 X115.856664 Y14.135580 F200.000000
G1 X115.859831 Y14.130729 F200.000000
G1 X115.933491 Y14.059609 F200.000000
G1 X115.951613 Y14.048661 F200.000000
G1 X115.850945 Y13.982796 F200.000000
G1 X115.770511 Y13.849405 F200.000000
G1 X115.699391 Y13.633505 F200.000000
G1 X115.694185 Y13.578178 F200.000000
G1 X115.681819 Y13.524000 F200.000000
G1 Y13.168400 F200.000000
G1 X115.682131 Y13.167035 F200.000000
G1 X115.681830 Y13.165667 F200.000000
G1 X115.699446 Y13.091172 F200.000000
G1 X115.716480 Y13.016541 F200.000000
G1 X115.717353 Y13.015446 F200.000000
G1 X115.717675 Y13.014083 F200.000000
G1 X115.788795 Y12.869303 F200.000000
G1 X115.826812 Y12.822388 F200.000000
G1 X115.859831 Y12.771829 F200.000000
G1 X115.933491 Y12.700709 F200.000000
G1 X115.979001 Y12.673215 F200.000000
G1 X116.020075 Y12.639450 F200.000000
G1 X116.162315 Y12.568330 F200.000000
G1 X116.164900 Y12.567700 F200.000000
G1 X116.166980 Y12.566041 F200.000000
G1 X116.240440 Y12.549274 F200.000000
G1 X116.313642 Y12.531419 F200.000000
G1 X116.316245 Y12.531972 F200.000000
G1 X116.318839 Y12.531380 F200.000000
G1 X116.461079 F200.000000
G1 X116.463673 Y12.531972 F200.000000
G1 X116.466276 Y12.531419 F200.000000
G1 X116.539479 Y12.549274 F200.000000
G1 X116.612938 Y12.566041 F200.000000
G1 X116.615019 Y12.567700 F200.000000
G1 X116.617604 Y12.568330 F200.000000
G1 X116.759844 Y12.639450 F200.000000
G1 X116.803240 Y12.675125 F200.000000
G1 X116.850806 Y12.705013 F200.000000
G1 X116.921926 Y12.776133 F200.000000
G1 X116.951177 Y12.822684 F200.000000
G1 X116.986386 Y12.864910 F200.000000
G1 X117.060046 Y13.009690 F200.000000
G1 X117.069712 Y13.048147 F200.000000
G1 X117.087649 Y13.083512 F200.000000
G1 X117.149451 Y13.330719 F200.000000
G1 X117.176089 Y13.383997 F200.000000
G1 X117.182960 Y13.370256 F200.000000
G1 Y13.153442 F200.000000
G1 X117.129411 Y12.990885 F200.000000
G1 X117.114819 Y12.835806 F200.000000
G1 X117.168959 Y12.689753 F200.000000
G1 X117.281107 Y12.581654 F200.000000
G1 X117.429051 Y12.532919 F200.000000
G1 X117.583490 Y12.553201 F200.000000
G1 X117.713834 Y12.638483 F200.000000
G1 X117.794267 Y12.771874 F200.000000
G0 Z0.500000
G0 X116.632530 Y15.578934
G1 Z-0.040000 F60.000000
G1 X116.589552 Y15.578049 F200.000000
G1 X116.375232 Y15.524469 F200.000000
G1 X116.476173 Y15.629016 F200.000000
G1 X116.525032 Y15.776919 F200.000000
G1 X116.504880 Y15.931374 F200.000000
G1 X116.419707 Y16.061790 F200.000000
G1 X116.408295 Y16.072809 F200.000000
G1 X116.381819 Y16.153182 F200.000000
G1 Y16.182463 F200.000000
G1 X116.408850 Y16.263556 F200.000000
G1 X116.455045 Y16.309751 F200.000000
G1 X116.512120 Y16.338288 F200.000000
G1 X116.717526 Y16.389640 F200.000000
G1 X116.847252 F200.000000
G1 X117.053868 Y16.337986 F200.000000
G1 X117.111739 Y16.309558 F200.000000
G1 X117.155412 Y16.265106 F200.000000
G1 X117.182960 Y16.182463 F200.000000
G1 Y16.153182 F200.000000
G1 X117.155466 Y16.069721 F200.000000
G1 X117.143232 Y16.057487 F200.000000
G1 X117.060360 Y15.925597 F200.000000
G1 X117.042920 Y15.770812 F200.000000
G1 X117.094366 Y15.623789 F200.000000
G1 X117.195065 Y15.523090 F200.000000
G1 X116.975227 Y15.578049 F200.000000
G1 X116.932249 Y15.578934 F200.000000
G1 X116.890339 Y15.588499 F200.000000
G1 X116.674439 F200.000000
G1 X116.632530 Y15.578934 F200.000000
G0 Z0.500000
G0 X117.024439 Y14.311400
G1 Z-0.040000 F60.000000
G1 Y14.595880 F200.000000
G1 X116.989778 Y14.747739 F200.000000
G1 X116.892660 Y14.869520 F200.000000
G1 X116.859723 Y14.885382 F200.000000
G1 X117.053868 Y14.836846 F200.000000
G1 X117.113169 Y14.807716 F200.000000
G1 X117.155466 Y14.765418 F200.000000
G1 X117.182960 Y14.681957 F200.000000
G1 Y14.607383 F200.000000
G1 X117.148790 Y14.539044 F200.000000
G1 X117.111878 Y14.387717 F200.000000
G1 X117.144280 Y14.235359 F200.000000
G1 X117.239579 Y14.112149 F200.000000
G1 X117.315891 Y14.073993 F200.000000
G1 X117.248671 Y14.089889 F200.000000
G1 X117.247304 Y14.089588 F200.000000
G1 X117.245939 Y14.089899 F200.000000
G1 X117.103699 F200.000000
G1 X117.101105 Y14.089307 F200.000000
G1 X117.098502 Y14.089861 F200.000000
G1 X117.025300 Y14.072005 F200.000000
G0 Z0.500000
G0 X117.794267 Y12.771874
G1 Z-0.040000 F60.000000
G1 X117.865387 Y12.987774 F200.000000
G1 X117.870593 Y13.043101 F200.000000
G1 X117.882959 Y13.097280 F200.000000
G1 Y13.452880 F200.000000
G1 X117.882367 Y13.455474 F200.000000
G1 X117.882920 Y13.458077 F200.000000
G1 X117.865065 Y13.531279 F200.000000
G1 X117.848298 Y13.604739 F200.000000
G1 X117.846639 Y13.606819 F200.000000
G1 X117.846008 Y13.609404 F200.000000
G1 X117.774888 Y13.751644 F200.000000
G1 X117.741124 Y13.792718 F200.000000
G1 X117.713629 Y13.838228 F200.000000
G1 X117.642509 Y13.911888 F200.000000
G1 X117.591951 Y13.944906 F200.000000
G1 X117.545035 Y13.982923 F200.000000
G1 X117.425175 Y14.041802 F200.000000
G1 X117.534646 Y14.040176 F200.000000
G1 X117.675973 Y14.105669 F200.000000
G1 X117.774888 Y14.225995 F200.000000
G1 X117.846008 Y14.368235 F200.000000
G1 X117.846639 Y14.370820 F200.000000
G1 X117.848298 Y14.372901 F200.000000
G1 X117.865065 Y14.446360 F200.000000
G1 X117.882920 Y14.519563 F200.000000
G1 X117.882367 Y14.522166 F200.000000
G1 X117.882959 Y14.524760 F200.000000
G1 Y14.738120 F200.000000
G1 X117.870593 Y14.792298 F200.000000
G1 X117.865387 Y14.847625 F200.000000
G1 X117.794267 Y15.063525 F200.000000
G1 X117.792567 Y15.066345 F200.000000
G1 X117.792198 Y15.069617 F200.000000
G1 X117.752431 Y15.132906 F200.000000
G1 X117.713834 Y15.196916 F200.000000
G1 X117.711078 Y15.198719 F200.000000
G1 X117.709326 Y15.201507 F200.000000
G0 Z0.500000
G0 X117.025300 Y14.072005
G1 Z-0.040000 F60.000000
G1 X116.951840 Y14.055239 F200.000000
G1 X116.949760 Y14.053580 F200.000000
G1 X116.947175 Y14.052949 F200.000000
G1 X116.804935 Y13.981829 F200.000000
G1 X116.759218 Y13.944248 F200.000000
G1 X116.709669 Y13.911888 F200.000000
G1 X116.638549 Y13.838228 F200.000000
G1 X116.611055 Y13.792718 F200.000000
G1 X116.577290 Y13.751644 F200.000000
G1 X116.506170 Y13.609404 F200.000000
G1 X116.497060 Y13.572054 F200.000000
G1 X116.479670 Y13.537767 F200.000000
G1 X116.418168 Y13.291762 F200.000000
G1 X116.390515 Y13.237409 F200.000000
G1 X116.389959 Y13.237131 F200.000000
G1 X116.387368 Y13.238427 F200.000000
G1 X116.381819 Y13.249723 F200.000000
G1 Y13.467837 F200.000000
G1 X116.435367 Y13.630394 F200.000000
G1 X116.449959 Y13.785474 F200.000000
G1 X116.395820 Y13.931527 F200.000000
G1 X116.364827 Y13.961400 F200.000000
G1 X116.674439 F200.000000
G1 X116.712886 Y13.970175 F200.000000
G1 X116.752321 F200.000000
G1 X116.787852 Y13.987286 F200.000000
G1 X116.826298 Y13.996061 F200.000000
G1 X116.857130 Y14.020648 F200.000000
G1 X116.892660 Y14.037759 F200.000000
G1 X116.917248 Y14.068591 F200.000000
G1 X116.948080 Y14.093178 F200.000000
G1 X116.965190 Y14.128709 F200.000000
G1 X116.989778 Y14.159541 F200.000000
G1 X116.998553 Y14.197987 F200.000000
G1 X117.015664 Y14.233517 F200.000000
G1 Y14.272953 F200.000000
G1 X117.024439 Y14.311400 F200.000000
G0 Z0.500000
G0 X119.395323 Y5.318096
G1 Z-0.040000 F60.000000
G1 X119.467898 Y5.334661 F200.000000
G1 X119.470722 Y5.336913 F200.000000
G1 X119.474227 Y5.337787 F200.000000
G1 X119.664727 Y5.434307 F200.000000
G1 X119.707232 Y5.469629 F200.000000
G1 X119.754026 Y5.499033 F200.000000
G1 X119.848006 Y5.593013 F200.000000
G1 X119.877409 Y5.639807 F200.000000
G1 X119.912731 Y5.682312 F200.000000
G1 X120.009251 Y5.872812 F200.000000
G1 X120.018914 Y5.911531 F200.000000
G1 X120.036854 Y5.947179 F200.000000
G1 X120.130834 Y6.328179 F200.000000
G1 X120.131574 Y6.370618 F200.000000
G1 X120.141019 Y6.412000 F200.000000
G1 Y6.889520 F200.000000
G1 X120.131574 Y6.930901 F200.000000
G1 X120.130834 Y6.973341 F200.000000
G1 X120.036854 Y7.354341 F200.000000
G1 X120.018914 Y7.389988 F200.000000
G1 X120.009251 Y7.428707 F200.000000
G1 X119.912731 Y7.619207 F200.000000
G1 X119.877409 Y7.661712 F200.000000
G1 X119.848006 Y7.708507 F200.000000
G1 X119.754026 Y7.802487 F200.000000
G1 X119.707232 Y7.831890 F200.000000
G1 X119.664727 Y7.867212 F200.000000
G1 X119.474227 Y7.963732 F200.000000
G1 X119.470722 Y7.964607 F200.000000
G1 X119.467898 Y7.966859 F200.000000
G1 X119.395323 Y7.983423 F200.000000
G1 X119.323097 Y8.001448 F200.000000
G1 X119.319561 Y8.000716 F200.000000
G1 X119.316039 Y8.001519 F200.000000
G1 X119.125539 F200.000000
G1 X119.122018 Y8.000716 F200.000000
G1 X119.118481 Y8.001448 F200.000000
G1 X119.046255 Y7.983423 F200.000000
G1 X118.973680 Y7.966859 F200.000000
G1 X118.970856 Y7.964607 F200.000000
G1 X118.967352 Y7.963732 F200.000000
G1 X118.776852 Y7.867212 F200.000000
G1 X118.736105 Y7.833351 F200.000000
G1 X118.690874 Y7.805764 F200.000000
G1 X118.594354 Y7.711784 F200.000000
G1 X118.562097 Y7.661936 F200.000000
G1 X118.524637 Y7.615868 F200.000000
G1 X118.430657 Y7.425368 F200.000000
G1 X118.422087 Y7.389397 F200.000000
G1 X118.405257 Y7.356471 F200.000000
G1 X118.324552 Y7.037896 F200.000000
G1 X118.280238 Y7.167552 F200.000000
G1 X118.170900 Y7.278492 F200.000000
G1 X118.024254 Y7.331005 F200.000000
G1 X117.869346 Y7.314690 F200.000000
G1 X117.736858 Y7.232779 F200.000000
G1 X117.653029 Y7.101496 F200.000000
G1 X117.505898 Y6.690624 F200.000000
G1 X117.359748 Y7.100939 F200.000000
G1 X117.276142 Y7.232364 F200.000000
G1 X117.143792 Y7.314498 F200.000000
G1 X116.988912 Y7.331075 F200.000000
G1 X116.842177 Y7.278809 F200.000000
G1 X116.732652 Y7.168054 F200.000000
G1 X116.682027 Y7.020746 F200.000000
G1 X116.700330 Y6.866061 F200.000000
G1 X117.175310 Y5.532561 F200.000000
G1 X117.195285 Y5.501162 F200.000000
G1 X117.207320 Y5.465948 F200.000000
G1 X117.236559 Y5.436281 F200.000000
G1 X117.258917 Y5.401135 F200.000000
G1 X117.290537 Y5.381513 F200.000000
G1 X117.316659 Y5.355008 F200.000000
G1 X117.355874 Y5.340965 F200.000000
G1 X117.391267 Y5.319001 F200.000000
G1 X117.428269 Y5.315041 F200.000000
G1 X117.463305 Y5.302495 F200.000000
G1 X117.504729 Y5.306858 F200.000000
G1 X117.546147 Y5.302425 F200.000000
G1 X117.581203 Y5.314912 F200.000000
G1 X117.618212 Y5.318809 F200.000000
G1 X117.653642 Y5.340714 F200.000000
G1 X117.692881 Y5.354690 F200.000000
G1 X117.719048 Y5.381151 F200.000000
G1 X117.750701 Y5.400720 F200.000000
G1 X117.773118 Y5.435827 F200.000000
G1 X117.802407 Y5.465445 F200.000000
G1 X117.814502 Y5.500639 F200.000000
G1 X117.834529 Y5.532004 F200.000000
G1 X118.298020 Y6.826325 F200.000000
G1 Y6.412000 F200.000000
G1 X118.307705 Y6.369564 F200.000000
G1 X118.308737 Y6.326048 F200.000000
G1 X118.405257 Y5.945048 F200.000000
G1 X118.422087 Y5.912122 F200.000000
G1 X118.430657 Y5.876151 F200.000000
G1 X118.524637 Y5.685651 F200.000000
G1 X118.562097 Y5.639584 F200.000000
G1 X118.594354 Y5.589735 F200.000000
G1 X118.690874 Y5.495755 F200.000000
G1 X118.736105 Y5.468169 F200.000000
G1 X118.776852 Y5.434307 F200.000000
G1 X118.967352 Y5.337787 F200.000000
G1 X118.970856 Y5.336913 F200.000000
G1 X118.973680 Y5.334661 F200.000000
G1 X119.046255 Y5.318096 F200.000000
G1 X119.118481 Y5.300071 F200.000000
G1 X119.122018 Y5.300804 F200.000000
G1 X119.125539 Y5.300000 F200.000000
G1 X119.316039 F200.000000
G1 X119.319561 Y5.300804 F200.000000
G1 X119.323097 Y5.300071 F200.000000
G1 X119.395323 Y5.318096 F200.000000
G0 Z0.500000
G0 X119.209146 Y7.301520
G1 Z-0.040000 F60.000000
G1 X119.232432 F200.000000
G1 X119.298538 Y7.268026 F200.000000
G1 X119.313546 Y7.253019 F200.000000
G1 X119.366785 Y7.147941 F200.000000
G1 X119.441020 Y6.846990 F200.000000
G1 Y6.454529 F200.000000
G1 X119.366785 Y6.153578 F200.000000
G1 X119.313546 Y6.048500 F200.000000
G1 X119.298538 Y6.033493 F200.000000
G1 X119.232432 Y5.999999 F200.000000
G1 X119.209146 F200.000000
G1 X119.140908 Y6.034573 F200.000000
G1 X119.125786 Y6.049298 F200.000000
G1 X119.074755 Y6.152739 F200.000000
G1 X118.998019 Y6.455644 F200.000000
G1 Y6.845876 F200.000000
G1 X119.074755 Y7.148780 F200.000000
G1 X119.125786 Y7.252222 F200.000000
G1 X119.140908 Y7.266946 F200.000000
G1 X119.209146 Y7.301520 F200.000000
G0 Z0.500000
G0 X121.091318 Y5.785707
G1 Z-0.040000 F60.000000
G1 X121.077533 Y5.825102 F200.000000
G1 X121.072308 Y5.866511 F200.000000
G1 X121.052136 Y5.897684 F200.000000
G1 X121.039872 Y5.932731 F200.000000
G1 X121.010360 Y5.962244 F200.000000
G1 X120.987685 Y5.997284 F200.000000
G1 X120.891165 Y6.091264 F200.000000
G1 X120.876171 Y6.100409 F200.000000
G1 X120.865220 Y6.114140 F200.000000
G1 X120.847286 Y6.122777 F200.000000
G1 X120.833210 Y6.136853 F200.000000
G1 X120.793815 Y6.150638 F200.000000
G1 X120.758182 Y6.172370 F200.000000
G1 X120.740705 Y6.174104 F200.000000
G1 X120.724881 Y6.181724 F200.000000
G1 X120.704976 F200.000000
G1 X120.686187 Y6.188299 F200.000000
G1 X120.644712 Y6.183626 F200.000000
G1 X120.603178 Y6.187745 F200.000000
G1 X120.586680 Y6.181724 F200.000000
G1 X120.569117 F200.000000
G1 X120.551182 Y6.173087 F200.000000
G1 X120.531402 Y6.170859 F200.000000
G1 X120.496062 Y6.148653 F200.000000
G1 X120.456854 Y6.134344 F200.000000
G1 X120.444602 Y6.121761 F200.000000
G1 X120.428778 Y6.114140 F200.000000
G1 X120.416367 Y6.098577 F200.000000
G1 X120.399512 Y6.087987 F200.000000
G1 X120.305532 Y5.994007 F200.000000
G1 X120.285778 Y5.962568 F200.000000
G1 X120.259175 Y5.936665 F200.000000
G1 X120.244866 Y5.897457 F200.000000
G1 X120.222660 Y5.862117 F200.000000
G1 X120.218503 Y5.825221 F200.000000
G1 X120.205774 Y5.790341 F200.000000
G1 X120.209893 Y5.748807 F200.000000
G1 X120.205220 Y5.707332 F200.000000
G1 X120.217484 Y5.672286 F200.000000
G1 X120.221149 Y5.635337 F200.000000
G1 X120.242881 Y5.599704 F200.000000
G0 Z0.500000
G0 Y5.599704
G1 Z-0.040000 F60.000000
G1 X120.256666 Y5.560309 F200.000000
G1 X120.282921 Y5.534054 F200.000000
G1 X120.302254 Y5.502354 F200.000000
G1 X120.396234 Y5.405834 F200.000000
G1 X120.414909 Y5.393750 F200.000000
G1 X120.428778 Y5.376359 F200.000000
G1 X120.446713 Y5.367722 F200.000000
G1 X120.460788 Y5.353646 F200.000000
G1 X120.495835 Y5.341383 F200.000000
G1 X120.527008 Y5.321211 F200.000000
G1 X120.549076 Y5.318426 F200.000000
G1 X120.569117 Y5.308775 F200.000000
G1 X120.589023 F200.000000
G1 X120.607812 Y5.302201 F200.000000
G1 X120.644708 Y5.306358 F200.000000
G1 X120.681546 Y5.301709 F200.000000
G1 X120.702638 Y5.308775 F200.000000
G1 X120.724881 F200.000000
G1 X120.742816 Y5.317412 F200.000000
G1 X120.762597 Y5.319641 F200.000000
G1 X120.794036 Y5.339395 F200.000000
G1 X120.829243 Y5.351190 F200.000000
G1 X120.845180 Y5.366708 F200.000000
G1 X120.865220 Y5.376359 F200.000000
G1 X120.877632 Y5.391922 F200.000000
G1 X120.894486 Y5.402513 F200.000000
G1 X120.991006 Y5.499033 F200.000000
G1 X121.013212 Y5.534373 F200.000000
G1 X121.042329 Y5.564276 F200.000000
G1 X121.054124 Y5.599483 F200.000000
G1 X121.073878 Y5.630922 F200.000000
G1 X121.078551 Y5.672397 F200.000000
G1 X121.091810 Y5.711973 F200.000000
G1 X121.087161 Y5.748811 F200.000000
G1 X121.091318 Y5.785707 F200.000000
G0 Z0.500000
G0 X121.660368 Y6.766138
G1 Z-0.040000 F60.000000
G1 X121.727020 Y6.799020 F200.000000
G1 Y5.999999 F200.000000
G1 X121.505519 F200.000000
G1 X121.353660 Y5.965339 F200.000000
G1 X121.231878 Y5.868221 F200.000000
G1 X121.164295 Y5.727882 F200.000000
G1 Y5.572117 F200.000000
G1 X121.231878 Y5.431778 F200.000000
G1 X121.353660 Y5.334661 F200.000000
G1 X121.505519 Y5.300000 F200.000000
G1 X122.648519 F200.000000
G1 X122.800378 Y5.334661 F200.000000
G1 X122.922160 Y5.431778 F200.000000
G1 X122.989744 Y5.572117 F200.000000
G1 Y5.727882 F200.000000
G1 X122.922160 Y5.868221 F200.000000
G1 X122.800378 Y5.965339 F200.000000
G1 X122.648519 Y5.999999 F200.000000
G1 X122.427019 F200.000000
G1 Y7.651520 F200.000000
G1 X122.414904 Y7.704599 F200.000000
G1 X122.410160 Y7.758837 F200.000000
G1 X122.397760 Y7.779710 F200.000000
G1 X122.392358 Y7.803379 F200.000000
G1 X122.358412 Y7.845945 F200.000000
G1 X122.330606 Y7.892753 F200.000000
G1 X122.310378 Y7.906179 F200.000000
G1 X122.295240 Y7.925160 F200.000000
G1 X122.246188 Y7.948783 F200.000000
G1 X122.200825 Y7.978891 F200.000000
G1 X122.176775 Y7.982210 F200.000000
G1 X122.154901 Y7.992744 F200.000000
G1 X122.100457 F200.000000
G1 X122.046524 Y8.000188 F200.000000
G1 X122.023415 Y7.992744 F200.000000
G1 X121.999137 F200.000000
G1 X121.950084 Y7.969122 F200.000000
G1 X121.898262 Y7.952428 F200.000000
G1 X121.880672 Y7.935694 F200.000000
G1 X121.858798 Y7.925160 F200.000000
G1 X121.824852 Y7.882594 F200.000000
G1 X121.785405 Y7.845069 F200.000000
G1 X121.614270 Y7.587225 F200.000000
G1 X121.489373 Y7.462328 F200.000000
G1 X121.350671 Y7.393901 F200.000000
G1 X121.229817 Y7.295631 F200.000000
G1 X121.163570 Y7.154656 F200.000000
G1 X121.165050 Y6.998899 F200.000000
G1 X121.233964 Y6.859208 F200.000000
G1 X121.356663 Y6.763252 F200.000000
G1 X121.508845 Y6.730036 F200.000000
G1 X121.660368 Y6.766138 F200.000000
G0 Z0.500000
G0 X117.335058 Y20.616359
G1 Z-0.040000 F60.000000
G1 X117.370588 Y20.599248 F200.000000
G1 X117.401420 Y20.574661 F200.000000
G1 X117.439867 Y20.565886 F200.000000
G1 X117.475397 Y20.548775 F200.000000
G1 X117.514832 F200.000000
G1 X117.553279 Y20.540000 F200.000000
G1 X118.505779 F200.000000
G1 X118.657638 Y20.574661 F200.000000
G1 X118.779420 Y20.671778 F200.000000
G1 X118.838519 Y20.794499 F200.000000
G1 X118.847145 Y20.776587 F200.000000
G1 X118.855920 Y20.738141 F200.000000
G1 X118.880508 Y20.707309 F200.000000
G1 X118.897618 Y20.671778 F200.000000
G1 X118.928450 Y20.647191 F200.000000
G1 X118.953038 Y20.616359 F200.000000
G1 X118.988568 Y20.599248 F200.000000
G1 X119.019400 Y20.574661 F200.000000
G1 X119.057847 Y20.565886 F200.000000
G1 X119.093377 Y20.548775 F200.000000
G1 X119.132812 F200.000000
G1 X119.171259 Y20.540000 F200.000000
G1 X119.648779 F200.000000
G1 X119.704441 Y20.552704 F200.000000
G1 X119.761233 Y20.558557 F200.000000
G1 X120.045713 Y20.655077 F200.000000
G1 X120.047164 Y20.655970 F200.000000
G1 X120.048857 Y20.656161 F200.000000
G1 X120.113429 Y20.696734 F200.000000
G0 Z0.500000
G1 Z-0.040000 F60.000000
G1 X120.178384 Y20.736692 F200.000000
G1 X120.179304 Y20.738126 F200.000000
G1 X120.180746 Y20.739033 F200.000000
G1 X120.371246 Y20.929533 F200.000000
G1 X120.400649 Y20.976327 F200.000000
G1 X120.435971 Y21.018832 F200.000000
G1 X120.532491 Y21.209332 F200.000000
G1 X120.542154 Y21.248051 F200.000000
G1 X120.560094 Y21.283699 F200.000000
G1 X120.654074 Y21.664699 F200.000000
G1 X120.654814 Y21.707138 F200.000000
G1 X120.664259 Y21.748520 F200.000000
G1 Y22.033000 F200.000000
G1 X120.654814 Y22.074381 F200.000000
G1 X120.654074 Y22.116821 F200.000000
G1 X120.560094 Y22.497821 F200.000000
G1 X120.542154 Y22.533468 F200.000000
G1 X120.532491 Y22.572187 F200.000000
G1 X120.435971 Y22.762687 F200.000000
G1 X120.400649 Y22.805192 F200.000000
G1 X120.371246 Y22.851987 F200.000000
G1 X120.180746 Y23.042487 F200.000000
G1 X120.179304 Y23.043393 F200.000000
G1 X120.178384 Y23.044827 F200.000000
G1 X120.113429 Y23.084785 F200.000000
G1 X120.048857 Y23.125359 F200.000000
G1 X120.047164 Y23.125549 F200.000000
G1 X120.045713 Y23.126442 F200.000000
G1 X119.761233 Y23.222962 F200.000000
G1 X119.704441 Y23.228815 F200.000000
G1 X119.648779 Y23.241519 F200.000000
G1 X119.171259 F200.000000
G1 X119.132812 Y23.232744 F200.000000
G1 X119.093377 F200.000000
G1 X119.057847 Y23.215634 F200.000000
G1 X119.019400 Y23.206859 F200.000000
G1 X118.988568 Y23.182271 F200.000000
G1 X118.953038 Y23.165160 F200.000000
G1 X118.928450 Y23.134329 F200.000000
G1 X118.897618 Y23.109741 F200.000000
G1 X118.880508 Y23.074211 F200.000000
G1 X118.855920 Y23.043379 F200.000000
G1 X118.847145 Y23.004932 F200.000000
G1 X118.830035 Y22.969402 F200.000000
G1 Y22.929966 F200.000000
G1 X118.821259 Y22.891520 F200.000000
G1 Y21.021340 F200.000000
G1 X118.779420 Y21.108221 F200.000000
G1 X118.657638 Y21.205339 F200.000000
G1 X118.505779 Y21.239999 F200.000000
G1 X117.903279 F200.000000
G1 Y22.891520 F200.000000
G1 X117.868618 Y23.043379 F200.000000
G1 X117.771500 Y23.165160 F200.000000
G1 X117.631161 Y23.232744 F200.000000
G1 X117.475397 F200.000000
G1 X117.335058 Y23.165160 F200.000000
G1 X117.237940 Y23.043379 F200.000000
G1 X117.203280 Y22.891520 F200.000000
G1 Y20.890000 F200.000000
G1 X117.212055 Y20.851553 F200.000000
G1 Y20.812117 F200.000000
G1 X117.229165 Y20.776587 F200.000000
G1 X117.237940 Y20.738141 F200.000000
G1 X117.262528 Y20.707309 F200.000000
G1 X117.279638 Y20.671778 F200.000000
G1 X117.310470 Y20.647191 F200.000000
G1 X117.335058 Y20.616359 F200.000000
G0 Z0.500000
G0 X119.521259 Y21.239999
G1 Z-0.040000 F60.000000
G1 Y22.541520 F200.000000
G1 X119.591021 F200.000000
G1 X119.743498 Y22.489787 F200.000000
G1 X119.836786 Y22.396499 F200.000000
G1 X119.890025 Y22.291421 F200.000000
G1 X119.964259 Y21.990470 F200.000000
G1 Y21.791049 F200.000000
G1 X119.890025 Y21.490098 F200.000000
G1 X119.836786 Y21.385020 F200.000000
G1 X119.743498 Y21.291732 F200.000000
G1 X119.591021 Y21.239999 F200.000000
G1 X119.521259 F200.000000
G0 Z0.500000
G0 X120.899138 Y23.109741
G1 Z-0.040000 F60.000000
G1 X120.882028 Y23.074211 F200.000000
G1 X120.857440 Y23.043379 F200.000000
G1 X120.848665 Y23.004932 F200.000000
G1 X120.831555 Y22.969402 F200.000000
G1 Y22.929966 F200.000000
G1 X120.822779 Y22.891520 F200.000000
G1 Y20.890000 F200.000000
G1 X120.857440 Y20.738141 F200.000000
G1 X120.954558 Y20.616359 F200.000000
G1 X121.094897 Y20.548775 F200.000000
G1 X121.250661 F200.000000
G1 X121.391000 Y20.616359 F200.000000
G1 X121.488118 Y20.738141 F200.000000
G1 X121.522779 Y20.890000 F200.000000
G1 Y21.411155 F200.000000
G1 X122.029228 Y20.689032 F200.000000
G1 X122.144802 Y20.584604 F200.000000
G1 X122.294240 Y20.540663 F200.000000
G1 X122.447945 Y20.565913 F200.000000
G1 X122.575472 Y20.655352 F200.000000
G1 X122.651564 Y20.791266 F200.000000
G1 X122.661150 Y20.946736 F200.000000
G1 X122.602331 Y21.090968 F200.000000
G1 X122.241456 Y21.605522 F200.000000
G1 X122.283467 Y21.626807 F200.000000
G1 X122.325972 Y21.662129 F200.000000
G1 X122.372766 Y21.691533 F200.000000
G1 X122.466746 Y21.785513 F200.000000
G1 X122.496149 Y21.832307 F200.000000
G1 X122.531471 Y21.874812 F200.000000
G1 X122.627991 Y22.065312 F200.000000
G1 X122.628866 Y22.068817 F200.000000
G1 X122.631118 Y22.071641 F200.000000
G1 X122.647683 Y22.144215 F200.000000
G0 Z0.500000
G1 Z-0.040000 F60.000000
G1 X122.665708 Y22.216441 F200.000000
G1 X122.664975 Y22.219978 F200.000000
G1 X122.665779 Y22.223500 F200.000000
G1 Y22.510520 F200.000000
G1 X122.664975 Y22.514041 F200.000000
G1 X122.665708 Y22.517578 F200.000000
G1 X122.647683 Y22.589804 F200.000000
G1 X122.631118 Y22.662379 F200.000000
G1 X122.628866 Y22.665203 F200.000000
G1 X122.627991 Y22.668707 F200.000000
G1 X122.531471 Y22.859207 F200.000000
G1 X122.496149 Y22.901712 F200.000000
G1 X122.466746 Y22.948507 F200.000000
G1 X122.372766 Y23.042487 F200.000000
G1 X122.325972 Y23.071890 F200.000000
G1 X122.283467 Y23.107212 F200.000000
G1 X122.092967 Y23.203732 F200.000000
G1 X122.089462 Y23.204607 F200.000000
G1 X122.086638 Y23.206859 F200.000000
G1 X122.014063 Y23.223423 F200.000000
G1 X121.941837 Y23.241448 F200.000000
G1 X121.938301 Y23.240716 F200.000000
G1 X121.934779 Y23.241519 F200.000000
G1 X121.172779 F200.000000
G1 X121.134332 Y23.232744 F200.000000
G1 X121.094897 F200.000000
G1 X121.059367 Y23.215634 F200.000000
G1 X121.020920 Y23.206859 F200.000000
G1 X120.990088 Y23.182271 F200.000000
G1 X120.954558 Y23.165160 F200.000000
G1 X120.929970 Y23.134329 F200.000000
G1 X120.899138 Y23.109741 F200.000000
G0 Z0.500000
G0 X121.522779 Y22.192499
G1 Z-0.040000 F60.000000
G1 Y22.541520 F200.000000
G1 X121.851172 F200.000000
G1 X121.917278 Y22.508026 F200.000000
G1 X121.932286 Y22.493019 F200.000000
G1 X121.965779 Y22.426913 F200.000000
G1 Y22.307107 F200.000000
G1 X121.932286 Y22.241000 F200.000000
G1 X121.917278 Y22.225993 F200.000000
G1 X121.851172 Y22.192499 F200.000000
G1 X121.522779 F200.000000
G0 Z0.500000
G0 X119.051883 Y19.735240
G1 Z-0.040000 F60.000000
G1 X118.922999 Y19.254240 F200.000000
G1 X119.051883 Y18.773240 F200.000000
G1 X119.403999 Y18.421123 F200.000000
G1 X119.884999 Y18.292240 F200.000000
G1 X120.036002 Y18.332701 F200.000000
G1 X120.062146 Y18.316397 F200.000000
G1 X120.161217 Y18.305577 F200.000000
G1 X120.258379 Y18.283400 F200.000000
G1 X122.733890 F200.000000
G1 X123.038736 Y18.019251 F200.000000
G1 X123.568578 Y17.943071 F200.000000
G1 X124.055496 Y18.165439 F200.000000
G1 X124.344896 Y18.615754 F200.000000
G1 Y19.151045 F200.000000
G1 X124.055496 Y19.601361 F200.000000
G1 X123.568578 Y19.823729 F200.000000
G1 X123.038736 Y19.747549 F200.000000
G1 X122.733890 Y19.483399 F200.000000
G1 X120.785596 F200.000000
G1 X120.718116 Y19.735240 F200.000000
G1 X120.365999 Y20.087356 F200.000000
G1 X119.884999 Y20.216240 F200.000000
G1 X119.403999 Y20.087356 F200.000000
G1 X119.051883 Y19.735240 F200.000000
G0 Z0.500000
G0 X118.387766 Y16.166105
G1 Z-0.040000 F60.000000
G1 X118.416500 Y16.148027 F200.000000
G1 X118.516693 Y16.136678 F200.000000
G1 X118.614999 Y16.114240 F200.000000
G1 X119.170882 F200.000000
G1 X119.403999 Y15.881123 F200.000000
G1 X119.884999 Y15.752240 F200.000000
G1 X120.365999 Y15.881123 F200.000000
G1 X120.718116 Y16.233240 F200.000000
G1 X120.846999 Y16.714240 F200.000000
G1 X120.718116 Y17.195240 F200.000000
G1 X120.365999 Y17.547356 F200.000000
G1 X119.884999 Y17.676240 F200.000000
G1 X119.403999 Y17.547356 F200.000000
G1 X119.170882 Y17.314239 F200.000000
G1 X118.863733 F200.000000
G1 X117.250676 Y18.929187 F200.000000
G1 Y19.151045 F200.000000
G1 X116.961276 Y19.601361 F200.000000
G1 X116.474358 Y19.823729 F200.000000
G1 X115.944516 Y19.747549 F200.000000
G1 X115.539970 Y19.397008 F200.000000
G1 X115.389161 Y18.883400 F200.000000
G1 X115.539970 Y18.369792 F200.000000
G1 X115.944516 Y18.019251 F200.000000
G1 X116.474358 Y17.943071 F200.000000
G1 X116.519146 Y17.963525 F200.000000
G1 X118.190487 Y16.290225 F200.000000
G1 X118.275834 Y16.236528 F200.000000
G1 X118.354669 Y16.173659 F200.000000
G1 X118.387766 Y16.166105 F200.000000
G0 Z0.500000
G0 X122.545380 Y14.722414
G1 Z-0.040000 F60.000000
G1 X122.516486 Y14.740569 F200.000000
G1 X122.416457 Y14.751840 F200.000000
G1 X122.318319 Y14.774239 F200.000000
G1 X120.599116 F200.000000
G1 X120.365999 Y15.007356 F200.000000
G1 X119.884999 Y15.136240 F200.000000
G1 X119.403999 Y15.007356 F200.000000
G1 X119.051883 Y14.655240 F200.000000
G1 X118.922999 Y14.174240 F200.000000
G1 X119.051883 Y13.693240 F200.000000
G1 X119.403999 Y13.341123 F200.000000
G1 X119.884999 Y13.212240 F200.000000
G1 X120.365999 Y13.341123 F200.000000
G1 X120.599116 Y13.574240 F200.000000
G1 X122.069791 F200.000000
G1 X124.302193 Y11.341839 F200.000000
G1 X124.279161 Y11.263400 F200.000000
G1 X124.429970 Y10.749792 F200.000000
G1 X124.834516 Y10.399251 F200.000000
G1 X125.364358 Y10.323071 F200.000000
G1 X125.851276 Y10.545439 F200.000000
G1 X126.140676 Y10.995754 F200.000000
G1 Y11.531045 F200.000000
G1 X125.851276 Y11.981361 F200.000000
G1 X125.364358 Y12.203729 F200.000000
G1 X125.165892 Y12.175194 F200.000000
G1 X122.742583 Y14.598503 F200.000000
G1 X122.657350 Y14.652059 F200.000000
G1 X122.578649 Y14.714820 F200.000000
G1 X122.545380 Y14.722414 F200.000000
G0 Z0.500000
G0 X114.816081 Y12.211840
G1 Z-0.040000 F60.000000
G1 X114.716052 Y12.200569 F200.000000
G1 X114.703191 Y12.192488 F200.000000
G1 X114.678578 Y12.203729 F200.000000
G1 X114.148736 Y12.127549 F200.000000
G1 X113.744190 Y11.777008 F200.000000
G1 X113.593381 Y11.263400 F200.000000
G1 X113.744190 Y10.749792 F200.000000
G1 X114.148736 Y10.399251 F200.000000
G1 X114.678578 Y10.323071 F200.000000
G1 X115.165496 Y10.545439 F200.000000
G1 X115.454896 Y10.995754 F200.000000
G1 Y11.034240 F200.000000
G1 X119.170882 F200.000000
G1 X119.403999 Y10.801123 F200.000000
G1 X119.884999 Y10.672240 F200.000000
G1 X120.365999 Y10.801123 F200.000000
G1 X120.718116 Y11.153240 F200.000000
G1 X120.846999 Y11.634240 F200.000000
G1 X120.718116 Y12.115240 F200.000000
G1 X120.365999 Y12.467356 F200.000000
G1 X119.884999 Y12.596240 F200.000000
G1 X119.403999 Y12.467356 F200.000000
G1 X119.170882 Y12.234239 F200.000000
G1 X114.914219 F200.000000
G1 X114.816081 Y12.211840 F200.000000
G0 Z0.500000
G0 X123.059999 Y8.494240
G1 Z-0.040000 F60.000000
G1 X123.158137 Y8.516640 F200.000000
G1 X123.223116 Y8.523961 F200.000000
G1 X123.433379 Y8.467621 F200.000000
G1 X123.933378 Y8.601596 F200.000000
G1 X124.199403 Y8.867620 F200.000000
G1 X125.973379 F200.000000
G1 X126.071517 Y8.890020 F200.000000
G1 X126.171546 Y8.901290 F200.000000
G1 X126.200440 Y8.919446 F200.000000
G1 X126.233709 Y8.927039 F200.000000
G1 X126.312410 Y8.989801 F200.000000
G1 X126.397643 Y9.043356 F200.000000
G1 X127.294263 Y9.939976 F200.000000
G1 X127.347818 Y10.025209 F200.000000
G1 X127.410580 Y10.103910 F200.000000
G1 X127.418173 Y10.137179 F200.000000
G1 X127.436328 Y10.166073 F200.000000
G1 X127.447599 Y10.266102 F200.000000
G1 X127.469998 Y10.364240 F200.000000
G1 Y15.444240 F200.000000
G1 X127.447650 Y15.542157 F200.000000
G1 X127.436482 Y15.641969 F200.000000
G1 X127.418225 Y15.671074 F200.000000
G1 X127.410580 Y15.704570 F200.000000
G1 X127.347960 Y15.783093 F200.000000
G1 X127.294591 Y15.868175 F200.000000
G1 X126.196970 Y16.967495 F200.000000
G1 X126.229158 Y17.087620 F200.000000
G1 X126.095183 Y17.587619 F200.000000
G1 X125.729158 Y17.953644 F200.000000
G1 X125.229159 Y18.087618 F200.000000
G1 X124.729160 Y17.953644 F200.000000
G1 X124.363135 Y17.587619 F200.000000
G1 X124.229161 Y17.087620 F200.000000
G1 X124.363135 Y16.587621 F200.000000
G1 X124.729160 Y16.221596 F200.000000
G1 X125.229159 Y16.087621 F200.000000
G1 X125.347958 Y16.119453 F200.000000
G1 X126.270000 Y15.195984 F200.000000
G1 Y10.612768 F200.000000
G1 X125.724851 Y10.067619 F200.000000
G1 X124.199403 F200.000000
G1 X123.933378 Y10.333644 F200.000000
G1 X123.433379 Y10.467618 F200.000000
G1 X122.933380 Y10.333644 F200.000000
G1 X122.567355 Y9.967619 F200.000000
G1 X122.494103 Y9.694239 F200.000000
G1 X120.846999 Y9.694239 F200.000000
G1 Y10.056240 F200.000000
G1 X118.922999 F200.000000
G1 Y9.694239 F200.000000
G1 X117.278435 Y9.694239 F200.000000
G1 X117.205183 Y9.967619 F200.000000
G1 X116.839158 Y10.333644 F200.000000
G1 X116.339159 Y10.467618 F200.000000
G1 X115.839160 Y10.333644 F200.000000
G1 X115.573135 Y10.067619 F200.000000
G1 X114.047190 F200.000000
G1 X113.499998 Y10.613265 F200.000000
G1 Y15.195712 F200.000000
G1 X114.423917 Y16.119631 F200.000000
G1 X114.543379 Y16.087621 F200.000000
G1 X115.043378 Y16.221596 F200.000000
G1 X115.409403 Y16.587621 F200.000000
G1 X115.543378 Y17.087620 F200.000000
G1 X115.409403 Y17.587619 F200.000000
G1 X115.043378 Y17.953644 F200.000000
G1 X114.543379 Y18.087618 F200.000000
G1 X114.043380 Y17.953644 F200.000000
G1 X113.677355 Y17.587619 F200.000000
G1 X113.543381 Y17.087620 F200.000000
G1 X113.575390 Y16.968158 F200.000000
G1 X112.475736 Y15.868503 F200.000000
G1 X112.422180 Y15.783270 F200.000000
G1 X112.359419 Y15.704570 F200.000000
G1 X112.351825 Y15.671301 F200.000000
G1 X112.333670 Y15.642407 F200.000000
G1 X112.322399 Y15.542378 F200.000000
G1 X112.300000 Y15.444240 F200.000000
G1 Y10.364240 F200.000000
G1 X112.322492 Y10.265697 F200.000000
G1 X112.333951 Y10.165272 F200.000000
G1 X112.351920 Y10.136764 F200.000000
G1 X112.359419 Y10.103910 F200.000000
G1 X112.422439 Y10.024885 F200.000000
G1 X112.476336 Y9.939377 F200.000000
G1 X113.375496 Y9.042757 F200.000000
G1 X113.460453 Y8.989542 F200.000000
G1 X113.538829 Y8.927039 F200.000000
G1 X113.572513 Y8.919351 F200.000000
G1 X113.601793 Y8.901011 F200.000000
G1 X113.701426 Y8.889928 F200.000000
G1 X113.799159 Y8.867620 F200.000000
G1 X115.573135 F200.000000
G1 X115.839160 Y8.601596 F200.000000
G1 X116.339159 Y8.467621 F200.000000
G1 X116.549525 Y8.523989 F200.000000
G1 X116.610885 Y8.516863 F200.000000
G1 X116.709999 Y8.494240 F200.000000
G1 X118.922999 F200.000000
G1 Y8.132240 F200.000000
G1 X120.846999 F200.000000
G1 Y8.494240 F200.000000
G1 X123.059999 F200.000000

(Goto to Initial position)
G0 Z0.500000
G0 X0.000000 Y0.000000
G0 Z0.000000
