(Generated by ./pygerber2gcode_cui_MOD.py )
( 2013-10-19 12:20:24 )
(Initialize)

(Start form here)
G0 Z0.500000
G0 X92.767012 Y42.500640
G1 Z-0.040000 F60.000000
G1 X92.711486 Y42.494384 F200.000000
G1 X92.674040 Y42.506551 F200.000000
G1 X92.157108 Y42.452219 F200.000000
G1 X91.799998 Y42.246041 F200.000000
G1 Y45.071448 F200.000000
G1 X92.520686 Y45.792135 F200.000000
G1 X92.543379 Y45.787621 F200.000000
G1 X93.040867 Y45.886578 F200.000000
G1 X93.381820 Y46.114395 F200.000000
G1 Y46.097020 F200.000000
G1 X93.404785 Y45.996403 F200.000000
G1 X93.414453 Y45.893652 F200.000000
G1 X93.485573 Y45.677752 F200.000000
G1 X93.491732 Y45.667537 F200.000000
G1 X93.493275 Y45.655710 F200.000000
G1 X93.566139 Y45.544141 F200.000000
G1 X93.634949 Y45.430026 F200.000000
G1 X93.644931 Y45.423496 F200.000000
G1 X93.648208 Y45.418477 F200.000000
G1 X93.647405 Y45.417688 F200.000000
G1 X93.642523 Y45.410068 F200.000000
G1 X93.634949 Y45.405113 F200.000000
G1 X93.564717 Y45.288640 F200.000000
G1 X93.491339 Y45.174122 F200.000000
G1 X93.490246 Y45.165138 F200.000000
G1 X93.485573 Y45.157387 F200.000000
G1 X93.414453 Y44.941487 F200.000000
G1 X93.404785 Y44.838737 F200.000000
G1 X93.381820 Y44.738120 F200.000000
G1 Y44.595880 F200.000000
G1 X93.405035 Y44.494167 F200.000000
G1 X93.415175 Y44.390332 F200.000000
G1 X93.486295 Y44.176972 F200.000000
G1 X93.491884 Y44.167778 F200.000000
G1 X93.493275 Y44.157110 F200.000000
G1 X93.556314 Y44.060585 F200.000000
G1 X93.485573 Y43.943267 F200.000000
G1 X93.414453 Y43.727367 F200.000000
G1 X93.404785 Y43.624617 F200.000000
G1 X93.381820 Y43.524000 F200.000000
G1 Y43.168400 F200.000000
G1 X93.382398 Y43.165865 F200.000000
G1 X93.381839 Y43.163326 F200.000000
G1 X93.414555 Y43.024976 F200.000000
G1 X93.446190 Y42.886375 F200.000000
G1 X93.447811 Y42.884343 F200.000000
G1 X93.448409 Y42.881812 F200.000000
G1 X93.519529 Y42.737032 F200.000000
G1 X93.590132 Y42.649903 F200.000000
G1 X93.651453 Y42.556009 F200.000000
G1 X93.674001 Y42.534239 F200.000000
G1 X92.914219 F200.000000
G1 X92.767012 Y42.500640 F200.000000
G0 Z0.500000
G0 X94.785077 Y46.037225
G1 Z-0.040000 F60.000000
G1 X94.751353 Y46.088864 F200.000000
G1 X94.754458 Y46.089640 F200.000000
G1 X94.810321 F200.000000
G1 X94.816968 Y46.087978 F200.000000
G1 X94.785077 Y46.037225 F200.000000
G0 Z0.500000
G0 X96.075363 Y45.168701
G1 Z-0.040000 F60.000000
G1 X96.001510 Y45.286238 F200.000000
G1 X95.929829 Y45.405113 F200.000000
G1 X95.924712 Y45.408461 F200.000000
G1 X95.921458 Y45.413639 F200.000000
G1 X95.917528 Y45.417570 F200.000000
G1 X95.921458 Y45.421501 F200.000000
G1 X95.924712 Y45.426678 F200.000000
G1 X95.929829 Y45.430026 F200.000000
G1 X96.001510 Y45.548901 F200.000000
G1 X96.075363 Y45.666438 F200.000000
G1 X96.076048 Y45.672515 F200.000000
G1 X96.079206 Y45.677752 F200.000000
G1 X96.150326 Y45.893652 F200.000000
G1 X96.156354 Y45.957717 F200.000000
G1 X96.224504 Y45.903368 F200.000000
G1 X96.274150 Y45.892037 F200.000000
G1 X96.317251 Y45.864920 F200.000000
G1 X96.467541 Y45.847897 F200.000000
G1 X96.614999 Y45.814241 F200.000000
G1 X97.013057 Y45.814241 F200.000000
G1 X97.040556 Y45.776391 F200.000000
G1 X97.495020 Y45.514006 F200.000000
G1 X98.016914 Y45.459153 F200.000000
G1 X98.515999 Y45.621316 F200.000000
G1 X98.905979 Y45.972455 F200.000000
G1 X99.119421 Y46.451855 F200.000000
G1 Y46.976624 F200.000000
G1 X98.905979 Y47.456025 F200.000000
G1 X98.515999 Y47.807164 F200.000000
G1 X98.016914 Y47.969326 F200.000000
G1 X97.495020 Y47.914473 F200.000000
G1 X97.040556 Y47.652088 F200.000000
G1 X97.013057 Y47.614239 F200.000000
G1 X96.988100 Y47.614239 F200.000000
G1 X95.561842 Y49.042169 F200.000000
G1 Y49.143289 F200.000000
G1 X95.350429 Y49.618130 F200.000000
G1 X94.964158 Y49.965930 F200.000000
G1 X94.469820 Y50.126551 F200.000000
G1 X93.952888 Y50.072219 F200.000000
G1 X93.502747 Y49.812330 F200.000000
G1 X93.197229 Y49.391820 F200.000000
G1 X93.089161 Y48.883400 F200.000000
G1 X93.197229 Y48.374980 F200.000000
G1 X93.502747 Y47.954470 F200.000000
G1 X93.952888 Y47.694580 F200.000000
G1 X94.411953 Y47.646331 F200.000000
G1 X94.669476 Y47.388507 F200.000000
G1 X94.596607 Y47.371875 F200.000000
G1 X94.516791 Y47.370232 F200.000000
G1 X94.232311 Y47.299112 F200.000000
G1 X94.168635 Y47.266816 F200.000000
G1 X94.099270 Y47.249897 F200.000000
G1 X93.957030 Y47.178777 F200.000000
G1 X93.876438 Y47.112525 F200.000000
G1 X93.842647 Y47.091293 F200.000000
G1 X93.744421 Y47.585108 F200.000000
G1 X93.462617 Y48.006857 F200.000000
G1 X93.040867 Y48.288662 F200.000000
G1 X92.543379 Y48.387618 F200.000000
G1 X92.045891 Y48.288662 F200.000000
G1 X91.624142 Y48.006857 F200.000000
G1 X91.342337 Y47.585108 F200.000000
G1 X91.243381 Y47.087620 F200.000000
G1 X91.247895 Y47.064926 F200.000000
G1 X90.263604 Y46.080635 F200.000000
G1 X90.183271 Y45.952786 F200.000000
G1 X90.089128 Y45.834735 F200.000000
G1 X90.077738 Y45.784832 F200.000000
G1 X90.050505 Y45.741491 F200.000000
G1 X90.033599 Y45.591447 F200.000000
G1 X90.000000 Y45.444240 F200.000000
G1 Y40.364240 F200.000000
G1 X90.033738 Y40.216426 F200.000000
G1 X90.050926 Y40.065788 F200.000000
G1 X90.077880 Y40.023025 F200.000000
G1 X90.089128 Y39.973745 F200.000000
G1 X90.183659 Y39.855207 F200.000000
G0 Z0.500000
G1 Z-0.040000 F60.000000
G1 X90.264504 Y39.726945 F200.000000
G1 X91.163664 Y38.830325 F200.000000
G1 X91.291100 Y38.750503 F200.000000
G1 X91.408664 Y38.656748 F200.000000
G1 X91.459190 Y38.645216 F200.000000
G1 X91.503110 Y38.617706 F200.000000
G1 X91.652559 Y38.601081 F200.000000
G1 X91.799159 Y38.567621 F200.000000
G1 X93.407067 Y38.567620 F200.000000
G1 X93.419922 Y38.548382 F200.000000
G1 X93.841671 Y38.266578 F200.000000
G1 X94.339159 Y38.167621 F200.000000
G1 X94.599629 Y38.219432 F200.000000
G1 X94.709999 Y38.194241 F200.000000
G1 X96.622999 F200.000000
G1 Y38.119646 F200.000000
G1 X96.565589 Y38.071938 F200.000000
G1 X96.481589 Y38.020706 F200.000000
G1 X96.385069 Y37.926726 F200.000000
G1 X96.325163 Y37.834149 F200.000000
G1 X96.255596 Y37.748595 F200.000000
G1 X96.176033 Y37.587319 F200.000000
G1 X96.060009 Y37.628866 F200.000000
G1 X95.772323 Y37.598568 F200.000000
G1 X95.526273 Y37.446448 F200.000000
G1 X95.506398 Y37.415321 F200.000000
G1 X95.487087 Y37.445676 F200.000000
G1 X95.241294 Y37.598212 F200.000000
G1 X94.953659 Y37.628996 F200.000000
G1 X94.681153 Y37.531932 F200.000000
G1 X94.477748 Y37.326244 F200.000000
G1 X94.383731 Y37.052671 F200.000000
G1 X94.417723 Y36.765398 F200.000000
G1 X94.892703 Y35.431898 F200.000000
G1 X94.929798 Y35.373586 F200.000000
G1 X94.952149 Y35.308189 F200.000000
G1 X95.006450 Y35.253093 F200.000000
G1 X95.047972 Y35.187823 F200.000000
G1 X95.106694 Y35.151381 F200.000000
G1 X95.155207 Y35.102158 F200.000000
G1 X95.228036 Y35.076078 F200.000000
G1 X95.293765 Y35.035287 F200.000000
G1 X95.362484 Y35.027933 F200.000000
G1 X95.427549 Y35.004633 F200.000000
G1 X95.504481 Y35.012735 F200.000000
G1 X95.581399 Y35.004503 F200.000000
G1 X95.646504 Y35.027693 F200.000000
G1 X95.715235 Y35.034931 F200.000000
G1 X95.781033 Y35.075611 F200.000000
G1 X95.853905 Y35.101567 F200.000000
G1 X95.902501 Y35.150708 F200.000000
G1 X95.961285 Y35.187052 F200.000000
G1 X96.002917 Y35.252251 F200.000000
G1 X96.057311 Y35.307255 F200.000000
G1 X96.079772 Y35.372615 F200.000000
G1 X96.116966 Y35.430864 F200.000000
G1 X96.200597 Y35.664408 F200.000000
G1 X96.255596 Y35.552924 F200.000000
G1 X96.325163 Y35.467370 F200.000000
G1 X96.385069 Y35.374794 F200.000000
G1 X96.481589 Y35.280814 F200.000000
G1 X96.565589 Y35.229582 F200.000000
G1 X96.641262 Y35.166697 F200.000000
G1 X96.831762 Y35.070177 F200.000000
G1 X96.838270 Y35.068552 F200.000000
G1 X96.843515 Y35.064370 F200.000000
G1 X96.978297 Y35.033607 F200.000000
G0 Z0.500000
G0 X99.217944 Y37.662943
G1 Z-0.040000 F60.000000
G1 X98.993501 Y37.480441 F200.000000
G1 X98.870471 Y37.218631 F200.000000
G1 X98.873219 Y36.929367 F200.000000
G1 X99.001202 Y36.669942 F200.000000
G1 X99.229072 Y36.491737 F200.000000
G1 X99.427020 Y36.448531 F200.000000
G1 Y36.282082 F200.000000
G1 X99.223495 Y36.235629 F200.000000
G1 X99.195699 Y36.213463 F200.000000
G1 X99.100450 Y36.306206 F200.000000
G1 X99.072604 Y36.323189 F200.000000
G1 X99.052267 Y36.348690 F200.000000
G1 X99.018960 Y36.364730 F200.000000
G1 X98.992820 Y36.390870 F200.000000
G1 X98.919657 Y36.416471 F200.000000
G1 X98.853482 Y36.456831 F200.000000
G1 X98.821024 Y36.460051 F200.000000
G1 X98.791638 Y36.474203 F200.000000
G1 X98.754670 F200.000000
G1 X98.719776 Y36.486412 F200.000000
G1 X98.642751 Y36.477734 F200.000000
G1 X98.565617 Y36.485385 F200.000000
G1 X98.534977 Y36.474203 F200.000000
G1 X98.502361 F200.000000
G1 X98.469054 Y36.458163 F200.000000
G1 X98.441019 Y36.455004 F200.000000
G1 Y36.889520 F200.000000
G1 X98.423478 Y36.966371 F200.000000
G1 X98.422103 Y37.045187 F200.000000
G1 X98.328123 Y37.426187 F200.000000
G1 X98.294808 Y37.492389 F200.000000
G1 X98.276862 Y37.564297 F200.000000
G1 X98.180342 Y37.754797 F200.000000
G1 X98.115986 Y37.832240 F200.000000
G1 X99.146999 F200.000000
G1 Y38.194241 F200.000000
G1 X99.728108 F200.000000
G1 X99.712374 Y38.179273 F200.000000
G1 X99.671751 Y38.159710 F200.000000
G1 X99.608709 Y38.080658 F200.000000
G1 X99.535451 Y38.010968 F200.000000
G1 X99.380914 Y37.778133 F200.000000
G1 X99.312248 Y37.709467 F200.000000
G1 X99.217944 Y37.662943 F200.000000
G0 Z0.500000
G0 X95.148011 Y50.381809
G1 Z-0.040000 F60.000000
G1 X95.213996 Y50.350033 F200.000000
G1 X95.271255 Y50.304370 F200.000000
G1 X95.342656 Y50.288073 F200.000000
G1 X95.408641 Y50.256297 F200.000000
G1 X95.481878 F200.000000
G1 X95.553279 Y50.240000 F200.000000
G1 X96.505779 F200.000000
G1 X96.787804 Y50.304370 F200.000000
G1 X96.838519 Y50.344815 F200.000000
G1 X96.889235 Y50.304370 F200.000000
G1 X96.960636 Y50.288073 F200.000000
G1 X97.026621 Y50.256297 F200.000000
G1 X97.099858 F200.000000
G1 X97.137061 Y50.247805 F200.000000
G1 X97.040556 Y50.192088 F200.000000
G1 X96.732105 Y49.767541 F200.000000
G0 Z0.500000
G0 X98.664589 Y53.296788
G1 Z-0.040000 F60.000000
G1 X98.632812 Y53.230803 F200.000000
G1 X98.587150 Y53.173544 F200.000000
G1 X98.570853 Y53.102143 F200.000000
G1 X98.562565 Y53.084932 F200.000000
G1 X98.392878 Y53.254619 F200.000000
G1 X98.390199 Y53.256302 F200.000000
G1 X98.388491 Y53.258965 F200.000000
G1 X98.267860 Y53.333173 F200.000000
G1 X98.147940 Y53.408524 F200.000000
G1 X98.144797 Y53.408878 F200.000000
G1 X98.142102 Y53.410536 F200.000000
G1 X97.857622 Y53.507056 F200.000000
G1 X97.752151 Y53.517926 F200.000000
G1 X97.648779 Y53.541519 F200.000000
G1 X97.171259 F200.000000
G1 X97.099858 Y53.525223 F200.000000
G1 X97.026621 F200.000000
G1 X96.960636 Y53.493446 F200.000000
G1 X96.889235 Y53.477149 F200.000000
G1 X96.831976 Y53.431486 F200.000000
G1 X96.765991 Y53.399710 F200.000000
G1 X96.720328 Y53.342451 F200.000000
G1 X96.663069 Y53.296788 F200.000000
G1 X96.631292 Y53.230803 F200.000000
G1 X96.585630 Y53.173544 F200.000000
G1 X96.569333 Y53.102143 F200.000000
G1 X96.537556 Y53.036158 F200.000000
G1 Y52.962921 F200.000000
G1 X96.521260 Y52.891520 F200.000000
G1 Y51.536466 F200.000000
G1 X96.505779 Y51.539999 F200.000000
G1 X96.203279 F200.000000
G1 Y52.891520 F200.000000
G1 X96.138909 Y53.173544 F200.000000
G1 X95.958547 Y53.399710 F200.000000
G1 X95.697918 Y53.525223 F200.000000
G1 X95.408641 F200.000000
G1 X95.148011 Y53.399710 F200.000000
G1 X94.967650 Y53.173544 F200.000000
G1 X94.903280 Y52.891520 F200.000000
G1 Y50.890000 F200.000000
G1 X94.919576 Y50.818599 F200.000000
G1 Y50.745361 F200.000000
G1 X94.951353 Y50.679377 F200.000000
G1 X94.967650 Y50.607975 F200.000000
G1 X95.013312 Y50.550716 F200.000000
G1 X95.045089 Y50.484732 F200.000000
G1 X95.102348 Y50.439069 F200.000000
G1 X95.148011 Y50.381809 F200.000000
G0 Z0.500000
G0 X96.732105 Y49.767541
G1 Z-0.040000 F60.000000
G1 X96.622999 Y49.254240 F200.000000
G1 X96.732105 Y48.740938 F200.000000
G1 X97.040556 Y48.316391 F200.000000
G1 X97.495020 Y48.054006 F200.000000
G1 X98.016914 Y47.999153 F200.000000
G1 X98.081333 Y48.020084 F200.000000
G1 X98.112636 Y48.016665 F200.000000
G1 X98.258379 Y47.983401 F200.000000
G1 X100.575948 F200.000000
G1 X100.596967 Y47.954470 F200.000000
G1 X101.047108 Y47.694580 F200.000000
G1 X101.564040 Y47.640249 F200.000000
G1 X102.058378 Y47.800869 F200.000000
G1 X102.444649 Y48.148669 F200.000000
G1 X102.656062 Y48.623510 F200.000000
G1 Y49.143289 F200.000000
G1 X102.444649 Y49.618130 F200.000000
G1 X102.058378 Y49.965930 F200.000000
G1 X101.564040 Y50.126551 F200.000000
G1 X101.047108 Y50.072219 F200.000000
G1 X100.596967 Y49.812330 F200.000000
G1 X100.575948 Y49.783399 F200.000000
G1 X99.000646 Y49.783399 F200.000000
G1 X98.905979 Y49.996025 F200.000000
G1 X98.515999 Y50.347164 F200.000000
G1 X98.246295 Y50.434796 F200.000000
G1 X98.267860 Y50.448346 F200.000000
G1 X98.388491 Y50.522554 F200.000000
G1 X98.390199 Y50.525217 F200.000000
G1 X98.392878 Y50.526901 F200.000000
G1 X98.566115 Y50.700137 F200.000000
G1 X98.587150 Y50.607975 F200.000000
G1 X98.767511 Y50.381809 F200.000000
G1 X99.028141 Y50.256297 F200.000000
G1 X99.317418 F200.000000
G1 X99.578047 Y50.381809 F200.000000
G1 X99.737786 Y50.582115 F200.000000
G1 X99.783612 Y50.516773 F200.000000
G1 X99.998250 Y50.322836 F200.000000
G1 X100.275779 Y50.241232 F200.000000
G1 X100.561230 Y50.288125 F200.000000
G1 X100.798066 Y50.454226 F200.000000
G1 X100.939380 Y50.706638 F200.000000
G1 X100.957182 Y50.995366 F200.000000
G1 X100.847946 Y51.263226 F200.000000
G1 X100.650398 Y51.544901 F200.000000
G1 X100.678878 Y51.573381 F200.000000
G1 X100.733484 Y51.660285 F200.000000
G1 X100.799082 Y51.739223 F200.000000
G1 X100.895602 Y51.929723 F200.000000
G1 X100.897226 Y51.936231 F200.000000
G1 X100.901409 Y51.941475 F200.000000
G1 X100.932172 Y52.076257 F200.000000
G0 Z0.500000
G1 Z-0.040000 F60.000000
G1 X100.965647 Y52.210392 F200.000000
G1 X100.964286 Y52.216960 F200.000000
G1 X100.965779 Y52.223500 F200.000000
G1 Y52.510520 F200.000000
G1 X100.964286 Y52.517059 F200.000000
G1 X100.965647 Y52.523628 F200.000000
G1 X100.932172 Y52.657762 F200.000000
G1 X100.901409 Y52.792544 F200.000000
G1 X100.897226 Y52.797788 F200.000000
G1 X100.895602 Y52.804297 F200.000000
G1 X100.799082 Y52.994797 F200.000000
G1 X100.733484 Y53.073734 F200.000000
G1 X100.678878 Y53.160639 F200.000000
G1 X100.584898 Y53.254619 F200.000000
G1 X100.497994 Y53.309225 F200.000000
G1 X100.419056 Y53.374823 F200.000000
G1 X100.228556 Y53.471343 F200.000000
G1 X100.222048 Y53.472967 F200.000000
G1 X100.216804 Y53.477149 F200.000000
G1 X100.082022 Y53.507912 F200.000000
G1 X99.947887 Y53.541387 F200.000000
G1 X99.941319 Y53.540027 F200.000000
G1 X99.934779 Y53.541519 F200.000000
G1 X99.172779 F200.000000
G1 X99.101378 Y53.525223 F200.000000
G1 X99.028141 F200.000000
G1 X98.962156 Y53.493446 F200.000000
G1 X98.890755 Y53.477149 F200.000000
G1 X98.833496 Y53.431486 F200.000000
G1 X98.767511 Y53.399710 F200.000000
G1 X98.721848 Y53.342451 F200.000000
G1 X98.664589 Y53.296788 F200.000000
G0 Z0.500000
G0 X93.646176 Y40.734240
G1 Z-0.040000 F60.000000
G1 X94.171359 F200.000000
G1 X93.841671 Y40.668662 F200.000000
G1 X93.419922 Y40.386857 F200.000000
G1 X93.407067 Y40.367619 F200.000000
G1 X93.375785 Y40.367619 F200.000000
G1 X93.554649 Y40.528669 F200.000000
G1 X93.646176 Y40.734240 F200.000000
G0 Z0.500000
G0 X96.978297 Y35.033607
G1 Z-0.040000 F60.000000
G1 X97.112431 Y35.000132 F200.000000
G1 X97.119000 Y35.001493 F200.000000
G1 X97.125539 Y35.000000 F200.000000
G1 X97.316039 F200.000000
G1 X97.322579 Y35.001493 F200.000000
G1 X97.329147 Y35.000132 F200.000000
G1 X97.463282 Y35.033607 F200.000000
G1 X97.598064 Y35.064370 F200.000000
G1 X97.603308 Y35.068552 F200.000000
G1 X97.609816 Y35.070177 F200.000000
G1 X97.800316 Y35.166697 F200.000000
G1 X97.879254 Y35.232295 F200.000000
G1 X97.966158 Y35.286901 F200.000000
G1 X98.041303 Y35.362045 F200.000000
G1 X98.051408 Y35.351940 F200.000000
G1 X98.087313 Y35.293069 F200.000000
G1 X98.181293 Y35.196549 F200.000000
G1 X98.215975 Y35.174107 F200.000000
G1 X98.241731 Y35.141809 F200.000000
G1 X98.275038 Y35.125770 F200.000000
G1 X98.301179 Y35.099629 F200.000000
G1 X98.366265 Y35.076854 F200.000000
G1 X98.424157 Y35.039393 F200.000000
G1 X98.465142 Y35.034220 F200.000000
G1 X98.502361 Y35.016297 F200.000000
G1 X98.539329 F200.000000
G1 X98.574222 Y35.004087 F200.000000
G1 X98.642745 Y35.011808 F200.000000
G1 X98.711158 Y35.003174 F200.000000
G1 X98.750328 Y35.016297 F200.000000
G1 X98.791638 F200.000000
G1 X98.824945 Y35.032337 F200.000000
G1 X98.861680 Y35.036476 F200.000000
G1 X98.920067 Y35.073163 F200.000000
G1 X98.985452 Y35.095068 F200.000000
G1 X99.015049 Y35.123886 F200.000000
G1 X99.052267 Y35.141809 F200.000000
G1 X99.075317 Y35.170712 F200.000000
G1 X99.083611 Y35.175924 F200.000000
G1 X99.223495 Y35.064370 F200.000000
G1 X99.505519 Y35.000000 F200.000000
G1 X100.648519 F200.000000
G1 X100.930544 Y35.064370 F200.000000
G1 X101.156709 Y35.244732 F200.000000
G1 X101.282222 Y35.505361 F200.000000
G1 Y35.794638 F200.000000
G1 X101.156709 Y36.055268 F200.000000
G1 X100.930544 Y36.235629 F200.000000
G1 X100.727019 Y36.282082 F200.000000
G1 Y37.651520 F200.000000
G1 X100.704520 Y37.750096 F200.000000
G1 X100.695710 Y37.850823 F200.000000
G1 X100.672682 Y37.889587 F200.000000
G1 X100.662649 Y37.933544 F200.000000
G1 X100.599607 Y38.012596 F200.000000
G1 X100.547966 Y38.099525 F200.000000
G1 X100.510399 Y38.124459 F200.000000
G1 X100.482287 Y38.159710 F200.000000
G1 X100.410584 Y38.194241 F200.000000
G1 X101.059999 F200.000000
G1 X101.171553 Y38.219702 F200.000000
G1 X101.433379 Y38.167621 F200.000000
G1 X101.930867 Y38.266578 F200.000000
G1 X102.352617 Y38.548382 F200.000000
G1 X102.365472 Y38.567620 F200.000000
G1 X103.973379 Y38.567621 F200.000000
G1 X104.120586 Y38.601220 F200.000000
G1 X104.270630 Y38.618125 F200.000000
G1 X104.313971 Y38.645358 F200.000000
G1 X104.363874 Y38.656748 F200.000000
G1 X104.481925 Y38.750891 F200.000000
G1 X104.609775 Y38.831224 F200.000000
G1 X105.506395 Y39.727844 F200.000000
G1 X105.586728 Y39.855694 F200.000000
G1 X105.680870 Y39.973745 F200.000000
G1 X105.692261 Y40.023648 F200.000000
G1 X105.719493 Y40.066989 F200.000000
G1 X105.736399 Y40.217032 F200.000000
G1 X105.769998 Y40.364240 F200.000000
G1 Y45.444240 F200.000000
G1 X105.736475 Y45.591115 F200.000000
G1 X105.719723 Y45.740834 F200.000000
G1 X105.692338 Y45.784491 F200.000000
G1 X105.680870 Y45.834735 F200.000000
G1 X105.586940 Y45.952520 F200.000000
G1 X105.506887 Y46.080143 F200.000000
G1 X104.524474 Y47.064076 F200.000000
G1 X104.529158 Y47.087620 F200.000000
G1 X104.430201 Y47.585108 F200.000000
G1 X104.148397 Y48.006857 F200.000000
G1 X103.726647 Y48.288662 F200.000000
G1 X103.229159 Y48.387618 F200.000000
G1 X102.731671 Y48.288662 F200.000000
G1 X102.309922 Y48.006857 F200.000000
G1 X102.028117 Y47.585108 F200.000000
G1 X101.929161 Y47.087620 F200.000000
G1 X102.028117 Y46.590132 F200.000000
G1 X102.309922 Y46.168382 F200.000000
G1 X102.731671 Y45.886578 F200.000000
G1 X103.229159 Y45.787621 F200.000000
G1 X103.251002 Y45.791966 F200.000000
G1 X103.970000 Y45.071855 F200.000000
G1 Y42.241626 F200.000000
G1 X103.854158 Y42.345930 F200.000000
G1 X103.359820 Y42.506551 F200.000000
G1 X103.268407 Y42.496943 F200.000000
G1 X100.954715 Y44.810635 F200.000000
G1 X100.826865 Y44.890968 F200.000000
G1 X100.708814 Y44.985111 F200.000000
G1 X100.658911 Y44.996501 F200.000000
G1 X100.615570 Y45.023734 F200.000000
G1 X100.465526 Y45.040640 F200.000000
G1 X100.318319 Y45.074239 F200.000000
G1 X98.730264 F200.000000
G1 X98.515999 Y45.267164 F200.000000
G1 X98.016914 Y45.429326 F200.000000
G1 X97.495020 Y45.374473 F200.000000
G1 X97.040556 Y45.112088 F200.000000
G1 X96.732105 Y44.687541 F200.000000
G1 X96.622999 Y44.174240 F200.000000
G1 X96.732105 Y43.660938 F200.000000
G1 X97.040556 Y43.236391 F200.000000
G1 X97.495020 Y42.974006 F200.000000
G1 X98.016914 Y42.919153 F200.000000
G1 X98.515999 Y43.081316 F200.000000
G1 X98.730264 Y43.274240 F200.000000
G1 X99.945527 F200.000000
G1 X101.985313 Y41.234455 F200.000000
G1 X102.087229 Y40.754980 F200.000000
G1 X102.368663 Y40.367619 F200.000000
G1 X102.365472 Y40.367619 F200.000000
G1 X102.352617 Y40.386857 F200.000000
G1 X101.930867 Y40.668662 F200.000000
G1 X101.433379 Y40.767618 F200.000000
G1 X100.935891 Y40.668662 F200.000000
G1 X100.514142 Y40.386857 F200.000000
G1 X100.251802 Y39.994239 F200.000000
G1 X99.146999 Y39.994239 F200.000000
G1 Y40.356240 F200.000000
G1 X96.622999 F200.000000
G1 Y39.994239 F200.000000
G1 X95.520736 Y39.994239 F200.000000
G1 X95.258397 Y40.386857 F200.000000
G1 X94.836647 Y40.668662 F200.000000
G1 X94.506960 Y40.734240 F200.000000
G1 X97.013057 F200.000000
G1 X97.040556 Y40.696391 F200.000000
G1 X97.495020 Y40.434006 F200.000000
G1 X98.016914 Y40.379153 F200.000000
G1 X98.515999 Y40.541316 F200.000000
G1 X98.905979 Y40.892455 F200.000000
G1 X99.119421 Y41.371855 F200.000000
G1 Y41.896624 F200.000000
G1 X98.905979 Y42.376025 F200.000000
G1 X98.515999 Y42.727164 F200.000000
G1 X98.016914 Y42.889326 F200.000000
G1 X97.495020 Y42.834473 F200.000000
G1 X97.040556 Y42.572088 F200.000000
G1 X97.013057 Y42.534239 F200.000000
G1 X95.992512 F200.000000
G1 X96.079206 Y42.678012 F200.000000
G1 X96.150326 Y42.893912 F200.000000
G1 X96.159994 Y42.996663 F200.000000
G1 X96.182959 Y43.097280 F200.000000
G1 Y43.452880 F200.000000
G1 X96.181859 Y43.457697 F200.000000
G1 X96.182887 Y43.462531 F200.000000
G1 X96.149727 Y43.598479 F200.000000
G1 X96.118589 Y43.734904 F200.000000
G1 X96.115508 Y43.738768 F200.000000
G1 X96.114337 Y43.743568 F200.000000
G1 X96.043217 Y43.885808 F200.000000
G1 X95.980511 Y43.962088 F200.000000
G1 X95.961893 Y43.992904 F200.000000
G1 X96.043217 Y44.091831 F200.000000
G1 X96.114337 Y44.234071 F200.000000
G1 X96.115508 Y44.238872 F200.000000
G1 X96.118589 Y44.242735 F200.000000
G1 X96.149727 Y44.379161 F200.000000
G1 X96.182887 Y44.515108 F200.000000
G1 X96.181859 Y44.519942 F200.000000
G1 X96.182959 Y44.524760 F200.000000
G1 Y44.738120 F200.000000
G1 X96.159994 Y44.838737 F200.000000
G1 X96.150326 Y44.941487 F200.000000
G1 X96.079206 Y45.157387 F200.000000
G1 X96.076048 Y45.162624 F200.000000
G1 X96.075363 Y45.168701 F200.000000

(Goto to Initial position)
G0 Z0.500000
G0 X0.000000 Y0.000000
G0 Z0.000000
