(Generated by ./pygerber2gcode_cui_MOD.py )
( 2013-06-14 21:01:34 )
(Initialize)

(Start form here)
G0 Z0.500000
G0 X89.624148 Y15.647021
G1 Z-0.040000 F60.000000
G1 X89.572574 Y15.645959 F200.000000
G1 X89.551938 Y15.640800 F200.000000
G1 X89.594719 Y15.770303 F200.000000
G1 X89.570536 Y15.955649 F200.000000
G1 X89.469756 Y16.109962 F200.000000
G1 X89.451819 Y16.164415 F200.000000
G1 Y16.171103 F200.000000
G1 X89.470032 Y16.225744 F200.000000
G1 X89.496510 Y16.252221 F200.000000
G1 X89.536552 Y16.272242 F200.000000
G1 X89.726144 Y16.319640 F200.000000
G1 X89.838635 F200.000000
G1 X90.029678 Y16.271879 F200.000000
G1 X90.070167 Y16.251990 F200.000000
G1 X90.094126 Y16.227603 F200.000000
G1 X90.112960 Y16.171103 F200.000000
G1 Y16.164415 F200.000000
G1 X90.094192 Y16.107442 F200.000000
G1 X90.093735 Y16.106984 F200.000000
G1 X89.994288 Y15.948717 F200.000000
G1 X89.973360 Y15.762975 F200.000000
G1 X90.016425 Y15.639904 F200.000000
G1 X89.992204 Y15.645959 F200.000000
G1 X89.940630 Y15.647021 F200.000000
G1 X89.890339 Y15.658499 F200.000000
G1 X89.674439 F200.000000
G1 X89.624148 Y15.647021 F200.000000
G0 Z0.500000
G0 X90.103699 Y14.159899
G1 Z-0.040000 F60.000000
G1 X90.100586 Y14.159189 F200.000000
G1 X90.097463 Y14.159853 F200.000000
G1 X90.057632 Y14.150137 F200.000000
G1 X90.063376 Y14.175305 F200.000000
G1 X90.079958 Y14.209738 F200.000000
G1 X90.080768 Y14.205927 F200.000000
G1 X90.116369 Y14.159899 F200.000000
G1 X90.103699 Y14.159899 F200.000000
G0 Z0.500000
G0 X90.758824 Y15.251004
G1 Z-0.040000 F60.000000
G1 X90.616584 Y15.393244 F200.000000
G1 X90.558279 Y15.429880 F200.000000
G1 X90.557019 Y15.430900 F200.000000
G1 X90.687704 Y15.513015 F200.000000
G1 X90.758824 Y15.584135 F200.000000
G1 X90.760926 Y15.587481 F200.000000
G1 X90.764233 Y15.589644 F200.000000
G1 X90.810549 Y15.666456 F200.000000
G1 X90.858270 Y15.742403 F200.000000
G1 X90.858712 Y15.746329 F200.000000
G1 X90.860753 Y15.749713 F200.000000
G1 X90.931873 Y15.965613 F200.000000
G1 X90.938120 Y16.032006 F200.000000
G1 X90.952959 Y16.097020 F200.000000
G1 Y16.239260 F200.000000
G1 X90.937958 Y16.304982 F200.000000
G1 X90.931406 Y16.372075 F200.000000
G1 X90.892142 Y16.489867 F200.000000
G1 X91.140961 Y16.240756 F200.000000
G1 X91.236265 Y16.180795 F200.000000
G1 X91.324297 Y16.110591 F200.000000
G1 X91.361256 Y16.102156 F200.000000
G1 X91.393342 Y16.081968 F200.000000
G1 X91.505224 Y16.069296 F200.000000
G1 X91.614999 Y16.044241 F200.000000
G1 X92.145260 F200.000000
G1 X92.368999 Y15.820501 F200.000000
G1 X92.884999 Y15.682240 F200.000000
G1 X93.400999 Y15.820501 F200.000000
G1 X93.778737 Y16.198240 F200.000000
G1 X93.916999 Y16.714240 F200.000000
G1 X93.778737 Y17.230240 F200.000000
G1 X93.400999 Y17.607978 F200.000000
G1 X92.884999 Y17.746240 F200.000000
G1 X92.368999 Y17.607978 F200.000000
G1 X92.145260 Y17.384239 F200.000000
G1 X91.892752 F200.000000
G1 X90.345890 Y18.932914 F200.000000
G1 X90.222504 Y19.393399 F200.000000
G1 X89.849158 Y19.766744 F200.000000
G1 X89.339159 Y19.903398 F200.000000
G1 X88.829160 Y19.766744 F200.000000
G1 X88.455815 Y19.393399 F200.000000
G1 X88.319161 Y18.883400 F200.000000
G1 X88.455815 Y18.373400 F200.000000
G1 X88.829160 Y18.000055 F200.000000
G1 X89.339159 Y17.863401 F200.000000
G1 X89.481990 Y17.901672 F200.000000
G1 X90.330107 Y17.052561 F200.000000
G1 X90.316525 Y17.055772 F200.000000
G1 X90.276684 Y17.075979 F200.000000
G1 X89.992204 Y17.147099 F200.000000
G1 X89.940630 Y17.148161 F200.000000
G1 X89.890339 Y17.159639 F200.000000
G1 X89.674439 F200.000000
G1 X89.624148 Y17.148161 F200.000000
G1 X89.572574 Y17.147099 F200.000000
G1 X89.288094 Y17.075979 F200.000000
G1 X89.246950 Y17.055111 F200.000000
G1 X89.202130 Y17.044179 F200.000000
G1 X89.059890 Y16.973059 F200.000000
G1 X89.007814 Y16.930250 F200.000000
G1 X88.950735 Y16.894384 F200.000000
G1 X88.805955 Y16.749604 F200.000000
G1 X88.804256 Y16.746901 F200.000000
G1 X88.801578 Y16.745162 F200.000000
G1 X88.754614 Y16.667896 F200.000000
G1 X88.706508 Y16.591337 F200.000000
G1 X88.706151 Y16.588164 F200.000000
G1 X88.704492 Y16.585435 F200.000000
G1 X88.633372 Y16.372075 F200.000000
G1 X88.626820 Y16.304982 F200.000000
G1 X88.611819 Y16.239260 F200.000000
G1 Y16.097020 F200.000000
G1 X88.626659 Y16.032006 F200.000000
G1 X88.632906 Y15.965613 F200.000000
G1 X88.704026 Y15.749713 F200.000000
G1 X88.708006 Y15.743113 F200.000000
G1 X88.709003 Y15.735470 F200.000000
G1 X88.756084 Y15.663379 F200.000000
G1 X88.800546 Y15.589644 F200.000000
G1 X88.806995 Y15.585424 F200.000000
G1 X88.811210 Y15.578971 F200.000000
G1 X88.884870 Y15.507851 F200.000000
G1 X89.010946 Y15.431684 F200.000000
G1 X89.009220 Y15.430265 F200.000000
G1 X88.953374 Y15.395861 F200.000000
G1 X88.808594 Y15.253621 F200.000000
G1 X88.805439 Y15.248697 F200.000000
G1 X88.800546 Y15.245495 F200.000000
G1 X88.755165 Y15.170236 F200.000000
G1 X88.707752 Y15.096239 F200.000000
G1 X88.707045 Y15.090434 F200.000000
G1 X88.704026 Y15.085427 F200.000000
G1 X88.632906 Y14.869527 F200.000000
G1 X88.626659 Y14.803134 F200.000000
G1 X88.611819 Y14.738120 F200.000000
G1 Y14.595880 F200.000000
G1 X88.626820 Y14.530157 F200.000000
G1 X88.633372 Y14.463064 F200.000000
G1 X88.704492 Y14.249704 F200.000000
G1 X88.708103 Y14.243764 F200.000000
G1 X88.709003 Y14.236870 F200.000000
G1 X88.756480 Y14.164173 F200.000000
G1 X88.801578 Y14.089977 F200.000000
G1 X88.807408 Y14.086192 F200.000000
G1 X88.811210 Y14.080371 F200.000000
G1 X88.837150 Y14.055325 F200.000000
G1 X88.800546 Y14.031375 F200.000000
G1 X88.704026 Y13.871307 F200.000000
G1 X88.632906 Y13.655407 F200.000000
G1 X88.626659 Y13.589014 F200.000000
G1 X88.611819 Y13.524000 F200.000000
G1 Y13.168400 F200.000000
G1 X88.612193 Y13.166762 F200.000000
G1 X88.611832 Y13.165121 F200.000000
G1 X88.632972 Y13.075726 F200.000000
G1 X88.653413 Y12.986169 F200.000000
G1 X88.654460 Y12.984855 F200.000000
G1 X88.654847 Y12.983220 F200.000000
G1 X88.725967 Y12.838440 F200.000000
G1 X88.771587 Y12.782141 F200.000000
G1 X88.811210 Y12.721471 F200.000000
G1 X88.884870 Y12.650351 F200.000000
G1 X88.939482 Y12.617358 F200.000000
G1 X88.988770 Y12.576841 F200.000000
G1 X89.131010 Y12.505721 F200.000000
G1 X89.134112 Y12.504964 F200.000000
G1 X89.136608 Y12.502973 F200.000000
G1 X89.224760 Y12.482853 F200.000000
G1 X89.312603 Y12.461426 F200.000000
G1 X89.315726 Y12.462091 F200.000000
G1 X89.318839 Y12.461380 F200.000000
G1 X89.461079 F200.000000
G1 X89.464192 Y12.462091 F200.000000
G1 X89.467315 Y12.461426 F200.000000
G1 X89.555159 Y12.482853 F200.000000
G1 X89.643310 Y12.502973 F200.000000
G1 X89.645807 Y12.504964 F200.000000
G1 X89.648909 Y12.505721 F200.000000
G1 X89.791149 Y12.576841 F200.000000
G1 X89.843224 Y12.619649 F200.000000
G1 X89.900304 Y12.655515 F200.000000
G1 X89.971424 Y12.726635 F200.000000
G1 X90.006524 Y12.782497 F200.000000
G1 X90.045675 Y12.829449 F200.000000
G1 X90.045415 Y12.826691 F200.000000
G1 X90.110383 Y12.651427 F200.000000
G1 X90.244960 Y12.521709 F200.000000
G1 X90.422494 Y12.463227 F200.000000
G1 X90.607820 Y12.487566 F200.000000
G1 X90.764233 Y12.589904 F200.000000
G1 X90.860753 Y12.749973 F200.000000
G1 X90.931873 Y12.965873 F200.000000
G1 X90.938120 Y13.032266 F200.000000
G1 X90.952959 Y13.097280 F200.000000
G1 Y13.452880 F200.000000
G1 X90.952248 Y13.455993 F200.000000
G1 X90.952913 Y13.459116 F200.000000
G1 X90.931486 Y13.546959 F200.000000
G1 X90.911366 Y13.635111 F200.000000
G1 X90.909375 Y13.637607 F200.000000
G1 X90.908618 Y13.640709 F200.000000
G1 X90.837498 Y13.782949 F200.000000
G1 X90.796981 Y13.832237 F200.000000
G1 X90.763988 Y13.886849 F200.000000
G1 X90.692868 Y13.960509 F200.000000
G1 X90.632198 Y14.000132 F200.000000
G1 X90.624320 Y14.006515 F200.000000
G1 X90.718800 Y14.050299 F200.000000
G1 X90.837498 Y14.194690 F200.000000
G1 X90.908618 Y14.336930 F200.000000
G1 X90.909375 Y14.340032 F200.000000
G1 X90.911366 Y14.342529 F200.000000
G1 X90.931486 Y14.430680 F200.000000
G1 X90.952913 Y14.518523 F200.000000
G1 X90.952248 Y14.521647 F200.000000
G1 X90.952959 Y14.524760 F200.000000
G1 Y14.738120 F200.000000
G1 X90.938120 Y14.803134 F200.000000
G1 X90.931873 Y14.869527 F200.000000
G1 X90.860753 Y15.085427 F200.000000
G1 X90.858712 Y15.088810 F200.000000
G1 X90.858270 Y15.092737 F200.000000
G1 X90.810549 Y15.168684 F200.000000
G1 X90.764233 Y15.245495 F200.000000
G1 X90.760926 Y15.247659 F200.000000
G1 X90.758824 Y15.251004 F200.000000
G0 Z0.500000
G0 X90.094439 Y14.595880
G1 Z-0.040000 F60.000000
G1 X90.057666 Y14.756991 F200.000000
G1 X90.071882 Y14.750007 F200.000000
G1 X90.094192 Y14.727698 F200.000000
G1 X90.112960 Y14.670725 F200.000000
G1 Y14.623908 F200.000000
G1 X90.094439 Y14.586867 F200.000000
G1 Y14.595880 F200.000000
G0 Z0.500000
G0 X89.588191 Y13.886849
G1 Z-0.040000 F60.000000
G1 X89.555198 Y13.832237 F200.000000
G1 X89.518732 Y13.787878 F200.000000
G1 X89.519363 Y13.794588 F200.000000
G1 X89.483477 Y13.891400 F200.000000
G1 X89.592585 F200.000000
G1 X89.588191 Y13.886849 F200.000000
G0 Z0.500000
G0 X85.267912 Y10.142059
G1 Z-0.040000 F60.000000
G1 X85.287977 Y10.110225 F200.000000
G1 X85.296351 Y10.073538 F200.000000
G1 X85.366724 Y9.985293 F200.000000
G1 X85.426909 Y9.889809 F200.000000
G1 X86.326069 Y8.993189 F200.000000
G1 X86.420937 Y8.933766 F200.000000
G1 X86.508457 Y8.863971 F200.000000
G1 X86.546071 Y8.855386 F200.000000
G1 X86.578767 Y8.834906 F200.000000
G1 X86.690023 Y8.822530 F200.000000
G1 X86.799159 Y8.797620 F200.000000
G1 X88.544762 F200.000000
G1 X88.731331 Y8.587028 F200.000000
G1 X89.210185 Y8.405423 F200.000000
G1 X89.585975 Y8.451052 F200.000000
G1 X89.599322 Y8.449502 F200.000000
G1 X89.709999 Y8.424240 F200.000000
G1 X91.852999 F200.000000
G1 Y8.062240 F200.000000
G1 X92.080228 F200.000000
G1 X92.030398 Y8.049804 F200.000000
G1 X91.943308 Y8.029926 F200.000000
G1 X91.939919 Y8.027224 F200.000000
G1 X91.935714 Y8.026174 F200.000000
G1 X91.745214 Y7.929654 F200.000000
G1 X91.696318 Y7.889021 F200.000000
G1 X91.642040 Y7.855917 F200.000000
G1 X91.545520 Y7.761937 F200.000000
G1 X91.506812 Y7.702119 F200.000000
G1 X91.461861 Y7.646838 F200.000000
G1 X91.367881 Y7.456338 F200.000000
G1 X91.357596 Y7.413173 F200.000000
G1 X91.337401 Y7.373661 F200.000000
G1 X91.303768 Y7.240899 F200.000000
G1 X91.208572 Y7.337490 F200.000000
G1 X91.032597 Y7.400506 F200.000000
G1 X90.846707 Y7.380928 F200.000000
G1 X90.687721 Y7.282635 F200.000000
G1 X90.587127 Y7.125095 F200.000000
G1 X90.506074 Y6.898749 F200.000000
G1 X90.425690 Y7.124427 F200.000000
G1 X90.325362 Y7.282137 F200.000000
G1 X90.166542 Y7.380698 F200.000000
G1 X89.980686 Y7.400590 F200.000000
G1 X89.804605 Y7.337871 F200.000000
G1 X89.673174 Y7.204965 F200.000000
G1 X89.612424 Y7.028195 F200.000000
G1 X89.634389 Y6.842573 F200.000000
G1 X90.109369 Y5.509073 F200.000000
G1 X90.133338 Y5.471394 F200.000000
G1 X90.147780 Y5.429137 F200.000000
G1 X90.182867 Y5.393537 F200.000000
G1 X90.209696 Y5.351363 F200.000000
G1 X90.247640 Y5.327815 F200.000000
G1 X90.278987 Y5.296009 F200.000000
G1 X90.326045 Y5.279158 F200.000000
G1 X90.368516 Y5.252801 F200.000000
G1 X90.412919 Y5.248049 F200.000000
G1 X90.454962 Y5.232994 F200.000000
G1 X90.504671 Y5.238229 F200.000000
G1 X90.554372 Y5.232910 F200.000000
G1 X90.596440 Y5.247894 F200.000000
G1 X90.640851 Y5.252571 F200.000000
G1 X90.683366 Y5.278856 F200.000000
G1 X90.730453 Y5.295628 F200.000000
G1 X90.761854 Y5.327381 F200.000000
G1 X90.799837 Y5.350864 F200.000000
G1 X90.826738 Y5.392993 F200.000000
G1 X90.861884 Y5.428534 F200.000000
G1 X90.876398 Y5.470766 F200.000000
G1 X90.900431 Y5.508405 F200.000000
G1 X91.228020 Y6.423213 F200.000000
G1 Y6.412000 F200.000000
G1 X91.239642 Y6.361076 F200.000000
G1 X91.240881 Y6.308858 F200.000000
G1 X91.337401 Y5.927858 F200.000000
G1 X91.357596 Y5.888347 F200.000000
G1 X91.367881 Y5.845182 F200.000000
G1 X91.461861 Y5.654682 F200.000000
G1 X91.506812 Y5.599401 F200.000000
G1 X91.545520 Y5.539582 F200.000000
G1 X91.642040 Y5.445602 F200.000000
G1 X91.696318 Y5.412498 F200.000000
G1 X91.745214 Y5.371865 F200.000000
G1 X91.935714 Y5.275345 F200.000000
G1 X91.939919 Y5.274295 F200.000000
G1 X91.943308 Y5.271593 F200.000000
G1 X92.030398 Y5.251715 F200.000000
G0 Z0.500000
G0 X92.220789 Y7.228947
G1 Z-0.040000 F60.000000
G1 X92.256416 Y7.210896 F200.000000
G1 X92.300734 Y7.123426 F200.000000
G1 X92.371020 Y6.838485 F200.000000
G1 Y6.463035 F200.000000
G1 X92.300734 Y6.178094 F200.000000
G1 X92.256416 Y6.090623 F200.000000
G1 X92.220789 Y6.072572 F200.000000
G1 X92.182884 Y6.091778 F200.000000
G1 X92.140798 Y6.177087 F200.000000
G1 X92.068019 Y6.464372 F200.000000
G1 Y6.837147 F200.000000
G1 X92.140798 Y7.124432 F200.000000
G1 X92.182884 Y7.209741 F200.000000
G1 X92.220789 Y7.228947 F200.000000
G0 Z0.500000
G0 X94.319701 Y7.456678
G1 Z-0.040000 F60.000000
G1 X94.174677 Y7.338754 F200.000000
G1 X94.095180 Y7.169584 F200.000000
G1 X94.096956 Y6.982675 F200.000000
G1 X94.179653 Y6.815046 F200.000000
G1 X94.326892 Y6.699899 F200.000000
G1 X94.509510 Y6.660039 F200.000000
G1 X94.657020 Y6.695185 F200.000000
G1 Y6.069999 F200.000000
G1 X94.505519 F200.000000
G1 X94.323288 Y6.028406 F200.000000
G1 X94.177150 Y5.911865 F200.000000
G1 X94.144045 Y5.843122 F200.000000
G1 X94.138065 Y5.890510 F200.000000
G1 X94.113859 Y5.927917 F200.000000
G1 X94.099143 Y5.969973 F200.000000
G1 X94.063728 Y6.005388 F200.000000
G1 X94.036518 Y6.047437 F200.000000
G1 X93.939998 Y6.141417 F200.000000
G1 X93.922005 Y6.152391 F200.000000
G1 X93.908865 Y6.168869 F200.000000
G1 X93.887343 Y6.179233 F200.000000
G1 X93.870453 Y6.196124 F200.000000
G1 X93.823178 Y6.212666 F200.000000
G1 X93.780419 Y6.238745 F200.000000
G1 X93.759446 Y6.240825 F200.000000
G1 X93.740458 Y6.249969 F200.000000
G1 X93.716571 F200.000000
G1 X93.694024 Y6.257859 F200.000000
G1 X93.644254 Y6.252251 F200.000000
G1 X93.594414 Y6.257194 F200.000000
G1 X93.574616 Y6.249969 F200.000000
G1 X93.553540 F200.000000
G1 X93.532019 Y6.239605 F200.000000
G1 X93.508282 Y6.236930 F200.000000
G1 X93.465874 Y6.210284 F200.000000
G1 X93.418825 Y6.193113 F200.000000
G1 X93.404122 Y6.178013 F200.000000
G1 X93.385134 Y6.168869 F200.000000
G1 X93.370240 Y6.150193 F200.000000
G1 X93.350015 Y6.137484 F200.000000
G1 X93.256035 Y6.043504 F200.000000
G1 X93.232329 Y6.005778 F200.000000
G1 X93.200406 Y5.974694 F200.000000
G1 X93.183235 Y5.927645 F200.000000
G1 X93.156588 Y5.885237 F200.000000
G1 X93.151600 Y5.840961 F200.000000
G1 X93.136324 Y5.799105 F200.000000
G1 X93.141268 Y5.749265 F200.000000
G1 X93.135660 Y5.699495 F200.000000
G1 X93.150376 Y5.657439 F200.000000
G1 X93.154774 Y5.613100 F200.000000
G1 X93.180853 Y5.570341 F200.000000
G0 Z0.500000
G0 Y5.570341
G1 Z-0.040000 F60.000000
G1 X93.197395 Y5.523066 F200.000000
G1 X93.228901 Y5.491560 F200.000000
G1 X93.252102 Y5.453521 F200.000000
G1 X93.346082 Y5.357001 F200.000000
G1 X93.368491 Y5.342500 F200.000000
G1 X93.385134 Y5.321631 F200.000000
G1 X93.406655 Y5.311267 F200.000000
G1 X93.423546 Y5.294376 F200.000000
G1 X93.465602 Y5.279660 F200.000000
G1 X93.503009 Y5.255454 F200.000000
G1 X93.529491 Y5.252112 F200.000000
G1 X93.553540 Y5.240530 F200.000000
G1 X93.577428 F200.000000
G1 X93.599974 Y5.232641 F200.000000
G1 X93.644250 Y5.237630 F200.000000
G1 X93.688456 Y5.232051 F200.000000
G1 X93.713766 Y5.240530 F200.000000
G1 X93.740458 F200.000000
G1 X93.761979 Y5.250894 F200.000000
G1 X93.785716 Y5.253569 F200.000000
G1 X93.823443 Y5.277274 F200.000000
G1 X93.865691 Y5.291428 F200.000000
G1 X93.884816 Y5.310049 F200.000000
G1 X93.908865 Y5.321631 F200.000000
G1 X93.923758 Y5.340306 F200.000000
G1 X93.943984 Y5.353015 F200.000000
G1 X94.040504 Y5.449535 F200.000000
G1 X94.067151 Y5.491943 F200.000000
G1 X94.102091 Y5.527827 F200.000000
G1 X94.105285 Y5.537363 F200.000000
G1 X94.177150 Y5.388134 F200.000000
G1 X94.323288 Y5.271593 F200.000000
G1 X94.505519 Y5.230000 F200.000000
G1 X95.648519 F200.000000
G1 X95.830750 Y5.271593 F200.000000
G1 X95.976888 Y5.388134 F200.000000
G1 X96.057989 Y5.556541 F200.000000
G1 Y5.743458 F200.000000
G1 X95.976888 Y5.911865 F200.000000
G1 X95.830750 Y6.028406 F200.000000
G1 X95.648519 Y6.069999 F200.000000
G1 X95.497019 F200.000000
G1 Y7.651520 F200.000000
G1 X95.482481 Y7.715215 F200.000000
G1 X95.476788 Y7.780300 F200.000000
G1 X95.461909 Y7.805347 F200.000000
G1 X95.455426 Y7.833751 F200.000000
G1 X95.414691 Y7.884831 F200.000000
G1 X95.381323 Y7.941000 F200.000000
G1 X95.357049 Y7.957111 F200.000000
G1 X95.338885 Y7.979889 F200.000000
G1 X95.280021 Y8.008236 F200.000000
G1 X95.225587 Y8.044365 F200.000000
G1 X95.196726 Y8.048348 F200.000000
G1 X95.170478 Y8.060989 F200.000000
G1 X95.105144 F200.000000
G1 X95.040425 Y8.069922 F200.000000
G1 X95.012694 Y8.060989 F200.000000
G1 X94.983560 F200.000000
G1 X94.924697 Y8.032642 F200.000000
G1 X94.862511 Y8.012609 F200.000000
G1 X94.841402 Y7.992529 F200.000000
G1 X94.815154 Y7.979889 F200.000000
G1 X94.774419 Y7.928809 F200.000000
G1 X94.727083 Y7.883778 F200.000000
G1 X94.559821 Y7.631770 F200.000000
G1 X94.448044 Y7.519994 F200.000000
G1 X94.319701 Y7.456678 F200.000000
G0 Z0.500000
G0 X90.291414 Y20.561631
G1 Z-0.040000 F60.000000
G1 X90.334050 Y20.541098 F200.000000
G1 X90.371048 Y20.511593 F200.000000
G1 X90.417184 Y20.501063 F200.000000
G1 X90.459820 Y20.480530 F200.000000
G1 X90.507143 F200.000000
G1 X90.553279 Y20.470000 F200.000000
G1 X91.505779 F200.000000
G1 X91.688010 Y20.511593 F200.000000
G1 X91.834148 Y20.628134 F200.000000
G1 X91.838519 Y20.637211 F200.000000
G1 X91.842890 Y20.628134 F200.000000
G1 X91.879889 Y20.598629 F200.000000
G1 X91.909394 Y20.561631 F200.000000
G1 X91.952030 Y20.541098 F200.000000
G1 X91.989028 Y20.511593 F200.000000
G1 X92.035164 Y20.501063 F200.000000
G1 X92.077800 Y20.480530 F200.000000
G1 X92.125123 F200.000000
G1 X92.171259 Y20.470000 F200.000000
G1 X92.648779 F200.000000
G1 X92.715573 Y20.485245 F200.000000
G1 X92.783724 Y20.492269 F200.000000
G1 X93.068204 Y20.588789 F200.000000
G1 X93.069945 Y20.589860 F200.000000
G1 X93.071976 Y20.590089 F200.000000
G1 X93.149463 Y20.638777 F200.000000
G0 Z0.500000
G1 Z-0.040000 F60.000000
G1 X93.227409 Y20.686727 F200.000000
G1 X93.228513 Y20.688447 F200.000000
G1 X93.230244 Y20.689535 F200.000000
G1 X93.420744 Y20.880035 F200.000000
G1 X93.456028 Y20.936189 F200.000000
G1 X93.498414 Y20.987195 F200.000000
G1 X93.594934 Y21.177695 F200.000000
G1 X93.606529 Y21.224158 F200.000000
G1 X93.628057 Y21.266935 F200.000000
G1 X93.722037 Y21.647935 F200.000000
G1 X93.722925 Y21.698862 F200.000000
G1 X93.734259 Y21.748520 F200.000000
G1 Y22.033000 F200.000000
G1 X93.722925 Y22.082658 F200.000000
G1 X93.722037 Y22.133585 F200.000000
G1 X93.628057 Y22.514585 F200.000000
G1 X93.606529 Y22.557362 F200.000000
G1 X93.594934 Y22.603825 F200.000000
G1 X93.498414 Y22.794325 F200.000000
G1 X93.456028 Y22.845331 F200.000000
G1 X93.420744 Y22.901484 F200.000000
G1 X93.230244 Y23.091984 F200.000000
G1 X93.228513 Y23.093072 F200.000000
G1 X93.227409 Y23.094793 F200.000000
G1 X93.149463 Y23.142742 F200.000000
G1 X93.071976 Y23.191430 F200.000000
G1 X93.069945 Y23.191659 F200.000000
G1 X93.068204 Y23.192730 F200.000000
G1 X92.783724 Y23.289250 F200.000000
G1 X92.715573 Y23.296274 F200.000000
G1 X92.648779 Y23.311519 F200.000000
G1 X92.171259 F200.000000
G1 X92.125123 Y23.300989 F200.000000
G1 X92.077800 F200.000000
G1 X92.035164 Y23.280457 F200.000000
G1 X91.989028 Y23.269926 F200.000000
G1 X91.952030 Y23.240421 F200.000000
G1 X91.909394 Y23.219889 F200.000000
G1 X91.879889 Y23.182890 F200.000000
G1 X91.842890 Y23.153385 F200.000000
G1 X91.822358 Y23.110749 F200.000000
G1 X91.792853 Y23.073751 F200.000000
G1 X91.782322 Y23.027615 F200.000000
G1 X91.761790 Y22.984978 F200.000000
G1 Y22.937656 F200.000000
G1 X91.751260 Y22.891520 F200.000000
G1 Y21.217967 F200.000000
G1 X91.688010 Y21.268406 F200.000000
G1 X91.505779 Y21.309999 F200.000000
G1 X90.973279 F200.000000
G1 Y22.891520 F200.000000
G1 X90.931686 Y23.073751 F200.000000
G1 X90.815145 Y23.219889 F200.000000
G1 X90.646738 Y23.300989 F200.000000
G1 X90.459820 F200.000000
G1 X90.291414 Y23.219889 F200.000000
G1 X90.174873 Y23.073751 F200.000000
G1 X90.133280 Y22.891520 F200.000000
G1 Y20.890000 F200.000000
G1 X90.143810 Y20.843864 F200.000000
G1 Y20.796541 F200.000000
G1 X90.164342 Y20.753905 F200.000000
G1 X90.174873 Y20.707769 F200.000000
G1 X90.204378 Y20.670770 F200.000000
G1 X90.224910 Y20.628134 F200.000000
G1 X90.261909 Y20.598629 F200.000000
G1 X90.291414 Y20.561631 F200.000000
G0 Z0.500000
G0 X92.591259 Y21.313999
G1 Z-0.040000 F60.000000
G1 Y22.467520 F200.000000
G1 X92.705545 Y22.428744 F200.000000
G1 X92.779391 Y22.354899 F200.000000
G1 X92.823974 Y22.266906 F200.000000
G1 X92.894260 Y21.981965 F200.000000
G1 Y21.799555 F200.000000
G1 X92.823974 Y21.514614 F200.000000
G1 X92.779391 Y21.426621 F200.000000
G1 X92.705545 Y21.352775 F200.000000
G1 X92.591259 Y21.313999 F200.000000
G0 Z0.500000
G0 X93.844410 Y23.153385
G1 Z-0.040000 F60.000000
G1 X93.823878 Y23.110749 F200.000000
G1 X93.794373 Y23.073751 F200.000000
G1 X93.783842 Y23.027615 F200.000000
G1 X93.763310 Y22.984978 F200.000000
G1 Y22.937656 F200.000000
G1 X93.752780 Y22.891520 F200.000000
G1 Y20.890000 F200.000000
G1 X93.794373 Y20.707769 F200.000000
G1 X93.910914 Y20.561631 F200.000000
G1 X94.079320 Y20.480530 F200.000000
G1 X94.266238 F200.000000
G1 X94.434645 Y20.561631 F200.000000
G1 X94.551186 Y20.707769 F200.000000
G1 X94.592779 Y20.890000 F200.000000
G1 Y21.189435 F200.000000
G1 X94.971918 Y20.648838 F200.000000
G1 X95.110607 Y20.523525 F200.000000
G1 X95.289933 Y20.470796 F200.000000
G1 X95.474378 Y20.501096 F200.000000
G1 X95.627411 Y20.608423 F200.000000
G1 X95.718721 Y20.771520 F200.000000
G1 X95.730224 Y20.958083 F200.000000
G1 X95.659641 Y21.131161 F200.000000
G1 X95.340828 Y21.585742 F200.000000
G1 X95.366110 Y21.606751 F200.000000
G1 X95.422264 Y21.642035 F200.000000
G1 X95.516244 Y21.736015 F200.000000
G1 X95.551528 Y21.792169 F200.000000
G1 X95.593914 Y21.843175 F200.000000
G1 X95.690434 Y22.033675 F200.000000
G1 X95.691483 Y22.037880 F200.000000
G1 X95.694186 Y22.041269 F200.000000
G1 X95.714064 Y22.128359 F200.000000
G0 Z0.500000
G1 Z-0.040000 F60.000000
G1 X95.735693 Y22.215030 F200.000000
G1 X95.734814 Y22.219274 F200.000000
G1 X95.735779 Y22.223500 F200.000000
G1 Y22.510520 F200.000000
G1 X95.734814 Y22.514745 F200.000000
G1 X95.735693 Y22.518990 F200.000000
G1 X95.714064 Y22.605661 F200.000000
G1 X95.694186 Y22.692751 F200.000000
G1 X95.691483 Y22.696139 F200.000000
G1 X95.690434 Y22.700345 F200.000000
G1 X95.593914 Y22.890845 F200.000000
G1 X95.551528 Y22.941851 F200.000000
G1 X95.516244 Y22.998004 F200.000000
G1 X95.422264 Y23.091984 F200.000000
G1 X95.366110 Y23.127268 F200.000000
G1 X95.315104 Y23.169654 F200.000000
G1 X95.124604 Y23.266174 F200.000000
G1 X95.120399 Y23.267224 F200.000000
G1 X95.117010 Y23.269926 F200.000000
G1 X95.029920 Y23.289804 F200.000000
G1 X94.943249 Y23.311434 F200.000000
G1 X94.939005 Y23.310555 F200.000000
G1 X94.934779 Y23.311519 F200.000000
G1 X94.172779 F200.000000
G1 X94.126643 Y23.300989 F200.000000
G1 X94.079320 F200.000000
G1 X94.036684 Y23.280457 F200.000000
G1 X93.990548 Y23.269926 F200.000000
G1 X93.953550 Y23.240421 F200.000000
G1 X93.910914 Y23.219889 F200.000000
G1 X93.881409 Y23.182890 F200.000000
G1 X93.844410 Y23.153385 F200.000000
G0 Z0.500000
G0 X94.592779 Y22.262499
G1 Z-0.040000 F60.000000
G1 Y22.471520 F200.000000
G1 X94.834451 F200.000000
G1 X94.875156 Y22.450896 F200.000000
G1 X94.895780 Y22.410191 F200.000000
G1 Y22.323828 F200.000000
G1 X94.875156 Y22.283123 F200.000000
G1 X94.834451 Y22.262499 F200.000000
G1 X94.592779 F200.000000
G0 Z0.500000
G0 X91.991261 Y19.770240
G1 Z-0.040000 F60.000000
G1 X91.852999 Y19.254240 F200.000000
G1 X91.991261 Y18.738240 F200.000000
G1 X92.368999 Y18.360501 F200.000000
G1 X92.884999 Y18.222240 F200.000000
G1 X93.024307 Y18.259567 F200.000000
G1 X93.039252 Y18.250247 F200.000000
G1 X93.149882 Y18.238164 F200.000000
G1 X93.258379 Y18.213401 F200.000000
G1 X95.710035 F200.000000
G1 X95.923380 Y18.000055 F200.000000
G1 X96.433379 Y17.863401 F200.000000
G1 X96.943378 Y18.000055 F200.000000
G1 X97.316724 Y18.373400 F200.000000
G1 X97.453378 Y18.883400 F200.000000
G1 X97.316724 Y19.393399 F200.000000
G1 X96.943378 Y19.766744 F200.000000
G1 X96.433379 Y19.903398 F200.000000
G1 X95.923380 Y19.766744 F200.000000
G1 X95.710035 Y19.553399 F200.000000
G1 X93.836840 F200.000000
G1 X93.778737 Y19.770240 F200.000000
G1 X93.400999 Y20.147978 F200.000000
G1 X92.884999 Y20.286240 F200.000000
G1 X92.368999 Y20.147978 F200.000000
G1 X91.991261 Y19.770240 F200.000000
G0 Z0.500000
G0 X87.914219 Y12.304239
G1 Z-0.040000 F60.000000
G1 X87.804632 Y12.279226 F200.000000
G1 X87.692932 Y12.266641 F200.000000
G1 X87.666919 Y12.250296 F200.000000
G1 X87.543379 Y12.283398 F200.000000
G1 X87.033380 Y12.146744 F200.000000
G1 X86.660035 Y11.773399 F200.000000
G1 X86.569998 Y11.437379 F200.000000
G1 Y15.166717 F200.000000
G1 X87.430680 Y16.027399 F200.000000
G1 X87.922806 Y16.087154 F200.000000
G1 X88.344285 Y16.378080 F200.000000
G1 X88.582285 Y16.831552 F200.000000
G1 Y17.343687 F200.000000
G1 X88.344285 Y17.797160 F200.000000
G1 X87.922806 Y18.088086 F200.000000
G1 X87.414405 Y18.149817 F200.000000
G1 X86.935551 Y17.968211 F200.000000
G1 X86.595943 Y17.584873 F200.000000
G1 X86.473381 Y17.087620 F200.000000
G1 X86.497599 Y16.989362 F200.000000
G1 X85.426238 Y15.918001 F200.000000
G1 X85.366435 Y15.822824 F200.000000
G1 X85.296351 Y15.734941 F200.000000
G1 X85.287871 Y15.697791 F200.000000
G1 X85.267598 Y15.665526 F200.000000
G1 X85.255013 Y15.553827 F200.000000
G1 X85.230000 Y15.444240 F200.000000
G1 Y10.364240 F200.000000
G1 X85.255116 Y10.254200 F200.000000
G1 X85.267912 Y10.142059 F200.000000
G0 Z0.500000
G0 X92.030398 Y5.251715
G1 Z-0.040000 F60.000000
G1 X92.117069 Y5.230085 F200.000000
G1 X92.121314 Y5.230964 F200.000000
G1 X92.125539 Y5.230000 F200.000000
G1 X92.316039 F200.000000
G1 X92.320265 Y5.230964 F200.000000
G1 X92.324509 Y5.230085 F200.000000
G1 X92.411180 Y5.251715 F200.000000
G1 X92.498270 Y5.271593 F200.000000
G1 X92.501659 Y5.274295 F200.000000
G1 X92.505864 Y5.275345 F200.000000
G1 X92.696364 Y5.371865 F200.000000
G1 X92.747370 Y5.414251 F200.000000
G1 X92.803524 Y5.449535 F200.000000
G1 X92.897504 Y5.543515 F200.000000
G1 X92.932788 Y5.599669 F200.000000
G1 X92.975174 Y5.650675 F200.000000
G1 X93.071694 Y5.841175 F200.000000
G1 X93.083289 Y5.887638 F200.000000
G1 X93.104817 Y5.930415 F200.000000
G1 X93.198797 Y6.311415 F200.000000
G1 X93.199685 Y6.362342 F200.000000
G1 X93.211019 Y6.412000 F200.000000
G1 Y6.889520 F200.000000
G1 X93.199685 Y6.939178 F200.000000
G1 X93.198797 Y6.990105 F200.000000
G1 X93.104817 Y7.371105 F200.000000
G1 X93.083289 Y7.413882 F200.000000
G1 X93.071694 Y7.460345 F200.000000
G1 X92.975174 Y7.650845 F200.000000
G1 X92.932788 Y7.701851 F200.000000
G1 X92.897504 Y7.758004 F200.000000
G1 X92.803524 Y7.851984 F200.000000
G1 X92.747370 Y7.887268 F200.000000
G1 X92.696364 Y7.929654 F200.000000
G1 X92.505864 Y8.026174 F200.000000
G1 X92.501659 Y8.027224 F200.000000
G1 X92.498270 Y8.029926 F200.000000
G1 X92.411180 Y8.049804 F200.000000
G1 X92.361351 Y8.062240 F200.000000
G1 X93.916999 F200.000000
G1 Y8.424240 F200.000000
G1 X96.059999 F200.000000
G1 X96.169587 Y8.449253 F200.000000
G1 X96.184425 Y8.450925 F200.000000
G1 X96.304405 Y8.405423 F200.000000
G1 X96.812806 Y8.467154 F200.000000
G1 X97.234285 Y8.758080 F200.000000
G1 X97.255037 Y8.797620 F200.000000
G1 X98.973379 F200.000000
G1 X99.082967 Y8.822633 F200.000000
G1 X99.194666 Y8.835219 F200.000000
G1 X99.226931 Y8.855492 F200.000000
G1 X99.264081 Y8.863971 F200.000000
G1 X99.351963 Y8.934055 F200.000000
G1 X99.447140 Y8.993859 F200.000000
G1 X100.343760 Y9.890479 F200.000000
G1 X100.403564 Y9.985655 F200.000000
G1 X100.473648 Y10.073538 F200.000000
G1 X100.482127 Y10.110688 F200.000000
G1 X100.502400 Y10.142953 F200.000000
G1 X100.514986 Y10.254652 F200.000000
G1 X100.539998 Y10.364240 F200.000000
G1 Y15.444240 F200.000000
G1 X100.515042 Y15.553580 F200.000000
G1 X100.502571 Y15.665037 F200.000000
G1 X100.482185 Y15.697538 F200.000000
G1 X100.473648 Y15.734941 F200.000000
G1 X100.403722 Y15.822626 F200.000000
G1 X100.344126 Y15.917634 F200.000000
G1 X99.268065 Y16.995361 F200.000000
G1 Y17.343687 F200.000000
G1 X99.030065 Y17.797160 F200.000000
G1 X98.608586 Y18.088086 F200.000000
G1 X98.100185 Y18.149817 F200.000000
G1 X97.621331 Y17.968211 F200.000000
G1 X97.281723 Y17.584873 F200.000000
G1 X97.159161 Y17.087620 F200.000000
G1 X97.281723 Y16.590367 F200.000000
G1 X97.621331 Y16.207028 F200.000000
G1 X98.100185 Y16.025423 F200.000000
G1 X98.316678 Y16.051710 F200.000000
G1 X99.200000 Y15.167020 F200.000000
G1 Y11.446859 F200.000000
G1 X99.112504 Y11.773399 F200.000000
G1 X98.739158 Y12.146744 F200.000000
G1 X98.229159 Y12.283398 F200.000000
G1 X98.171999 Y12.268082 F200.000000
G1 X95.792080 Y14.648001 F200.000000
G1 X95.696903 Y14.707804 F200.000000
G1 X95.609021 Y14.777888 F200.000000
G1 X95.571871 Y14.786367 F200.000000
G1 X95.539606 Y14.806641 F200.000000
G1 X95.427907 Y14.819226 F200.000000
G1 X95.318319 Y14.844239 F200.000000
G1 X93.624738 F200.000000
G1 X93.400999 Y15.067978 F200.000000
G1 X92.884999 Y15.206240 F200.000000
G1 X92.368999 Y15.067978 F200.000000
G1 X91.991261 Y14.690240 F200.000000
G1 X91.852999 Y14.174240 F200.000000
G1 X91.991261 Y13.658240 F200.000000
G1 X92.368999 Y13.280501 F200.000000
G1 X92.884999 Y13.142240 F200.000000
G1 X93.400999 Y13.280501 F200.000000
G1 X93.624738 Y13.504240 F200.000000
G1 X95.040796 F200.000000
G1 X97.224477 Y11.320560 F200.000000
G1 X97.209161 Y11.263400 F200.000000
G1 X97.345815 Y10.753400 F200.000000
G1 X97.719160 Y10.380055 F200.000000
G1 X98.229159 Y10.243401 F200.000000
G1 X98.739158 Y10.380055 F200.000000
G1 X99.112504 Y10.753400 F200.000000
G1 X99.200000 Y11.079941 F200.000000
G1 Y10.641762 F200.000000
G1 X98.695856 Y10.137619 F200.000000
G1 X97.255037 F200.000000
G1 X97.234285 Y10.177160 F200.000000
G1 X96.812806 Y10.468086 F200.000000
G1 X96.304405 Y10.529817 F200.000000
G1 X95.825551 Y10.348211 F200.000000
G1 X95.485943 Y9.964873 F200.000000
G1 X95.436491 Y9.764239 F200.000000
G1 X93.916999 F200.000000
G1 Y10.126240 F200.000000
G1 X91.852999 F200.000000
G1 Y9.764239 F200.000000
G1 X90.356782 F200.000000
G1 X90.140065 Y10.177160 F200.000000
G1 X89.718586 Y10.468086 F200.000000
G1 X89.210185 Y10.529817 F200.000000
G1 X88.731331 Y10.348211 F200.000000
G1 X88.544762 Y10.137619 F200.000000
G1 X87.076127 F200.000000
G1 X86.569998 Y10.642318 F200.000000
G1 Y11.089420 F200.000000
G1 X86.660035 Y10.753400 F200.000000
G1 X87.033380 Y10.380055 F200.000000
G1 X87.543379 Y10.243401 F200.000000
G1 X88.053378 Y10.380055 F200.000000
G1 X88.426724 Y10.753400 F200.000000
G1 X88.483218 Y10.964240 F200.000000
G1 X92.145260 Y10.964240 F200.000000
G1 X92.368999 Y10.740501 F200.000000
G1 X92.884999 Y10.602240 F200.000000
G1 X93.400999 Y10.740501 F200.000000
G1 X93.778737 Y11.118240 F200.000000
G1 X93.916999 Y11.634240 F200.000000
G1 X93.778737 Y12.150240 F200.000000
G1 X93.400999 Y12.527978 F200.000000
G1 X92.884999 Y12.666240 F200.000000
G1 X92.368999 Y12.527978 F200.000000
G1 X92.145260 Y12.304239 F200.000000
G1 X87.914219 F200.000000

(Goto to Initial position)
G0 Z0.500000
G0 X0.000000 Y0.000000
G0 Z0.000000
