(Generated by ./pygerber2gcode_cui_MOD.py )
( 2013-06-18 10:00:09 )
(Initialize)

(Start form here)
G0 Z0.500000
G0 X114.767012 Y12.500640
G1 Z-0.040000 F60.000000
G1 X114.711486 Y12.494384 F200.000000
G1 X114.674040 Y12.506551 F200.000000
G1 X114.157108 Y12.452219 F200.000000
G1 X113.799998 Y12.246041 F200.000000
G1 Y15.071448 F200.000000
G1 X114.520686 Y15.792135 F200.000000
G1 X114.543379 Y15.787621 F200.000000
G1 X115.040867 Y15.886578 F200.000000
G1 X115.381820 Y16.114395 F200.000000
G1 Y16.097020 F200.000000
G1 X115.404785 Y15.996403 F200.000000
G1 X115.414453 Y15.893652 F200.000000
G1 X115.485573 Y15.677752 F200.000000
G1 X115.491732 Y15.667537 F200.000000
G1 X115.493275 Y15.655710 F200.000000
G1 X115.566139 Y15.544141 F200.000000
G1 X115.634949 Y15.430026 F200.000000
G1 X115.644931 Y15.423496 F200.000000
G1 X115.648208 Y15.418477 F200.000000
G1 X115.647405 Y15.417688 F200.000000
G1 X115.642523 Y15.410068 F200.000000
G1 X115.634949 Y15.405113 F200.000000
G1 X115.564717 Y15.288640 F200.000000
G1 X115.491339 Y15.174122 F200.000000
G1 X115.490246 Y15.165138 F200.000000
G1 X115.485573 Y15.157387 F200.000000
G1 X115.414453 Y14.941487 F200.000000
G1 X115.404785 Y14.838737 F200.000000
G1 X115.381820 Y14.738120 F200.000000
G1 Y14.595880 F200.000000
G1 X115.405035 Y14.494167 F200.000000
G1 X115.415175 Y14.390332 F200.000000
G1 X115.486295 Y14.176972 F200.000000
G1 X115.491884 Y14.167778 F200.000000
G1 X115.493275 Y14.157110 F200.000000
G1 X115.556314 Y14.060585 F200.000000
G1 X115.485573 Y13.943267 F200.000000
G1 X115.414453 Y13.727367 F200.000000
G1 X115.404785 Y13.624617 F200.000000
G1 X115.381820 Y13.524000 F200.000000
G1 Y13.168400 F200.000000
G1 X115.382398 Y13.165865 F200.000000
G1 X115.381839 Y13.163326 F200.000000
G1 X115.414555 Y13.024976 F200.000000
G1 X115.446190 Y12.886375 F200.000000
G1 X115.447811 Y12.884343 F200.000000
G1 X115.448409 Y12.881812 F200.000000
G1 X115.519529 Y12.737032 F200.000000
G1 X115.590132 Y12.649903 F200.000000
G1 X115.651453 Y12.556009 F200.000000
G1 X115.674001 Y12.534239 F200.000000
G1 X114.914219 F200.000000
G1 X114.767012 Y12.500640 F200.000000
G0 Z0.500000
G0 X116.785077 Y16.037225
G1 Z-0.040000 F60.000000
G1 X116.751353 Y16.088864 F200.000000
G1 X116.754458 Y16.089640 F200.000000
G1 X116.810321 F200.000000
G1 X116.816968 Y16.087978 F200.000000
G1 X116.785077 Y16.037225 F200.000000
G0 Z0.500000
G0 X118.075363 Y15.168701
G1 Z-0.040000 F60.000000
G1 X118.001510 Y15.286238 F200.000000
G1 X117.929829 Y15.405113 F200.000000
G1 X117.924712 Y15.408461 F200.000000
G1 X117.921458 Y15.413639 F200.000000
G1 X117.917528 Y15.417570 F200.000000
G1 X117.921458 Y15.421501 F200.000000
G1 X117.924712 Y15.426678 F200.000000
G1 X117.929829 Y15.430026 F200.000000
G1 X118.001510 Y15.548901 F200.000000
G1 X118.075363 Y15.666438 F200.000000
G1 X118.076048 Y15.672515 F200.000000
G1 X118.079206 Y15.677752 F200.000000
G1 X118.150326 Y15.893652 F200.000000
G1 X118.156354 Y15.957717 F200.000000
G1 X118.224504 Y15.903368 F200.000000
G1 X118.274150 Y15.892037 F200.000000
G1 X118.317251 Y15.864920 F200.000000
G1 X118.467541 Y15.847897 F200.000000
G1 X118.614999 Y15.814241 F200.000000
G1 X119.013057 Y15.814241 F200.000000
G1 X119.040556 Y15.776391 F200.000000
G1 X119.495020 Y15.514006 F200.000000
G1 X120.016914 Y15.459153 F200.000000
G1 X120.515999 Y15.621316 F200.000000
G1 X120.905979 Y15.972455 F200.000000
G1 X121.119421 Y16.451855 F200.000000
G1 Y16.976624 F200.000000
G1 X120.905979 Y17.456025 F200.000000
G1 X120.515999 Y17.807164 F200.000000
G1 X120.016914 Y17.969326 F200.000000
G1 X119.495020 Y17.914473 F200.000000
G1 X119.040556 Y17.652088 F200.000000
G1 X119.013057 Y17.614239 F200.000000
G1 X118.988100 Y17.614239 F200.000000
G1 X117.561842 Y19.042169 F200.000000
G1 Y19.143289 F200.000000
G1 X117.350429 Y19.618130 F200.000000
G1 X116.964158 Y19.965930 F200.000000
G1 X116.469820 Y20.126551 F200.000000
G1 X115.952888 Y20.072219 F200.000000
G1 X115.502747 Y19.812330 F200.000000
G1 X115.197229 Y19.391820 F200.000000
G1 X115.089161 Y18.883400 F200.000000
G1 X115.197229 Y18.374980 F200.000000
G1 X115.502747 Y17.954470 F200.000000
G1 X115.952888 Y17.694580 F200.000000
G1 X116.411953 Y17.646331 F200.000000
G1 X116.669476 Y17.388507 F200.000000
G1 X116.596607 Y17.371875 F200.000000
G1 X116.516791 Y17.370232 F200.000000
G1 X116.232311 Y17.299112 F200.000000
G1 X116.168635 Y17.266816 F200.000000
G1 X116.099270 Y17.249897 F200.000000
G1 X115.957030 Y17.178777 F200.000000
G1 X115.876438 Y17.112525 F200.000000
G1 X115.842647 Y17.091293 F200.000000
G1 X115.744421 Y17.585108 F200.000000
G1 X115.462617 Y18.006857 F200.000000
G1 X115.040867 Y18.288662 F200.000000
G1 X114.543379 Y18.387618 F200.000000
G1 X114.045891 Y18.288662 F200.000000
G1 X113.624142 Y18.006857 F200.000000
G1 X113.342337 Y17.585108 F200.000000
G1 X113.243381 Y17.087620 F200.000000
G1 X113.247895 Y17.064926 F200.000000
G1 X112.263604 Y16.080635 F200.000000
G1 X112.183271 Y15.952786 F200.000000
G1 X112.089128 Y15.834735 F200.000000
G1 X112.077738 Y15.784832 F200.000000
G1 X112.050505 Y15.741491 F200.000000
G1 X112.033599 Y15.591447 F200.000000
G1 X112.000000 Y15.444240 F200.000000
G1 Y10.364240 F200.000000
G1 X112.033738 Y10.216426 F200.000000
G1 X112.050926 Y10.065788 F200.000000
G1 X112.077880 Y10.023025 F200.000000
G1 X112.089128 Y9.973745 F200.000000
G1 X112.183659 Y9.855207 F200.000000
G0 Z0.500000
G1 Z-0.040000 F60.000000
G1 X112.264504 Y9.726945 F200.000000
G1 X113.163664 Y8.830325 F200.000000
G1 X113.291100 Y8.750503 F200.000000
G1 X113.408664 Y8.656748 F200.000000
G1 X113.459190 Y8.645216 F200.000000
G1 X113.503110 Y8.617706 F200.000000
G1 X113.652559 Y8.601081 F200.000000
G1 X113.799159 Y8.567621 F200.000000
G1 X115.407067 Y8.567620 F200.000000
G1 X115.419922 Y8.548382 F200.000000
G1 X115.841671 Y8.266578 F200.000000
G1 X116.339159 Y8.167621 F200.000000
G1 X116.599629 Y8.219432 F200.000000
G1 X116.709999 Y8.194241 F200.000000
G1 X118.622999 F200.000000
G1 Y8.119646 F200.000000
G1 X118.565589 Y8.071938 F200.000000
G1 X118.481589 Y8.020706 F200.000000
G1 X118.385069 Y7.926726 F200.000000
G1 X118.325163 Y7.834149 F200.000000
G1 X118.255596 Y7.748595 F200.000000
G1 X118.176033 Y7.587319 F200.000000
G1 X118.060009 Y7.628866 F200.000000
G1 X117.772323 Y7.598568 F200.000000
G1 X117.526273 Y7.446448 F200.000000
G1 X117.506398 Y7.415321 F200.000000
G1 X117.487087 Y7.445676 F200.000000
G1 X117.241294 Y7.598212 F200.000000
G1 X116.953659 Y7.628996 F200.000000
G1 X116.681153 Y7.531932 F200.000000
G1 X116.477748 Y7.326244 F200.000000
G1 X116.383731 Y7.052671 F200.000000
G1 X116.417723 Y6.765398 F200.000000
G1 X116.892703 Y5.431898 F200.000000
G1 X116.929798 Y5.373586 F200.000000
G1 X116.952149 Y5.308189 F200.000000
G1 X117.006450 Y5.253093 F200.000000
G1 X117.047972 Y5.187823 F200.000000
G1 X117.106694 Y5.151381 F200.000000
G1 X117.155207 Y5.102158 F200.000000
G1 X117.228036 Y5.076078 F200.000000
G1 X117.293765 Y5.035287 F200.000000
G1 X117.362484 Y5.027933 F200.000000
G1 X117.427549 Y5.004633 F200.000000
G1 X117.504481 Y5.012735 F200.000000
G1 X117.581399 Y5.004503 F200.000000
G1 X117.646504 Y5.027693 F200.000000
G1 X117.715235 Y5.034931 F200.000000
G1 X117.781033 Y5.075611 F200.000000
G1 X117.853905 Y5.101567 F200.000000
G1 X117.902501 Y5.150708 F200.000000
G1 X117.961285 Y5.187052 F200.000000
G1 X118.002917 Y5.252251 F200.000000
G1 X118.057311 Y5.307255 F200.000000
G1 X118.079772 Y5.372615 F200.000000
G1 X118.116966 Y5.430864 F200.000000
G1 X118.200597 Y5.664408 F200.000000
G1 X118.255596 Y5.552924 F200.000000
G1 X118.325163 Y5.467370 F200.000000
G1 X118.385069 Y5.374794 F200.000000
G1 X118.481589 Y5.280814 F200.000000
G1 X118.565589 Y5.229582 F200.000000
G1 X118.641262 Y5.166697 F200.000000
G1 X118.831762 Y5.070177 F200.000000
G1 X118.838270 Y5.068552 F200.000000
G1 X118.843515 Y5.064370 F200.000000
G1 X118.978297 Y5.033607 F200.000000
G0 Z0.500000
G0 X121.217944 Y7.662943
G1 Z-0.040000 F60.000000
G1 X120.993501 Y7.480441 F200.000000
G1 X120.870471 Y7.218631 F200.000000
G1 X120.873219 Y6.929367 F200.000000
G1 X121.001202 Y6.669942 F200.000000
G1 X121.229072 Y6.491737 F200.000000
G1 X121.427020 Y6.448531 F200.000000
G1 Y6.282082 F200.000000
G1 X121.223495 Y6.235629 F200.000000
G1 X121.195699 Y6.213463 F200.000000
G1 X121.100450 Y6.306206 F200.000000
G1 X121.072604 Y6.323189 F200.000000
G1 X121.052267 Y6.348690 F200.000000
G1 X121.018960 Y6.364730 F200.000000
G1 X120.992820 Y6.390870 F200.000000
G1 X120.919657 Y6.416471 F200.000000
G1 X120.853482 Y6.456831 F200.000000
G1 X120.821024 Y6.460051 F200.000000
G1 X120.791638 Y6.474203 F200.000000
G1 X120.754670 F200.000000
G1 X120.719776 Y6.486412 F200.000000
G1 X120.642751 Y6.477734 F200.000000
G1 X120.565617 Y6.485385 F200.000000
G1 X120.534977 Y6.474203 F200.000000
G1 X120.502361 F200.000000
G1 X120.469054 Y6.458163 F200.000000
G1 X120.441019 Y6.455004 F200.000000
G1 Y6.889520 F200.000000
G1 X120.423478 Y6.966371 F200.000000
G1 X120.422103 Y7.045187 F200.000000
G1 X120.328123 Y7.426187 F200.000000
G1 X120.294808 Y7.492389 F200.000000
G1 X120.276862 Y7.564297 F200.000000
G1 X120.180342 Y7.754797 F200.000000
G1 X120.115986 Y7.832240 F200.000000
G1 X121.146999 F200.000000
G1 Y8.194241 F200.000000
G1 X121.728108 F200.000000
G1 X121.712374 Y8.179273 F200.000000
G1 X121.671751 Y8.159710 F200.000000
G1 X121.608709 Y8.080658 F200.000000
G1 X121.535451 Y8.010968 F200.000000
G1 X121.380914 Y7.778133 F200.000000
G1 X121.312248 Y7.709467 F200.000000
G1 X121.217944 Y7.662943 F200.000000
G0 Z0.500000
G0 X117.148011 Y20.381809
G1 Z-0.040000 F60.000000
G1 X117.213996 Y20.350033 F200.000000
G1 X117.271255 Y20.304370 F200.000000
G1 X117.342656 Y20.288073 F200.000000
G1 X117.408641 Y20.256297 F200.000000
G1 X117.481878 F200.000000
G1 X117.553279 Y20.240000 F200.000000
G1 X118.505779 F200.000000
G1 X118.787804 Y20.304370 F200.000000
G1 X118.838519 Y20.344815 F200.000000
G1 X118.889235 Y20.304370 F200.000000
G1 X118.960636 Y20.288073 F200.000000
G1 X119.026621 Y20.256297 F200.000000
G1 X119.099858 F200.000000
G1 X119.137061 Y20.247805 F200.000000
G1 X119.040556 Y20.192088 F200.000000
G1 X118.732105 Y19.767541 F200.000000
G0 Z0.500000
G0 X120.664589 Y23.296788
G1 Z-0.040000 F60.000000
G1 X120.632812 Y23.230803 F200.000000
G1 X120.587150 Y23.173544 F200.000000
G1 X120.570853 Y23.102143 F200.000000
G1 X120.562565 Y23.084932 F200.000000
G1 X120.392878 Y23.254619 F200.000000
G1 X120.390199 Y23.256302 F200.000000
G1 X120.388491 Y23.258965 F200.000000
G1 X120.267860 Y23.333173 F200.000000
G1 X120.147940 Y23.408524 F200.000000
G1 X120.144797 Y23.408878 F200.000000
G1 X120.142102 Y23.410536 F200.000000
G1 X119.857622 Y23.507056 F200.000000
G1 X119.752151 Y23.517926 F200.000000
G1 X119.648779 Y23.541519 F200.000000
G1 X119.171259 F200.000000
G1 X119.099858 Y23.525223 F200.000000
G1 X119.026621 F200.000000
G1 X118.960636 Y23.493446 F200.000000
G1 X118.889235 Y23.477149 F200.000000
G1 X118.831976 Y23.431486 F200.000000
G1 X118.765991 Y23.399710 F200.000000
G1 X118.720328 Y23.342451 F200.000000
G1 X118.663069 Y23.296788 F200.000000
G1 X118.631292 Y23.230803 F200.000000
G1 X118.585630 Y23.173544 F200.000000
G1 X118.569333 Y23.102143 F200.000000
G1 X118.537556 Y23.036158 F200.000000
G1 Y22.962921 F200.000000
G1 X118.521260 Y22.891520 F200.000000
G1 Y21.536466 F200.000000
G1 X118.505779 Y21.539999 F200.000000
G1 X118.203279 F200.000000
G1 Y22.891520 F200.000000
G1 X118.138909 Y23.173544 F200.000000
G1 X117.958547 Y23.399710 F200.000000
G1 X117.697918 Y23.525223 F200.000000
G1 X117.408641 F200.000000
G1 X117.148011 Y23.399710 F200.000000
G1 X116.967650 Y23.173544 F200.000000
G1 X116.903280 Y22.891520 F200.000000
G1 Y20.890000 F200.000000
G1 X116.919576 Y20.818599 F200.000000
G1 Y20.745361 F200.000000
G1 X116.951353 Y20.679377 F200.000000
G1 X116.967650 Y20.607975 F200.000000
G1 X117.013312 Y20.550716 F200.000000
G1 X117.045089 Y20.484732 F200.000000
G1 X117.102348 Y20.439069 F200.000000
G1 X117.148011 Y20.381809 F200.000000
G0 Z0.500000
G0 X118.732105 Y19.767541
G1 Z-0.040000 F60.000000
G1 X118.622999 Y19.254240 F200.000000
G1 X118.732105 Y18.740938 F200.000000
G1 X119.040556 Y18.316391 F200.000000
G1 X119.495020 Y18.054006 F200.000000
G1 X120.016914 Y17.999153 F200.000000
G1 X120.081333 Y18.020084 F200.000000
G1 X120.112636 Y18.016665 F200.000000
G1 X120.258379 Y17.983401 F200.000000
G1 X122.575948 F200.000000
G1 X122.596967 Y17.954470 F200.000000
G1 X123.047108 Y17.694580 F200.000000
G1 X123.564040 Y17.640249 F200.000000
G1 X124.058378 Y17.800869 F200.000000
G1 X124.444649 Y18.148669 F200.000000
G1 X124.656062 Y18.623510 F200.000000
G1 Y19.143289 F200.000000
G1 X124.444649 Y19.618130 F200.000000
G1 X124.058378 Y19.965930 F200.000000
G1 X123.564040 Y20.126551 F200.000000
G1 X123.047108 Y20.072219 F200.000000
G1 X122.596967 Y19.812330 F200.000000
G1 X122.575948 Y19.783399 F200.000000
G1 X121.000646 Y19.783399 F200.000000
G1 X120.905979 Y19.996025 F200.000000
G1 X120.515999 Y20.347164 F200.000000
G1 X120.246295 Y20.434796 F200.000000
G1 X120.267860 Y20.448346 F200.000000
G1 X120.388491 Y20.522554 F200.000000
G1 X120.390199 Y20.525217 F200.000000
G1 X120.392878 Y20.526901 F200.000000
G1 X120.566115 Y20.700137 F200.000000
G1 X120.587150 Y20.607975 F200.000000
G1 X120.767511 Y20.381809 F200.000000
G1 X121.028141 Y20.256297 F200.000000
G1 X121.317418 F200.000000
G1 X121.578047 Y20.381809 F200.000000
G1 X121.737786 Y20.582115 F200.000000
G1 X121.783612 Y20.516773 F200.000000
G1 X121.998250 Y20.322836 F200.000000
G1 X122.275779 Y20.241232 F200.000000
G1 X122.561230 Y20.288125 F200.000000
G1 X122.798066 Y20.454226 F200.000000
G1 X122.939380 Y20.706638 F200.000000
G1 X122.957182 Y20.995366 F200.000000
G1 X122.847946 Y21.263226 F200.000000
G1 X122.650398 Y21.544901 F200.000000
G1 X122.678878 Y21.573381 F200.000000
G1 X122.733484 Y21.660285 F200.000000
G1 X122.799082 Y21.739223 F200.000000
G1 X122.895602 Y21.929723 F200.000000
G1 X122.897226 Y21.936231 F200.000000
G1 X122.901409 Y21.941475 F200.000000
G1 X122.932172 Y22.076257 F200.000000
G0 Z0.500000
G1 Z-0.040000 F60.000000
G1 X122.965647 Y22.210392 F200.000000
G1 X122.964286 Y22.216960 F200.000000
G1 X122.965779 Y22.223500 F200.000000
G1 Y22.510520 F200.000000
G1 X122.964286 Y22.517059 F200.000000
G1 X122.965647 Y22.523628 F200.000000
G1 X122.932172 Y22.657762 F200.000000
G1 X122.901409 Y22.792544 F200.000000
G1 X122.897226 Y22.797788 F200.000000
G1 X122.895602 Y22.804297 F200.000000
G1 X122.799082 Y22.994797 F200.000000
G1 X122.733484 Y23.073734 F200.000000
G1 X122.678878 Y23.160639 F200.000000
G1 X122.584898 Y23.254619 F200.000000
G1 X122.497994 Y23.309225 F200.000000
G1 X122.419056 Y23.374823 F200.000000
G1 X122.228556 Y23.471343 F200.000000
G1 X122.222048 Y23.472967 F200.000000
G1 X122.216804 Y23.477149 F200.000000
G1 X122.082022 Y23.507912 F200.000000
G1 X121.947887 Y23.541387 F200.000000
G1 X121.941319 Y23.540027 F200.000000
G1 X121.934779 Y23.541519 F200.000000
G1 X121.172779 F200.000000
G1 X121.101378 Y23.525223 F200.000000
G1 X121.028141 F200.000000
G1 X120.962156 Y23.493446 F200.000000
G1 X120.890755 Y23.477149 F200.000000
G1 X120.833496 Y23.431486 F200.000000
G1 X120.767511 Y23.399710 F200.000000
G1 X120.721848 Y23.342451 F200.000000
G1 X120.664589 Y23.296788 F200.000000
G0 Z0.500000
G0 X115.646176 Y10.734240
G1 Z-0.040000 F60.000000
G1 X116.171359 F200.000000
G1 X115.841671 Y10.668662 F200.000000
G1 X115.419922 Y10.386857 F200.000000
G1 X115.407067 Y10.367619 F200.000000
G1 X115.375785 Y10.367619 F200.000000
G1 X115.554649 Y10.528669 F200.000000
G1 X115.646176 Y10.734240 F200.000000
G0 Z0.500000
G0 X118.978297 Y5.033607
G1 Z-0.040000 F60.000000
G1 X119.112431 Y5.000132 F200.000000
G1 X119.119000 Y5.001493 F200.000000
G1 X119.125539 Y5.000000 F200.000000
G1 X119.316039 F200.000000
G1 X119.322579 Y5.001493 F200.000000
G1 X119.329147 Y5.000132 F200.000000
G1 X119.463282 Y5.033607 F200.000000
G1 X119.598064 Y5.064370 F200.000000
G1 X119.603308 Y5.068552 F200.000000
G1 X119.609816 Y5.070177 F200.000000
G1 X119.800316 Y5.166697 F200.000000
G1 X119.879254 Y5.232295 F200.000000
G1 X119.966158 Y5.286901 F200.000000
G1 X120.041303 Y5.362045 F200.000000
G1 X120.051408 Y5.351940 F200.000000
G1 X120.087313 Y5.293069 F200.000000
G1 X120.181293 Y5.196549 F200.000000
G1 X120.215975 Y5.174107 F200.000000
G1 X120.241731 Y5.141809 F200.000000
G1 X120.275038 Y5.125770 F200.000000
G1 X120.301179 Y5.099629 F200.000000
G1 X120.366265 Y5.076854 F200.000000
G1 X120.424157 Y5.039393 F200.000000
G1 X120.465142 Y5.034220 F200.000000
G1 X120.502361 Y5.016297 F200.000000
G1 X120.539329 F200.000000
G1 X120.574222 Y5.004087 F200.000000
G1 X120.642745 Y5.011808 F200.000000
G1 X120.711158 Y5.003174 F200.000000
G1 X120.750328 Y5.016297 F200.000000
G1 X120.791638 F200.000000
G1 X120.824945 Y5.032337 F200.000000
G1 X120.861680 Y5.036476 F200.000000
G1 X120.920067 Y5.073163 F200.000000
G1 X120.985452 Y5.095068 F200.000000
G1 X121.015049 Y5.123886 F200.000000
G1 X121.052267 Y5.141809 F200.000000
G1 X121.075317 Y5.170712 F200.000000
G1 X121.083611 Y5.175924 F200.000000
G1 X121.223495 Y5.064370 F200.000000
G1 X121.505519 Y5.000000 F200.000000
G1 X122.648519 F200.000000
G1 X122.930544 Y5.064370 F200.000000
G1 X123.156709 Y5.244732 F200.000000
G1 X123.282222 Y5.505361 F200.000000
G1 Y5.794638 F200.000000
G1 X123.156709 Y6.055268 F200.000000
G1 X122.930544 Y6.235629 F200.000000
G1 X122.727019 Y6.282082 F200.000000
G1 Y7.651520 F200.000000
G1 X122.704520 Y7.750096 F200.000000
G1 X122.695710 Y7.850823 F200.000000
G1 X122.672682 Y7.889587 F200.000000
G1 X122.662649 Y7.933544 F200.000000
G1 X122.599607 Y8.012596 F200.000000
G1 X122.547966 Y8.099525 F200.000000
G1 X122.510399 Y8.124459 F200.000000
G1 X122.482287 Y8.159710 F200.000000
G1 X122.410584 Y8.194241 F200.000000
G1 X123.059999 F200.000000
G1 X123.171553 Y8.219702 F200.000000
G1 X123.433379 Y8.167621 F200.000000
G1 X123.930867 Y8.266578 F200.000000
G1 X124.352617 Y8.548382 F200.000000
G1 X124.365472 Y8.567620 F200.000000
G1 X125.973379 Y8.567621 F200.000000
G1 X126.120586 Y8.601220 F200.000000
G1 X126.270630 Y8.618125 F200.000000
G1 X126.313971 Y8.645358 F200.000000
G1 X126.363874 Y8.656748 F200.000000
G1 X126.481925 Y8.750891 F200.000000
G1 X126.609775 Y8.831224 F200.000000
G1 X127.506395 Y9.727844 F200.000000
G1 X127.586728 Y9.855694 F200.000000
G1 X127.680870 Y9.973745 F200.000000
G1 X127.692261 Y10.023648 F200.000000
G1 X127.719493 Y10.066989 F200.000000
G1 X127.736399 Y10.217032 F200.000000
G1 X127.769998 Y10.364240 F200.000000
G1 Y15.444240 F200.000000
G1 X127.736475 Y15.591115 F200.000000
G1 X127.719723 Y15.740834 F200.000000
G1 X127.692338 Y15.784491 F200.000000
G1 X127.680870 Y15.834735 F200.000000
G1 X127.586940 Y15.952520 F200.000000
G1 X127.506887 Y16.080143 F200.000000
G1 X126.524474 Y17.064076 F200.000000
G1 X126.529158 Y17.087620 F200.000000
G1 X126.430201 Y17.585108 F200.000000
G1 X126.148397 Y18.006857 F200.000000
G1 X125.726647 Y18.288662 F200.000000
G1 X125.229159 Y18.387618 F200.000000
G1 X124.731671 Y18.288662 F200.000000
G1 X124.309922 Y18.006857 F200.000000
G1 X124.028117 Y17.585108 F200.000000
G1 X123.929161 Y17.087620 F200.000000
G1 X124.028117 Y16.590132 F200.000000
G1 X124.309922 Y16.168382 F200.000000
G1 X124.731671 Y15.886578 F200.000000
G1 X125.229159 Y15.787621 F200.000000
G1 X125.251002 Y15.791966 F200.000000
G1 X125.970000 Y15.071855 F200.000000
G1 Y12.241626 F200.000000
G1 X125.854158 Y12.345930 F200.000000
G1 X125.359820 Y12.506551 F200.000000
G1 X125.268407 Y12.496943 F200.000000
G1 X122.954715 Y14.810635 F200.000000
G1 X122.826865 Y14.890968 F200.000000
G1 X122.708814 Y14.985111 F200.000000
G1 X122.658911 Y14.996501 F200.000000
G1 X122.615570 Y15.023734 F200.000000
G1 X122.465526 Y15.040640 F200.000000
G1 X122.318319 Y15.074239 F200.000000
G1 X120.730264 F200.000000
G1 X120.515999 Y15.267164 F200.000000
G1 X120.016914 Y15.429326 F200.000000
G1 X119.495020 Y15.374473 F200.000000
G1 X119.040556 Y15.112088 F200.000000
G1 X118.732105 Y14.687541 F200.000000
G1 X118.622999 Y14.174240 F200.000000
G1 X118.732105 Y13.660938 F200.000000
G1 X119.040556 Y13.236391 F200.000000
G1 X119.495020 Y12.974006 F200.000000
G1 X120.016914 Y12.919153 F200.000000
G1 X120.515999 Y13.081316 F200.000000
G1 X120.730264 Y13.274240 F200.000000
G1 X121.945527 F200.000000
G1 X123.985313 Y11.234455 F200.000000
G1 X124.087229 Y10.754980 F200.000000
G1 X124.368663 Y10.367619 F200.000000
G1 X124.365472 Y10.367619 F200.000000
G1 X124.352617 Y10.386857 F200.000000
G1 X123.930867 Y10.668662 F200.000000
G1 X123.433379 Y10.767618 F200.000000
G1 X122.935891 Y10.668662 F200.000000
G1 X122.514142 Y10.386857 F200.000000
G1 X122.251802 Y9.994239 F200.000000
G1 X121.146999 Y9.994239 F200.000000
G1 Y10.356240 F200.000000
G1 X118.622999 F200.000000
G1 Y9.994239 F200.000000
G1 X117.520736 Y9.994239 F200.000000
G1 X117.258397 Y10.386857 F200.000000
G1 X116.836647 Y10.668662 F200.000000
G1 X116.506960 Y10.734240 F200.000000
G1 X119.013057 F200.000000
G1 X119.040556 Y10.696391 F200.000000
G1 X119.495020 Y10.434006 F200.000000
G1 X120.016914 Y10.379153 F200.000000
G1 X120.515999 Y10.541316 F200.000000
G1 X120.905979 Y10.892455 F200.000000
G1 X121.119421 Y11.371855 F200.000000
G1 Y11.896624 F200.000000
G1 X120.905979 Y12.376025 F200.000000
G1 X120.515999 Y12.727164 F200.000000
G1 X120.016914 Y12.889326 F200.000000
G1 X119.495020 Y12.834473 F200.000000
G1 X119.040556 Y12.572088 F200.000000
G1 X119.013057 Y12.534239 F200.000000
G1 X117.992512 F200.000000
G1 X118.079206 Y12.678012 F200.000000
G1 X118.150326 Y12.893912 F200.000000
G1 X118.159994 Y12.996663 F200.000000
G1 X118.182959 Y13.097280 F200.000000
G1 Y13.452880 F200.000000
G1 X118.181859 Y13.457697 F200.000000
G1 X118.182887 Y13.462531 F200.000000
G1 X118.149727 Y13.598479 F200.000000
G1 X118.118589 Y13.734904 F200.000000
G1 X118.115508 Y13.738768 F200.000000
G1 X118.114337 Y13.743568 F200.000000
G1 X118.043217 Y13.885808 F200.000000
G1 X117.980511 Y13.962088 F200.000000
G1 X117.961893 Y13.992904 F200.000000
G1 X118.043217 Y14.091831 F200.000000
G1 X118.114337 Y14.234071 F200.000000
G1 X118.115508 Y14.238872 F200.000000
G1 X118.118589 Y14.242735 F200.000000
G1 X118.149727 Y14.379161 F200.000000
G1 X118.182887 Y14.515108 F200.000000
G1 X118.181859 Y14.519942 F200.000000
G1 X118.182959 Y14.524760 F200.000000
G1 Y14.738120 F200.000000
G1 X118.159994 Y14.838737 F200.000000
G1 X118.150326 Y14.941487 F200.000000
G1 X118.079206 Y15.157387 F200.000000
G1 X118.076048 Y15.162624 F200.000000
G1 X118.075363 Y15.168701 F200.000000

(Goto to Initial position)
G0 Z0.500000
G0 X0.000000 Y0.000000
G0 Z0.000000
