(Generated by ./pygerber2gcode_cui_MOD.py )
( 2013-06-18 10:00:09 )
(Initialize)

(Start form here)
G0 Z0.500000
G0 X116.674439 Y15.713499
G1 Z-0.040000 F60.000000
G1 X116.628999 Y15.703128 F200.000000
G1 X116.649472 Y15.765104 F200.000000
G1 X116.622123 Y15.974722 F200.000000
G1 X116.521419 Y16.128920 F200.000000
G1 X116.508652 Y16.167676 F200.000000
G1 X116.518104 Y16.196034 F200.000000
G1 X116.529090 Y16.207019 F200.000000
G1 X116.555749 Y16.220349 F200.000000
G1 X116.732914 Y16.264640 F200.000000
G1 X116.831864 F200.000000
G1 X117.010671 Y16.219938 F200.000000
G1 X117.037504 Y16.206757 F200.000000
G1 X117.045973 Y16.198136 F200.000000
G1 X117.056127 Y16.167676 F200.000000
G1 X117.042445 Y16.126143 F200.000000
G1 X116.942375 Y15.966882 F200.000000
G1 X116.918706 Y15.756817 F200.000000
G1 X116.937641 Y15.702703 F200.000000
G1 X116.890339 Y15.713499 F200.000000
G1 X116.674439 F200.000000
G0 Z0.500000
G0 X117.910183 Y15.110902
G1 Z-0.040000 F60.000000
G1 X117.856214 Y15.196795 F200.000000
G1 X117.803832 Y15.283665 F200.000000
G1 X117.800092 Y15.286111 F200.000000
G1 X117.797715 Y15.289895 F200.000000
G1 X117.657132 Y15.430478 F200.000000
G1 X117.726595 Y15.474124 F200.000000
G1 X117.797715 Y15.545244 F200.000000
G1 X117.800092 Y15.549028 F200.000000
G1 X117.803832 Y15.551475 F200.000000
G1 X117.856214 Y15.638345 F200.000000
G1 X117.910183 Y15.724237 F200.000000
G1 X117.910684 Y15.728678 F200.000000
G1 X117.912991 Y15.732505 F200.000000
G1 X117.984111 Y15.948405 F200.000000
G1 X117.991177 Y16.023492 F200.000000
G1 X118.007959 Y16.097020 F200.000000
G1 Y16.239260 F200.000000
G1 X117.991147 Y16.312919 F200.000000
G1 X118.102047 Y16.201888 F200.000000
G1 X118.205175 Y16.137005 F200.000000
G1 X118.300434 Y16.061038 F200.000000
G1 X118.340426 Y16.051910 F200.000000
G1 X118.375146 Y16.030065 F200.000000
G1 X118.496213 Y16.016353 F200.000000
G1 X118.614999 Y15.989240 F200.000000
G1 X119.117274 F200.000000
G1 X119.267513 Y15.819656 F200.000000
G1 X119.753976 Y15.635165 F200.000000
G1 X120.270455 Y15.697877 F200.000000
G1 X120.698630 Y15.993425 F200.000000
G1 X120.940413 Y16.454104 F200.000000
G1 Y16.974376 F200.000000
G1 X120.698630 Y17.435054 F200.000000
G1 X120.270455 Y17.730602 F200.000000
G1 X119.753976 Y17.793314 F200.000000
G1 X119.267513 Y17.608823 F200.000000
G1 X119.117274 Y17.439239 F200.000000
G1 X118.915553 F200.000000
G1 X117.382920 Y18.973668 F200.000000
G1 Y19.140664 F200.000000
G1 X117.143807 Y19.596256 F200.000000
G1 X116.720359 Y19.888541 F200.000000
G1 X116.209582 Y19.950560 F200.000000
G1 X115.728490 Y19.768106 F200.000000
G1 X115.387295 Y19.382976 F200.000000
G1 X115.264161 Y18.883400 F200.000000
G1 X115.387295 Y18.383823 F200.000000
G1 X115.728490 Y17.998693 F200.000000
G1 X116.209582 Y17.816239 F200.000000
G1 X116.459301 Y17.846560 F200.000000
G1 X117.137631 Y17.167435 F200.000000
G1 X117.005544 Y17.200457 F200.000000
G1 X116.947216 Y17.201658 F200.000000
G1 X116.890339 Y17.214639 F200.000000
G1 X116.674439 F200.000000
G1 X116.617562 Y17.201658 F200.000000
G1 X116.559235 Y17.200457 F200.000000
G1 X116.274755 Y17.129337 F200.000000
G1 X116.228222 Y17.105736 F200.000000
G1 X116.177533 Y17.093372 F200.000000
G1 X116.035293 Y17.022252 F200.000000
G1 X115.976398 Y16.973837 F200.000000
G1 X115.911844 Y16.933275 F200.000000
G1 X115.767064 Y16.788495 F200.000000
G1 X115.765142 Y16.785438 F200.000000
G1 X115.762114 Y16.783471 F200.000000
G1 X115.709000 Y16.696087 F200.000000
G1 X115.654595 Y16.609502 F200.000000
G1 X115.654191 Y16.605914 F200.000000
G1 X115.652315 Y16.602828 F200.000000
G1 X115.581195 Y16.389468 F200.000000
G1 X115.573785 Y16.313588 F200.000000
G1 X115.556819 Y16.239260 F200.000000
G1 Y16.097020 F200.000000
G1 X115.573602 Y16.023492 F200.000000
G1 X115.580667 Y15.948405 F200.000000
G1 X115.651787 Y15.732505 F200.000000
G1 X115.656288 Y15.725040 F200.000000
G1 X115.657416 Y15.716397 F200.000000
G1 X115.710663 Y15.634866 F200.000000
G1 X115.760947 Y15.551475 F200.000000
G1 X115.768241 Y15.546702 F200.000000
G1 X115.773007 Y15.539404 F200.000000
G1 X115.846667 Y15.468284 F200.000000
G1 X115.909794 Y15.430147 F200.000000
G1 X115.770049 Y15.292854 F200.000000
G1 X115.766481 Y15.287286 F200.000000
G1 X115.760947 Y15.283665 F200.000000
G1 X115.709623 Y15.198550 F200.000000
G1 X115.656001 Y15.114864 F200.000000
G1 X115.655202 Y15.108298 F200.000000
G1 X115.651787 Y15.102635 F200.000000
G1 X115.580667 Y14.886735 F200.000000
G1 X115.573602 Y14.811648 F200.000000
G1 X115.556819 Y14.738120 F200.000000
G1 Y14.595880 F200.000000
G1 X115.573785 Y14.521551 F200.000000
G1 X115.581195 Y14.445672 F200.000000
G1 X115.652315 Y14.232312 F200.000000
G1 X115.656399 Y14.225593 F200.000000
G1 X115.657416 Y14.217797 F200.000000
G1 X115.711110 Y14.135581 F200.000000
G1 X115.756117 Y14.061535 F200.000000
G1 X115.651787 Y13.888515 F200.000000
G1 X115.580667 Y13.672615 F200.000000
G1 X115.573602 Y13.597528 F200.000000
G1 X115.556819 Y13.524000 F200.000000
G1 Y13.168400 F200.000000
G1 X115.557242 Y13.166547 F200.000000
G1 X115.556834 Y13.164692 F200.000000
G1 X115.580742 Y13.063590 F200.000000
G1 X115.603859 Y12.962305 F200.000000
G1 X115.605044 Y12.960820 F200.000000
G1 X115.605481 Y12.958970 F200.000000
G1 X115.676601 Y12.814190 F200.000000
G1 X115.728196 Y12.750519 F200.000000
G1 X115.773007 Y12.681904 F200.000000
G1 X115.846667 Y12.610784 F200.000000
G1 X115.908430 Y12.573471 F200.000000
G1 X115.964173 Y12.527647 F200.000000
G1 X116.106413 Y12.456527 F200.000000
G1 X116.109921 Y12.455671 F200.000000
G1 X116.112745 Y12.453420 F200.000000
G1 X116.212440 Y12.430665 F200.000000
G1 X116.311786 Y12.406432 F200.000000
G1 X116.315319 Y12.407184 F200.000000
G1 X116.318839 Y12.406380 F200.000000
G1 X116.461079 F200.000000
G1 X116.464600 Y12.407184 F200.000000
G1 X116.468132 Y12.406432 F200.000000
G1 X116.567479 Y12.430665 F200.000000
G1 X116.667174 Y12.453420 F200.000000
G1 X116.669997 Y12.455671 F200.000000
G1 X116.673506 Y12.456527 F200.000000
G1 X116.815746 Y12.527647 F200.000000
G1 X116.874640 Y12.576062 F200.000000
G1 X116.939195 Y12.616624 F200.000000
G1 X117.010315 Y12.687744 F200.000000
G1 X117.028818 Y12.717192 F200.000000
G1 X117.064359 Y12.621315 F200.000000
G1 X117.216560 Y12.474609 F200.000000
G1 X117.417341 Y12.408469 F200.000000
G1 X117.626936 Y12.435995 F200.000000
G1 X117.803832 Y12.551735 F200.000000
G1 X117.912991 Y12.732765 F200.000000
G1 X117.984111 Y12.948665 F200.000000
G1 X117.991177 Y13.023752 F200.000000
G1 X118.007959 Y13.097280 F200.000000
G1 Y13.452880 F200.000000
G1 X118.007155 Y13.456400 F200.000000
G1 X118.007907 Y13.459933 F200.000000
G1 X117.983674 Y13.559279 F200.000000
G1 X117.960919 Y13.658974 F200.000000
G1 X117.958668 Y13.661798 F200.000000
G1 X117.957812 Y13.665306 F200.000000
G1 X117.886692 Y13.807546 F200.000000
G1 X117.840868 Y13.863288 F200.000000
G1 X117.803555 Y13.925052 F200.000000
G1 X117.733231 Y13.997887 F200.000000
G1 X117.752450 Y14.006794 F200.000000
G1 X117.886692 Y14.170093 F200.000000
G1 X117.957812 Y14.312333 F200.000000
G1 X117.958668 Y14.315842 F200.000000
G1 X117.960919 Y14.318665 F200.000000
G1 X117.983674 Y14.418360 F200.000000
G1 X118.007907 Y14.517707 F200.000000
G1 X118.007155 Y14.521239 F200.000000
G1 X118.007959 Y14.524760 F200.000000
G1 Y14.738120 F200.000000
G1 X117.991177 Y14.811648 F200.000000
G1 X117.984111 Y14.886735 F200.000000
G1 X117.912991 Y15.102635 F200.000000
G1 X117.910684 Y15.106461 F200.000000
G1 X117.910183 Y15.110902 F200.000000
G0 Z0.500000
G0 X112.216024 Y10.123820
G1 Z-0.040000 F60.000000
G1 X112.237737 Y10.089373 F200.000000
G1 X112.246797 Y10.049674 F200.000000
G1 X112.322947 Y9.954186 F200.000000
G1 X112.388073 Y9.850863 F200.000000
G1 X113.287233 Y8.954243 F200.000000
G1 X113.389889 Y8.889942 F200.000000
G1 X113.484594 Y8.814418 F200.000000
G1 X113.525295 Y8.805128 F200.000000
G1 X113.560675 Y8.782967 F200.000000
G1 X113.681064 Y8.769575 F200.000000
G1 X113.799159 Y8.742620 F200.000000
G1 X115.514477 F200.000000
G1 X115.637734 Y8.588061 F200.000000
G1 X116.088824 Y8.370827 F200.000000
G1 X116.589495 F200.000000
G1 X116.626008 Y8.388411 F200.000000
G1 X116.709999 Y8.369240 F200.000000
G1 X118.797999 F200.000000
G1 Y8.018056 F200.000000
G1 X118.720356 Y7.978716 F200.000000
G1 X118.665057 Y7.932762 F200.000000
G1 X118.603671 Y7.895323 F200.000000
G1 X118.507151 Y7.801343 F200.000000
G1 X118.463374 Y7.733691 F200.000000
G1 X118.412537 Y7.671171 F200.000000
G1 X118.318557 Y7.480671 F200.000000
G1 X118.306925 Y7.431853 F200.000000
G1 X118.284085 Y7.387168 F200.000000
G1 X118.274027 Y7.347465 F200.000000
G1 X118.238171 Y7.383846 F200.000000
G1 X118.039152 Y7.455114 F200.000000
G1 X117.828920 Y7.432973 F200.000000
G1 X117.649114 Y7.321808 F200.000000
G1 X117.535347 Y7.143637 F200.000000
G1 X117.506212 Y7.062276 F200.000000
G1 X117.477501 Y7.142881 F200.000000
G1 X117.364035 Y7.321244 F200.000000
G1 X117.184418 Y7.432712 F200.000000
G1 X116.974223 Y7.455209 F200.000000
G1 X116.775084 Y7.384277 F200.000000
G1 X116.626442 Y7.233967 F200.000000
G1 X116.557737 Y7.034048 F200.000000
G1 X116.582577 Y6.824118 F200.000000
G1 X117.057557 Y5.490618 F200.000000
G1 X117.084665 Y5.448005 F200.000000
G1 X117.100999 Y5.400215 F200.000000
G1 X117.140680 Y5.359952 F200.000000
G1 X117.171023 Y5.312255 F200.000000
G1 X117.213936 Y5.285624 F200.000000
G1 X117.249387 Y5.249654 F200.000000
G1 X117.302608 Y5.230595 F200.000000
G1 X117.350641 Y5.200787 F200.000000
G1 X117.400859 Y5.195412 F200.000000
G1 X117.448406 Y5.178386 F200.000000
G1 X117.504626 Y5.184307 F200.000000
G1 X117.560835 Y5.178291 F200.000000
G1 X117.608412 Y5.195237 F200.000000
G1 X117.658638 Y5.200527 F200.000000
G1 X117.706721 Y5.230254 F200.000000
G1 X117.759975 Y5.249222 F200.000000
G1 X117.795487 Y5.285133 F200.000000
G1 X117.838444 Y5.311692 F200.000000
G1 X117.868867 Y5.359337 F200.000000
G1 X117.908617 Y5.399533 F200.000000
G1 X117.925031 Y5.447295 F200.000000
G1 X117.952211 Y5.489862 F200.000000
G1 X118.209561 Y6.208525 F200.000000
G1 X118.284085 Y5.914351 F200.000000
G1 X118.306925 Y5.869666 F200.000000
G1 X118.318557 Y5.820848 F200.000000
G1 X118.412537 Y5.630348 F200.000000
G1 X118.463374 Y5.567828 F200.000000
G1 X118.507151 Y5.500176 F200.000000
G1 X118.603671 Y5.406196 F200.000000
G1 X118.665057 Y5.368757 F200.000000
G1 X118.720356 Y5.322803 F200.000000
G1 X118.910856 Y5.226283 F200.000000
G1 X118.915612 Y5.225096 F200.000000
G1 X118.919445 Y5.222040 F200.000000
G1 X119.017939 Y5.199559 F200.000000
G0 Z0.500000
G0 X119.220104 Y7.160873
G1 Z-0.040000 F60.000000
G1 X119.248837 Y7.104163 F200.000000
G1 X119.316020 Y6.831801 F200.000000
G1 Y6.469718 F200.000000
G1 X119.248837 Y6.197356 F200.000000
G1 X119.220104 Y6.140646 F200.000000
G1 X119.192689 Y6.196218 F200.000000
G1 X119.123019 Y6.471231 F200.000000
G1 Y6.830289 F200.000000
G1 X119.192689 Y7.105302 F200.000000
G1 X119.220104 Y7.160873 F200.000000
G0 Z0.500000
G0 X119.017939 Y5.199559
G1 Z-0.040000 F60.000000
G1 X119.115960 Y5.175097 F200.000000
G1 X119.120760 Y5.176091 F200.000000
G1 X119.125539 Y5.175000 F200.000000
G1 X119.316039 F200.000000
G1 X119.320818 Y5.176091 F200.000000
G1 X119.325618 Y5.175097 F200.000000
G1 X119.423639 Y5.199559 F200.000000
G1 X119.522134 Y5.222040 F200.000000
G1 X119.525966 Y5.225096 F200.000000
G1 X119.530722 Y5.226283 F200.000000
G1 X119.721222 Y5.322803 F200.000000
G1 X119.778907 Y5.370740 F200.000000
G1 X119.842415 Y5.410644 F200.000000
G1 X119.936395 Y5.504624 F200.000000
G1 X119.976299 Y5.568131 F200.000000
G1 X120.024236 Y5.625817 F200.000000
G1 X120.087286 Y5.750257 F200.000000
G1 X120.087348 Y5.749624 F200.000000
G1 X120.081006 Y5.693337 F200.000000
G1 X120.097649 Y5.645773 F200.000000
G1 X120.102623 Y5.595629 F200.000000
G1 X120.132117 Y5.547270 F200.000000
G0 Z0.500000
G0 X119.646259 Y21.390740
G1 Z-0.040000 F60.000000
G1 Y22.390780 F200.000000
G1 X119.675726 Y22.380782 F200.000000
G1 X119.734295 Y22.322213 F200.000000
G1 X119.772077 Y22.247643 F200.000000
G1 X119.839259 Y21.975281 F200.000000
G1 Y21.806238 F200.000000
G1 X119.772077 Y21.533876 F200.000000
G1 X119.734295 Y21.459307 F200.000000
G1 X119.675726 Y21.400737 F200.000000
G1 X119.646259 Y21.390740 F200.000000
G0 Z0.500000
G0 X122.766220 Y22.115900
G1 Z-0.040000 F60.000000
G1 X122.790682 Y22.213921 F200.000000
G1 X122.789688 Y22.218721 F200.000000
G1 X122.790779 Y22.223500 F200.000000
G1 Y22.510520 F200.000000
G1 X122.789688 Y22.515299 F200.000000
G1 X122.790682 Y22.520099 F200.000000
G1 X122.766220 Y22.618120 F200.000000
G1 X122.743739 Y22.716614 F200.000000
G1 X122.740683 Y22.720447 F200.000000
G1 X122.739496 Y22.725203 F200.000000
G1 X122.642976 Y22.915703 F200.000000
G1 X122.595039 Y22.973388 F200.000000
G1 X122.555135 Y23.036895 F200.000000
G1 X122.461155 Y23.130875 F200.000000
G1 X122.397647 Y23.170779 F200.000000
G1 X122.339962 Y23.218716 F200.000000
G1 X122.149462 Y23.315236 F200.000000
G1 X122.144706 Y23.316423 F200.000000
G1 X122.140874 Y23.319480 F200.000000
G1 X122.042379 Y23.341960 F200.000000
G1 X121.944358 Y23.366423 F200.000000
G1 X121.939558 Y23.365429 F200.000000
G1 X121.934779 Y23.366519 F200.000000
G1 X121.172779 F200.000000
G1 X121.120601 Y23.354610 F200.000000
G1 X121.067082 F200.000000
G1 X121.018862 Y23.331389 F200.000000
G1 X120.966685 Y23.319480 F200.000000
G1 X120.924841 Y23.286111 F200.000000
G1 X120.876622 Y23.262889 F200.000000
G1 X120.843253 Y23.221046 F200.000000
G1 X120.801409 Y23.187677 F200.000000
G1 X120.778188 Y23.139458 F200.000000
G1 X120.744819 Y23.097614 F200.000000
G1 X120.732910 Y23.045437 F200.000000
G1 X120.709689 Y22.997217 F200.000000
G1 Y22.943697 F200.000000
G1 X120.697779 Y22.891520 F200.000000
G1 Y22.461580 F200.000000
G1 X120.681456 Y22.527757 F200.000000
G1 X120.657110 Y22.576135 F200.000000
G1 X120.643996 Y22.628683 F200.000000
G1 X120.547476 Y22.819183 F200.000000
G1 X120.499539 Y22.876868 F200.000000
G1 X120.459635 Y22.940375 F200.000000
G1 X120.269135 Y23.130875 F200.000000
G1 X120.267177 Y23.132105 F200.000000
G1 X120.265928 Y23.134051 F200.000000
G1 X120.177775 Y23.188280 F200.000000
G1 X120.090142 Y23.243344 F200.000000
G1 X120.087844 Y23.243603 F200.000000
G1 X120.085875 Y23.244814 F200.000000
G1 X119.801395 Y23.341334 F200.000000
G1 X119.724320 Y23.349278 F200.000000
G1 X119.648779 Y23.366519 F200.000000
G1 X119.171259 F200.000000
G1 X119.119081 Y23.354610 F200.000000
G1 X119.065562 F200.000000
G1 X119.017342 Y23.331389 F200.000000
G1 X118.965165 Y23.319480 F200.000000
G1 X118.923321 Y23.286111 F200.000000
G1 X118.875102 Y23.262889 F200.000000
G1 X118.841733 Y23.221046 F200.000000
G1 X118.799889 Y23.187677 F200.000000
G1 X118.776668 Y23.139458 F200.000000
G1 X118.743299 Y23.097614 F200.000000
G1 X118.731390 Y23.045437 F200.000000
G1 X118.708169 Y22.997217 F200.000000
G1 Y22.943697 F200.000000
G1 X118.696259 Y22.891520 F200.000000
G1 Y21.321524 F200.000000
G1 X118.505779 Y21.364999 F200.000000
G1 X118.028279 F200.000000
G1 Y22.891520 F200.000000
G1 X117.981239 Y23.097614 F200.000000
G1 X117.849437 Y23.262889 F200.000000
G1 X117.658977 Y23.354610 F200.000000
G1 X117.447582 F200.000000
G1 X117.257122 Y23.262889 F200.000000
G1 X117.125319 Y23.097614 F200.000000
G1 X117.078280 Y22.891520 F200.000000
G1 Y20.890000 F200.000000
G1 X117.090189 Y20.837822 F200.000000
G1 Y20.784302 F200.000000
G1 X117.113410 Y20.736083 F200.000000
G1 X117.125319 Y20.683905 F200.000000
G1 X117.158688 Y20.642062 F200.000000
G1 X117.181909 Y20.593842 F200.000000
G1 X117.223753 Y20.560473 F200.000000
G1 X117.257122 Y20.518630 F200.000000
G1 X117.305341 Y20.495409 F200.000000
G1 X117.347185 Y20.462040 F200.000000
G1 X117.399362 Y20.450131 F200.000000
G1 X117.447582 Y20.426909 F200.000000
G1 X117.501101 F200.000000
G1 X117.553279 Y20.415000 F200.000000
G1 X118.505779 F200.000000
G1 X118.711874 Y20.462040 F200.000000
G1 X118.838519 Y20.563036 F200.000000
G1 X118.841733 Y20.560473 F200.000000
G1 X118.875102 Y20.518630 F200.000000
G1 X118.923321 Y20.495409 F200.000000
G1 X118.965165 Y20.462040 F200.000000
G1 X119.017342 Y20.450131 F200.000000
G1 X119.065562 Y20.426909 F200.000000
G1 X119.119081 F200.000000
G1 X119.171259 Y20.415000 F200.000000
G1 X119.648779 F200.000000
G1 X119.724320 Y20.432242 F200.000000
G1 X119.801395 Y20.440185 F200.000000
G1 X120.085875 Y20.536705 F200.000000
G1 X120.087844 Y20.537917 F200.000000
G1 X120.090142 Y20.538175 F200.000000
G1 X120.177775 Y20.593239 F200.000000
G1 X120.265928 Y20.647468 F200.000000
G1 X120.267177 Y20.649414 F200.000000
G1 X120.269135 Y20.650644 F200.000000
G1 X120.459635 Y20.841144 F200.000000
G1 X120.499539 Y20.904651 F200.000000
G1 X120.547476 Y20.962337 F200.000000
G1 X120.643996 Y21.152837 F200.000000
G1 X120.657110 Y21.205384 F200.000000
G1 X120.681456 Y21.253763 F200.000000
G1 X120.697779 Y21.319939 F200.000000
G1 Y20.890000 F200.000000
G1 X120.744819 Y20.683905 F200.000000
G1 X120.876622 Y20.518630 F200.000000
G1 X121.067082 Y20.426909 F200.000000
G1 X121.278477 F200.000000
G1 X121.468937 Y20.518630 F200.000000
G1 X121.600739 Y20.683905 F200.000000
G1 X121.647779 Y20.890000 F200.000000
G1 Y21.015227 F200.000000
G1 X121.926888 Y20.617257 F200.000000
G1 X122.083739 Y20.475534 F200.000000
G1 X122.286548 Y20.415900 F200.000000
G1 X122.495147 Y20.450168 F200.000000
G1 X122.668220 Y20.571550 F200.000000
G1 X122.771487 Y20.756004 F200.000000
G1 X122.784496 Y20.966999 F200.000000
G1 X122.704670 Y21.162742 F200.000000
G1 X122.415792 Y21.574641 F200.000000
G1 X122.461155 Y21.603144 F200.000000
G1 X122.555135 Y21.697124 F200.000000
G1 X122.595039 Y21.760631 F200.000000
G1 X122.642976 Y21.818317 F200.000000
G1 X122.739496 Y22.008817 F200.000000
G1 X122.740683 Y22.013573 F200.000000
G1 X122.743739 Y22.017405 F200.000000
G1 X122.766220 Y22.115900 F200.000000
G0 Z0.500000
G0 X121.647779 Y22.317499
G1 Z-0.040000 F60.000000
G1 Y22.416520 F200.000000
G1 X121.821312 F200.000000
G1 X121.834233 Y22.409974 F200.000000
G1 X121.840779 Y22.397053 F200.000000
G1 Y22.336966 F200.000000
G1 X121.834233 Y22.324046 F200.000000
G1 X121.821312 Y22.317499 F200.000000
G1 X121.647779 F200.000000
G0 Z0.500000
G0 X118.922509 Y19.759394
G1 Z-0.040000 F60.000000
G1 X118.797999 Y19.254240 F200.000000
G1 X118.922509 Y18.749086 F200.000000
G1 X119.267513 Y18.359656 F200.000000
G1 X119.753976 Y18.175165 F200.000000
G1 X120.008717 Y18.206096 F200.000000
G1 X120.021264 Y18.198272 F200.000000
G1 X120.140975 Y18.185197 F200.000000
G1 X120.258379 Y18.158400 F200.000000
G1 X122.681222 Y18.158401 F200.000000
G1 X122.822710 Y17.998693 F200.000000
G1 X123.303802 Y17.816239 F200.000000
G1 X123.814579 Y17.878259 F200.000000
G1 X124.238027 Y18.170544 F200.000000
G1 X124.477140 Y18.626136 F200.000000
G1 Y19.140664 F200.000000
G1 X124.238027 Y19.596256 F200.000000
G1 X123.814579 Y19.888541 F200.000000
G1 X123.303802 Y19.950560 F200.000000
G1 X122.822710 Y19.768106 F200.000000
G1 X122.681222 Y19.608399 F200.000000
G1 X120.891066 F200.000000
G1 X120.698630 Y19.975054 F200.000000
G1 X120.270455 Y20.270602 F200.000000
G1 X119.753976 Y20.333314 F200.000000
G1 X119.267513 Y20.148823 F200.000000
G1 X118.922509 Y19.759394 F200.000000
G0 Z0.500000
G0 X114.914219 Y12.359239
G1 Z-0.040000 F60.000000
G1 X114.795636 Y12.332173 F200.000000
G1 X114.674767 Y12.318554 F200.000000
G1 X114.648518 Y12.302061 F200.000000
G1 X114.413802 Y12.330560 F200.000000
G1 X113.932710 Y12.148106 F200.000000
G1 X113.624998 Y11.800771 F200.000000
G1 Y15.143935 F200.000000
G1 X114.471891 Y15.990827 F200.000000
G1 X114.793715 F200.000000
G1 X115.244804 Y16.208061 F200.000000
G1 X115.556968 Y16.599501 F200.000000
G1 X115.668378 Y17.087620 F200.000000
G1 X115.556968 Y17.575738 F200.000000
G1 X115.244804 Y17.967179 F200.000000
G1 X114.793715 Y18.184412 F200.000000
G1 X114.293044 F200.000000
G1 X113.841954 Y17.967179 F200.000000
G1 X113.529791 Y17.575738 F200.000000
G1 X113.418381 Y17.087620 F200.000000
G1 X113.436907 Y17.006451 F200.000000
G1 X112.387347 Y15.956892 F200.000000
G1 X112.322635 Y15.853902 F200.000000
G1 X112.246797 Y15.758805 F200.000000
G1 X112.237622 Y15.718605 F200.000000
G1 X112.215685 Y15.683692 F200.000000
G1 X112.202066 Y15.562823 F200.000000
G1 X112.175000 Y15.444240 F200.000000
G1 Y10.364240 F200.000000
G1 X112.202178 Y10.245167 F200.000000
G1 X112.216024 Y10.123820 F200.000000
G0 Z0.500000
G0 X126.036908 Y10.556452
G1 Z-0.040000 F60.000000
G1 X126.145000 Y10.762404 F200.000000
G1 Y10.664544 F200.000000
G1 X126.036908 Y10.556452 F200.000000
G0 Z0.500000
G0 X120.132117 Y5.547270
G1 Z-0.040000 F60.000000
G1 X120.150825 Y5.493805 F200.000000
G1 X120.186457 Y5.458173 F200.000000
G1 X120.212696 Y5.415152 F200.000000
G1 X120.306676 Y5.318632 F200.000000
G1 X120.332020 Y5.302232 F200.000000
G1 X120.350842 Y5.278630 F200.000000
G1 X120.375182 Y5.266909 F200.000000
G1 X120.394284 Y5.247806 F200.000000
G1 X120.441847 Y5.231163 F200.000000
G1 X120.484153 Y5.203787 F200.000000
G1 X120.514104 Y5.200007 F200.000000
G1 X120.541302 Y5.186909 F200.000000
G1 X120.568317 F200.000000
G1 X120.593816 Y5.177987 F200.000000
G1 X120.643890 Y5.183629 F200.000000
G1 X120.693885 Y5.177320 F200.000000
G1 X120.722509 Y5.186909 F200.000000
G1 X120.752697 F200.000000
G1 X120.777036 Y5.198631 F200.000000
G1 X120.803882 Y5.201655 F200.000000
G1 X120.846549 Y5.228465 F200.000000
G1 X120.894330 Y5.244472 F200.000000
G1 X120.915958 Y5.265532 F200.000000
G1 X120.943157 Y5.278630 F200.000000
G1 X120.960000 Y5.299751 F200.000000
G1 X120.982875 Y5.314124 F200.000000
G1 X121.079395 Y5.410644 F200.000000
G1 X121.094907 Y5.435331 F200.000000
G1 X121.134149 Y5.353842 F200.000000
G1 X121.299425 Y5.222040 F200.000000
G1 X121.505519 Y5.175000 F200.000000
G1 X122.648519 F200.000000
G1 X122.854614 Y5.222040 F200.000000
G1 X123.019889 Y5.353842 F200.000000
G1 X123.111610 Y5.544302 F200.000000
G1 Y5.755697 F200.000000
G1 X123.019889 Y5.946157 F200.000000
G1 X122.854614 Y6.077960 F200.000000
G1 X122.648519 Y6.124999 F200.000000
G1 X122.552019 F200.000000
G1 Y7.651520 F200.000000
G1 X122.535577 Y7.723556 F200.000000
G1 X122.529139 Y7.797164 F200.000000
G1 X122.512311 Y7.825492 F200.000000
G1 X122.504979 Y7.857614 F200.000000
G1 X122.458910 Y7.915383 F200.000000
G1 X122.421172 Y7.978908 F200.000000
G1 X122.393720 Y7.997129 F200.000000
G1 X122.373177 Y8.022889 F200.000000
G1 X122.306605 Y8.054949 F200.000000
G1 X122.245042 Y8.095809 F200.000000
G1 X122.212402 Y8.100314 F200.000000
G1 X122.182717 Y8.114610 F200.000000
G1 X122.108828 F200.000000
G1 X122.035632 Y8.124713 F200.000000
G1 X122.004271 Y8.114610 F200.000000
G1 X121.971322 F200.000000
G1 X121.904750 Y8.082551 F200.000000
G1 X121.834420 Y8.059895 F200.000000
G1 X121.810548 Y8.037185 F200.000000
G1 X121.780862 Y8.022889 F200.000000
G1 X121.734793 Y7.965121 F200.000000
G1 X121.681258 Y7.914193 F200.000000
G1 X121.517039 Y7.666770 F200.000000
G1 X121.415571 Y7.565302 F200.000000
G1 X121.295368 Y7.506002 F200.000000
G1 X121.131352 Y7.372635 F200.000000
G1 X121.041445 Y7.181312 F200.000000
G1 X121.043454 Y6.969927 F200.000000
G1 X121.136980 Y6.780347 F200.000000
G1 X121.303500 Y6.650121 F200.000000
G1 X121.510032 Y6.605041 F200.000000
G1 X121.602020 Y6.626958 F200.000000
G1 Y6.124999 F200.000000
G1 X121.505519 F200.000000
G1 X121.299425 Y6.077960 F200.000000
G1 X121.157711 Y5.964947 F200.000000
G1 X121.145713 Y5.999235 F200.000000
G1 X121.105660 Y6.039288 F200.000000
G1 X121.074887 Y6.086843 F200.000000
G1 X120.978367 Y6.180823 F200.000000
G1 X120.958018 Y6.193234 F200.000000
G1 X120.943157 Y6.211869 F200.000000
G1 X120.918817 Y6.223591 F200.000000
G1 X120.899714 Y6.242693 F200.000000
G1 X120.846249 Y6.261402 F200.000000
G1 X120.797890 Y6.290896 F200.000000
G1 X120.774171 Y6.293248 F200.000000
G1 X120.752697 Y6.303590 F200.000000
G1 X120.725681 F200.000000
G1 X120.700182 Y6.312513 F200.000000
G1 X120.643895 Y6.306171 F200.000000
G1 X120.587528 Y6.311762 F200.000000
G1 X120.565137 Y6.303590 F200.000000
G1 X120.541302 F200.000000
G1 X120.516962 Y6.291869 F200.000000
G1 X120.490117 Y6.288844 F200.000000
G1 X120.442155 Y6.258708 F200.000000
G1 X120.388944 Y6.239288 F200.000000
G1 X120.372317 Y6.222211 F200.000000
G1 X120.350842 Y6.211869 F200.000000
G1 X120.333998 Y6.190748 F200.000000
G1 X120.311124 Y6.176375 F200.000000
G1 X120.217144 Y6.082395 F200.000000
G1 X120.190334 Y6.039728 F200.000000
G1 X120.187827 Y6.037287 F200.000000
G1 X120.252196 Y6.298243 F200.000000
G1 X120.253201 Y6.355839 F200.000000
G1 X120.266019 Y6.412000 F200.000000
G1 Y6.889520 F200.000000
G1 X120.253201 Y6.945680 F200.000000
G1 X120.252196 Y7.003277 F200.000000
G1 X120.158216 Y7.384277 F200.000000
G1 X120.133870 Y7.432655 F200.000000
G1 X120.120756 Y7.485203 F200.000000
G1 X120.024236 Y7.675703 F200.000000
G1 X119.976299 Y7.733388 F200.000000
G1 X119.936395 Y7.796895 F200.000000
G1 X119.842415 Y7.890875 F200.000000
G1 X119.778907 Y7.930779 F200.000000
G1 X119.721222 Y7.978716 F200.000000
G1 X119.664926 Y8.007240 F200.000000
G1 X120.971999 F200.000000
G1 Y8.369240 F200.000000
G1 X123.059999 F200.000000
G1 X123.145714 Y8.388804 F200.000000
G1 X123.183044 Y8.370827 F200.000000
G1 X123.683715 F200.000000
G1 X124.134804 Y8.588061 F200.000000
G1 X124.258062 Y8.742621 F200.000000
G1 X125.973379 Y8.742620 F200.000000
G1 X126.091963 Y8.769686 F200.000000
G1 X126.212831 Y8.783305 F200.000000
G1 X126.247745 Y8.805243 F200.000000
G1 X126.287945 Y8.814418 F200.000000
G1 X126.383041 Y8.890255 F200.000000
G1 X126.486031 Y8.954968 F200.000000
G1 X127.382651 Y9.851588 F200.000000
G1 X127.447364 Y9.954578 F200.000000
G1 X127.523201 Y10.049674 F200.000000
G1 X127.532376 Y10.089874 F200.000000
G1 X127.554314 Y10.124788 F200.000000
G1 X127.567932 Y10.245656 F200.000000
G1 X127.594998 Y10.364240 F200.000000
G1 Y15.444240 F200.000000
G1 X127.567993 Y15.562556 F200.000000
G1 X127.554499 Y15.683162 F200.000000
G1 X127.532439 Y15.718331 F200.000000
G1 X127.523201 Y15.758805 F200.000000
G1 X127.447535 Y15.853687 F200.000000
G1 X127.383047 Y15.956495 F200.000000
G1 X126.335461 Y17.005703 F200.000000
G1 X126.354158 Y17.087620 F200.000000
G1 X126.242748 Y17.575738 F200.000000
G1 X125.930584 Y17.967179 F200.000000
G1 X125.479495 Y18.184412 F200.000000
G1 X124.978824 F200.000000
G1 X124.527734 Y17.967179 F200.000000
G1 X124.215571 Y17.575738 F200.000000
G1 X124.104161 Y17.087620 F200.000000
G1 X124.215571 Y16.599501 F200.000000
G1 X124.527734 Y16.208061 F200.000000
G1 X124.978824 Y15.990827 F200.000000
G1 X125.299745 F200.000000
G1 X126.145000 Y15.144264 F200.000000
G1 Y11.764395 F200.000000
G1 X126.033807 Y11.976256 F200.000000
G1 X125.610359 Y12.268541 F200.000000
G1 X125.199425 Y12.318437 F200.000000
G1 X122.830971 Y14.686892 F200.000000
G1 X122.727981 Y14.751604 F200.000000
G1 X122.632885 Y14.827441 F200.000000
G1 X122.592685 Y14.836617 F200.000000
G1 X122.557771 Y14.858554 F200.000000
G1 X122.436903 Y14.872173 F200.000000
G1 X122.318319 Y14.899239 F200.000000
G1 X120.692568 F200.000000
G1 X120.270455 Y15.190602 F200.000000
G1 X119.753976 Y15.253314 F200.000000
G1 X119.267513 Y15.068823 F200.000000
G1 X118.922509 Y14.679394 F200.000000
G1 X118.797999 Y14.174240 F200.000000
G1 X118.922509 Y13.669086 F200.000000
G1 X119.267513 Y13.279656 F200.000000
G1 X119.753976 Y13.095165 F200.000000
G1 X120.270455 Y13.157877 F200.000000
G1 X120.692568 Y13.449240 F200.000000
G1 X122.018015 F200.000000
G1 X124.163987 Y11.303268 F200.000000
G1 X124.154161 Y11.263400 F200.000000
G1 X124.277295 Y10.763823 F200.000000
G1 X124.618490 Y10.378693 F200.000000
G1 X125.099582 Y10.196239 F200.000000
G1 X125.610359 Y10.258259 F200.000000
G1 X126.024743 Y10.544288 F200.000000
G1 X125.673075 Y10.192619 F200.000000
G1 X124.258062 F200.000000
G1 X124.134804 Y10.347179 F200.000000
G1 X123.683715 Y10.564412 F200.000000
G1 X123.183044 F200.000000
G1 X122.731954 Y10.347179 F200.000000
G1 X122.419791 Y9.955738 F200.000000
G1 X122.388636 Y9.819239 F200.000000
G1 X120.971999 Y9.819239 F200.000000
G1 Y10.181240 F200.000000
G1 X118.797999 F200.000000
G1 Y9.819239 F200.000000
G1 X117.383903 Y9.819239 F200.000000
G1 X117.352748 Y9.955738 F200.000000
G1 X117.040584 Y10.347179 F200.000000
G1 X116.589495 Y10.564412 F200.000000
G1 X116.088824 F200.000000
G1 X115.637734 Y10.347179 F200.000000
G1 X115.514477 Y10.192619 F200.000000
G1 X114.098863 F200.000000
G1 X113.624998 Y10.665145 F200.000000
G1 Y10.726028 F200.000000
G1 X113.932710 Y10.378693 F200.000000
G1 X114.413802 Y10.196239 F200.000000
G1 X114.924579 Y10.258259 F200.000000
G1 X115.348027 Y10.550544 F200.000000
G1 X115.536286 Y10.909240 F200.000000
G1 X119.117274 F200.000000
G1 X119.267513 Y10.739656 F200.000000
G1 X119.753976 Y10.555165 F200.000000
G1 X120.270455 Y10.617877 F200.000000
G1 X120.698630 Y10.913425 F200.000000
G1 X120.940413 Y11.374104 F200.000000
G1 Y11.894376 F200.000000
G1 X120.698630 Y12.355054 F200.000000
G1 X120.270455 Y12.650602 F200.000000
G1 X119.753976 Y12.713314 F200.000000
G1 X119.267513 Y12.528823 F200.000000
G1 X119.117274 Y12.359239 F200.000000
G1 X114.914219 F200.000000

(Goto to Initial position)
G0 Z0.500000
G0 X0.000000 Y0.000000
G0 Z0.000000
