(Generated by ./pygerber2gcode_cui_MOD.py )
( 2013-11-01 20:28:12 )
(Initialize)

(Start form here)
G0 Z0.500000
G0 X132.994020 Y82.366855
G1 Z-0.040000 F60.000000
G1 X132.923924 Y82.400611 F200.000000
G1 X132.863097 Y82.449119 F200.000000
G1 X132.787247 Y82.466431 F200.000000
G1 X132.717151 Y82.500188 F200.000000
G1 X132.639350 F200.000000
G1 X132.563500 Y82.517500 F200.000000
G1 X5.690500 F200.000000
G1 X5.614650 Y82.500188 F200.000000
G1 X5.536849 F200.000000
G1 X5.466753 Y82.466431 F200.000000
G1 X5.390903 Y82.449119 F200.000000
G1 X5.330076 Y82.400611 F200.000000
G1 X5.259980 Y82.366855 F200.000000
G1 X5.211472 Y82.306028 F200.000000
G1 X5.150645 Y82.257520 F200.000000
G1 X5.116889 Y82.187424 F200.000000
G1 X5.068381 Y82.126597 F200.000000
G1 X5.051069 Y82.050747 F200.000000
G1 X5.017312 Y81.980651 F200.000000
G1 Y81.902850 F200.000000
G1 X5.000000 Y81.827000 F200.000000
G1 Y5.690500 F200.000000
G1 X5.017312 Y5.614650 F200.000000
G1 Y5.536849 F200.000000
G1 X5.051069 Y5.466753 F200.000000
G1 X5.068381 Y5.390903 F200.000000
G1 X5.116889 Y5.330076 F200.000000
G1 X5.150645 Y5.259980 F200.000000
G1 X5.211472 Y5.211472 F200.000000
G1 X5.259980 Y5.150645 F200.000000
G1 X5.330076 Y5.116889 F200.000000
G1 X5.390903 Y5.068381 F200.000000
G1 X5.466753 Y5.051069 F200.000000
G1 X5.536849 Y5.017312 F200.000000
G1 X5.614650 F200.000000
G1 X5.690500 Y5.000000 F200.000000
G1 X132.563500 F200.000000
G1 X132.639350 Y5.017312 F200.000000
G1 X132.717151 F200.000000
G1 X132.787247 Y5.051069 F200.000000
G1 X132.863097 Y5.068381 F200.000000
G1 X132.923924 Y5.116889 F200.000000
G1 X132.994020 Y5.150645 F200.000000
G1 X133.042528 Y5.211472 F200.000000
G1 X133.103355 Y5.259980 F200.000000
G1 X133.137111 Y5.330076 F200.000000
G1 X133.185619 Y5.390903 F200.000000
G1 X133.202931 Y5.466753 F200.000000
G1 X133.236688 Y5.536849 F200.000000
G1 Y5.614650 F200.000000
G1 X133.254000 Y5.690500 F200.000000
G1 Y81.827000 F200.000000
G1 X133.236688 Y81.902850 F200.000000
G1 Y81.980651 F200.000000
G1 X133.202931 Y82.050747 F200.000000
G1 X133.185619 Y82.126597 F200.000000
G1 X133.137111 Y82.187424 F200.000000
G1 X133.103355 Y82.257520 F200.000000
G1 X133.042528 Y82.306028 F200.000000
G1 X132.994020 Y82.366855 F200.000000
G0 Z0.500000
G0 X11.299390 Y6.742540
G1 Z-0.040000 F60.000000
G1 X11.363388 Y6.787001 F200.000000
G1 X11.394578 Y6.842136 F200.000000
G1 X11.438347 Y6.887931 F200.000000
G1 X11.643147 Y7.230853 F200.000000
G1 X11.986069 Y7.435653 F200.000000
G1 X12.029606 Y7.477264 F200.000000
G1 X12.082319 Y7.506388 F200.000000
G1 X12.129216 Y7.572466 F200.000000
G1 X12.187794 Y7.628451 F200.000000
G1 X12.208965 Y7.684831 F200.000000
G1 X12.243822 Y7.733943 F200.000000
G1 X12.624822 Y8.653423 F200.000000
G1 X12.644966 Y8.771893 F200.000000
G1 X12.672563 Y8.888852 F200.000000
G1 X12.672642 Y8.899613 F200.000000
G1 X14.454680 Y6.381000 F200.000000
G1 X10.521267 F200.000000
G1 X11.134221 Y6.627794 F200.000000
G1 X11.186245 Y6.663937 F200.000000
G1 X11.245549 Y6.686206 F200.000000
G1 X11.299390 Y6.742540 F200.000000
G0 Z0.500000
G0 X125.573800 Y6.381000
G1 Z-0.040000 F60.000000
G1 X123.232843 F200.000000
G1 X125.382443 Y8.530600 F200.000000
G1 X125.573800 F200.000000
G1 Y6.381000 F200.000000
G0 Z0.500000
G0 X14.271000 Y28.467157
G1 Z-0.040000 F60.000000
G1 Y25.058000 F200.000000
G1 X14.279732 Y25.019743 F200.000000
G1 X13.391400 Y25.908075 F200.000000
G1 Y26.895092 F200.000000
G1 X13.496732 Y26.989933 F200.000000
G1 X13.708242 Y27.464992 F200.000000
G1 Y27.985008 F200.000000
G1 X13.496732 Y28.460067 F200.000000
G1 X13.184724 Y28.741000 F200.000000
G1 X13.306447 Y28.850600 F200.000000
G1 X13.887557 F200.000000
G1 X14.271000 Y28.467157 F200.000000
G0 Z0.500000
G0 X11.758322 Y25.313921
G1 Z-0.040000 F60.000000
G1 X11.359400 Y25.712843 F200.000000
G1 Y26.895092 F200.000000
G1 X11.464732 Y26.989933 F200.000000
G1 X11.480810 Y27.026045 F200.000000
G1 X11.578600 Y26.891449 F200.000000
G1 Y25.820000 F200.000000
G1 X11.668362 Y25.426728 F200.000000
G1 X11.758322 Y25.313921 F200.000000
G0 Z0.500000
G0 X43.063261 Y59.496748
G1 Z-0.040000 F60.000000
G1 X43.084539 Y59.462884 F200.000000
G1 X43.093439 Y59.423893 F200.000000
G1 X43.166996 Y59.331656 F200.000000
G1 X43.229763 Y59.231763 F200.000000
G1 X46.853891 Y55.607634 F200.000000
G1 X46.696116 Y55.390474 F200.000000
G1 X46.592500 Y54.903000 F200.000000
G1 X46.696116 Y54.415526 F200.000000
G1 X46.989047 Y54.012341 F200.000000
G1 X47.087800 Y53.955326 F200.000000
G1 Y53.162275 F200.000000
G1 X45.213725 Y51.288200 F200.000000
G0 Z0.500000
G0 X52.363000 Y49.256200
G1 Z-0.040000 F60.000000
G1 X36.906275 Y49.256200 F200.000000
G1 X35.794200 Y50.368275 F200.000000
G1 Y53.958666 F200.000000
G1 X36.060607 Y54.198539 F200.000000
G1 X36.263310 Y54.653818 F200.000000
G1 Y54.703631 F200.000000
G1 X36.366663 Y54.709890 F200.000000
G1 X36.472164 Y54.704581 F200.000000
G1 X36.474469 Y54.705551 F200.000000
G1 X36.536116 Y54.415526 F200.000000
G1 X36.829047 Y54.012341 F200.000000
G1 X37.260643 Y53.763159 F200.000000
G1 X37.756277 Y53.711066 F200.000000
G1 X38.230250 Y53.865069 F200.000000
G1 X38.376330 Y53.996600 F200.000000
G1 X39.396311 F200.000000
G1 X39.800643 Y53.763159 F200.000000
G1 X40.296277 Y53.711066 F200.000000
G1 X40.770250 Y53.865069 F200.000000
G1 X41.140607 Y54.198539 F200.000000
G1 X41.343310 Y54.653818 F200.000000
G1 Y55.152182 F200.000000
G1 X41.243768 Y55.375757 F200.000000
G1 X41.548265 Y55.071260 F200.000000
G1 X41.512500 Y54.903000 F200.000000
G1 X41.616116 Y54.415526 F200.000000
G1 X41.909047 Y54.012341 F200.000000
G1 X42.340643 Y53.763159 F200.000000
G1 X42.836277 Y53.711066 F200.000000
G1 X43.310250 Y53.865069 F200.000000
G1 X43.680607 Y54.198539 F200.000000
G1 X43.883310 Y54.653818 F200.000000
G1 Y55.152182 F200.000000
G1 X43.680607 Y55.607461 F200.000000
G1 X43.310250 Y55.940931 F200.000000
G1 X42.836277 Y56.094934 F200.000000
G1 X42.544235 Y56.064240 F200.000000
G1 X39.350200 Y59.258275 F200.000000
G1 Y60.733085 F200.000000
G1 X39.667979 Y61.019215 F200.000000
G1 X39.881422 Y61.498615 F200.000000
G1 Y62.023385 F200.000000
G1 X39.667979 Y62.502785 F200.000000
G1 X39.278000 Y62.853924 F200.000000
G1 X38.778915 Y63.016087 F200.000000
G1 X38.686710 Y63.006395 F200.000000
G1 X38.685276 Y63.031000 F200.000000
G1 X38.686710 Y63.055605 F200.000000
G1 X38.778915 Y63.045913 F200.000000
G1 X39.278000 Y63.208076 F200.000000
G1 X39.485156 Y63.394600 F200.000000
G0 Z0.500000
G0 X50.077000 Y47.732200
G1 Z-0.040000 F60.000000
G1 X34.366275 F200.000000
G1 X33.254200 Y48.844275 F200.000000
G1 Y53.958666 F200.000000
G1 X33.520607 Y54.198539 F200.000000
G1 X33.723310 Y54.653818 F200.000000
G1 Y54.703631 F200.000000
G1 X33.826663 Y54.709890 F200.000000
G1 X33.932164 Y54.704581 F200.000000
G1 X33.934469 Y54.705551 F200.000000
G1 X33.996116 Y54.415526 F200.000000
G1 X34.289047 Y54.012341 F200.000000
G1 X34.387800 Y53.955326 F200.000000
G1 Y50.077000 F200.000000
G1 X34.414052 Y49.961982 F200.000000
G1 X34.427261 Y49.844748 F200.000000
G1 X34.448539 Y49.810884 F200.000000
G1 X34.457439 Y49.771893 F200.000000
G1 X34.530996 Y49.679656 F200.000000
G1 X34.593763 Y49.579763 F200.000000
G1 X36.117763 Y48.055763 F200.000000
G0 Z0.500000
G0 X90.188401 Y71.627220
G1 Z-0.040000 F60.000000
G1 X90.217000 F200.000000
G1 Y70.151000 F200.000000
G1 X90.572600 F200.000000
G1 Y68.349900 F200.000000
G1 X90.384116 Y68.090474 F200.000000
G1 X90.322577 Y67.800958 F200.000000
G1 X90.313668 Y67.804642 F200.000000
G1 X90.209808 Y67.798749 F200.000000
G1 X90.111310 Y67.804598 F200.000000
G1 Y67.852182 F200.000000
G1 X89.908607 Y68.307461 F200.000000
G1 X89.845400 Y68.364372 F200.000000
G1 Y70.568047 F200.000000
G1 X89.959979 Y70.671215 F200.000000
G1 X90.173422 Y71.150615 F200.000000
G1 Y71.621979 F200.000000
G1 X90.188401 Y71.627220 F200.000000
G0 Z0.500000
G0 X89.810600 Y77.763000
G1 Z-0.040000 F60.000000
G1 Y75.090443 F200.000000
G1 X88.298078 Y73.577922 F200.000000
G1 X88.217174 Y73.449163 F200.000000
G1 X88.122362 Y73.330272 F200.000000
G1 X88.110891 Y73.280014 F200.000000
G1 X88.083464 Y73.236365 F200.000000
G1 X88.066438 Y73.085254 F200.000000
G1 X88.032600 Y72.937000 F200.000000
G1 Y72.265572 F200.000000
G1 X87.786106 Y71.926302 F200.000000
G1 X87.677000 Y71.413000 F200.000000
G1 X87.786106 Y70.899698 F200.000000
G1 X88.032600 Y70.560428 F200.000000
G1 Y68.349900 F200.000000
G1 X87.844116 Y68.090474 F200.000000
G1 X87.782577 Y67.800958 F200.000000
G1 X87.773668 Y67.804642 F200.000000
G1 X87.669808 Y67.798749 F200.000000
G1 X87.571310 Y67.804598 F200.000000
G1 Y67.852182 F200.000000
G1 X87.368607 Y68.307461 F200.000000
G1 X87.305400 Y68.364372 F200.000000
G1 Y70.568047 F200.000000
G1 X87.419979 Y70.671215 F200.000000
G1 X87.633422 Y71.150615 F200.000000
G1 Y71.675385 F200.000000
G1 X87.419979 Y72.154785 F200.000000
G1 X87.305400 Y72.257953 F200.000000
G1 Y73.953000 F200.000000
G1 X87.271562 Y74.101254 F200.000000
G1 X87.254536 Y74.252365 F200.000000
G1 X87.227109 Y74.296014 F200.000000
G1 X87.215638 Y74.346272 F200.000000
G1 X87.120826 Y74.465163 F200.000000
G1 X87.039922 Y74.593922 F200.000000
G1 X86.543400 Y75.090443 F200.000000
G1 Y77.763000 F200.000000
G1 X86.453638 Y78.156272 F200.000000
G0 Z0.500000
G0 X67.074401 Y71.881220
G1 Z-0.040000 F60.000000
G1 X67.103000 F200.000000
G1 Y70.405000 F200.000000
G1 X67.458600 F200.000000
G1 Y68.349900 F200.000000
G1 X67.270116 Y68.090474 F200.000000
G1 X67.208577 Y67.800958 F200.000000
G1 X67.199668 Y67.804642 F200.000000
G1 X67.095808 Y67.798749 F200.000000
G1 X66.997310 Y67.804598 F200.000000
G1 Y67.852182 F200.000000
G1 X66.794607 Y68.307461 F200.000000
G1 X66.731400 Y68.364372 F200.000000
G1 Y70.822047 F200.000000
G1 X66.845979 Y70.925215 F200.000000
G1 X67.059422 Y71.404615 F200.000000
G1 Y71.875979 F200.000000
G1 X67.074401 Y71.881220 F200.000000
G0 Z0.500000
G0 X60.854600 Y77.763000
G1 Z-0.040000 F60.000000
G1 Y74.461000 F200.000000
G1 X60.888438 Y74.312746 F200.000000
G1 X60.905464 Y74.161635 F200.000000
G1 X60.932891 Y74.117986 F200.000000
G1 X60.944362 Y74.067728 F200.000000
G1 X61.039174 Y73.948837 F200.000000
G1 X61.120078 Y73.820078 F200.000000
G1 X62.378600 Y72.561557 F200.000000
G1 Y72.519572 F200.000000
G1 X62.132106 Y72.180302 F200.000000
G1 X62.023000 Y71.667000 F200.000000
G1 X62.132106 Y71.153698 F200.000000
G1 X62.378600 Y70.814428 F200.000000
G1 Y68.349900 F200.000000
G1 X62.190116 Y68.090474 F200.000000
G1 X62.128577 Y67.800958 F200.000000
G1 X62.119668 Y67.804642 F200.000000
G1 X62.015808 Y67.798749 F200.000000
G1 X61.917310 Y67.804598 F200.000000
G1 Y67.852182 F200.000000
G1 X61.714607 Y68.307461 F200.000000
G1 X61.651400 Y68.364372 F200.000000
G1 Y70.822047 F200.000000
G1 X61.765979 Y70.925215 F200.000000
G1 X61.979422 Y71.404615 F200.000000
G1 Y71.929385 F200.000000
G1 X61.765979 Y72.408785 F200.000000
G1 X61.376000 Y72.759924 F200.000000
G1 X60.876915 Y72.922087 F200.000000
G1 X60.781758 Y72.912085 F200.000000
G1 X57.958873 Y75.734970 F200.000000
G1 X58.290259 Y75.975737 F200.000000
G1 X58.626686 Y76.349376 F200.000000
G1 X58.878077 Y76.784798 F200.000000
G1 X59.033445 Y77.262972 F200.000000
G1 X59.074942 Y77.657789 F200.000000
G1 X59.081479 Y77.654640 F200.000000
G1 X59.099726 F200.000000
G0 Z0.500000
G0 X43.960401 Y71.627220
G1 Z-0.040000 F60.000000
G1 X43.989000 F200.000000
G1 Y70.151000 F200.000000
G1 X44.344600 F200.000000
G1 Y68.349900 F200.000000
G1 X44.156116 Y68.090474 F200.000000
G1 X44.094577 Y67.800958 F200.000000
G1 X44.085668 Y67.804642 F200.000000
G1 X43.981808 Y67.798749 F200.000000
G1 X43.883310 Y67.804598 F200.000000
G1 Y67.852182 F200.000000
G1 X43.680607 Y68.307461 F200.000000
G1 X43.617400 Y68.364372 F200.000000
G1 Y70.568047 F200.000000
G1 X43.731979 Y70.671215 F200.000000
G1 X43.945422 Y71.150615 F200.000000
G1 Y71.621979 F200.000000
G1 X43.960401 Y71.627220 F200.000000
G0 Z0.500000
G0 X41.894362 Y73.584272
G1 Z-0.040000 F60.000000
G1 X41.882891 Y73.534014 F200.000000
G1 X41.855464 Y73.490365 F200.000000
G1 X41.838438 Y73.339254 F200.000000
G1 X41.804600 Y73.191000 F200.000000
G1 Y72.265572 F200.000000
G1 X41.558106 Y71.926302 F200.000000
G1 X41.449000 Y71.413000 F200.000000
G1 X41.558106 Y70.899698 F200.000000
G1 X41.804600 Y70.560428 F200.000000
G1 Y68.349900 F200.000000
G1 X41.616116 Y68.090474 F200.000000
G1 X41.554577 Y67.800958 F200.000000
G1 X41.545668 Y67.804642 F200.000000
G1 X41.441808 Y67.798749 F200.000000
G1 X41.343310 Y67.804598 F200.000000
G1 Y67.852182 F200.000000
G1 X41.140607 Y68.307461 F200.000000
G1 X41.077400 Y68.364372 F200.000000
G1 Y70.568047 F200.000000
G1 X41.191979 Y70.671215 F200.000000
G1 X41.405422 Y71.150615 F200.000000
G1 Y71.675385 F200.000000
G1 X41.191979 Y72.154785 F200.000000
G1 X41.077400 Y72.257953 F200.000000
G1 Y73.699000 F200.000000
G1 X41.043562 Y73.847254 F200.000000
G1 X41.026536 Y73.998365 F200.000000
G1 X40.999109 Y74.042014 F200.000000
G1 X40.987638 Y74.092272 F200.000000
G1 X40.892826 Y74.211163 F200.000000
G1 X40.811922 Y74.339922 F200.000000
G1 X40.061400 Y75.090443 F200.000000
G1 Y77.763000 F200.000000
G1 X39.971638 Y78.156272 F200.000000
G0 Z0.500000
G0 X83.195261 Y59.750748
G1 Z-0.040000 F60.000000
G1 X83.216539 Y59.716884 F200.000000
G1 X83.225439 Y59.677893 F200.000000
G1 X83.298996 Y59.585656 F200.000000
G1 X83.361763 Y59.485763 F200.000000
G1 X86.862479 Y55.985046 F200.000000
G1 X86.524277 Y56.094934 F200.000000
G1 X86.028643 Y56.042841 F200.000000
G1 X85.624311 Y55.809400 F200.000000
G1 X84.604330 F200.000000
G1 X84.458250 Y55.940931 F200.000000
G1 X83.984277 Y56.094934 F200.000000
G1 X83.488643 Y56.042841 F200.000000
G1 X83.057047 Y55.793659 F200.000000
G1 X82.764116 Y55.390474 F200.000000
G1 X82.660500 Y54.903000 F200.000000
G1 X82.764116 Y54.415526 F200.000000
G1 X83.057047 Y54.012341 F200.000000
G1 X83.488643 Y53.763159 F200.000000
G1 X83.984277 Y53.711066 F200.000000
G1 X84.458250 Y53.865069 F200.000000
G1 X84.604330 Y53.996600 F200.000000
G1 X85.624311 F200.000000
G1 X86.028643 Y53.763159 F200.000000
G1 X86.524277 Y53.711066 F200.000000
G1 X86.998250 Y53.865069 F200.000000
G1 X87.368607 Y54.198539 F200.000000
G1 X87.571310 Y54.653818 F200.000000
G1 Y55.152182 F200.000000
G1 X87.471768 Y55.375757 F200.000000
G1 X87.776265 Y55.071260 F200.000000
G1 X87.740500 Y54.903000 F200.000000
G1 X87.844116 Y54.415526 F200.000000
G1 X88.137047 Y54.012341 F200.000000
G1 X88.568643 Y53.763159 F200.000000
G1 X89.064277 Y53.711066 F200.000000
G1 X89.538250 Y53.865069 F200.000000
G1 X89.908607 Y54.198539 F200.000000
G1 X90.111310 Y54.653818 F200.000000
G1 Y55.152182 F200.000000
G1 X90.011768 Y55.375757 F200.000000
G1 X90.316265 Y55.071260 F200.000000
G1 X90.280500 Y54.903000 F200.000000
G1 X90.384116 Y54.415526 F200.000000
G1 X90.677047 Y54.012341 F200.000000
G1 X91.108643 Y53.763159 F200.000000
G1 X91.604277 Y53.711066 F200.000000
G1 X92.078250 Y53.865069 F200.000000
G1 X92.448607 Y54.198539 F200.000000
G1 X92.651310 Y54.653818 F200.000000
G1 Y55.022215 F200.000000
G1 X92.833990 Y54.839535 F200.000000
G1 X92.924116 Y54.415526 F200.000000
G1 X93.217047 Y54.012341 F200.000000
G1 X93.315800 Y53.955326 F200.000000
G1 Y52.654275 F200.000000
G1 X90.896758 Y50.235233 F200.000000
G1 X90.842277 Y50.252934 F200.000000
G1 X90.346643 Y50.200841 F200.000000
G1 X89.915047 Y49.951659 F200.000000
G1 X89.622116 Y49.548474 F200.000000
G1 X89.518500 Y49.061000 F200.000000
G1 X89.622116 Y48.573526 F200.000000
G1 X89.915047 Y48.170341 F200.000000
G1 X90.233988 Y47.986200 F200.000000
G1 X81.319000 F200.000000
G1 X81.203982 Y47.959948 F200.000000
G1 X81.086748 Y47.946739 F200.000000
G1 X81.052884 Y47.925461 F200.000000
G1 X81.013893 Y47.916561 F200.000000
G1 X80.921656 Y47.843004 F200.000000
G1 X80.821763 Y47.780237 F200.000000
G1 X79.297763 Y46.256237 F200.000000
G1 X79.234996 Y46.156344 F200.000000
G1 X79.161439 Y46.064107 F200.000000
G1 X79.152539 Y46.025116 F200.000000
G1 X79.131261 Y45.991252 F200.000000
G1 X79.118052 Y45.874018 F200.000000
G1 X79.091800 Y45.759000 F200.000000
G1 Y37.009037 F200.000000
G0 Z0.500000
G0 X77.958200 Y37.009037
G1 Z-0.040000 F60.000000
G1 Y45.467725 F200.000000
G1 X81.816237 Y49.325763 F200.000000
G1 X81.879004 Y49.425656 F200.000000
G1 X81.952561 Y49.517893 F200.000000
G1 X81.961461 Y49.556884 F200.000000
G1 X81.982739 Y49.590748 F200.000000
G1 X81.995948 Y49.707982 F200.000000
G1 X82.022200 Y49.823000 F200.000000
G1 Y53.958666 F200.000000
G1 X82.288607 Y54.198539 F200.000000
G1 X82.491310 Y54.653818 F200.000000
G1 Y55.152182 F200.000000
G1 X82.288607 Y55.607461 F200.000000
G1 X81.918250 Y55.940931 F200.000000
G1 X81.444277 Y56.094934 F200.000000
G1 X80.948643 Y56.042841 F200.000000
G1 X80.517047 Y55.793659 F200.000000
G1 X80.224116 Y55.390474 F200.000000
G1 X80.120500 Y54.903000 F200.000000
G1 X80.224116 Y54.415526 F200.000000
G1 X80.517047 Y54.012341 F200.000000
G1 X80.615800 Y53.955326 F200.000000
G1 Y50.114275 F200.000000
G1 X76.757763 Y46.256237 F200.000000
G1 X76.694996 Y46.156344 F200.000000
G1 X76.621439 Y46.064107 F200.000000
G1 X76.612539 Y46.025116 F200.000000
G1 X76.591261 Y45.991252 F200.000000
G1 X76.578052 Y45.874018 F200.000000
G1 X76.551800 Y45.759000 F200.000000
G1 Y37.009037 F200.000000
G0 Z0.500000
G0 X73.942237 Y52.119763
G1 Z-0.040000 F60.000000
G1 X74.005004 Y52.219656 F200.000000
G1 X74.078561 Y52.311893 F200.000000
G1 X74.087461 Y52.350884 F200.000000
G1 X74.108739 Y52.384748 F200.000000
G1 X74.121948 Y52.501982 F200.000000
G1 X74.148200 Y52.617000 F200.000000
G1 Y53.704500 F200.000000
G1 X74.643500 F200.000000
G1 Y55.107025 F200.000000
G1 X75.818235 Y56.281760 F200.000000
G1 X76.056839 Y56.256682 F200.000000
G1 X75.090078 Y55.289922 F200.000000
G1 X75.009174 Y55.161163 F200.000000
G1 X74.914362 Y55.042272 F200.000000
G1 X74.902891 Y54.992014 F200.000000
G1 X74.875464 Y54.948365 F200.000000
G1 X74.858438 Y54.797254 F200.000000
G1 X74.824600 Y54.649000 F200.000000
G1 Y50.579443 F200.000000
G1 X74.212557 Y49.967400 F200.000000
G1 X71.738122 Y49.967400 F200.000000
G1 X71.810344 Y50.024996 F200.000000
G1 X71.910237 Y50.087763 F200.000000
G1 X73.942237 Y52.119763 F200.000000
G0 Z0.500000
G0 X62.835800 Y59.729000
G1 Z-0.040000 F60.000000
G1 X62.862052 Y59.613982 F200.000000
G1 X62.875261 Y59.496748 F200.000000
G1 X62.896539 Y59.462884 F200.000000
G1 X62.905439 Y59.423893 F200.000000
G1 X62.978996 Y59.331656 F200.000000
G1 X63.041763 Y59.231763 F200.000000
G1 X66.288479 Y55.985046 F200.000000
G1 X65.950277 Y56.094934 F200.000000
G1 X65.658235 Y56.064240 F200.000000
G1 X61.702200 Y60.020275 F200.000000
G1 Y60.733085 F200.000000
G1 X62.019979 Y61.019215 F200.000000
G1 X62.233422 Y61.498615 F200.000000
G1 Y62.023385 F200.000000
G1 X62.019979 Y62.502785 F200.000000
G1 X61.630000 Y62.853924 F200.000000
G1 X61.130915 Y63.016087 F200.000000
G1 X60.609021 Y62.961233 F200.000000
G1 X60.154557 Y62.698849 F200.000000
G1 X59.846106 Y62.274302 F200.000000
G0 Z0.500000
G0 X105.685600 Y17.316557
G1 Z-0.040000 F60.000000
G1 Y17.061341 F200.000000
G1 X105.656607 Y17.126461 F200.000000
G1 X105.286250 Y17.459931 F200.000000
G1 X104.812277 Y17.613934 F200.000000
G1 X104.316643 Y17.561841 F200.000000
G1 X104.056708 Y17.411767 F200.000000
G1 X102.215200 Y19.253275 F200.000000
G1 Y20.961900 F200.000000
G1 X102.349060 Y21.028554 F200.000000
G1 X102.692952 Y21.405786 F200.000000
G1 X102.772202 Y21.610354 F200.000000
G1 X103.025517 Y21.201237 F200.000000
G1 X103.145600 Y21.110554 F200.000000
G1 Y20.232000 F200.000000
G1 X103.179438 Y20.083746 F200.000000
G1 X103.196464 Y19.932635 F200.000000
G1 X103.223891 Y19.888986 F200.000000
G1 X103.235362 Y19.838728 F200.000000
G1 X103.330174 Y19.719837 F200.000000
G1 X103.411078 Y19.591078 F200.000000
G1 X105.685600 Y17.316557 F200.000000
G0 Z0.500000
G0 X94.924344 Y15.480996
G1 Z-0.040000 F60.000000
G1 X95.024237 Y15.543763 F200.000000
G1 X95.874456 Y16.393981 F200.000000
G1 X95.904265 Y16.253740 F200.000000
G1 X95.124725 Y15.474200 F200.000000
G1 X94.915823 F200.000000
G1 X94.924344 Y15.480996 F200.000000
G0 Z0.500000
G0 X104.347948 Y38.150982
G1 Z-0.040000 F60.000000
G1 X104.374200 Y38.266000 F200.000000
G1 Y38.393000 F200.000000
G1 Y38.592082 F200.000000
G1 X104.520047 Y38.391341 F200.000000
G1 X104.618800 Y38.334326 F200.000000
G1 Y38.049275 F200.000000
G1 X101.474725 Y34.905200 F200.000000
G1 X101.212168 Y34.905200 F200.000000
G1 X101.211607 Y34.906461 F200.000000
G1 X100.841250 Y35.239931 F200.000000
G1 X100.367277 Y35.393934 F200.000000
G1 X99.871643 Y35.341841 F200.000000
G1 X99.440047 Y35.092659 F200.000000
G1 X99.147116 Y34.689474 F200.000000
G1 X99.106961 Y34.500562 F200.000000
G1 X99.094698 Y34.507338 F200.000000
G1 X99.076838 Y34.508338 F200.000000
G1 X99.060721 Y34.516100 F200.000000
G1 X98.938311 F200.000000
G1 X98.816094 Y34.522948 F200.000000
G1 X98.799568 Y34.516100 F200.000000
G1 X98.786200 F200.000000
G1 Y34.926725 F200.000000
G1 X99.898275 Y36.038800 F200.000000
G1 X102.147000 F200.000000
G1 X102.262018 Y36.065052 F200.000000
G1 X102.379252 Y36.078261 F200.000000
G1 X102.413116 Y36.099539 F200.000000
G1 X102.452107 Y36.108439 F200.000000
G1 X102.544344 Y36.181996 F200.000000
G1 X102.644237 Y36.244763 F200.000000
G1 X104.168237 Y37.768763 F200.000000
G1 X104.231004 Y37.868656 F200.000000
G1 X104.304561 Y37.960893 F200.000000
G1 X104.313461 Y37.999884 F200.000000
G1 X104.334739 Y38.033748 F200.000000
G1 X104.347948 Y38.150982 F200.000000
G0 Z0.500000
G0 X94.652561 Y52.057893
G1 Z-0.040000 F60.000000
G1 X94.661461 Y52.096884 F200.000000
G1 X94.682739 Y52.130748 F200.000000
G1 X94.695948 Y52.247982 F200.000000
G1 X94.722200 Y52.363000 F200.000000
G1 Y53.958666 F200.000000
G1 X94.988607 Y54.198539 F200.000000
G1 X95.191310 Y54.653818 F200.000000
G1 Y55.152182 F200.000000
G1 X94.988607 Y55.607461 F200.000000
G1 X94.618250 Y55.940931 F200.000000
G1 X94.144277 Y56.094934 F200.000000
G1 X93.648643 Y56.042841 F200.000000
G1 X93.630252 Y56.032223 F200.000000
G1 X89.642200 Y60.020275 F200.000000
G1 Y60.245000 F200.000000
G1 X90.201000 F200.000000
G1 Y62.011157 F200.000000
G1 X90.318600 Y61.893557 F200.000000
G1 Y59.983000 F200.000000
G1 X90.352438 Y59.834746 F200.000000
G1 X90.369464 Y59.683635 F200.000000
G1 X90.396891 Y59.639986 F200.000000
G1 X90.408362 Y59.589728 F200.000000
G1 X90.503174 Y59.470837 F200.000000
G1 X90.584078 Y59.342078 F200.000000
G1 X91.854078 Y58.072078 F200.000000
G1 X91.982837 Y57.991174 F200.000000
G1 X92.101728 Y57.896362 F200.000000
G1 X92.151986 Y57.884891 F200.000000
G1 X92.195635 Y57.857464 F200.000000
G1 X92.346746 Y57.840438 F200.000000
G1 X92.495000 Y57.806600 F200.000000
G1 X97.829000 F200.000000
G1 X97.977254 Y57.840438 F200.000000
G1 X98.128365 Y57.857464 F200.000000
G1 X98.141701 Y57.865844 F200.000000
G1 X98.004116 Y57.676474 F200.000000
G1 X97.900500 Y57.189000 F200.000000
G1 X98.004116 Y56.701526 F200.000000
G1 X98.268777 Y56.337252 F200.000000
G1 X97.757500 Y55.825975 F200.000000
G1 Y56.101500 F200.000000
G1 X95.360500 F200.000000
G1 Y53.704500 F200.000000
G1 X95.509025 F200.000000
G1 X95.045763 Y53.241237 F200.000000
G1 X94.982996 Y53.141344 F200.000000
G1 X94.909439 Y53.049107 F200.000000
G1 X94.900539 Y53.010116 F200.000000
G1 X94.879261 Y52.976252 F200.000000
G1 X94.866052 Y52.859018 F200.000000
G1 X94.839800 Y52.744000 F200.000000
G1 Y49.836356 F200.000000
G1 X93.195217 Y47.986200 F200.000000
G1 X91.202780 Y47.986200 F200.000000
G1 X91.316250 Y48.023069 F200.000000
G1 X91.686607 Y48.356539 F200.000000
G1 X91.889310 Y48.811818 F200.000000
G1 Y49.238835 F200.000000
G1 X94.516237 Y51.865763 F200.000000
G1 X94.579004 Y51.965656 F200.000000
G1 X94.652561 Y52.057893 F200.000000
G0 Z0.500000
G0 X59.846106 Y62.274302
G1 Z-0.040000 F60.000000
G1 X59.737000 Y61.761000 F200.000000
G1 X59.846106 Y61.247698 F200.000000
G1 X60.154557 Y60.823151 F200.000000
G1 X60.295800 Y60.741605 F200.000000
G1 Y59.729000 F200.000000
G1 X60.322052 Y59.613982 F200.000000
G1 X60.335261 Y59.496748 F200.000000
G1 X60.356539 Y59.462884 F200.000000
G1 X60.365439 Y59.423893 F200.000000
G1 X60.438996 Y59.331656 F200.000000
G1 X60.501763 Y59.231763 F200.000000
G1 X63.748479 Y55.985046 F200.000000
G1 X63.410277 Y56.094934 F200.000000
G1 X62.914643 Y56.042841 F200.000000
G1 X62.510311 Y55.809400 F200.000000
G1 X61.490330 F200.000000
G1 X61.344250 Y55.940931 F200.000000
G1 X60.870277 Y56.094934 F200.000000
G1 X60.374643 Y56.042841 F200.000000
G1 X59.943047 Y55.793659 F200.000000
G1 X59.650116 Y55.390474 F200.000000
G1 X59.546500 Y54.903000 F200.000000
G1 X59.650116 Y54.415526 F200.000000
G1 X59.943047 Y54.012341 F200.000000
G1 X60.374643 Y53.763159 F200.000000
G1 X60.870277 Y53.711066 F200.000000
G1 X61.344250 Y53.865069 F200.000000
G1 X61.490330 Y53.996600 F200.000000
G1 X62.510311 F200.000000
G1 X62.914643 Y53.763159 F200.000000
G1 X63.410277 Y53.711066 F200.000000
G1 X63.884250 Y53.865069 F200.000000
G1 X64.254607 Y54.198539 F200.000000
G1 X64.457310 Y54.653818 F200.000000
G1 Y55.152182 F200.000000
G1 X64.357768 Y55.375757 F200.000000
G1 X64.662265 Y55.071260 F200.000000
G1 X64.626500 Y54.903000 F200.000000
G1 X64.730116 Y54.415526 F200.000000
G1 X65.023047 Y54.012341 F200.000000
G1 X65.454643 Y53.763159 F200.000000
G1 X65.950277 Y53.711066 F200.000000
G1 X66.424250 Y53.865069 F200.000000
G1 X66.794607 Y54.198539 F200.000000
G1 X66.997310 Y54.653818 F200.000000
G1 Y55.152182 F200.000000
G1 X66.897768 Y55.375757 F200.000000
G1 X67.202265 Y55.071260 F200.000000
G1 X67.166500 Y54.903000 F200.000000
G1 X67.270116 Y54.415526 F200.000000
G1 X67.563047 Y54.012341 F200.000000
G1 X67.994643 Y53.763159 F200.000000
G1 X68.490277 Y53.711066 F200.000000
G1 X68.964250 Y53.865069 F200.000000
G1 X69.334607 Y54.198539 F200.000000
G1 X69.537310 Y54.653818 F200.000000
G1 Y55.152182 F200.000000
G1 X69.437768 Y55.375757 F200.000000
G1 X69.742265 Y55.071260 F200.000000
G1 X69.706500 Y54.903000 F200.000000
G1 X69.810116 Y54.415526 F200.000000
G1 X70.103047 Y54.012341 F200.000000
G1 X70.201800 Y53.955326 F200.000000
G1 Y53.416275 F200.000000
G1 X69.597725 Y52.812200 F200.000000
G1 X67.811168 Y52.812200 F200.000000
G1 X67.810607 Y52.813461 F200.000000
G1 X67.440250 Y53.146931 F200.000000
G1 X66.966277 Y53.300934 F200.000000
G1 X66.470643 Y53.248841 F200.000000
G1 X66.039047 Y52.999659 F200.000000
G1 X65.746116 Y52.596474 F200.000000
G1 X65.642500 Y52.109000 F200.000000
G1 X65.746116 Y51.621526 F200.000000
G1 X65.988291 Y51.288200 F200.000000
G1 X64.809000 Y51.288200 F200.000000
G1 X64.693982 Y51.261948 F200.000000
G1 X64.576748 Y51.248739 F200.000000
G1 X64.542884 Y51.227461 F200.000000
G1 X64.503893 Y51.218561 F200.000000
G1 X64.411656 Y51.145004 F200.000000
G1 X64.311763 Y51.082237 F200.000000
G1 X62.533763 Y49.304237 F200.000000
G1 X62.470996 Y49.204344 F200.000000
G1 X62.420921 Y49.141554 F200.000000
G1 X58.908200 Y52.654275 F200.000000
G1 Y53.958666 F200.000000
G1 X59.174607 Y54.198539 F200.000000
G1 X59.377310 Y54.653818 F200.000000
G1 Y55.152182 F200.000000
G1 X59.174607 Y55.607461 F200.000000
G1 X58.804250 Y55.940931 F200.000000
G1 X58.330277 Y56.094934 F200.000000
G1 X57.834643 Y56.042841 F200.000000
G1 X57.403047 Y55.793659 F200.000000
G1 X57.110116 Y55.390474 F200.000000
G1 X57.006500 Y54.903000 F200.000000
G1 X57.110116 Y54.415526 F200.000000
G1 X57.403047 Y54.012341 F200.000000
G1 X57.501800 Y53.955326 F200.000000
G1 Y52.363000 F200.000000
G1 X57.528052 Y52.247982 F200.000000
G1 X57.541261 Y52.130748 F200.000000
G1 X57.562539 Y52.096884 F200.000000
G1 X57.571439 Y52.057893 F200.000000
G1 X57.644996 Y51.965656 F200.000000
G1 X57.707763 Y51.865763 F200.000000
G1 X61.311800 Y48.261725 F200.000000
G1 Y37.009037 F200.000000
G0 Z0.500000
G0 X45.213725 Y51.288200
G1 Z-0.040000 F60.000000
G1 X40.125168 Y51.288200 F200.000000
G1 X40.124607 Y51.289461 F200.000000
G1 X39.754250 Y51.622931 F200.000000
G1 X39.280277 Y51.776934 F200.000000
G1 X38.784643 Y51.724841 F200.000000
G1 X38.353047 Y51.475659 F200.000000
G1 X38.060116 Y51.072474 F200.000000
G1 X37.956500 Y50.585000 F200.000000
G1 X38.060116 Y50.097526 F200.000000
G1 X38.353047 Y49.694341 F200.000000
G1 X38.784643 Y49.445159 F200.000000
G1 X39.280277 Y49.393066 F200.000000
G1 X39.754250 Y49.547069 F200.000000
G1 X40.124607 Y49.880539 F200.000000
G1 X40.125168 Y49.881800 F200.000000
G1 X45.505000 Y49.881800 F200.000000
G1 X45.620018 Y49.908052 F200.000000
G1 X45.737252 Y49.921261 F200.000000
G1 X45.771116 Y49.942539 F200.000000
G0 Z0.500000
G0 X17.820439 Y17.983793
G1 Z-0.040000 F60.000000
G1 X17.893996 Y17.891556 F200.000000
G1 X17.956763 Y17.791663 F200.000000
G1 X18.230642 Y17.517783 F200.000000
G1 X18.209500 Y17.496641 F200.000000
G1 X18.177372 Y17.481168 F200.000000
G1 X18.165505 Y17.466288 F200.000000
G1 X17.834050 Y17.764731 F200.000000
G1 X17.360077 Y17.918734 F200.000000
G1 X16.864443 Y17.866641 F200.000000
G1 X16.432847 Y17.617459 F200.000000
G1 X16.296650 Y17.430000 F200.000000
G1 X14.884475 Y17.430000 F200.000000
G1 X14.102600 Y18.211875 F200.000000
G0 Z0.500000
G0 X72.741800 Y18.883276
G1 Z-0.040000 F60.000000
G1 Y18.327000 F200.000000
G1 X72.768052 Y18.211982 F200.000000
G1 X72.781261 Y18.094748 F200.000000
G1 X72.802539 Y18.060884 F200.000000
G1 X72.811439 Y18.021893 F200.000000
G1 X72.884996 Y17.929656 F200.000000
G1 X72.947763 Y17.829763 F200.000000
G1 X72.995800 Y17.781725 F200.000000
G1 Y16.795000 F200.000000
G1 X72.437000 F200.000000
G1 Y14.271000 F200.000000
G1 X74.961000 F200.000000
G1 Y16.795000 F200.000000
G1 X74.402200 F200.000000
G1 Y17.391325 F200.000000
G1 X75.364309 Y16.429216 F200.000000
G1 X75.086106 Y16.046302 F200.000000
G1 X74.977000 Y15.533000 F200.000000
G1 X75.086106 Y15.019698 F200.000000
G1 X75.394557 Y14.595151 F200.000000
G1 X75.849021 Y14.332767 F200.000000
G1 X76.370915 Y14.277913 F200.000000
G1 X76.605737 Y14.354212 F200.000000
G1 X76.468050 Y14.216525 F200.000000
G1 X76.370915 Y14.248087 F200.000000
G1 X75.849021 Y14.193233 F200.000000
G1 X75.394557 Y13.930849 F200.000000
G1 X75.086106 Y13.506302 F200.000000
G1 X74.985338 Y13.032228 F200.000000
G1 X74.969000 Y13.031276 F200.000000
G1 X74.933422 Y13.033349 F200.000000
G1 Y13.255385 F200.000000
G1 X74.719979 Y13.734785 F200.000000
G1 X74.330000 Y14.085924 F200.000000
G1 X73.830915 Y14.248087 F200.000000
G1 X73.309021 Y14.193233 F200.000000
G1 X72.854557 Y13.930849 F200.000000
G1 X72.831708 Y13.899400 F200.000000
G1 X72.804443 F200.000000
G1 X72.319400 Y14.384443 F200.000000
G1 Y17.311000 F200.000000
G1 X72.285562 Y17.459254 F200.000000
G1 X72.268536 Y17.610365 F200.000000
G1 X72.241109 Y17.654014 F200.000000
G1 X72.229638 Y17.704272 F200.000000
G1 X72.134826 Y17.823163 F200.000000
G1 X72.053922 Y17.951922 F200.000000
G1 X70.691142 Y19.314701 F200.000000
G0 Z0.500000
G0 X77.531459 Y13.061024
G1 Z-0.040000 F60.000000
G1 X77.473422 Y13.067639 F200.000000
G1 Y13.232947 F200.000000
G1 X77.593533 Y13.353058 F200.000000
G1 X77.531459 Y13.061024 F200.000000
G0 Z0.500000
G0 X78.177272 Y14.070980
G1 Z-0.040000 F60.000000
G1 X78.185948 Y14.147982 F200.000000
G1 X78.212200 Y14.263000 F200.000000
G1 Y14.434854 F200.000000
G1 X78.389021 Y14.332767 F200.000000
G1 X78.724056 Y14.297553 F200.000000
G1 X78.725641 Y14.263042 F200.000000
G1 X78.723468 Y14.228385 F200.000000
G1 X78.389021 Y14.193233 F200.000000
G1 X78.177272 Y14.070980 F200.000000
G0 Z0.500000
G0 X80.361800 Y18.883276
G1 Z-0.040000 F60.000000
G1 Y16.236200 F200.000000
G1 X79.817159 F200.000000
G1 X79.799979 Y16.274785 F200.000000
G1 X79.410000 Y16.625924 F200.000000
G1 X78.910915 Y16.788087 F200.000000
G1 X78.389021 Y16.733233 F200.000000
G1 X78.212200 Y16.631146 F200.000000
G1 Y17.273725 F200.000000
G1 X79.686753 Y18.748278 F200.000000
G0 Z0.500000
G0 X39.485156 Y63.394600
G1 Z-0.040000 F60.000000
G1 X40.319708 Y63.394600 F200.000000
G1 X40.342557 Y63.363151 F200.000000
G1 X40.797021 Y63.100767 F200.000000
G1 X41.318915 Y63.045913 F200.000000
G1 X41.818000 Y63.208076 F200.000000
G1 X42.025156 Y63.394600 F200.000000
G1 X42.859708 Y63.394600 F200.000000
G1 X42.882557 Y63.363151 F200.000000
G1 X43.337021 Y63.100767 F200.000000
G1 X43.858915 Y63.045913 F200.000000
G1 X44.314285 Y63.193872 F200.000000
G1 X44.485157 Y63.023000 F200.000000
G1 X42.465000 F200.000000
G1 Y60.499000 F200.000000
G1 X43.023800 F200.000000
G1 Y59.729000 F200.000000
G1 X43.050052 Y59.613982 F200.000000
G1 X43.063261 Y59.496748 F200.000000
G0 Z0.500000
G0 X40.034106 Y62.274302
G1 Z-0.040000 F60.000000
G1 X39.925000 Y61.761000 F200.000000
G1 X40.034106 Y61.247698 F200.000000
G1 X40.342557 Y60.823151 F200.000000
G1 X40.483800 Y60.741605 F200.000000
G1 Y59.221000 F200.000000
G1 X40.510052 Y59.105982 F200.000000
G1 X40.523261 Y58.988748 F200.000000
G1 X40.544539 Y58.954884 F200.000000
G1 X40.553439 Y58.915893 F200.000000
G1 X40.626996 Y58.823656 F200.000000
G1 X40.689763 Y58.723763 F200.000000
G1 X44.132790 Y55.280735 F200.000000
G1 X44.052500 Y54.903000 F200.000000
G1 X44.156116 Y54.415526 F200.000000
G1 X44.449047 Y54.012341 F200.000000
G1 X44.880643 Y53.763159 F200.000000
G1 X45.376277 Y53.711066 F200.000000
G1 X45.850250 Y53.865069 F200.000000
G1 X46.220607 Y54.198539 F200.000000
G1 X46.423310 Y54.653818 F200.000000
G1 Y55.152182 F200.000000
G1 X46.220607 Y55.607461 F200.000000
G1 X45.850250 Y55.940931 F200.000000
G1 X45.376277 Y56.094934 F200.000000
G1 X45.314078 Y56.088397 F200.000000
G1 X41.890200 Y59.512275 F200.000000
G1 Y60.733085 F200.000000
G1 X42.207979 Y61.019215 F200.000000
G1 X42.421422 Y61.498615 F200.000000
G1 Y62.023385 F200.000000
G1 X42.207979 Y62.502785 F200.000000
G1 X41.818000 Y62.853924 F200.000000
G1 X41.318915 Y63.016087 F200.000000
G1 X40.797021 Y62.961233 F200.000000
G1 X40.342557 Y62.698849 F200.000000
G1 X40.034106 Y62.274302 F200.000000
G0 Z0.500000
G0 X55.456365 Y62.429464
G1 Z-0.040000 F60.000000
G1 X55.500014 Y62.456891 F200.000000
G1 X55.550272 Y62.468362 F200.000000
G1 X55.669163 Y62.563174 F200.000000
G1 X55.797922 Y62.644078 F200.000000
G1 X56.548443 Y63.394600 F200.000000
G1 X60.131708 Y63.394600 F200.000000
G1 X60.154557 Y63.363151 F200.000000
G1 X60.609021 Y63.100767 F200.000000
G1 X61.130915 Y63.045913 F200.000000
G1 X61.630000 Y63.208076 F200.000000
G1 X61.837156 Y63.394600 F200.000000
G1 X62.671708 Y63.394600 F200.000000
G1 X62.694557 Y63.363151 F200.000000
G1 X63.149021 Y63.100767 F200.000000
G1 X63.670915 Y63.045913 F200.000000
G1 X64.170000 Y63.208076 F200.000000
G1 X64.377156 Y63.394600 F200.000000
G1 X65.211708 Y63.394600 F200.000000
G1 X65.234557 Y63.363151 F200.000000
G1 X65.689021 Y63.100767 F200.000000
G1 X66.033608 Y63.064549 F200.000000
G1 X66.075157 Y63.023000 F200.000000
G1 X64.817000 F200.000000
G1 Y60.499000 F200.000000
G1 X65.375800 F200.000000
G1 Y59.729000 F200.000000
G1 X65.402052 Y59.613982 F200.000000
G1 X65.415261 Y59.496748 F200.000000
G1 X65.436539 Y59.462884 F200.000000
G1 X65.445439 Y59.423893 F200.000000
G1 X65.518996 Y59.331656 F200.000000
G1 X65.581763 Y59.231763 F200.000000
G1 X68.828479 Y55.985046 F200.000000
G1 X68.490277 Y56.094934 F200.000000
G1 X68.198235 Y56.064240 F200.000000
G1 X64.242200 Y60.020275 F200.000000
G1 Y60.733085 F200.000000
G1 X64.559979 Y61.019215 F200.000000
G1 X64.773422 Y61.498615 F200.000000
G1 Y62.023385 F200.000000
G1 X64.559979 Y62.502785 F200.000000
G1 X64.170000 Y62.853924 F200.000000
G1 X63.670915 Y63.016087 F200.000000
G1 X63.149021 Y62.961233 F200.000000
G1 X62.694557 Y62.698849 F200.000000
G1 X62.386106 Y62.274302 F200.000000
G1 X62.277000 Y61.761000 F200.000000
G1 X62.386106 Y61.247698 F200.000000
G1 X62.694557 Y60.823151 F200.000000
G1 X62.835800 Y60.741605 F200.000000
G1 Y59.729000 F200.000000
G0 Z0.500000
G0 X94.274295 Y61.373240
G1 Z-0.040000 F60.000000
G1 X94.281000 F200.000000
G1 Y61.135300 F200.000000
G1 X94.270255 F200.000000
G1 X94.253808 Y61.142120 F200.000000
G1 X94.237422 Y61.141206 F200.000000
G1 Y61.368849 F200.000000
G1 X94.261648 Y61.367806 F200.000000
G1 X94.274295 Y61.373240 F200.000000
G0 Z0.500000
G0 X92.259231 Y60.234993
G1 Z-0.040000 F60.000000
G1 X92.258071 Y60.231772 F200.000000
G1 X92.196732 Y60.293111 F200.000000
G1 X92.273360 Y60.248870 F200.000000
G1 X92.259231 Y60.234993 F200.000000
G0 Z0.500000
G0 X48.554295 Y61.627240
G1 Z-0.040000 F60.000000
G1 X48.561000 F200.000000
G1 Y61.389300 F200.000000
G1 X48.550255 F200.000000
G1 X48.533808 Y61.396120 F200.000000
G1 X48.517422 Y61.395206 F200.000000
G1 Y61.622849 F200.000000
G1 X48.541648 Y61.621806 F200.000000
G1 X48.554295 Y61.627240 F200.000000
G0 Z0.500000
G0 X46.537598 Y60.486246
G1 Z-0.040000 F60.000000
G1 X46.476732 Y60.547111 F200.000000
G1 X46.553973 Y60.502516 F200.000000
G1 X46.537598 Y60.486246 F200.000000
G0 Z0.500000
G0 X71.160295 Y61.373240
G1 Z-0.040000 F60.000000
G1 X71.167000 F200.000000
G1 Y61.135300 F200.000000
G1 X71.156255 F200.000000
G1 X71.139808 Y61.142120 F200.000000
G1 X71.123422 Y61.141206 F200.000000
G1 Y61.368849 F200.000000
G1 X71.147648 Y61.367806 F200.000000
G1 X71.160295 Y61.373240 F200.000000
G0 Z0.500000
G0 X28.596600 Y51.584346
G1 Z-0.040000 F60.000000
G1 Y49.669094 F200.000000
G1 X28.440607 Y50.019461 F200.000000
G1 X28.377400 Y50.076372 F200.000000
G1 Y51.259545 F200.000000
G1 X28.381329 Y51.262171 F200.000000
G1 X28.596600 Y51.584346 F200.000000
G0 Z0.500000
G0 X73.081400 Y36.831070
G1 Z-0.040000 F60.000000
G1 Y40.933628 F200.000000
G1 X73.144607 Y40.990539 F200.000000
G1 X73.347310 Y41.445818 F200.000000
G1 Y41.944182 F200.000000
G1 X73.144607 Y42.399461 F200.000000
G1 X73.081400 Y42.456372 F200.000000
G1 Y45.830500 F200.000000
G0 Z0.500000
G0 X29.688800 Y12.645400
G1 Z-0.040000 F60.000000
G1 X31.593800 F200.000000
G1 Y12.342041 F200.000000
G1 X30.337116 Y11.070396 F200.000000
G1 X30.288677 Y11.086134 F200.000000
G1 X29.793043 Y11.034041 F200.000000
G1 X29.361447 Y10.784859 F200.000000
G1 X29.068516 Y10.381674 F200.000000
G1 X28.964900 Y9.894200 F200.000000
G1 X29.068516 Y9.406726 F200.000000
G1 X29.361447 Y9.003541 F200.000000
G1 X29.793043 Y8.754359 F200.000000
G1 X30.288677 Y8.702266 F200.000000
G1 X30.762650 Y8.856269 F200.000000
G1 X31.133007 Y9.189739 F200.000000
G1 X31.335710 Y9.645018 F200.000000
G1 Y10.080054 F200.000000
G1 X31.601592 Y10.349102 F200.000000
G1 X31.504900 Y9.894200 F200.000000
G1 X31.608516 Y9.406726 F200.000000
G1 X31.901447 Y9.003541 F200.000000
G1 X32.333043 Y8.754359 F200.000000
G1 X32.828677 Y8.702266 F200.000000
G1 X33.302650 Y8.856269 F200.000000
G1 X33.673007 Y9.189739 F200.000000
G1 X33.875710 Y9.645018 F200.000000
G1 Y10.143382 F200.000000
G1 X33.673007 Y10.598661 F200.000000
G1 X33.642362 Y10.626253 F200.000000
G1 X34.078236 Y11.087766 F200.000000
G1 X34.133134 Y11.180942 F200.000000
G1 X34.200561 Y11.265493 F200.000000
G1 X34.211697 Y11.314282 F200.000000
G1 X34.237101 Y11.357399 F200.000000
G1 X34.246135 Y11.465166 F200.000000
G1 X34.260800 Y11.529416 F200.000000
G1 Y9.144075 F200.000000
G1 X33.580525 Y8.463800 F200.000000
G1 X27.463000 F200.000000
G1 Y13.216135 F200.000000
G0 Z0.500000
G0 X35.670686 Y12.424114
G1 Z-0.040000 F60.000000
G1 X35.673325 Y13.052362 F200.000000
G1 X35.990643 Y12.869159 F200.000000
G1 X36.150922 Y12.852313 F200.000000
G1 X36.144056 Y12.835683 F200.000000
G1 X36.150058 Y12.731003 F200.000000
G1 X36.144185 Y12.626316 F200.000000
G1 X36.144716 Y12.625035 F200.000000
G1 X35.990643 Y12.608841 F200.000000
G1 X35.670686 Y12.424114 F200.000000
G0 Z0.500000
G0 X28.377400 Y53.085455
G1 Z-0.040000 F60.000000
G1 Y53.887628 F200.000000
G1 X28.440607 Y53.944539 F200.000000
G1 X28.596600 Y54.294906 F200.000000
G1 Y52.760654 F200.000000
G1 X28.381329 Y53.082829 F200.000000
G1 X28.377400 Y53.085455 F200.000000
G0 Z0.500000
G0 X28.596600 Y55.768045
G1 Z-0.040000 F60.000000
G1 Y55.003094 F200.000000
G1 X28.440607 Y55.353461 F200.000000
G1 X28.123400 Y55.639075 F200.000000
G1 Y56.775840 F200.000000
G1 X28.134958 F200.000000
G1 X28.149776 Y56.769601 F200.000000
G1 X28.234068 Y56.773842 F200.000000
G1 X28.215600 Y56.681000 F200.000000
G1 X28.313597 Y56.188333 F200.000000
G1 X28.592671 Y55.770671 F200.000000
G1 X28.596600 Y55.768045 F200.000000
G0 Z0.500000
G0 X40.061400 Y75.548377
G1 Z-0.040000 F60.000000
G1 X40.357500 Y75.680209 F200.000000
G1 X40.764259 Y75.975737 F200.000000
G1 X41.100686 Y76.349376 F200.000000
G1 X41.352077 Y76.784798 F200.000000
G1 X41.507445 Y77.262972 F200.000000
G1 X41.548942 Y77.657789 F200.000000
G1 X41.555479 Y77.654640 F200.000000
G1 X41.573726 F200.000000
G1 X41.590591 Y77.647674 F200.000000
G1 X41.712456 Y77.654640 F200.000000
G1 X41.772856 F200.000000
G1 X41.801439 Y77.653101 F200.000000
G1 X41.805132 Y77.654640 F200.000000
G1 X41.834521 F200.000000
G1 X41.841058 Y77.657789 F200.000000
G1 X41.882555 Y77.262972 F200.000000
G1 X42.037923 Y76.784798 F200.000000
G1 X42.289314 Y76.349376 F200.000000
G1 X42.625741 Y75.975737 F200.000000
G1 X43.032500 Y75.680209 F200.000000
G1 X43.328600 Y75.548377 F200.000000
G0 Z0.500000
G0 X34.981400
G1 Z-0.040000 F60.000000
G1 X35.277500 Y75.680209 F200.000000
G1 X35.684259 Y75.975737 F200.000000
G1 X36.020686 Y76.349376 F200.000000
G1 X36.272077 Y76.784798 F200.000000
G1 X36.427445 Y77.262972 F200.000000
G1 X36.468942 Y77.657789 F200.000000
G1 X36.475479 Y77.654640 F200.000000
G1 X36.493726 F200.000000
G1 X36.510591 Y77.647674 F200.000000
G1 X36.632456 Y77.654640 F200.000000
G1 X36.692856 F200.000000
G1 X36.721439 Y77.653101 F200.000000
G1 X36.725132 Y77.654640 F200.000000
G1 X36.754521 F200.000000
G1 X36.761058 Y77.657789 F200.000000
G1 X36.802555 Y77.262972 F200.000000
G1 X36.957923 Y76.784798 F200.000000
G1 X37.209314 Y76.349376 F200.000000
G1 X37.545741 Y75.975737 F200.000000
G1 X37.952500 Y75.680209 F200.000000
G1 X38.248600 Y75.548377 F200.000000
G0 Z0.500000
G0 X86.543400
G1 Z-0.040000 F60.000000
G1 X86.839500 Y75.680209 F200.000000
G1 X87.246259 Y75.975737 F200.000000
G1 X87.582686 Y76.349376 F200.000000
G1 X87.834077 Y76.784798 F200.000000
G1 X87.989445 Y77.262972 F200.000000
G1 X88.030942 Y77.657789 F200.000000
G1 X88.037479 Y77.654640 F200.000000
G1 X88.055726 F200.000000
G1 X88.072591 Y77.647674 F200.000000
G1 X88.194456 Y77.654640 F200.000000
G1 X88.254856 F200.000000
G1 X88.283439 Y77.653101 F200.000000
G1 X88.287132 Y77.654640 F200.000000
G1 X88.316521 F200.000000
G1 X88.323058 Y77.657789 F200.000000
G1 X88.364555 Y77.262972 F200.000000
G1 X88.519923 Y76.784798 F200.000000
G1 X88.771314 Y76.349376 F200.000000
G1 X89.107741 Y75.975737 F200.000000
G1 X89.514500 Y75.680209 F200.000000
G1 X89.810600 Y75.548377 F200.000000
G0 Z0.500000
G0 X81.463400
G1 Z-0.040000 F60.000000
G1 X81.759500 Y75.680209 F200.000000
G1 X82.166259 Y75.975737 F200.000000
G1 X82.502686 Y76.349376 F200.000000
G1 X82.754077 Y76.784798 F200.000000
G1 X82.909445 Y77.262972 F200.000000
G1 X82.950942 Y77.657789 F200.000000
G1 X82.957479 Y77.654640 F200.000000
G1 X82.975726 F200.000000
G1 X82.992591 Y77.647674 F200.000000
G1 X83.114456 Y77.654640 F200.000000
G1 X83.174856 F200.000000
G1 X83.203439 Y77.653101 F200.000000
G1 X83.207132 Y77.654640 F200.000000
G1 X83.236521 F200.000000
G1 X83.243058 Y77.657789 F200.000000
G1 X83.284555 Y77.262972 F200.000000
G1 X83.439923 Y76.784798 F200.000000
G1 X83.691314 Y76.349376 F200.000000
G1 X84.027741 Y75.975737 F200.000000
G1 X84.434500 Y75.680209 F200.000000
G1 X84.730600 Y75.548377 F200.000000
G0 Z0.500000
G0 X59.099726 Y77.654640
G1 Z-0.040000 F60.000000
G1 X59.116591 Y77.647674 F200.000000
G1 X59.238456 Y77.654640 F200.000000
G1 X59.298856 F200.000000
G1 X59.327439 Y77.653101 F200.000000
G1 X59.331132 Y77.654640 F200.000000
G1 X59.360521 F200.000000
G1 X59.367058 Y77.657789 F200.000000
G1 X59.408555 Y77.262972 F200.000000
G1 X59.563923 Y76.784798 F200.000000
G1 X59.815314 Y76.349376 F200.000000
G1 X60.151741 Y75.975737 F200.000000
G1 X60.558500 Y75.680209 F200.000000
G1 X60.854600 Y75.548377 F200.000000
G0 Z0.500000
G0 X62.667400
G1 Z-0.040000 F60.000000
G1 X62.963500 Y75.680209 F200.000000
G1 X63.370259 Y75.975737 F200.000000
G1 X63.706686 Y76.349376 F200.000000
G1 X63.958077 Y76.784798 F200.000000
G1 X64.113445 Y77.262972 F200.000000
G1 X64.154942 Y77.657789 F200.000000
G1 X64.161479 Y77.654640 F200.000000
G1 X64.179726 F200.000000
G1 X64.196591 Y77.647674 F200.000000
G1 X64.318456 Y77.654640 F200.000000
G1 X64.378856 F200.000000
G1 X64.407439 Y77.653101 F200.000000
G1 X64.411132 Y77.654640 F200.000000
G1 X64.440521 F200.000000
G1 X64.447058 Y77.657789 F200.000000
G1 X64.488555 Y77.262972 F200.000000
G1 X64.643923 Y76.784798 F200.000000
G1 X64.895314 Y76.349376 F200.000000
G1 X65.231741 Y75.975737 F200.000000
G1 X65.638500 Y75.680209 F200.000000
G1 X65.934600 Y75.548377 F200.000000
G0 Z0.500000
G0 X93.198200 Y37.009037
G1 Z-0.040000 F60.000000
G1 Y38.139000 F200.000000
G1 Y38.139000 F200.000000
G1 Y38.139000 F200.000000
G1 Y39.264600 F200.000000
G1 X93.731600 F200.000000
G1 Y41.058631 F200.000000
G1 X93.739600 Y41.059532 F200.000000
G1 X93.747600 Y41.058631 F200.000000
G1 Y39.264600 F200.000000
G1 X94.255600 F200.000000
G1 Y37.580200 F200.000000
G1 Y37.580200 F200.000000
G1 Y37.580200 F200.000000
G1 Y22.677090 F200.000000
G1 X93.416065 Y22.002000 F200.000000
G1 X91.207600 F200.000000
G1 Y20.867069 F200.000000
G0 Z0.500000
G0 Y19.850931
G1 Z-0.040000 F60.000000
G1 Y18.776200 F200.000000
G1 X91.008275 F200.000000
G1 X90.770957 Y19.013518 F200.000000
G0 Z0.500000
G0 X95.347800 Y21.750654
G1 Z-0.040000 F60.000000
G1 Y20.904275 F200.000000
G1 X93.782400 Y19.338875 F200.000000
G1 Y20.491879 F200.000000
G1 X95.347800 Y21.750654 F200.000000
G0 Z0.500000
G0 X81.768200 Y21.834724
G1 Z-0.040000 F60.000000
G1 X82.048527 Y21.969722 F200.000000
G1 X82.621473 F200.000000
G1 X83.137681 Y21.721130 F200.000000
G1 X83.494907 Y21.273182 F200.000000
G1 X83.605000 Y20.790834 F200.000000
G1 X83.715093 Y21.273182 F200.000000
G1 X84.072319 Y21.721130 F200.000000
G1 X84.588527 Y21.969722 F200.000000
G1 X85.161473 F200.000000
G1 X85.677681 Y21.721130 F200.000000
G1 X86.034907 Y21.273182 F200.000000
G1 X86.145000 Y20.790834 F200.000000
G1 X86.255093 Y21.273182 F200.000000
G1 X86.612319 Y21.721130 F200.000000
G1 X87.128527 Y21.969722 F200.000000
G1 X87.701473 F200.000000
G1 X88.217681 Y21.721130 F200.000000
G1 X88.574907 Y21.273182 F200.000000
G1 X88.685000 Y20.790834 F200.000000
G1 X88.795093 Y21.273182 F200.000000
G1 X89.152319 Y21.721130 F200.000000
G1 X89.668527 Y21.969722 F200.000000
G1 X90.241473 F200.000000
G1 X90.757681 Y21.721130 F200.000000
G1 X91.114907 Y21.273182 F200.000000
G1 X91.207600 Y20.867069 F200.000000
G0 Z0.500000
G0 Y19.850931
G1 Z-0.040000 F60.000000
G1 X91.114907 Y19.444818 F200.000000
G1 X90.770957 Y19.013518 F200.000000
G0 Z0.500000
G0 X89.251800 Y18.948963
G1 Z-0.040000 F60.000000
G1 X89.152319 Y18.996870 F200.000000
G1 X88.795093 Y19.444818 F200.000000
G1 X88.685000 Y19.927166 F200.000000
G1 X88.574907 Y19.444818 F200.000000
G1 X88.343648 Y19.154827 F200.000000
G0 Z0.500000
G0 X86.742539 Y18.934160
G1 Z-0.040000 F60.000000
G1 X86.612319 Y18.996870 F200.000000
G1 X86.255093 Y19.444818 F200.000000
G1 X86.145000 Y19.927166 F200.000000
G1 X86.034907 Y19.444818 F200.000000
G1 X86.029029 Y19.437446 F200.000000
G0 Z0.500000
G0 X84.729247 Y18.748278
G1 Z-0.040000 F60.000000
G1 X84.588527 F200.000000
G1 X84.286980 Y18.893495 F200.000000
G0 Z0.500000
G0 X83.709011 Y19.471464
G1 Z-0.040000 F60.000000
G1 X83.605000 Y19.927166 F200.000000
G1 X83.539646 Y19.640829 F200.000000
G0 Z0.500000
G0 X82.443247 Y18.748278
G1 Z-0.040000 F60.000000
G1 X82.048527 F200.000000
G1 X81.768200 Y18.883276 F200.000000
G0 Z0.500000
G0 X77.958200 Y21.769037
G1 Z-0.040000 F60.000000
G1 X78.057681 Y21.721130 F200.000000
G1 X78.414907 Y21.273182 F200.000000
G1 X78.525000 Y20.790834 F200.000000
G1 X78.635093 Y21.273182 F200.000000
G1 X78.992319 Y21.721130 F200.000000
G1 X79.508527 Y21.969722 F200.000000
G1 X80.081473 F200.000000
G1 X80.361800 Y21.834724 F200.000000
G0 Z0.500000
G0 Y18.883276
G1 Z-0.040000 F60.000000
G1 X80.081473 Y18.748278 F200.000000
G1 X79.686753 F200.000000
G0 Z0.500000
G0 X78.590354 Y19.640829
G1 Z-0.040000 F60.000000
G1 X78.525000 Y19.927166 F200.000000
G1 X78.420989 Y19.471464 F200.000000
G0 Z0.500000
G0 X75.059454 Y21.941800
G1 Z-0.040000 F60.000000
G1 X75.517681 Y21.721130 F200.000000
G1 X75.874907 Y21.273182 F200.000000
G1 X75.985000 Y20.790834 F200.000000
G1 X76.095093 Y21.273182 F200.000000
G1 X76.439043 Y21.704482 F200.000000
G0 Z0.500000
G0 X77.843020 Y18.893495
G1 Z-0.040000 F60.000000
G1 X77.541473 Y18.748278 F200.000000
G1 X76.968527 F200.000000
G1 X76.452319 Y18.996870 F200.000000
G1 X76.095093 Y19.444818 F200.000000
G1 X75.985000 Y19.927166 F200.000000
G1 X75.874907 Y19.444818 F200.000000
G1 X75.517681 Y18.996870 F200.000000
G1 X75.418200 Y18.948963 F200.000000
G0 Z0.500000
G0 X70.541400 Y21.591070
G1 Z-0.040000 F60.000000
G1 X70.794907 Y21.273182 F200.000000
G1 X70.905000 Y20.790834 F200.000000
G1 X71.015093 Y21.273182 F200.000000
G1 X71.372319 Y21.721130 F200.000000
G1 X71.471800 Y21.769037 F200.000000
G0 Z0.500000
G0 X72.741800 Y18.883276
G1 Z-0.040000 F60.000000
G1 X72.461473 Y18.748278 F200.000000
G1 X71.888527 F200.000000
G1 X71.372319 Y18.996870 F200.000000
G1 X71.015093 Y19.444818 F200.000000
G1 X70.905000 Y19.927166 F200.000000
G1 X70.794907 Y19.444818 F200.000000
G1 X70.691142 Y19.314701 F200.000000
G0 Z0.500000
G0 X60.143400 Y18.932204
G1 Z-0.040000 F60.000000
G1 X59.761473 Y18.748278 F200.000000
G1 X59.188527 F200.000000
G1 X58.672319 Y18.996870 F200.000000
G1 X58.315093 Y19.444818 F200.000000
G1 X58.205000 Y19.927166 F200.000000
G1 X58.094907 Y19.444818 F200.000000
G1 X57.737681 Y18.996870 F200.000000
G1 X57.221473 Y18.748278 F200.000000
G1 X56.648527 F200.000000
G1 X56.132319 Y18.996870 F200.000000
G1 X55.775093 Y19.444818 F200.000000
G1 X55.665000 Y19.927166 F200.000000
G1 X55.554907 Y19.444818 F200.000000
G1 X55.197681 Y18.996870 F200.000000
G1 X54.895854 Y18.851518 F200.000000
G0 Z0.500000
G0 X58.097821 Y21.260417
G1 Z-0.040000 F60.000000
G1 X58.205000 Y20.790834 F200.000000
G1 X58.271950 Y21.084164 F200.000000
G0 Z0.500000
G0 X55.560989 Y21.246536
G1 Z-0.040000 F60.000000
G1 X55.665000 Y20.790834 F200.000000
G1 X55.730354 Y21.077171 F200.000000
G0 Z0.500000
G0 X43.080971 Y19.437446
G1 Z-0.040000 F60.000000
G1 X43.075093 Y19.444818 F200.000000
G1 X42.947600 Y20.003400 F200.000000
G1 X42.947600 Y20.714600 F200.000000
G1 X42.947600 F200.000000
G1 X43.075093 Y21.273182 F200.000000
G1 X43.432319 Y21.721130 F200.000000
G1 X43.948527 Y21.969722 F200.000000
G1 X44.521473 F200.000000
G1 X45.037681 Y21.721130 F200.000000
G1 X45.394907 Y21.273182 F200.000000
G1 X45.505000 Y20.790834 F200.000000
G1 X45.615093 Y21.273182 F200.000000
G1 X45.972319 Y21.721130 F200.000000
G1 X46.488527 Y21.969722 F200.000000
G1 X47.061473 F200.000000
G1 X47.577681 Y21.721130 F200.000000
G1 X47.934907 Y21.273182 F200.000000
G1 X48.045000 Y20.790834 F200.000000
G1 X48.155093 Y21.273182 F200.000000
G1 X48.512319 Y21.721130 F200.000000
G1 X49.028527 Y21.969722 F200.000000
G1 X49.601473 F200.000000
G1 X50.117681 Y21.721130 F200.000000
G1 X50.474907 Y21.273182 F200.000000
G1 X50.585000 Y20.790834 F200.000000
G1 X50.695093 Y21.273182 F200.000000
G1 X51.052319 Y21.721130 F200.000000
G1 X51.568527 Y21.969722 F200.000000
G1 X52.141473 F200.000000
G1 X52.657681 Y21.721130 F200.000000
G1 X53.014907 Y21.273182 F200.000000
G1 X53.125000 Y20.790834 F200.000000
G1 X53.235093 Y21.273182 F200.000000
G1 X53.592319 Y21.721130 F200.000000
G1 X54.108527 Y21.969722 F200.000000
G1 X54.681473 F200.000000
G1 X54.983020 Y21.824505 F200.000000
G0 Z0.500000
G0 X53.353662 Y19.296137
G1 Z-0.040000 F60.000000
G1 X53.235093 Y19.444818 F200.000000
G1 X53.125000 Y19.927166 F200.000000
G1 X53.014907 Y19.444818 F200.000000
G1 X52.657681 Y18.996870 F200.000000
G1 X52.141473 Y18.748278 F200.000000
G1 X52.000753 F200.000000
G0 Z0.500000
G0 X50.700971 Y19.437446
G1 Z-0.040000 F60.000000
G1 X50.695093 Y19.444818 F200.000000
G1 X50.585000 Y19.927166 F200.000000
G1 X50.474907 Y19.444818 F200.000000
G1 X50.117681 Y18.996870 F200.000000
G1 X49.601473 Y18.748278 F200.000000
G1 X49.460753 F200.000000
G0 Z0.500000
G0 X48.160971 Y19.437446
G1 Z-0.040000 F60.000000
G1 X48.155093 Y19.444818 F200.000000
G1 X48.045000 Y19.927166 F200.000000
G1 X47.934907 Y19.444818 F200.000000
G1 X47.577681 Y18.996870 F200.000000
G1 X47.061473 Y18.748278 F200.000000
G1 X46.920753 F200.000000
G0 Z0.500000
G0 X45.620971 Y19.437446
G1 Z-0.040000 F60.000000
G1 X45.615093 Y19.444818 F200.000000
G1 X45.505000 Y19.927166 F200.000000
G1 X45.394907 Y19.444818 F200.000000
G1 X45.037681 Y18.996870 F200.000000
G1 X44.521473 Y18.748278 F200.000000
G1 X44.380753 F200.000000
G0 Z0.500000
G0 X44.938200 Y37.009037
G1 Z-0.040000 F60.000000
G1 X45.037681 Y36.961130 F200.000000
G1 X45.394907 Y36.513182 F200.000000
G1 X45.505000 Y36.030834 F200.000000
G1 X45.615093 Y36.513182 F200.000000
G1 X45.972319 Y36.961130 F200.000000
G1 X46.488527 Y37.209722 F200.000000
G1 X47.061473 F200.000000
G1 X47.577681 Y36.961130 F200.000000
G1 X47.934907 Y36.513182 F200.000000
G1 X48.045000 Y36.030834 F200.000000
G1 X48.155093 Y36.513182 F200.000000
G1 X48.512319 Y36.961130 F200.000000
G1 X49.028527 Y37.209722 F200.000000
G1 X49.601473 F200.000000
G1 X50.117681 Y36.961130 F200.000000
G1 X50.474907 Y36.513182 F200.000000
G1 X50.585000 Y36.030834 F200.000000
G1 X50.695093 Y36.513182 F200.000000
G1 X51.052319 Y36.961130 F200.000000
G1 X51.151800 Y37.009037 F200.000000
G0 Z0.500000
G0 X48.611800 Y34.188963
G1 Z-0.040000 F60.000000
G1 X48.512319 Y34.236870 F200.000000
G1 X48.155093 Y34.684818 F200.000000
G1 X48.045000 Y35.167166 F200.000000
G1 X47.934907 Y34.684818 F200.000000
G1 X47.577681 Y34.236870 F200.000000
G1 X47.478200 Y34.188963 F200.000000
G0 Z0.500000
G0 X52.558200 Y37.009037
G1 Z-0.040000 F60.000000
G1 X52.657681 Y36.961130 F200.000000
G1 X53.014907 Y36.513182 F200.000000
G1 X53.125000 Y36.030834 F200.000000
G1 X53.235093 Y36.513182 F200.000000
G1 X53.592319 Y36.961130 F200.000000
G1 X53.691800 Y37.009037 F200.000000
G0 Z0.500000
G0 X55.098200
G1 Z-0.040000 F60.000000
G1 X55.197681 Y36.961130 F200.000000
G1 X55.554907 Y36.513182 F200.000000
G1 X55.665000 Y36.030834 F200.000000
G1 X55.775093 Y36.513182 F200.000000
G1 X56.132319 Y36.961130 F200.000000
G1 X56.231800 Y37.009037 F200.000000
G0 Z0.500000
G0 X57.638200 Y37.009037
G1 Z-0.040000 F60.000000
G1 X57.737681 Y36.961130 F200.000000
G1 X58.094907 Y36.513182 F200.000000
G1 X58.205000 Y36.030834 F200.000000
G1 X58.315093 Y36.513182 F200.000000
G1 X58.672319 Y36.961130 F200.000000
G1 X58.771800 Y37.009037 F200.000000
G0 Z0.500000
G0 X60.178200 Y37.009037
G1 Z-0.040000 F60.000000
G1 X60.277681 Y36.961130 F200.000000
G1 X60.634907 Y36.513182 F200.000000
G1 X60.745000 Y36.030834 F200.000000
G1 X60.855093 Y36.513182 F200.000000
G1 X61.212319 Y36.961130 F200.000000
G1 X61.311800 Y37.009037 F200.000000
G0 Z0.500000
G0 X62.718200 Y37.009037
G1 Z-0.040000 F60.000000
G1 X62.817681 Y36.961130 F200.000000
G1 X63.174907 Y36.513182 F200.000000
G1 X63.285000 Y36.030834 F200.000000
G1 X63.395093 Y36.513182 F200.000000
G1 X63.752319 Y36.961130 F200.000000
G1 X63.851800 Y37.009037 F200.000000
G0 Z0.500000
G0 X65.258200
G1 Z-0.040000 F60.000000
G1 X65.357681 Y36.961130 F200.000000
G1 X65.714907 Y36.513182 F200.000000
G1 X65.825000 Y36.030834 F200.000000
G1 X65.935093 Y36.513182 F200.000000
G1 X66.188600 Y36.831070 F200.000000
G0 Z0.500000
G0 X73.081400 Y36.831070
G1 Z-0.040000 F60.000000
G1 X73.334907 Y36.513182 F200.000000
G1 X73.445000 Y36.030834 F200.000000
G1 X73.555093 Y36.513182 F200.000000
G1 X73.912319 Y36.961130 F200.000000
G1 X74.011800 Y37.009037 F200.000000
G0 Z0.500000
G0 X93.198200 Y37.009037
G1 Z-0.040000 F60.000000
G1 X93.297681 Y36.961130 F200.000000
G1 X93.654907 Y36.513182 F200.000000
G1 X93.782400 Y35.954600 F200.000000
G1 Y35.243400 F200.000000
G1 X93.654907 Y34.684818 F200.000000
G1 X93.297681 Y34.236870 F200.000000
G1 X92.781473 Y33.988278 F200.000000
G1 X92.208527 F200.000000
G1 X91.692319 Y34.236870 F200.000000
G1 X91.335093 Y34.684818 F200.000000
G1 X91.225000 Y35.167166 F200.000000
G1 X91.114907 Y34.684818 F200.000000
G1 X90.757681 Y34.236870 F200.000000
G1 X90.241473 Y33.988278 F200.000000
G1 X89.668527 F200.000000
G1 X89.152319 Y34.236870 F200.000000
G1 X88.795093 Y34.684818 F200.000000
G1 X88.685000 Y35.167166 F200.000000
G1 X88.574907 Y34.684818 F200.000000
G1 X88.217681 Y34.236870 F200.000000
G1 X87.701473 Y33.988278 F200.000000
G1 X87.128527 F200.000000
G1 X86.612319 Y34.236870 F200.000000
G1 X86.255093 Y34.684818 F200.000000
G1 X86.145000 Y35.167166 F200.000000
G1 X86.034907 Y34.684818 F200.000000
G1 X85.677681 Y34.236870 F200.000000
G1 X85.161473 Y33.988278 F200.000000
G1 X84.588527 F200.000000
G1 X84.072319 Y34.236870 F200.000000
G1 X83.715093 Y34.684818 F200.000000
G1 X83.605000 Y35.167166 F200.000000
G1 X83.494907 Y34.684818 F200.000000
G1 X83.137681 Y34.236870 F200.000000
G1 X82.621473 Y33.988278 F200.000000
G1 X82.048527 F200.000000
G1 X81.532319 Y34.236870 F200.000000
G1 X81.175093 Y34.684818 F200.000000
G1 X81.065000 Y35.167166 F200.000000
G1 X80.954907 Y34.684818 F200.000000
G1 X80.597681 Y34.236870 F200.000000
G1 X80.081473 Y33.988278 F200.000000
G1 X79.508527 F200.000000
G1 X78.992319 Y34.236870 F200.000000
G1 X78.635093 Y34.684818 F200.000000
G1 X78.525000 Y35.167166 F200.000000
G1 X78.414907 Y34.684818 F200.000000
G1 X78.057681 Y34.236870 F200.000000
G1 X77.541473 Y33.988278 F200.000000
G1 X76.968527 F200.000000
G1 X76.452319 Y34.236870 F200.000000
G1 X76.095093 Y34.684818 F200.000000
G1 X75.985000 Y35.167166 F200.000000
G1 X75.874907 Y34.684818 F200.000000
G1 X75.517681 Y34.236870 F200.000000
G1 X75.001473 Y33.988278 F200.000000
G1 X74.428527 F200.000000
G1 X73.912319 Y34.236870 F200.000000
G1 X73.555093 Y34.684818 F200.000000
G1 X73.445000 Y35.167166 F200.000000
G1 X73.334907 Y34.684818 F200.000000
G1 X73.081400 Y34.366930 F200.000000
G0 Z0.500000
G0 X75.418200 Y37.009037
G1 Z-0.040000 F60.000000
G1 X75.517681 Y36.961130 F200.000000
G1 X75.874907 Y36.513182 F200.000000
G1 X75.985000 Y36.030834 F200.000000
G1 X76.095093 Y36.513182 F200.000000
G1 X76.452319 Y36.961130 F200.000000
G1 X76.551800 Y37.009037 F200.000000
G0 Z0.500000
G0 X77.958200
G1 Z-0.040000 F60.000000
G1 X78.057681 Y36.961130 F200.000000
G1 X78.414907 Y36.513182 F200.000000
G1 X78.525000 Y36.030834 F200.000000
G1 X78.635093 Y36.513182 F200.000000
G1 X78.992319 Y36.961130 F200.000000
G1 X79.091800 Y37.009037 F200.000000
G0 Z0.500000
G0 X83.038200
G1 Z-0.040000 F60.000000
G1 X83.137681 Y36.961130 F200.000000
G1 X83.494907 Y36.513182 F200.000000
G1 X83.605000 Y36.030834 F200.000000
G1 X83.715093 Y36.513182 F200.000000
G1 X84.072319 Y36.961130 F200.000000
G1 X84.171800 Y37.009037 F200.000000
G0 Z0.500000
G0 X85.578200 Y37.009037
G1 Z-0.040000 F60.000000
G1 X85.677681 Y36.961130 F200.000000
G1 X86.034907 Y36.513182 F200.000000
G1 X86.145000 Y36.030834 F200.000000
G1 X86.255093 Y36.513182 F200.000000
G1 X86.612319 Y36.961130 F200.000000
G1 X86.711800 Y37.009037 F200.000000
G0 Z0.500000
G0 X88.118200
G1 Z-0.040000 F60.000000
G1 X88.217681 Y36.961130 F200.000000
G1 X88.574907 Y36.513182 F200.000000
G1 X88.685000 Y36.030834 F200.000000
G1 X88.795093 Y36.513182 F200.000000
G1 X89.152319 Y36.961130 F200.000000
G1 X89.251800 Y37.009037 F200.000000
G0 Z0.500000
G0 X90.658200 Y37.009037
G1 Z-0.040000 F60.000000
G1 X90.757681 Y36.961130 F200.000000
G1 X91.114907 Y36.513182 F200.000000
G1 X91.225000 Y36.030834 F200.000000
G1 X91.335093 Y36.513182 F200.000000
G1 X91.692319 Y36.961130 F200.000000
G1 X91.791800 Y37.009037 F200.000000
G0 Z0.500000
G0 X60.143400 Y18.932204
G1 Z-0.040000 F60.000000
G1 Y18.738629 F200.000000
G1 X60.104078 Y18.713922 F200.000000
G1 X54.262078 Y12.871922 F200.000000
G1 X54.181174 Y12.743163 F200.000000
G1 X54.086362 Y12.624272 F200.000000
G1 X54.074891 Y12.574014 F200.000000
G1 X54.047464 Y12.530365 F200.000000
G1 X54.030438 Y12.379254 F200.000000
G1 X53.996600 Y12.231000 F200.000000
G1 Y11.397500 F200.000000
G1 X53.704500 F200.000000
G1 Y9.000500 F200.000000
G1 X53.980025 F200.000000
G1 X53.595725 Y8.616200 F200.000000
G1 X42.240275 Y8.616200 F200.000000
G1 X41.749059 Y9.107416 F200.000000
G1 X41.832643 Y9.059159 F200.000000
G1 X42.328277 Y9.007066 F200.000000
G1 X42.802250 Y9.161069 F200.000000
G1 X43.172607 Y9.494539 F200.000000
G1 X43.375310 Y9.949818 F200.000000
G1 Y10.448182 F200.000000
G1 X43.172607 Y10.903461 F200.000000
G1 X42.906200 Y11.143334 F200.000000
G1 Y17.273725 F200.000000
G1 X44.380753 Y18.748278 F200.000000
G0 Z0.500000
G0 X53.353662 Y19.296137
G1 Z-0.040000 F60.000000
G1 X51.865763 Y17.808237 F200.000000
G1 X51.802996 Y17.708344 F200.000000
G1 X51.729439 Y17.616107 F200.000000
G1 X51.720539 Y17.577116 F200.000000
G1 X51.699261 Y17.543252 F200.000000
G1 X51.686052 Y17.426018 F200.000000
G1 X51.659800 Y17.311000 F200.000000
G1 Y11.146674 F200.000000
G1 X51.561047 Y11.089659 F200.000000
G1 X51.268116 Y10.686474 F200.000000
G1 X51.164500 Y10.199000 F200.000000
G1 X51.268116 Y9.711526 F200.000000
G1 X51.561047 Y9.308341 F200.000000
G1 X51.992643 Y9.059159 F200.000000
G1 X52.488277 Y9.007066 F200.000000
G1 X52.962250 Y9.161069 F200.000000
G1 X53.332607 Y9.494539 F200.000000
G1 X53.535310 Y9.949818 F200.000000
G1 Y10.448182 F200.000000
G1 X53.332607 Y10.903461 F200.000000
G1 X53.066200 Y11.143334 F200.000000
G1 Y17.019725 F200.000000
G1 X54.892237 Y18.845763 F200.000000
G1 X54.895854 Y18.851518 F200.000000
G0 Z0.500000
G0 X50.700971 Y19.437446
G1 Z-0.040000 F60.000000
G1 X49.325763 Y18.062237 F200.000000
G1 X49.262996 Y17.962344 F200.000000
G1 X49.189439 Y17.870107 F200.000000
G1 X49.180539 Y17.831116 F200.000000
G1 X49.159261 Y17.797252 F200.000000
G1 X49.146052 Y17.680018 F200.000000
G1 X49.119800 Y17.565000 F200.000000
G1 Y11.146674 F200.000000
G1 X49.021047 Y11.089659 F200.000000
G1 X48.728116 Y10.686474 F200.000000
G1 X48.624500 Y10.199000 F200.000000
G1 X48.728116 Y9.711526 F200.000000
G1 X49.021047 Y9.308341 F200.000000
G1 X49.452643 Y9.059159 F200.000000
G1 X49.948277 Y9.007066 F200.000000
G1 X50.422250 Y9.161069 F200.000000
G1 X50.792607 Y9.494539 F200.000000
G1 X50.995310 Y9.949818 F200.000000
G1 Y10.448182 F200.000000
G1 X50.792607 Y10.903461 F200.000000
G1 X50.526200 Y11.143334 F200.000000
G1 Y17.273725 F200.000000
G1 X52.000753 Y18.748278 F200.000000
G0 Z0.500000
G0 X45.620971 Y19.437446
G1 Z-0.040000 F60.000000
G1 X44.245763 Y18.062237 F200.000000
G1 X44.182996 Y17.962344 F200.000000
G1 X44.109439 Y17.870107 F200.000000
G1 X44.100539 Y17.831116 F200.000000
G1 X44.079261 Y17.797252 F200.000000
G1 X44.066052 Y17.680018 F200.000000
G1 X44.039800 Y17.565000 F200.000000
G1 Y11.146674 F200.000000
G1 X43.941047 Y11.089659 F200.000000
G1 X43.648116 Y10.686474 F200.000000
G1 X43.544500 Y10.199000 F200.000000
G1 X43.648116 Y9.711526 F200.000000
G1 X43.941047 Y9.308341 F200.000000
G1 X44.372643 Y9.059159 F200.000000
G1 X44.868277 Y9.007066 F200.000000
G1 X45.342250 Y9.161069 F200.000000
G1 X45.712607 Y9.494539 F200.000000
G1 X45.915310 Y9.949818 F200.000000
G1 Y10.448182 F200.000000
G1 X45.712607 Y10.903461 F200.000000
G1 X45.446200 Y11.143334 F200.000000
G1 Y17.273725 F200.000000
G1 X46.920753 Y18.748278 F200.000000
G0 Z0.500000
G0 X38.432780 Y32.022401
G1 Z-0.040000 F60.000000
G1 Y32.051000 F200.000000
G1 X38.861220 F200.000000
G1 Y32.022401 F200.000000
G1 X38.854604 Y32.003494 F200.000000
G1 X38.778915 Y32.028087 F200.000000
G1 X38.443139 Y31.992795 F200.000000
G1 X38.432780 Y32.022401 F200.000000
G0 Z0.500000
G0 X61.311800 Y17.357957
G1 Z-0.040000 F60.000000
G1 Y16.621214 F200.000000
G1 X60.870839 Y16.662075 F200.000000
G1 X60.514543 Y16.560700 F200.000000
G1 X61.311800 Y17.357957 F200.000000
G0 Z0.500000
G0 X106.203252 Y69.621223
G1 Z-0.040000 F60.000000
G1 X105.990975 Y69.833500 F200.000000
G1 X106.554760 F200.000000
G1 Y69.828671 F200.000000
G1 X106.550003 Y69.817774 F200.000000
G1 X106.554760 Y69.689691 F200.000000
G1 Y69.666853 F200.000000
G1 X106.221643 Y69.631841 F200.000000
G1 X106.203252 Y69.621223 F200.000000
G0 Z0.500000
G0 X102.609568 Y68.806100
G1 Z-0.040000 F60.000000
G1 X102.596200 F200.000000
G1 Y68.835725 F200.000000
G1 X103.454275 Y69.693800 F200.000000
G1 X104.141725 F200.000000
G1 X104.154034 Y69.681491 F200.000000
G1 X103.681643 Y69.631841 F200.000000
G1 X103.250047 Y69.382659 F200.000000
G1 X102.957116 Y68.979474 F200.000000
G1 X102.916961 Y68.790562 F200.000000
G1 X102.904698 Y68.797338 F200.000000
G1 X102.886838 Y68.798338 F200.000000
G1 X102.870721 Y68.806100 F200.000000
G1 X102.748311 F200.000000
G1 X102.626094 Y68.812948 F200.000000
G1 X102.609568 Y68.806100 F200.000000
G0 Z0.500000
G0 X104.405314 Y51.861161
G1 Z-0.040000 F60.000000
G1 X104.212975 Y52.053500 F200.000000
G1 X104.649760 F200.000000
G1 Y52.048671 F200.000000
G1 X104.645003 Y52.037774 F200.000000
G1 X104.649760 Y51.909691 F200.000000
G1 Y51.886853 F200.000000
G1 X104.405314 Y51.861161 F200.000000
G0 Z0.500000
G0 X103.319310 Y50.958215
G1 Z-0.040000 F60.000000
G1 X103.502002 Y50.775523 F200.000000
G1 X103.488500 Y50.712000 F200.000000
G1 X103.592116 Y50.224526 F200.000000
G1 X103.885047 Y49.821341 F200.000000
G1 X104.316643 Y49.572159 F200.000000
G1 X104.812277 Y49.520066 F200.000000
G1 X104.893833 Y49.546564 F200.000000
G1 X104.896140 Y49.540055 F200.000000
G1 Y49.510200 F200.000000
G1 X103.200275 Y49.510200 F200.000000
G1 X102.898931 Y49.811544 F200.000000
G1 X103.116607 Y50.007539 F200.000000
G1 X103.319310 Y50.462818 F200.000000
G1 Y50.958215 F200.000000
G0 Z0.500000
G0 X99.338360 Y37.383885
G1 Z-0.040000 F60.000000
G1 X100.533275 Y38.578800 F200.000000
G1 X101.208850 F200.000000
G1 X101.345047 Y38.391341 F200.000000
G1 X101.776643 Y38.142159 F200.000000
G1 X102.272277 Y38.090066 F200.000000
G1 X102.610479 Y38.199954 F200.000000
G1 X101.855725 Y37.445200 F200.000000
G1 X99.607000 F200.000000
G1 X99.491982 Y37.418948 F200.000000
G1 X99.374748 Y37.405739 F200.000000
G1 X99.340884 Y37.384461 F200.000000
G1 X99.338360 Y37.383885 F200.000000
G0 Z0.500000
G0 X112.429837 Y67.816826
G1 Z-0.040000 F60.000000
G1 X112.301078 Y67.735922 F200.000000
G1 X109.862350 Y65.297193 F200.000000
G1 Y65.572228 F200.000000
G1 X109.830058 Y65.655583 F200.000000
G1 X119.075275 Y74.900800 F200.000000
G1 X119.135836 F200.000000
G1 X119.286324 Y74.640146 F200.000000
G1 X119.685255 Y74.305404 F200.000000
G1 X120.174616 Y74.127291 F200.000000
G1 X120.695384 F200.000000
G1 X121.184745 Y74.305404 F200.000000
G1 X121.583676 Y74.640146 F200.000000
G1 X121.844060 Y75.091144 F200.000000
G1 X121.934490 Y75.604000 F200.000000
G1 X121.879024 Y75.918565 F200.000000
G1 X121.911352 Y75.929980 F200.000000
G1 X121.941600 F200.000000
G1 Y70.645443 F200.000000
G1 X119.297557 Y68.001400 F200.000000
G1 X112.942000 Y68.001400 F200.000000
G1 X112.793746 Y67.967562 F200.000000
G1 X112.642635 Y67.950536 F200.000000
G1 X112.598986 Y67.923109 F200.000000
G1 X112.548728 Y67.911638 F200.000000
G1 X112.429837 Y67.816826 F200.000000
G0 Z0.500000
G0 X111.308400 Y51.111640
G1 Z-0.040000 F60.000000
G1 X111.315510 F200.000000
G1 Y49.296360 F200.000000
G1 X111.308400 F200.000000
G1 Y51.111640 F200.000000
G0 Z0.500000
G0 X111.339539 Y55.609980
G1 Z-0.040000 F60.000000
G1 X111.371045 Y55.598956 F200.000000
G1 X111.315510 Y55.284000 F200.000000
G1 X111.370623 Y54.971437 F200.000000
G1 X111.339539 Y54.960560 F200.000000
G1 X111.308400 F200.000000
G1 Y55.609980 F200.000000
G1 X111.339539 F200.000000
G0 Z0.500000
G0 X111.382871 Y62.173340
G1 Z-0.040000 F60.000000
G1 X111.460329 Y62.157849 F200.000000
G1 X111.502200 Y62.168603 F200.000000
G1 Y61.043582 F200.000000
G1 X111.405940 Y60.876856 F200.000000
G1 X111.315510 Y60.364000 F200.000000
G1 X111.370623 Y60.051437 F200.000000
G1 X111.339539 Y60.040560 F200.000000
G1 X111.308400 F200.000000
G1 Y62.015000 F200.000000
G1 Y62.015000 F200.000000
G1 Y62.015000 F200.000000
G1 Y62.173340 F200.000000
G1 X111.382871 F200.000000
G0 Z0.500000
G0 X111.339539 Y18.054360
G1 Z-0.040000 F60.000000
G1 X111.308400 F200.000000
G1 Y19.615640 F200.000000
G1 X111.339539 F200.000000
G1 X111.373198 Y19.603862 F200.000000
G1 X111.442510 Y19.611672 F200.000000
G1 Y18.058328 F200.000000
G1 X111.373198 Y18.066138 F200.000000
G1 X111.339539 Y18.054360 F200.000000
G0 Z0.500000
G0 X111.320734 Y23.878580
G1 Z-0.040000 F60.000000
G1 X111.308400 F200.000000
G1 Y23.951420 F200.000000
G1 X111.321144 F200.000000
G1 X111.337081 Y23.944780 F200.000000
G1 X111.448826 Y23.950821 F200.000000
G1 X111.442510 Y23.915000 F200.000000
G1 X111.448832 Y23.879144 F200.000000
G1 X111.336283 Y23.885082 F200.000000
G1 X111.320734 Y23.878580 F200.000000
G0 Z0.500000
G0 Y28.958580
G1 Z-0.040000 F60.000000
G1 X111.308400 F200.000000
G1 Y29.031420 F200.000000
G1 X111.321144 F200.000000
G1 X111.337081 Y29.024780 F200.000000
G1 X111.448826 Y29.030821 F200.000000
G1 X111.442510 Y28.995000 F200.000000
G1 X111.448832 Y28.959144 F200.000000
G1 X111.336283 Y28.965082 F200.000000
G1 X111.320734 Y28.958580 F200.000000
G0 Z0.500000
G0 X117.575521 Y43.531800
G1 Z-0.040000 F60.000000
G1 X119.262836 Y43.531800 F200.000000
G1 X119.413324 Y43.271146 F200.000000
G1 X119.812255 Y42.936404 F200.000000
G1 X120.301616 Y42.758291 F200.000000
G1 X120.822384 F200.000000
G1 X121.311745 Y42.936404 F200.000000
G1 X121.710676 Y43.271146 F200.000000
G1 X121.971060 Y43.722144 F200.000000
G1 X122.061490 Y44.235000 F200.000000
G1 X121.971060 Y44.747856 F200.000000
G1 X121.710676 Y45.198854 F200.000000
G1 X121.311745 Y45.533596 F200.000000
G1 X120.822384 Y45.711709 F200.000000
G1 X120.301616 F200.000000
G1 X119.812255 Y45.533596 F200.000000
G1 X119.413324 Y45.198854 F200.000000
G1 X119.262836 Y44.938200 F200.000000
G1 X117.260000 F200.000000
G1 X117.125519 Y44.907506 F200.000000
G1 X116.989575 Y44.884123 F200.000000
G1 X116.973790 Y44.872874 F200.000000
G1 X116.954893 Y44.868561 F200.000000
G1 X116.847047 Y44.782557 F200.000000
G1 X116.734712 Y44.702507 F200.000000
G1 X114.909939 Y42.652200 F200.000000
G1 X111.836275 F200.000000
G1 X109.200200 Y45.288275 F200.000000
G1 Y46.996900 F200.000000
G1 X109.334060 Y47.063554 F200.000000
G1 X109.677952 Y47.440786 F200.000000
G1 X109.731294 Y47.578479 F200.000000
G1 X109.761078 Y47.531078 F200.000000
G1 X111.956436 Y45.335721 F200.000000
G1 X111.793324 Y45.198854 F200.000000
G1 X111.532940 Y44.747856 F200.000000
G1 X111.442510 Y44.235000 F200.000000
G1 X111.532940 Y43.722144 F200.000000
G1 X111.793324 Y43.271146 F200.000000
G1 X112.192255 Y42.936404 F200.000000
G1 X112.681616 Y42.758291 F200.000000
G1 X113.202384 F200.000000
G1 X113.691745 Y42.936404 F200.000000
G1 X114.090676 Y43.271146 F200.000000
G1 X114.351060 Y43.722144 F200.000000
G1 X114.441490 Y44.235000 F200.000000
G1 X114.351060 Y44.747856 F200.000000
G1 X114.090676 Y45.198854 F200.000000
G1 X113.848400 Y45.402147 F200.000000
G1 Y45.637557 F200.000000
G1 X114.460443 Y46.249600 F200.000000
G1 X121.456557 Y46.249600 F200.000000
G1 X122.068600 Y45.637557 F200.000000
G1 Y42.832443 F200.000000
G1 X118.276876 Y39.040719 F200.000000
G1 X109.886000 Y38.935833 F200.000000
G1 Y39.401000 F200.000000
G1 X107.108000 F200.000000
G1 Y38.955392 F200.000000
G1 X106.655500 Y39.045400 F200.000000
G1 X106.484794 Y39.011444 F200.000000
G1 X106.494310 Y39.032818 F200.000000
G1 Y39.531182 F200.000000
G1 X106.291607 Y39.986461 F200.000000
G1 X105.921250 Y40.319931 F200.000000
G1 X105.447277 Y40.473934 F200.000000
G1 X104.951643 Y40.421841 F200.000000
G1 X104.520047 Y40.172659 F200.000000
G1 X104.374200 Y39.971918 F200.000000
G1 Y44.959725 F200.000000
G1 X105.155235 Y45.740760 F200.000000
G1 X105.447277 Y45.710066 F200.000000
G1 X105.921250 Y45.864069 F200.000000
G1 X106.291607 Y46.197539 F200.000000
G1 X106.494310 Y46.652818 F200.000000
G1 Y47.151182 F200.000000
G1 X106.325851 Y47.529547 F200.000000
G1 X106.325884 Y47.529539 F200.000000
G1 X106.359748 Y47.508261 F200.000000
G1 X106.476982 Y47.495052 F200.000000
G1 X106.592000 Y47.468800 F200.000000
G1 X107.326520 Y47.468800 F200.000000
G1 X107.470517 Y47.236237 F200.000000
G1 X107.793800 Y46.992104 F200.000000
G1 Y44.997000 F200.000000
G1 X107.820052 Y44.881982 F200.000000
G1 X107.833261 Y44.764748 F200.000000
G1 X107.854539 Y44.730884 F200.000000
G1 X107.863439 Y44.691893 F200.000000
G1 X107.936996 Y44.599656 F200.000000
G1 X107.999763 Y44.499763 F200.000000
G1 X111.047763 Y41.451763 F200.000000
G1 X111.147656 Y41.388996 F200.000000
G1 X111.239893 Y41.315439 F200.000000
G1 X111.278884 Y41.306539 F200.000000
G1 X111.312748 Y41.285261 F200.000000
G1 X111.429982 Y41.272052 F200.000000
G1 X111.545000 Y41.245800 F200.000000
G1 X115.225460 F200.000000
G1 X115.359941 Y41.276494 F200.000000
G1 X115.495885 Y41.299877 F200.000000
G1 X115.511670 Y41.311126 F200.000000
G1 X115.530567 Y41.315439 F200.000000
G1 X115.638413 Y41.401443 F200.000000
G1 X115.750748 Y41.481493 F200.000000
G1 X117.575521 Y43.531800 F200.000000
G0 Z0.500000
G0 X22.133348 Y17.891861
G1 Z-0.040000 F60.000000
G1 X22.415878 Y17.860028 F200.000000
G1 X22.195097 Y17.859726 F200.000000
G1 X21.966514 Y17.951971 F200.000000
G1 X21.654226 Y17.931571 F200.000000
G1 X21.381716 Y17.777694 F200.000000
G1 X21.202957 Y17.520818 F200.000000
G1 X21.160303 Y17.415121 F200.000000
G1 X20.856650 Y17.688531 F200.000000
G1 X20.382677 Y17.842534 F200.000000
G1 X19.941238 Y17.796137 F200.000000
G1 X19.157200 Y18.580175 F200.000000
G1 Y18.818549 F200.000000
G1 X19.400250 Y18.980950 F200.000000
G1 X19.690336 Y19.415093 F200.000000
G1 X19.724000 Y19.584335 F200.000000
G1 X19.757664 Y19.415093 F200.000000
G1 X20.047750 Y18.980950 F200.000000
G1 X20.481893 Y18.690864 F200.000000
G1 X20.994000 Y18.589000 F200.000000
G1 X21.280697 Y18.646028 F200.000000
G1 X21.868363 Y18.058363 F200.000000
G1 X22.133348 Y17.891861 F200.000000
G0 Z0.500000
G0 X22.576800 Y19.338875
G1 Z-0.040000 F60.000000
G1 X22.275172 Y19.640503 F200.000000
G1 X22.332200 Y19.927200 F200.000000
G1 X22.230336 Y20.439307 F200.000000
G1 X22.140303 Y20.574050 F200.000000
G1 X22.285748 Y20.482661 F200.000000
G1 X22.576800 Y20.449868 F200.000000
G1 Y20.443200 F200.000000
G1 Y19.893800 F200.000000
G1 Y19.833600 F200.000000
G1 Y19.338875 F200.000000
G0 Z0.500000
G0 X19.397931 Y20.875000
G1 Z-0.040000 F60.000000
G1 X20.050069 Y20.875000 F200.000000
G1 X20.047750 Y20.873450 F200.000000
G1 X19.757664 Y20.439307 F200.000000
G1 X19.724000 Y20.270065 F200.000000
G1 X19.690336 Y20.439307 F200.000000
G1 X19.400250 Y20.873450 F200.000000
G1 X19.397931 Y20.875000 F200.000000
G0 Z0.500000
G0 X14.102600 Y18.211875
G1 Z-0.040000 F60.000000
G1 Y18.793149 F200.000000
G1 X14.345650 Y18.955550 F200.000000
G1 X14.635736 Y19.389693 F200.000000
G1 X14.669400 Y19.558935 F200.000000
G1 X14.703064 Y19.389693 F200.000000
G1 X14.993150 Y18.955550 F200.000000
G1 X15.427293 Y18.665464 F200.000000
G1 X15.939400 Y18.563600 F200.000000
G1 X16.451507 Y18.665464 F200.000000
G1 X16.885650 Y18.955550 F200.000000
G1 X17.175736 Y19.389693 F200.000000
G1 X17.199226 Y19.507788 F200.000000
G1 X17.217664 Y19.415093 F200.000000
G1 X17.507750 Y18.980950 F200.000000
G1 X17.750800 Y18.818549 F200.000000
G1 Y18.288900 F200.000000
G1 X17.777052 Y18.173882 F200.000000
G1 X17.790261 Y18.056648 F200.000000
G1 X17.811539 Y18.022784 F200.000000
G1 X17.820439 Y17.983793 F200.000000
G0 Z0.500000
G0 X16.845317 Y20.875000
G1 Z-0.040000 F60.000000
G1 X17.510069 Y20.875000 F200.000000
G1 X17.507750 Y20.873450 F200.000000
G1 X17.217664 Y20.439307 F200.000000
G1 X17.194174 Y20.321212 F200.000000
G1 X17.175736 Y20.413907 F200.000000
G1 X16.885650 Y20.848050 F200.000000
G1 X16.845317 Y20.875000 F200.000000
G0 Z0.500000
G0 X14.199905 Y21.433800
G1 Z-0.040000 F60.000000
G1 X14.962325 Y21.433800 F200.000000
G1 X15.236200 Y21.159925 F200.000000
G1 Y21.010451 F200.000000
G1 X14.993150 Y20.848050 F200.000000
G1 X14.703064 Y20.413907 F200.000000
G1 X14.669400 Y20.244665 F200.000000
G1 X14.635736 Y20.413907 F200.000000
G1 X14.345650 Y20.848050 F200.000000
G1 X13.911507 Y21.138136 F200.000000
G1 X13.618033 Y21.196511 F200.000000
G1 X13.620934 Y21.251392 F200.000000
G1 X13.754885 Y21.236299 F200.000000
G1 X14.135634 Y21.369529 F200.000000
G1 X14.199905 Y21.433800 F200.000000
G0 Z0.500000
G0 X31.958800 Y14.664791
G1 Z-0.040000 F60.000000
G1 Y14.702800 F200.000000
G1 X32.053415 Y14.702800 F200.000000
G1 X32.075695 Y14.685032 F200.000000
G1 X31.958800 Y14.664791 F200.000000
G1 Y14.686800 F200.000000
G0 Z0.500000
G0 X29.688800 Y21.103600
G1 Z-0.040000 F60.000000
G1 Y20.554200 F200.000000
G1 Y20.443200 F200.000000
G1 Y19.893800 F200.000000
G1 Y19.808200 F200.000000
G1 Y19.258800 F200.000000
G1 Y19.147800 F200.000000
G1 Y18.598400 F200.000000
G1 Y18.487400 F200.000000
G1 Y17.963400 F200.000000
G1 Y17.852400 F200.000000
G1 Y17.303000 F200.000000
G1 Y17.192000 F200.000000
G1 Y16.642600 F200.000000
G1 Y16.557000 F200.000000
G1 Y16.007600 F200.000000
G1 Y15.896600 F200.000000
G1 Y15.347200 F200.000000
G1 Y15.236200 F200.000000
G1 Y14.686800 F200.000000
G1 Y14.601200 F200.000000
G1 Y14.051800 F200.000000
G1 X29.083075 F200.000000
G1 X28.453600 Y14.681275 F200.000000
G1 Y21.896525 F200.000000
G1 X29.006875 Y22.449800 F200.000000
G1 X29.688800 F200.000000
G1 Y21.849600 F200.000000
G1 Y21.214600 F200.000000
G1 Y21.103600 F200.000000
G0 Z0.500000
G0 X31.958800 Y14.664791
G1 Z-0.040000 F60.000000
G1 Y14.702800 F200.000000
G0 Z0.500000
G0 X24.984061 Y21.759400
G1 Z-0.040000 F60.000000
G1 X25.015200 F200.000000
G1 Y21.513875 F200.000000
G1 X24.846800 Y21.345475 F200.000000
G1 Y21.759296 F200.000000
G1 X24.950402 Y21.747622 F200.000000
G1 X24.984061 Y21.759400 F200.000000
G0 Z0.500000
G0 X24.846800 Y21.345475
G1 Z-0.040000 F60.000000
G1 Y21.759296 F200.000000
G0 Z0.500000
G0 X22.576800 Y17.903174
G1 Z-0.040000 F60.000000
G1 Y17.860248 F200.000000
G1 X22.453644 Y17.860079 F200.000000
G1 X22.576800 Y17.903174 F200.000000
G0 Z0.500000
G0 X95.129840 Y41.795305
G1 Z-0.040000 F60.000000
G1 Y41.788600 F200.000000
G1 X94.891900 F200.000000
G1 Y41.799345 F200.000000
G1 X94.898720 Y41.815792 F200.000000
G1 X94.897528 Y41.837157 F200.000000
G1 X95.124636 Y41.813287 F200.000000
G1 X95.124406 Y41.807952 F200.000000
G1 X95.129840 Y41.795305 F200.000000
G0 Z0.500000
G0 X90.658200 Y37.009037
G1 Z-0.040000 F60.000000
G1 Y38.139000 F200.000000
G1 Y38.139000 F200.000000
G1 Y38.139000 F200.000000
G1 Y39.264600 F200.000000
G1 X91.191600 F200.000000
G1 Y41.058631 F200.000000
G1 X91.199600 Y41.059532 F200.000000
G1 X91.207600 Y41.058631 F200.000000
G1 Y39.264600 F200.000000
G1 X91.791800 F200.000000
G1 Y38.139000 F200.000000
G1 Y38.139000 F200.000000
G1 Y38.139000 F200.000000
G1 Y37.009037 F200.000000
G0 Z0.500000
G0 X92.589840 Y41.795305
G1 Z-0.040000 F60.000000
G1 Y41.788600 F200.000000
G1 X92.351900 F200.000000
G1 Y41.799345 F200.000000
G1 X92.358720 Y41.815792 F200.000000
G1 X92.357528 Y41.837157 F200.000000
G1 X92.584636 Y41.813287 F200.000000
G1 X92.584406 Y41.807952 F200.000000
G1 X92.589840 Y41.795305 F200.000000
G0 Z0.500000
G0 X88.118200 Y37.009037
G1 Z-0.040000 F60.000000
G1 Y38.139000 F200.000000
G1 Y38.139000 F200.000000
G1 Y38.139000 F200.000000
G1 Y39.264600 F200.000000
G1 X88.651600 F200.000000
G1 Y41.058631 F200.000000
G1 X88.659600 Y41.059532 F200.000000
G1 X88.667600 Y41.058631 F200.000000
G1 Y39.264600 F200.000000
G1 X89.251800 F200.000000
G1 Y38.139000 F200.000000
G1 Y38.139000 F200.000000
G1 Y38.139000 F200.000000
G1 Y37.009037 F200.000000
G0 Z0.500000
G0 X90.049840 Y41.795305
G1 Z-0.040000 F60.000000
G1 Y41.788600 F200.000000
G1 X89.811900 F200.000000
G1 Y41.799345 F200.000000
G1 X89.818720 Y41.815792 F200.000000
G1 X89.817528 Y41.837157 F200.000000
G1 X90.044636 Y41.813287 F200.000000
G1 X90.044406 Y41.807952 F200.000000
G1 X90.049840 Y41.795305 F200.000000
G0 Z0.500000
G0 X85.578200 Y37.009037
G1 Z-0.040000 F60.000000
G1 Y38.139000 F200.000000
G1 Y38.139000 F200.000000
G1 Y38.139000 F200.000000
G1 Y39.264600 F200.000000
G1 X86.111600 F200.000000
G1 Y41.058631 F200.000000
G1 X86.119600 Y41.059532 F200.000000
G1 X86.127600 Y41.058631 F200.000000
G1 Y39.264600 F200.000000
G1 X86.711800 F200.000000
G1 Y38.139000 F200.000000
G1 Y38.139000 F200.000000
G1 Y38.139000 F200.000000
G1 Y37.009037 F200.000000
G0 Z0.500000
G0 X87.509840 Y41.795305
G1 Z-0.040000 F60.000000
G1 Y41.788600 F200.000000
G1 X87.271900 F200.000000
G1 Y41.799345 F200.000000
G1 X87.278720 Y41.815792 F200.000000
G1 X87.277528 Y41.837157 F200.000000
G1 X87.504636 Y41.813287 F200.000000
G1 X87.504406 Y41.807952 F200.000000
G1 X87.509840 Y41.795305 F200.000000
G0 Z0.500000
G0 X83.038200 Y37.009037
G1 Z-0.040000 F60.000000
G1 Y38.139000 F200.000000
G1 Y38.139000 F200.000000
G1 Y38.139000 F200.000000
G1 Y39.264600 F200.000000
G1 X83.571600 F200.000000
G1 Y41.058631 F200.000000
G1 X83.579600 Y41.059532 F200.000000
G1 X83.587600 Y41.058631 F200.000000
G1 Y39.264600 F200.000000
G1 X84.171800 F200.000000
G1 Y38.139000 F200.000000
G1 Y38.139000 F200.000000
G1 Y38.139000 F200.000000
G1 Y37.009037 F200.000000
G0 Z0.500000
G0 X84.969840 Y41.795305
G1 Z-0.040000 F60.000000
G1 Y41.788600 F200.000000
G1 X84.731900 F200.000000
G1 Y41.799345 F200.000000
G1 X84.738720 Y41.815792 F200.000000
G1 X84.737528 Y41.837157 F200.000000
G1 X84.964636 Y41.813287 F200.000000
G1 X84.964406 Y41.807952 F200.000000
G1 X84.969840 Y41.795305 F200.000000
G0 Z0.500000
G0 X82.429840 Y41.795305
G1 Z-0.040000 F60.000000
G1 Y41.788600 F200.000000
G1 X82.191900 F200.000000
G1 Y41.799345 F200.000000
G1 X82.198720 Y41.815792 F200.000000
G1 X82.197528 Y41.837157 F200.000000
G1 X82.424636 Y41.813287 F200.000000
G1 X82.424406 Y41.807952 F200.000000
G1 X82.429840 Y41.795305 F200.000000
G0 Z0.500000
G0 X98.832300 Y66.769500
G1 Z-0.040000 F60.000000
G1 X98.712923 Y66.742253 F200.000000
G1 X98.592212 Y66.721712 F200.000000
G1 X98.494392 Y66.681165 F200.000000
G1 X98.516960 Y66.780040 F200.000000
G1 Y67.201048 F200.000000
G1 X98.719618 Y67.403706 F200.000000
G1 X98.722397 Y67.389733 F200.000000
G1 X99.001471 Y66.972071 F200.000000
G1 X99.304639 Y66.769500 F200.000000
G1 X98.832300 F200.000000
G0 Z0.500000
G0 X100.427800 Y66.477400
G1 Z-0.040000 F60.000000
G1 X100.151379 F200.000000
G1 X100.093468 Y66.518512 F200.000000
G1 X99.906304 Y66.596093 F200.000000
G1 X99.911800 Y66.595000 F200.000000
G1 X100.404467 Y66.692997 F200.000000
G1 X100.427800 Y66.708588 F200.000000
G1 Y66.477400 F200.000000
G0 Z0.500000
G0 X32.718260 Y18.885800
G1 Z-0.040000 F60.000000
G1 Y18.885800 F200.000000
G1 Y18.885800 F200.000000
G1 Y19.269340 F200.000000
G1 Y19.269340 F200.000000
G1 Y19.269340 F200.000000
G1 Y19.520800 F200.000000
G1 Y19.520800 F200.000000
G1 Y19.520800 F200.000000
G1 Y19.523340 F200.000000
G1 Y19.523340 F200.000000
G1 Y19.523340 F200.000000
G1 Y19.929740 F200.000000
G1 Y19.929740 F200.000000
G1 Y19.929740 F200.000000
G1 Y20.155992 F200.000000
G1 X32.834471 Y19.982071 F200.000000
G1 X33.041600 Y19.843671 F200.000000
G1 Y19.202475 F200.000000
G1 X32.718260 Y18.879135 F200.000000
G1 Y18.885800 F200.000000
G0 Z0.500000
G0 X39.454848 Y21.687800
G1 Z-0.040000 F60.000000
G1 X37.787848 Y20.020800 F200.000000
G1 X34.760800 F200.000000
G1 X34.701004 Y20.007152 F200.000000
G1 X34.672461 Y20.008010 F200.000000
G1 X34.934203 Y20.399733 F200.000000
G1 X35.032200 Y20.892400 F200.000000
G1 X34.934203 Y21.385067 F200.000000
G1 X34.731923 Y21.687800 F200.000000
G1 X39.454848 F200.000000
G0 Z0.500000
G0 X32.718260
G1 Z-0.040000 F60.000000
G1 X32.757677 Y21.687800 F200.000000
G1 X32.718260 Y21.628808 F200.000000
G1 Y21.687800 F200.000000
G0 Z0.500000
G0 X28.715600 Y24.618200
G1 Z-0.040000 F60.000000
G1 X28.655804 Y24.604552 F200.000000
G1 X28.594499 Y24.606394 F200.000000
G1 X28.271919 Y24.542894 F200.000000
G1 X28.157442 Y24.491941 F200.000000
G1 X28.040719 Y24.446365 F200.000000
G1 X27.771479 Y24.263485 F200.000000
G1 X27.731155 Y24.220177 F200.000000
G1 X27.681009 Y24.188760 F200.000000
G1 X27.513800 Y24.021991 F200.000000
G1 Y24.913600 F200.000000
G1 X32.458853 Y24.913600 F200.000000
G1 X32.432000 Y24.778600 F200.000000
G1 X32.463906 Y24.618200 F200.000000
G1 X28.715600 Y24.618200 F200.000000
G0 Z0.500000
G0 X36.640780
G1 Z-0.040000 F60.000000
G1 X34.974894 Y24.618200 F200.000000
G1 X35.006800 Y24.778600 F200.000000
G1 X35.005209 Y24.786600 F200.000000
G1 X36.640780 Y24.786600 F200.000000
G1 Y24.618200 F200.000000
G0 Z0.500000
G0 X32.291857 Y14.625563
G1 Z-0.040000 F60.000000
G1 X32.398600 Y14.601200 F200.000000
G1 X33.519743 F200.000000
G1 X33.074333 Y14.512603 F200.000000
G1 X32.705391 Y14.266083 F200.000000
G1 X32.615217 Y14.392327 F200.000000
G1 X32.381210 Y14.600126 F200.000000
G1 X32.291857 Y14.625563 F200.000000
G0 Z0.500000
G0 X33.868579 Y14.550612
G1 Z-0.040000 F60.000000
G1 X33.614257 Y14.601200 F200.000000
G1 X33.840298 F200.000000
G1 X33.868579 Y14.550612 F200.000000
G0 Z0.500000
G0 X82.443247 Y18.748278
G1 Z-0.040000 F60.000000
G1 X83.798202 Y17.393323 F200.000000
G1 X83.777060 Y17.372181 F200.000000
G1 X83.758439 Y17.363213 F200.000000
G1 X83.626329 Y17.560929 F200.000000
G1 X83.208667 Y17.840003 F200.000000
G1 X82.716000 Y17.938000 F200.000000
G1 X82.223333 Y17.840003 F200.000000
G1 X81.805671 Y17.560929 F200.000000
G1 X81.768200 Y17.504850 F200.000000
G1 Y18.883276 F200.000000
G0 Z0.500000
G0 X130.076464 Y72.899298
G1 Z-0.040000 F60.000000
G1 X129.957460 Y72.926460 F200.000000
G1 X127.762520 F200.000000
G1 Y73.300600 F200.000000
G1 X129.711557 F200.000000
G1 X130.120254 Y72.891903 F200.000000
G1 X130.076464 Y72.899298 F200.000000
G0 Z0.500000
G0 X79.053733 Y74.267703
G1 Z-0.040000 F60.000000
G1 X79.060015 Y74.251559 F200.000000
G1 X79.065588 Y74.246357 F200.000000
G1 X79.078825 Y74.213325 F200.000000
G1 X79.136715 Y74.129707 F200.000000
G1 X79.256508 Y73.932401 F200.000000
G1 X79.319206 Y73.867749 F200.000000
G1 X79.353856 Y73.818022 F200.000000
G1 X79.360953 Y73.805741 F200.000000
G1 X79.366803 Y73.799442 F200.000000
G1 X79.370694 Y73.793858 F200.000000
G1 X79.379005 Y73.786302 F200.000000
G1 X81.837540 Y71.138831 F200.000000
G1 Y71.136140 F200.000000
G1 X81.864864 Y71.016424 F200.000000
G1 X81.885601 Y70.895393 F200.000000
G1 X82.098961 Y70.382313 F200.000000
G1 X82.169665 Y70.282958 F200.000000
G1 X82.190600 Y70.249641 F200.000000
G1 Y69.363442 F200.000000
G1 X81.823248 Y69.515712 F200.000000
G1 X81.702537 Y69.536253 F200.000000
G1 X81.583160 Y69.563500 F200.000000
G1 X81.052300 F200.000000
G1 X80.932923 Y69.536253 F200.000000
G1 X80.812212 Y69.515712 F200.000000
G1 X80.321992 Y69.312512 F200.000000
G1 X80.221427 Y69.241120 F200.000000
G1 X80.117224 Y69.175151 F200.000000
G1 X79.991591 Y69.048663 F200.000000
G1 X79.938203 Y69.153257 F200.000000
G1 X79.928617 Y69.160544 F200.000000
G1 X79.922744 Y69.171056 F200.000000
G1 X79.817986 Y69.244653 F200.000000
G1 X79.716068 Y69.322137 F200.000000
G1 X79.704270 Y69.324544 F200.000000
G1 X79.694418 Y69.331465 F200.000000
G1 X79.346438 Y69.473705 F200.000000
G1 X79.243388 Y69.490720 F200.000000
G1 X79.142960 Y69.519410 F200.000000
G1 X78.624800 Y69.547350 F200.000000
G1 X78.505621 Y69.526828 F200.000000
G1 X78.402389 Y69.515454 F200.000000
G1 X77.907400 Y70.010443 F200.000000
G1 Y70.651000 F200.000000
G1 Y70.651000 F200.000000
G1 Y70.651000 F200.000000
G1 Y72.004496 F200.000000
G1 X77.970306 Y72.334819 F200.000000
G1 X77.907400 Y74.071015 F200.000000
G1 Y75.966780 F200.000000
G1 X77.962264 Y75.879464 F200.000000
G1 X78.676004 Y75.165724 F200.000000
G1 X78.780493 Y75.100069 F200.000000
G1 X78.881378 Y75.028999 F200.000000
G1 X78.888600 Y75.026036 F200.000000
G1 Y75.004560 F200.000000
G1 Y75.004560 F200.000000
G1 Y74.969000 F200.000000
G1 X78.903403 Y74.904144 F200.000000
G1 X78.902518 Y74.837625 F200.000000
G1 X78.928764 Y74.715142 F200.000000
G1 X78.958832 Y74.511609 F200.000000
G1 X78.964403 Y74.497290 F200.000000
G1 X78.963947 Y74.481932 F200.000000
G1 X79.012227 Y74.373558 F200.000000
G1 X79.029433 Y74.298175 F200.000000
G1 X79.053733 Y74.267703 F200.000000
G0 Z0.500000
G0 X36.948808 Y26.759379
G1 Z-0.040000 F60.000000
G1 X36.869039 Y26.647143 F200.000000
G1 X36.868716 Y26.645252 F200.000000
G1 X36.867614 Y26.643681 F200.000000
G1 X36.849539 Y26.599400 F200.000000
G1 X33.981567 F200.000000
G1 X33.934872 Y26.636638 F200.000000
G1 X33.884614 Y26.648109 F200.000000
G1 X33.840965 Y26.675536 F200.000000
G1 X33.689854 Y26.692562 F200.000000
G1 X33.541600 Y26.726400 F200.000000
G1 X33.310332 F200.000000
G1 X33.351732 Y26.767800 F200.000000
G1 X36.954718 F200.000000
G1 X36.948808 Y26.759379 F200.000000
G0 Z0.500000
G0 X11.083133 Y21.440003
G1 Z-0.040000 F60.000000
G1 X11.102495 Y21.554136 F200.000000
G1 X11.130657 Y21.666422 F200.000000
G1 X11.143893 Y22.286595 F200.000000
G1 X11.979288 Y21.451200 F200.000000
G1 X11.706364 Y21.178276 F200.000000
G1 X11.641111 Y21.074426 F200.000000
G1 X11.570229 Y20.974334 F200.000000
G1 X11.346709 Y20.433314 F200.000000
G1 X11.326368 Y20.312930 F200.000000
G1 X11.324904 Y20.306517 F200.000000
G1 X10.843813 Y20.861824 F200.000000
G1 X11.083133 Y21.440003 F200.000000
G0 Z0.500000
G0 X7.744980 Y19.471309
G1 Z-0.040000 F60.000000
G1 X7.838136 Y19.455505 F200.000000
G1 X7.950422 Y19.427343 F200.000000
G1 X8.783542 Y19.409563 F200.000000
G1 X8.904440 Y19.434456 F200.000000
G1 X9.026480 Y19.452955 F200.000000
G1 X9.503348 Y19.640575 F200.000000
G1 X9.803006 Y19.294691 F200.000000
G1 X9.800749 Y13.622593 F200.000000
G1 X8.834172 Y12.656015 F200.000000
G1 X8.825029 Y12.653999 F200.000000
G1 X8.704979 Y12.634826 F200.000000
G1 X7.744980 Y12.248300 F200.000000
G1 Y19.471309 F200.000000
G0 Z0.500000
G0 X76.094600 Y79.904600
G1 Z-0.040000 F60.000000
G1 Y74.961000 F200.000000
G1 X74.709792 F200.000000
G1 X74.805296 Y75.056504 F200.000000
G1 X74.870563 Y75.160376 F200.000000
G1 X74.941452 Y75.260496 F200.000000
G1 X75.037972 Y75.494176 F200.000000
G1 X75.058298 Y75.614536 F200.000000
G1 X75.085460 Y75.733540 F200.000000
G1 Y79.543540 F200.000000
G1 Y79.543540 F200.000000
G1 Y79.543540 F200.000000
G1 Y79.795000 F200.000000
G1 X75.060445 Y79.904600 F200.000000
G1 X76.094600 F200.000000
G0 Z0.500000
G0 X75.745090 Y72.904046
G1 Z-0.040000 F60.000000
G1 X75.624349 Y72.924606 F200.000000
G1 X75.504940 Y72.951860 F200.000000
G1 X74.941060 F200.000000
G1 X74.822164 Y72.924723 F200.000000
G1 X74.701905 Y72.904458 F200.000000
G1 X74.333106 Y72.752284 F200.000000
G1 X73.967090 Y72.904046 F200.000000
G1 X73.846349 Y72.924606 F200.000000
G1 X73.726940 Y72.951860 F200.000000
G1 X73.457778 F200.000000
G1 X73.638868 Y73.148200 F200.000000
G1 X76.094600 F200.000000
G1 Y72.759128 F200.000000
G1 X75.745090 Y72.904046 F200.000000
G0 Z0.500000
G0 X14.691380 Y50.558017
G1 Z-0.040000 F60.000000
G1 X14.719702 Y50.577045 F200.000000
G1 X14.773678 Y50.669076 F200.000000
G1 X14.837199 Y50.754798 F200.000000
G1 X14.920127 Y50.943873 F200.000000
G1 X15.109202 Y51.026801 F200.000000
G1 X15.188938 Y51.085887 F200.000000
G1 X15.275737 Y51.133999 F200.000000
G1 X15.299854 Y51.168078 F200.000000
G1 X15.333397 Y51.192934 F200.000000
G1 X15.379600 Y51.280765 F200.000000
G1 X15.436929 Y51.361774 F200.000000
G1 X15.683309 Y51.958674 F200.000000
G1 X15.702200 Y52.070701 F200.000000
G1 X15.730505 Y52.180728 F200.000000
G1 X15.740869 Y52.559026 F200.000000
G1 X17.131040 Y53.949197 F200.000000
G1 Y53.312960 F200.000000
G1 Y53.061500 F200.000000
G1 X17.158465 Y52.941342 F200.000000
G1 X17.179459 Y52.819895 F200.000000
G1 X17.275979 Y52.588755 F200.000000
G1 X17.346567 Y52.489874 F200.000000
G1 X17.411204 Y52.387004 F200.000000
G1 X17.420600 Y52.377608 F200.000000
G1 Y50.673178 F200.000000
G1 X17.259711 Y50.511097 F200.000000
G1 X17.195627 Y50.408267 F200.000000
G1 X17.125488 Y50.309468 F200.000000
G1 X16.922288 Y49.819248 F200.000000
G1 X16.910590 Y49.750501 F200.000000
G1 X16.365488 Y49.205400 F200.000000
G1 X15.715599 Y49.205400 F200.000000
G1 X15.631521 Y49.406745 F200.000000
G1 X15.560933 Y49.505626 F200.000000
G1 X15.496296 Y49.608496 F200.000000
G1 X15.318496 Y49.786296 F200.000000
G1 X15.214624 Y49.851563 F200.000000
G1 X15.114504 Y49.922452 F200.000000
G1 X14.880824 Y50.018972 F200.000000
G1 X14.760464 Y50.039298 F200.000000
G1 X14.641460 Y50.066460 F200.000000
G1 X12.731000 F200.000000
G1 Y50.154005 F200.000000
G1 X12.810728 Y50.133495 F200.000000
G1 X13.552408 Y50.113175 F200.000000
G1 X13.672971 Y50.137239 F200.000000
G1 X13.794660 Y50.154732 F200.000000
G1 X14.488080 Y50.421432 F200.000000
G1 X14.576641 Y50.480931 F200.000000
G1 X14.671066 Y50.530603 F200.000000
G1 X14.691380 Y50.558017 F200.000000
G0 Z0.500000
G0 X11.949920 Y17.792222
G1 Z-0.040000 F60.000000
G1 Y17.781079 F200.000000
G1 X11.953431 Y17.773789 F200.000000
G1 X12.008774 Y17.483241 F200.000000
G1 X12.027622 Y17.440183 F200.000000
G1 X12.032885 Y17.393475 F200.000000
G1 X12.081201 Y17.316581 F200.000000
G1 X12.110135 Y17.243434 F200.000000
G1 X12.120130 Y17.228857 F200.000000
G1 X12.120673 Y17.227619 F200.000000
G1 X12.121419 Y17.226978 F200.000000
G1 X12.168200 Y17.158756 F200.000000
G1 X12.284754 Y16.982684 F200.000000
G1 X12.326788 Y16.942601 F200.000000
G1 X12.364696 Y16.882412 F200.000000
G1 X13.558496 Y15.691152 F200.000000
G1 X13.608701 Y15.659681 F200.000000
G1 X13.649079 Y15.616315 F200.000000
G1 X13.918319 Y15.433435 F200.000000
G1 X13.961953 Y15.416398 F200.000000
G1 X13.998575 Y15.387193 F200.000000
G1 X14.081237 Y15.368325 F200.000000
G1 X14.151134 Y15.337089 F200.000000
G1 X14.471174 Y15.273589 F200.000000
G1 X14.532949 Y15.275352 F200.000000
G1 X14.593200 Y15.261600 F200.000000
G1 X15.928608 Y15.261600 F200.000000
G1 X16.037064 Y15.153144 F200.000000
G1 X16.140612 Y15.088080 F200.000000
G1 X16.240332 Y15.017288 F200.000000
G1 X16.730552 Y14.814088 F200.000000
G1 X16.851263 Y14.793547 F200.000000
G1 X16.970640 Y14.766300 F200.000000
G1 X17.501500 F200.000000
G1 X17.620877 Y14.793547 F200.000000
G1 X17.741588 Y14.814088 F200.000000
G1 X18.231808 Y15.017288 F200.000000
G1 X18.332373 Y15.088680 F200.000000
G1 X18.436576 Y15.154649 F200.000000
G1 X18.707154 Y15.427068 F200.000000
G1 X19.061169 Y15.075444 F200.000000
G1 X19.164058 Y15.011280 F200.000000
G1 X19.262932 Y14.941088 F200.000000
G1 X19.753152 Y14.737888 F200.000000
G1 X19.873863 Y14.717347 F200.000000
G1 X19.986000 Y14.691752 F200.000000
G1 Y13.930747 F200.000000
G1 X17.124804 Y11.067300 F200.000000
G1 X16.968100 F200.000000
G1 X16.848723 Y11.040053 F200.000000
G1 X16.728012 Y11.019512 F200.000000
G1 X16.237792 Y10.816312 F200.000000
G1 X16.137227 Y10.744920 F200.000000
G1 X16.033024 Y10.678951 F200.000000
G1 X15.659644 Y10.303031 F200.000000
G1 X15.595480 Y10.200142 F200.000000
G1 X15.525288 Y10.101268 F200.000000
G1 X15.322088 Y9.611048 F200.000000
G1 X15.301547 Y9.490337 F200.000000
G1 X15.274300 Y9.370960 F200.000000
G1 Y8.840100 F200.000000
G1 X15.301547 Y8.720723 F200.000000
G1 X15.322088 Y8.600012 F200.000000
G1 X15.525288 Y8.109792 F200.000000
G1 X15.596680 Y8.009227 F200.000000
G1 X15.662649 Y7.905024 F200.000000
G1 X15.882315 Y7.686842 F200.000000
G1 X15.750668 Y7.687896 F200.000000
G1 X11.613515 Y13.535072 F200.000000
G1 X11.615595 Y18.765792 F200.000000
G1 X11.644303 Y18.725597 F200.000000
G1 X11.708904 Y18.622784 F200.000000
G1 X11.934200 Y18.397488 F200.000000
G1 Y17.920600 F200.000000
G1 X11.949615 Y17.853061 F200.000000
G1 X11.947814 Y17.803281 F200.000000
G1 X11.949920 Y17.792222 F200.000000
G0 Z0.500000
G0 X77.959724 Y79.643996
G1 Z-0.040000 F60.000000
G1 X77.907400 Y79.560723 F200.000000
G1 Y79.904600 F200.000000
G1 X78.220328 F200.000000
G1 X77.959724 Y79.643996 F200.000000
G0 Z0.500000
G0 X113.211318 Y79.864802
G1 Z-0.040000 F60.000000
G1 X113.159044 Y79.831956 F200.000000
G1 X111.635044 Y78.307956 F200.000000
G1 X111.602198 Y78.255682 F200.000000
G1 X111.557308 Y78.213301 F200.000000
G1 X111.331248 Y77.875481 F200.000000
G1 X111.287301 Y77.760589 F200.000000
G1 X111.237216 Y77.648238 F200.000000
G1 X111.158476 Y77.249458 F200.000000
G1 X111.160288 Y77.187971 F200.000000
G1 X111.147139 Y77.130360 F200.000000
G1 X110.985711 Y76.967737 F200.000000
G1 X110.921730 Y76.865072 F200.000000
G1 X110.851641 Y76.766477 F200.000000
G1 X110.673400 Y76.337244 F200.000000
G1 Y79.904600 F200.000000
G1 X113.248892 F200.000000
G1 X113.211318 Y79.864802 F200.000000
G0 Z0.500000
G0 X83.097000 Y79.701272
G1 Z-0.040000 F60.000000
G1 X82.893672 Y79.904600 F200.000000
G1 X83.300328 F200.000000
G1 X83.097000 Y79.701272 F200.000000
G0 Z0.500000
G0 X88.177000 Y79.701272
G1 Z-0.040000 F60.000000
G1 X87.973672 Y79.904600 F200.000000
G1 X88.380328 F200.000000
G1 X88.177000 Y79.701272 F200.000000
G0 Z0.500000
G0 X99.686620 Y79.821983
G1 Z-0.040000 F60.000000
G1 X99.658298 Y79.802955 F200.000000
G1 X99.604322 Y79.710924 F200.000000
G1 X99.540801 Y79.625202 F200.000000
G1 X99.457873 Y79.436127 F200.000000
G1 X99.268798 Y79.353199 F200.000000
G1 X99.189062 Y79.294113 F200.000000
G1 X99.102263 Y79.246001 F200.000000
G1 X99.078146 Y79.211922 F200.000000
G1 X99.044603 Y79.187066 F200.000000
G1 X98.998400 Y79.099235 F200.000000
G1 X98.961460 Y79.047037 F200.000000
G1 Y79.543540 F200.000000
G1 Y79.543540 F200.000000
G1 Y79.543540 F200.000000
G1 Y79.795000 F200.000000
G1 X98.936445 Y79.904600 F200.000000
G1 X99.809592 F200.000000
G1 X99.801359 Y79.899069 F200.000000
G1 X99.706934 Y79.849397 F200.000000
G1 X99.686620 Y79.821983 F200.000000
G0 Z0.500000
G0 X103.189983 Y79.207380
G1 Z-0.040000 F60.000000
G1 X103.170955 Y79.235702 F200.000000
G1 X103.078924 Y79.289678 F200.000000
G1 X102.993202 Y79.353199 F200.000000
G1 X102.804127 Y79.436127 F200.000000
G1 X102.721199 Y79.625202 F200.000000
G1 X102.662113 Y79.704938 F200.000000
G1 X102.614001 Y79.791737 F200.000000
G1 X102.579922 Y79.815854 F200.000000
G1 X102.555066 Y79.849397 F200.000000
G1 X102.467235 Y79.895600 F200.000000
G1 X102.454518 Y79.904600 F200.000000
G1 X104.031808 F200.000000
G1 X103.961704 Y79.834496 F200.000000
G1 X103.896437 Y79.730624 F200.000000
G1 X103.825548 Y79.630504 F200.000000
G1 X103.729028 Y79.396824 F200.000000
G1 X103.708702 Y79.276464 F200.000000
G1 X103.681540 Y79.157460 F200.000000
G1 Y77.085452 F200.000000
G1 X103.473505 Y76.877416 F200.000000
G1 X103.567309 Y77.104674 F200.000000
G1 X103.586200 Y77.216701 F200.000000
G1 X103.614505 Y77.326728 F200.000000
G1 X103.634825 Y78.068408 F200.000000
G1 X103.610761 Y78.188971 F200.000000
G1 X103.593268 Y78.310660 F200.000000
G1 X103.326568 Y79.004080 F200.000000
G1 X103.267069 Y79.092641 F200.000000
G1 X103.217397 Y79.187066 F200.000000
G1 X103.189983 Y79.207380 F200.000000
G0 Z0.500000
G0 X123.011956 Y79.831956
G1 Z-0.040000 F60.000000
G1 X122.959682 Y79.864802 F200.000000
G1 X122.922108 Y79.904600 F200.000000
G1 X123.107557 F200.000000
G1 X124.100600 Y78.911557 F200.000000
G1 Y78.726108 F200.000000
G1 X124.060802 Y78.763682 F200.000000
G1 X124.027956 Y78.815956 F200.000000
G1 X123.011956 Y79.831956 F200.000000
G0 Z0.500000
G0 X94.890600 Y64.906208
G1 Z-0.040000 F60.000000
G1 Y64.737848 F200.000000
G1 X94.839475 Y64.686538 F200.000000
G1 X94.847109 Y64.719986 F200.000000
G1 X94.874536 Y64.763635 F200.000000
G1 X94.890600 Y64.906208 F200.000000
G0 Z0.500000
G0 X25.460716 Y28.836376
G1 Z-0.040000 F60.000000
G1 X25.409118 Y28.868797 F200.000000
G1 X25.367398 Y28.913215 F200.000000
G1 X25.095618 Y29.096095 F200.000000
G1 X24.978188 Y29.141359 F200.000000
G1 X24.862899 Y29.191826 F200.000000
G1 X24.811826 Y29.201555 F200.000000
G1 X24.544849 Y29.254446 F200.000000
G1 X24.483164 Y29.252668 F200.000000
G1 X24.423000 Y29.266400 F200.000000
G1 X23.875943 Y29.266400 F200.000000
G1 X23.764613 Y29.376771 F200.000000
G1 X23.661908 Y29.440686 F200.000000
G1 X23.563268 Y29.510712 F200.000000
G1 X23.073048 Y29.713912 F200.000000
G1 X22.952337 Y29.734453 F200.000000
G1 X22.832960 Y29.761700 F200.000000
G1 X22.302100 F200.000000
G1 X22.182723 Y29.734453 F200.000000
G1 X22.129000 Y29.725311 F200.000000
G1 Y30.476200 F200.000000
G1 X24.606357 F200.000000
G1 X25.904200 Y29.178357 F200.000000
G1 Y28.715600 F200.000000
G1 Y28.715600 F200.000000
G1 Y28.715600 F200.000000
G1 Y28.392089 F200.000000
G1 X25.511969 Y28.785123 F200.000000
G1 X25.511691 Y28.785298 F200.000000
G1 X25.511516 Y28.785576 F200.000000
G1 X25.460716 Y28.836376 F200.000000
G0 Z0.500000
G0 X21.121000 Y62.385460
G1 Z-0.040000 F60.000000
G1 X21.000842 Y62.358035 F200.000000
G1 X20.879395 Y62.337041 F200.000000
G1 X20.648255 Y62.240521 F200.000000
G1 X20.549374 Y62.169933 F200.000000
G1 X20.446504 Y62.105296 F200.000000
G1 X20.268704 Y61.927496 F200.000000
G1 X20.203437 Y61.823624 F200.000000
G1 X20.132548 Y61.723504 F200.000000
G1 X20.036028 Y61.489824 F200.000000
G1 X20.015702 Y61.369464 F200.000000
G1 X19.988540 Y61.250460 F200.000000
G1 Y60.448452 F200.000000
G1 X17.963400 Y58.423312 F200.000000
G1 Y62.401557 F200.000000
G1 X18.702443 Y63.140600 F200.000000
G1 X23.031557 F200.000000
G1 X23.770600 Y62.401557 F200.000000
G1 Y62.164074 F200.000000
G1 X23.747425 Y62.155608 F200.000000
G1 X23.723624 Y62.170563 F200.000000
