(Generated by ./pygerber2gcode_cui_MOD.py )
( 2013-11-01 20:28:12 )
(Initialize)

(Start form here)
G0 Z0.500000
G0 X132.894261 Y82.241762
G1 Z-0.040000 F60.000000
G1 X132.840408 Y82.267696 F200.000000
G1 X132.793675 Y82.304964 F200.000000
G1 X132.735401 Y82.318265 F200.000000
G1 X132.681547 Y82.344199 F200.000000
G1 X132.621774 F200.000000
G1 X132.563500 Y82.357500 F200.000000
G1 X5.690500 F200.000000
G1 X5.632226 Y82.344199 F200.000000
G1 X5.572453 Y82.344199 F200.000000
G1 X5.518599 Y82.318265 F200.000000
G1 X5.460325 Y82.304964 F200.000000
G1 X5.413592 Y82.267696 F200.000000
G1 X5.359739 Y82.241762 F200.000000
G1 X5.322471 Y82.195029 F200.000000
G1 X5.275738 Y82.157761 F200.000000
G1 X5.249804 Y82.103908 F200.000000
G1 X5.212536 Y82.057175 F200.000000
G1 X5.199235 Y81.998901 F200.000000
G1 X5.173301 Y81.945047 F200.000000
G1 X5.173301 Y81.708953 F200.000000
G0 Z0.500000
G0 X133.041464 Y5.460325
G1 Z-0.040000 F60.000000
G1 X133.054765 Y5.518599 F200.000000
G1 X133.080699 Y5.572453 F200.000000
G1 Y5.632226 F200.000000
G1 X133.094000 Y5.690500 F200.000000
G1 Y81.827000 F200.000000
G1 X133.080699 Y81.885274 F200.000000
G1 Y81.945047 F200.000000
G1 X133.054765 Y81.998901 F200.000000
G1 X133.041464 Y82.057175 F200.000000
G1 X133.004196 Y82.103908 F200.000000
G1 X132.978262 Y82.157761 F200.000000
G1 X132.931529 Y82.195029 F200.000000
G1 X132.894261 Y82.241762 F200.000000
G0 Z0.500000
G0 X5.173301 Y81.885274
G1 Z-0.040000 F60.000000
G1 X5.160000 Y81.827000 F200.000000
G1 Y5.690500 F200.000000
G1 X5.173301 Y5.632226 F200.000000
G1 Y5.572453 F200.000000
G1 X5.199235 Y5.518599 F200.000000
G1 X5.212536 Y5.460325 F200.000000
G1 X5.249804 Y5.413592 F200.000000
G1 X5.275738 Y5.359739 F200.000000
G1 X5.322471 Y5.322471 F200.000000
G1 X5.359739 Y5.275738 F200.000000
G1 X5.413592 Y5.249804 F200.000000
G1 X5.460325 Y5.212536 F200.000000
G1 X5.518599 Y5.199235 F200.000000
G1 X5.572453 Y5.173301 F200.000000
G1 X5.632226 F200.000000
G1 X5.690500 Y5.160000 F200.000000
G1 X132.563500 F200.000000
G1 X132.621774 Y5.173301 F200.000000
G1 X132.681547 F200.000000
G1 X132.735401 Y5.199235 F200.000000
G1 X132.793675 Y5.212536 F200.000000
G1 X132.840408 Y5.249804 F200.000000
G1 X132.894261 Y5.275738 F200.000000
G1 X132.931529 Y5.322471 F200.000000
G1 X132.978262 Y5.359739 F200.000000
G1 X133.004196 Y5.413592 F200.000000
G1 X133.041464 Y5.460325 F200.000000
G0 Z0.500000
G0 X11.197482 Y6.861680
G1 Z-0.040000 F60.000000
G1 X11.245149 Y6.894795 F200.000000
G1 X11.268380 Y6.935861 F200.000000
G1 X11.300980 Y6.969970 F200.000000
G1 X11.519420 Y7.335730 F200.000000
G1 X11.524040 Y7.349960 F200.000000
G1 X11.538270 Y7.354580 F200.000000
G1 X11.904030 Y7.573020 F200.000000
G1 X11.936457 Y7.604012 F200.000000
G1 X11.975719 Y7.625705 F200.000000
G1 X12.010649 Y7.674921 F200.000000
G1 X12.054278 Y7.716619 F200.000000
G1 X12.070047 Y7.758612 F200.000000
G1 X12.096009 Y7.795191 F200.000000
G1 X12.477009 Y8.714671 F200.000000
G1 X12.492013 Y8.802910 F200.000000
G1 X12.512567 Y8.890023 F200.000000
G1 X12.516282 Y9.397616 F200.000000
G1 X14.669693 Y6.354127 F200.000000
G1 X14.683708 Y6.341569 F200.000000
G1 X14.691737 Y6.324550 F200.000000
G1 X14.694113 Y6.322624 F200.000000
G1 X14.695441 Y6.319867 F200.000000
G1 X14.808955 Y6.229343 F200.000000
G1 X14.818266 Y6.221000 F200.000000
G1 X8.222520 F200.000000
G1 Y6.600921 F200.000000
G1 X8.714671 Y6.396991 F200.000000
G1 X8.802910 Y6.381987 F200.000000
G1 X8.890023 Y6.361433 F200.000000
G1 X9.931423 Y6.353813 F200.000000
G1 X10.019846 Y6.373315 F200.000000
G1 X10.109262 Y6.387596 F200.000000
G1 X11.074462 Y6.776216 F200.000000
G1 X11.113211 Y6.803135 F200.000000
G1 X11.157381 Y6.819722 F200.000000
G1 X11.197482 Y6.861680 F200.000000
G0 Z0.500000
G0 X7.288520 Y6.221000
G1 Z-0.040000 F60.000000
G1 X7.287800 F200.000000
G1 Y7.383205 F200.000000
G1 X7.288520 Y7.382775 F200.000000
G1 Y6.221000 F200.000000
G0 Z0.500000
G0 X125.733800 Y8.690600
G1 Z-0.040000 F60.000000
G1 Y6.221000 F200.000000
G1 X122.834020 F200.000000
G1 X122.867785 Y6.242215 F200.000000
G1 X125.316169 Y8.690600 F200.000000
G1 X125.733800 F200.000000
G0 Z0.500000
G0 X126.668520 Y6.221000
G1 Z-0.040000 F60.000000
G1 X126.667800 F200.000000
G1 Y7.383205 F200.000000
G1 X126.668520 Y7.382775 F200.000000
G1 Y6.221000 F200.000000
G0 Z0.500000
G0 X14.582993 Y24.636245
G1 Z-0.040000 F60.000000
G1 X14.649615 Y24.530215 F200.000000
G1 X15.788431 Y23.391400 F200.000000
G1 X15.681801 F200.000000
G1 X13.231400 Y25.841801 F200.000000
G1 Y26.953568 F200.000000
G1 X13.301303 Y27.001818 F200.000000
G1 X13.543880 Y27.464010 F200.000000
G1 Y27.985990 F200.000000
G1 X13.301303 Y28.448182 F200.000000
G1 X12.877083 Y28.741000 F200.000000
G1 X13.267666 Y29.010600 F200.000000
G1 X13.953831 Y29.010600 F200.000000
G1 X14.431000 Y28.533431 F200.000000
G1 Y25.058000 F200.000000
G1 X14.458865 Y24.935916 F200.000000
G1 X14.472885 Y24.811480 F200.000000
G1 X14.495471 Y24.775536 F200.000000
G1 X14.504917 Y24.734149 F200.000000
G1 X14.582993 Y24.636245 F200.000000
G0 Z0.500000
G0 X12.011804 Y28.688713
G1 Z-0.040000 F60.000000
G1 X12.005912 Y28.741000 F200.000000
G1 X12.011804 Y28.793287 F200.000000
G1 X12.007487 Y28.805625 F200.000000
G1 X12.177888 Y28.741000 F200.000000
G1 X12.007487 Y28.676375 F200.000000
G1 X12.011804 Y28.688713 F200.000000
G0 Z0.500000
G0 X14.856599 Y22.680200
G1 Z-0.040000 F60.000000
G1 X14.165769 Y22.680200 F200.000000
G1 X11.199400 Y25.646569 F200.000000
G1 Y26.953568 F200.000000
G1 X11.269303 Y27.001818 F200.000000
G1 X11.475734 Y27.395138 F200.000000
G1 X11.519348 Y27.218187 F200.000000
G1 X11.738600 Y26.970703 F200.000000
G1 Y25.820000 F200.000000
G1 X11.812517 Y25.496149 F200.000000
G1 X12.019627 Y25.236441 F200.000000
G1 X12.318910 Y25.092314 F200.000000
G1 X12.444485 F200.000000
G1 X14.856599 Y22.680200 F200.000000
G0 Z0.500000
G0 X11.416713 Y28.198196
G1 Z-0.040000 F60.000000
G1 X11.469000 Y28.204088 F200.000000
G1 X11.511339 Y28.199317 F200.000000
G1 X11.475734 Y28.054862 F200.000000
G1 X11.396860 Y28.205143 F200.000000
G1 X11.416713 Y28.198196 F200.000000
G0 Z0.500000
G0 X43.214283 Y59.549592
G1 Z-0.040000 F60.000000
G1 X43.230719 Y59.523434 F200.000000
G1 X43.237594 Y59.493314 F200.000000
G1 X43.294414 Y59.422064 F200.000000
G1 X43.342900 Y59.344900 F200.000000
G1 X47.073792 Y55.614007 F200.000000
G1 X46.871454 Y55.385615 F200.000000
G1 X46.752500 Y54.903000 F200.000000
G1 X46.871454 Y54.420385 F200.000000
G1 X47.201065 Y54.048331 F200.000000
G1 X47.247800 Y54.030607 F200.000000
G1 Y53.096001 F200.000000
G1 X45.279999 Y51.128200 F200.000000
G0 Z0.500000
G0 X40.589428 Y55.988276
G1 Z-0.040000 F60.000000
G1 X40.615216 Y56.062115 F200.000000
G1 X40.649151 Y56.132583 F200.000000
G1 Y56.159282 F200.000000
G1 X40.657955 Y56.184488 F200.000000
G1 X40.657526 Y56.188273 F200.000000
G1 X41.725949 Y55.119850 F200.000000
G1 X41.672500 Y54.903000 F200.000000
G1 X41.791454 Y54.420385 F200.000000
G1 X42.121065 Y54.048331 F200.000000
G1 X42.585823 Y53.872072 F200.000000
G1 X43.079257 Y53.931986 F200.000000
G1 X43.488328 Y54.214347 F200.000000
G1 X43.719323 Y54.654471 F200.000000
G1 Y55.151529 F200.000000
G1 X43.488328 Y55.591653 F200.000000
G1 X43.079257 Y55.874014 F200.000000
G1 X42.585823 Y55.933928 F200.000000
G1 X42.486095 Y55.896106 F200.000000
G1 X39.190200 Y59.192001 F200.000000
G1 Y60.835824 F200.000000
G1 X39.471859 Y61.030239 F200.000000
G1 X39.716978 Y61.497274 F200.000000
G1 Y62.024726 F200.000000
G1 X39.471859 Y62.491761 F200.000000
G1 X39.037775 Y62.791388 F200.000000
G1 X38.514169 Y62.854965 F200.000000
G1 X38.491140 Y62.846232 F200.000000
G1 X38.521437 Y62.900779 F200.000000
G1 X38.523039 Y62.928272 F200.000000
G1 X38.533524 Y62.953738 F200.000000
G1 X38.529023 Y63.031000 F200.000000
G1 X38.533524 Y63.108262 F200.000000
G1 X38.523039 Y63.133728 F200.000000
G0 Z0.500000
G0 X36.287332 Y54.861360
G1 Z-0.040000 F60.000000
G1 X36.365866 Y54.866116 F200.000000
G1 X36.444445 Y54.862162 F200.000000
G1 X36.468612 Y54.872337 F200.000000
G1 X36.494787 Y54.873922 F200.000000
G1 X36.563480 Y54.912282 F200.000000
G1 X36.598413 Y54.926990 F200.000000
G1 X36.592500 Y54.903000 F200.000000
G1 X36.711454 Y54.420385 F200.000000
G1 X37.041065 Y54.048331 F200.000000
G1 X37.505823 Y53.872072 F200.000000
G1 X37.999257 Y53.931986 F200.000000
G1 X38.324667 Y54.156600 F200.000000
G1 X39.485147 F200.000000
G1 X39.581065 Y54.048331 F200.000000
G1 X40.045823 Y53.872072 F200.000000
G1 X40.539257 Y53.931986 F200.000000
G1 X40.948328 Y54.214347 F200.000000
G1 X41.179323 Y54.654471 F200.000000
G1 Y55.151529 F200.000000
G1 X40.948328 Y55.591653 F200.000000
G1 X40.539257 Y55.874014 F200.000000
G1 X40.482219 Y55.880940 F200.000000
G1 X40.497826 Y55.896565 F200.000000
G1 X40.558975 Y55.945330 F200.000000
G1 X40.570560 Y55.969386 F200.000000
G1 X40.589428 Y55.988276 F200.000000
G0 Z0.500000
G0 X33.747332 Y54.861360
G1 Z-0.040000 F60.000000
G1 X33.825866 Y54.866116 F200.000000
G1 X33.904445 Y54.862162 F200.000000
G1 X33.928612 Y54.872337 F200.000000
G1 X33.954787 Y54.873922 F200.000000
G1 X34.023480 Y54.912282 F200.000000
G1 X34.058413 Y54.926990 F200.000000
G1 X34.052500 Y54.903000 F200.000000
G1 X34.171454 Y54.420385 F200.000000
G1 X34.501065 Y54.048331 F200.000000
G1 X34.547800 Y54.030607 F200.000000
G1 Y50.077000 F200.000000
G1 X34.568079 Y49.988152 F200.000000
G1 X34.578283 Y49.897592 F200.000000
G1 X34.594719 Y49.871434 F200.000000
G1 X34.601594 Y49.841314 F200.000000
G1 X34.658414 Y49.770064 F200.000000
G1 X34.706900 Y49.692900 F200.000000
G1 X36.230900 Y48.168900 F200.000000
G0 Z0.500000
G0 X52.363000 Y49.096200
G1 Z-0.040000 F60.000000
G1 X36.840001 Y49.096200 F200.000000
G1 X35.634200 Y50.302001 F200.000000
G1 Y54.052740 F200.000000
G1 X35.868328 Y54.214347 F200.000000
G1 X36.099323 Y54.654471 F200.000000
G1 Y54.938273 F200.000000
G1 X36.167792 Y54.910263 F200.000000
G1 X36.236873 Y54.872606 F200.000000
G1 X36.263062 Y54.871289 F200.000000
G1 X36.287332 Y54.861360 F200.000000
G0 Z0.500000
G0 X50.077000 Y47.572200
G1 Z-0.040000 F60.000000
G1 X34.300001 F200.000000
G1 X33.094200 Y48.778001 F200.000000
G1 Y54.052740 F200.000000
G1 X33.328328 Y54.214347 F200.000000
G1 X33.559323 Y54.654471 F200.000000
G1 Y54.938273 F200.000000
G1 X33.627792 Y54.910263 F200.000000
G1 X33.696873 Y54.872606 F200.000000
G1 X33.723062 Y54.871289 F200.000000
G1 X33.747332 Y54.861360 F200.000000
G0 Z0.500000
G0 X31.800509 Y55.608489
G1 Z-0.040000 F60.000000
G1 X31.823098 Y55.601937 F200.000000
G1 X31.631454 Y55.385615 F200.000000
G1 X31.570200 Y55.137098 F200.000000
G1 Y55.703468 F200.000000
G1 X31.574030 Y55.698665 F200.000000
G1 X31.609371 Y55.681645 F200.000000
G1 X31.638573 Y55.655455 F200.000000
G1 X31.701888 Y55.637092 F200.000000
G1 X31.761283 Y55.608489 F200.000000
G1 X31.800509 F200.000000
G0 Z0.500000
G0 X95.331957 Y67.650629
G1 Z-0.040000 F60.000000
G1 X95.402164 Y67.684438 F200.000000
G1 X95.475762 Y67.710038 F200.000000
G1 X95.494887 Y67.729091 F200.000000
G1 X95.519210 Y67.740805 F200.000000
G1 X95.520500 Y67.742423 F200.000000
G1 Y67.438177 F200.000000
G1 X95.519210 Y67.439795 F200.000000
G1 X95.505822 Y67.446242 F200.000000
G1 X95.495851 Y67.457258 F200.000000
G1 X95.412768 Y67.491055 F200.000000
G1 X95.331957 Y67.529971 F200.000000
G1 X95.317098 F200.000000
G1 X95.303335 Y67.535570 F200.000000
G1 X95.213816 Y67.529971 F200.000000
G1 X95.124123 F200.000000
G1 X95.110735 Y67.523524 F200.000000
G1 X95.095906 Y67.522597 F200.000000
G1 X95.027323 Y67.484121 F200.000000
G1 Y67.694221 F200.000000
G1 X95.072979 Y67.665415 F200.000000
G1 X95.099800 Y67.662342 F200.000000
G1 X95.124123 Y67.650629 F200.000000
G1 X95.202046 F200.000000
G1 X95.279463 Y67.641760 F200.000000
G1 X95.304961 Y67.650629 F200.000000
G1 X95.331957 Y67.650629 F200.000000
G0 Z0.500000
G0 X92.491532 Y67.595272
G1 Z-0.040000 F60.000000
G1 X92.487323 Y67.592955 F200.000000
G1 Y67.626575 F200.000000
G1 X92.492372 Y67.621028 F200.000000
G1 X92.510249 Y67.613811 F200.000000
G1 X92.491532 Y67.595272 F200.000000
G0 Z0.500000
G0 X90.188457 Y71.783209
G1 Z-0.040000 F60.000000
G1 X90.259047 Y71.817203 F200.000000
G1 X90.332999 Y71.843080 F200.000000
G1 X90.351780 Y71.861861 F200.000000
G1 X90.375710 Y71.873385 F200.000000
G1 X90.377000 Y71.875003 F200.000000
G1 Y70.311000 F200.000000
G1 X90.732600 F200.000000
G1 Y68.281057 F200.000000
G1 X90.559454 Y68.085615 F200.000000
G1 X90.440500 Y67.603000 F200.000000
G1 X90.445881 Y67.581167 F200.000000
G1 X90.407418 Y67.597073 F200.000000
G1 X90.339726 Y67.634770 F200.000000
G1 X90.312324 Y67.636397 F200.000000
G1 X90.286958 Y67.646887 F200.000000
G1 X90.209602 Y67.642498 F200.000000
G1 X90.132257 Y67.647091 F200.000000
G1 X90.106863 Y67.636668 F200.000000
G1 X90.079457 Y67.635113 F200.000000
G1 X90.011666 Y67.597595 F200.000000
G1 X89.947323 Y67.571186 F200.000000
G1 Y67.851529 F200.000000
G1 X89.716328 Y68.291653 F200.000000
G1 X89.685400 Y68.313001 F200.000000
G1 Y70.628083 F200.000000
G1 X89.763859 Y70.682239 F200.000000
G1 X90.008978 Y71.149274 F200.000000
G1 Y71.676726 F200.000000
G1 X89.946437 Y71.795888 F200.000000
G1 X89.956693 Y71.794733 F200.000000
G1 X89.980623 Y71.783209 F200.000000
G1 X90.058971 F200.000000
G1 X90.136827 Y71.774436 F200.000000
G1 X90.161897 Y71.783209 F200.000000
G1 X90.188457 F200.000000
G0 Z0.500000
G0 X82.787418 Y67.597073
G1 Z-0.040000 F60.000000
G1 X82.775815 Y67.603534 F200.000000
G1 X82.791480 Y67.612282 F200.000000
G1 X82.826413 Y67.626990 F200.000000
G1 X82.820500 Y67.603000 F200.000000
G1 X82.825881 Y67.581167 F200.000000
G1 X82.787418 Y67.597073 F200.000000
G0 Z0.500000
G0 X82.405245 Y67.605110
G1 Z-0.040000 F60.000000
G1 X82.391666 Y67.597595 F200.000000
G1 X82.327323 Y67.571186 F200.000000
G1 Y67.638273 F200.000000
G1 X82.395792 Y67.610263 F200.000000
G1 X82.405245 Y67.605110 F200.000000
G0 Z0.500000
G0 X74.400252 Y68.761600
G1 Z-0.040000 F60.000000
G1 X74.358741 Y68.718704 F200.000000
G1 X74.353592 Y68.703179 F200.000000
G1 X74.343052 Y68.690670 F200.000000
G1 X74.330423 Y68.641500 F200.000000
G1 X74.191400 F200.000000
G1 Y68.761600 F200.000000
G1 X74.400252 F200.000000
G0 Z0.500000
G0 X72.217957 Y67.650629
G1 Z-0.040000 F60.000000
G1 X72.288164 Y67.684438 F200.000000
G1 X72.361762 Y67.710038 F200.000000
G1 X72.380887 Y67.729091 F200.000000
G1 X72.405210 Y67.740805 F200.000000
G1 X72.406500 Y67.742423 F200.000000
G1 Y67.438177 F200.000000
G1 X72.405210 Y67.439795 F200.000000
G1 X72.391822 Y67.446242 F200.000000
G1 X72.381851 Y67.457258 F200.000000
G1 X72.298768 Y67.491055 F200.000000
G1 X72.217957 Y67.529971 F200.000000
G1 X72.203098 F200.000000
G1 X72.189335 Y67.535570 F200.000000
G1 X72.099816 Y67.529971 F200.000000
G1 X72.010123 F200.000000
G1 X71.996735 Y67.523524 F200.000000
G1 X71.981906 Y67.522597 F200.000000
G1 X71.913323 Y67.484121 F200.000000
G1 Y67.694221 F200.000000
G1 X71.958979 Y67.665415 F200.000000
G1 X71.985800 Y67.662342 F200.000000
G1 X72.010123 Y67.650629 F200.000000
G1 X72.088046 F200.000000
G1 X72.165463 Y67.641760 F200.000000
G1 X72.190961 Y67.650629 F200.000000
G1 X72.217957 F200.000000
G0 Z0.500000
G0 X69.377532 Y67.595272
G1 Z-0.040000 F60.000000
G1 X69.373323 Y67.592955 F200.000000
G1 Y67.626575 F200.000000
G1 X69.378372 Y67.621028 F200.000000
G1 X69.396249 Y67.613811 F200.000000
G1 X69.377532 Y67.595272 F200.000000
G0 Z0.500000
G0 X67.074457 Y72.037209
G1 Z-0.040000 F60.000000
G1 X67.145047 Y72.071203 F200.000000
G1 X67.218999 Y72.097080 F200.000000
G1 X67.237780 Y72.115861 F200.000000
G1 X67.261710 Y72.127385 F200.000000
G1 X67.263000 Y72.129003 F200.000000
G1 Y70.565000 F200.000000
G1 X67.618600 F200.000000
G1 Y68.281057 F200.000000
G1 X67.445454 Y68.085615 F200.000000
G1 X67.326500 Y67.603000 F200.000000
G1 X67.331881 Y67.581167 F200.000000
G1 X67.293418 Y67.597073 F200.000000
G1 X67.225726 Y67.634770 F200.000000
G1 X67.198324 Y67.636397 F200.000000
G1 X67.172958 Y67.646887 F200.000000
G1 X67.095602 Y67.642498 F200.000000
G1 X67.018257 Y67.647091 F200.000000
G1 X66.992863 Y67.636668 F200.000000
G1 X66.965457 Y67.635113 F200.000000
G1 X66.897666 Y67.597595 F200.000000
G1 X66.833323 Y67.571186 F200.000000
G1 Y67.851529 F200.000000
G1 X66.602328 Y68.291653 F200.000000
G1 X66.571400 Y68.313001 F200.000000
G1 Y70.882083 F200.000000
G1 X66.649859 Y70.936239 F200.000000
G1 X66.894978 Y71.403274 F200.000000
G1 Y71.930726 F200.000000
G1 X66.832437 Y72.049888 F200.000000
G1 X66.842693 Y72.048733 F200.000000
G1 X66.866623 Y72.037209 F200.000000
G1 X66.944971 F200.000000
G1 X67.022827 Y72.028436 F200.000000
G1 X67.047897 Y72.037209 F200.000000
G1 X67.074457 F200.000000
G0 Z0.500000
G0 X59.673418 Y67.597073
G1 Z-0.040000 F60.000000
G1 X59.661815 Y67.603534 F200.000000
G1 X59.677480 Y67.612282 F200.000000
G1 X59.712413 Y67.626990 F200.000000
G1 X59.706500 Y67.603000 F200.000000
G1 X59.711881 Y67.581167 F200.000000
G1 X59.673418 Y67.597073 F200.000000
G0 Z0.500000
G0 X59.291245 Y67.605110
G1 Z-0.040000 F60.000000
G1 X59.277666 Y67.597595 F200.000000
G1 X59.213323 Y67.571186 F200.000000
G1 Y67.638273 F200.000000
G1 X59.281792 Y67.610263 F200.000000
G1 X59.291245 Y67.605110 F200.000000
G0 Z0.500000
G0 X49.103957 Y67.650629
G1 Z-0.040000 F60.000000
G1 X49.174164 Y67.684438 F200.000000
G1 X49.247762 Y67.710038 F200.000000
G1 X49.266887 Y67.729091 F200.000000
G1 X49.291210 Y67.740805 F200.000000
G1 X49.292500 Y67.742423 F200.000000
G1 Y67.438177 F200.000000
G1 X49.291210 Y67.439795 F200.000000
G1 X49.277822 Y67.446242 F200.000000
G1 X49.267851 Y67.457258 F200.000000
G1 X49.184768 Y67.491055 F200.000000
G1 X49.103957 Y67.529971 F200.000000
G1 X49.089098 F200.000000
G1 X49.075335 Y67.535570 F200.000000
G1 X48.985816 Y67.529971 F200.000000
G1 X48.896123 F200.000000
G1 X48.882735 Y67.523524 F200.000000
G1 X48.867906 Y67.522597 F200.000000
G1 X48.799323 Y67.484121 F200.000000
G1 Y67.694221 F200.000000
G1 X48.844979 Y67.665415 F200.000000
G1 X48.871800 Y67.662342 F200.000000
G1 X48.896123 Y67.650629 F200.000000
G1 X48.974046 F200.000000
G1 X49.051463 Y67.641760 F200.000000
G1 X49.076961 Y67.650629 F200.000000
G1 X49.103957 F200.000000
G0 Z0.500000
G0 X46.263532 Y67.595272
G1 Z-0.040000 F60.000000
G1 X46.259323 Y67.592955 F200.000000
G1 Y67.626575 F200.000000
G1 X46.264372 Y67.621028 F200.000000
G1 X46.282249 Y67.613811 F200.000000
G1 X46.263532 Y67.595272 F200.000000
G0 Z0.500000
G0 X43.960457 Y71.783209
G1 Z-0.040000 F60.000000
G1 X44.031047 Y71.817203 F200.000000
G1 X44.104999 Y71.843080 F200.000000
G1 X44.123780 Y71.861861 F200.000000
G1 X44.147710 Y71.873385 F200.000000
G1 X44.149000 Y71.875003 F200.000000
G1 Y70.311000 F200.000000
G1 X44.504600 F200.000000
G1 Y68.281057 F200.000000
G1 X44.331454 Y68.085615 F200.000000
G1 X44.212500 Y67.603000 F200.000000
G1 X44.217881 Y67.581167 F200.000000
G1 X44.179418 Y67.597073 F200.000000
G1 X44.111726 Y67.634770 F200.000000
G1 X44.084324 Y67.636397 F200.000000
G1 X44.058958 Y67.646887 F200.000000
G1 X43.981602 Y67.642498 F200.000000
G1 X43.904257 Y67.647091 F200.000000
G1 X43.878863 Y67.636668 F200.000000
G1 X43.851457 Y67.635113 F200.000000
G1 X43.783666 Y67.597595 F200.000000
G1 X43.719323 Y67.571186 F200.000000
G1 Y67.851529 F200.000000
G1 X43.488328 Y68.291653 F200.000000
G1 X43.457400 Y68.313001 F200.000000
G1 Y70.628083 F200.000000
G1 X43.535859 Y70.682239 F200.000000
G1 X43.780978 Y71.149274 F200.000000
G1 Y71.676726 F200.000000
G1 X43.718437 Y71.795888 F200.000000
G1 X43.728693 Y71.794733 F200.000000
G1 X43.752623 Y71.783209 F200.000000
G1 X43.830971 F200.000000
G1 X43.908827 Y71.774436 F200.000000
G1 X43.933897 Y71.783209 F200.000000
G1 X43.960457 F200.000000
G0 Z0.500000
G0 X36.559418 Y67.597073
G1 Z-0.040000 F60.000000
G1 X36.547815 Y67.603534 F200.000000
G1 X36.563480 Y67.612282 F200.000000
G1 X36.598413 Y67.626990 F200.000000
G1 X36.592500 Y67.603000 F200.000000
G1 X36.597881 Y67.581167 F200.000000
G1 X36.559418 Y67.597073 F200.000000
G0 Z0.500000
G0 X36.177245 Y67.605110
G1 Z-0.040000 F60.000000
G1 X36.163666 Y67.597595 F200.000000
G1 X36.099323 Y67.571186 F200.000000
G1 Y67.638273 F200.000000
G1 X36.167792 Y67.610263 F200.000000
G1 X36.177245 Y67.605110 F200.000000
G0 Z0.500000
G0 X98.656409 Y58.418583
G1 Z-0.040000 F60.000000
G1 X98.690403 Y58.347993 F200.000000
G1 X98.716280 Y58.274041 F200.000000
G1 X98.735061 Y58.255260 F200.000000
G1 X98.746585 Y58.231330 F200.000000
G1 X98.807840 Y58.182481 F200.000000
G1 X98.826329 Y58.163991 F200.000000
G1 X98.509065 Y58.043669 F200.000000
G1 X98.179454 Y57.671615 F200.000000
G1 X98.060500 Y57.189000 F200.000000
G1 X98.179454 Y56.706385 F200.000000
G1 X98.501110 Y56.343311 F200.000000
G1 X97.603999 Y55.446200 F200.000000
G1 X97.597500 F200.000000
G1 Y55.941500 F200.000000
G1 X95.520500 F200.000000
G1 Y53.864500 F200.000000
G1 X95.895299 F200.000000
G1 X95.158900 Y53.128100 F200.000000
G1 X95.110414 Y53.050936 F200.000000
G1 X95.053594 Y52.979686 F200.000000
G1 X95.046719 Y52.949566 F200.000000
G1 X95.030283 Y52.923408 F200.000000
G1 X95.020079 Y52.832848 F200.000000
G1 X94.999800 Y52.744000 F200.000000
G1 Y49.775524 F200.000000
G1 X93.267067 Y47.826200 F200.000000
G1 X81.319000 F200.000000
G1 X81.230152 Y47.805921 F200.000000
G1 X81.139592 Y47.795717 F200.000000
G1 X81.113434 Y47.779281 F200.000000
G1 X81.083314 Y47.772406 F200.000000
G1 X81.012064 Y47.715586 F200.000000
G1 X80.934900 Y47.667100 F200.000000
G1 X79.410900 Y46.143100 F200.000000
G1 X79.362414 Y46.065936 F200.000000
G1 X79.305594 Y45.994686 F200.000000
G1 X79.298719 Y45.964566 F200.000000
G1 X79.282283 Y45.938408 F200.000000
G1 X79.272079 Y45.847848 F200.000000
G1 X79.251800 Y45.759000 F200.000000
G1 Y36.912955 F200.000000
G0 Z0.500000
G0 X94.508406 Y52.127314
G1 Z-0.040000 F60.000000
G1 X94.515281 Y52.157434 F200.000000
G1 X94.531717 Y52.183592 F200.000000
G1 X94.541921 Y52.274152 F200.000000
G1 X94.562200 Y52.363000 F200.000000
G1 Y54.052740 F200.000000
G1 X94.796328 Y54.214347 F200.000000
G1 X95.027323 Y54.654471 F200.000000
G1 Y55.151529 F200.000000
G1 X94.796328 Y55.591653 F200.000000
G1 X94.387257 Y55.874014 F200.000000
G1 X93.893823 Y55.933928 F200.000000
G1 X93.609936 Y55.826264 F200.000000
G1 X89.482200 Y59.954001 F200.000000
G1 Y60.405000 F200.000000
G1 X90.041000 F200.000000
G1 Y62.397431 F200.000000
G1 X90.478600 Y61.959831 F200.000000
G1 Y59.983000 F200.000000
G1 X90.506465 Y59.860916 F200.000000
G1 X90.520485 Y59.736480 F200.000000
G1 X90.543071 Y59.700536 F200.000000
G1 X90.552517 Y59.659149 F200.000000
G1 X90.630593 Y59.561245 F200.000000
G1 X90.697215 Y59.455215 F200.000000
G1 X91.967215 Y58.185215 F200.000000
G1 X92.073245 Y58.118593 F200.000000
G1 X92.171149 Y58.040517 F200.000000
G1 X92.212536 Y58.031071 F200.000000
G1 X92.248480 Y58.008485 F200.000000
G1 X92.372916 Y57.994465 F200.000000
G1 X92.495000 Y57.966600 F200.000000
G1 X97.829000 F200.000000
G1 X97.951084 Y57.994465 F200.000000
G1 X98.075520 Y58.008485 F200.000000
G1 X98.111464 Y58.031071 F200.000000
G1 X98.152851 Y58.040517 F200.000000
G1 X98.250755 Y58.118593 F200.000000
G1 X98.356785 Y58.185215 F200.000000
G1 X98.648380 Y58.476811 F200.000000
G1 X98.647636 Y58.470213 F200.000000
G1 X98.656409 Y58.445143 F200.000000
G1 Y58.418583 F200.000000
G0 Z0.500000
G0 X82.939454 Y55.385615
G1 Z-0.040000 F60.000000
G1 X82.820500 Y54.903000 F200.000000
G1 X82.939454 Y54.420385 F200.000000
G1 X83.269065 Y54.048331 F200.000000
G1 X83.733823 Y53.872072 F200.000000
G1 X84.227257 Y53.931986 F200.000000
G1 X84.552667 Y54.156600 F200.000000
G1 X85.713147 F200.000000
G1 X85.809065 Y54.048331 F200.000000
G1 X86.273823 Y53.872072 F200.000000
G1 X86.767257 Y53.931986 F200.000000
G1 X87.176328 Y54.214347 F200.000000
G1 X87.407323 Y54.654471 F200.000000
G1 Y55.151529 F200.000000
G1 X87.176328 Y55.591653 F200.000000
G1 X86.767257 Y55.874014 F200.000000
G1 X86.273823 Y55.933928 F200.000000
G1 X85.809065 Y55.757669 F200.000000
G1 X85.713147 Y55.649400 F200.000000
G1 X84.552667 Y55.649400 F200.000000
G1 X84.227257 Y55.874014 F200.000000
G1 X83.733823 Y55.933928 F200.000000
G1 X83.269065 Y55.757669 F200.000000
G1 X82.939454 Y55.385615 F200.000000
G0 Z0.500000
G0 X77.798200 Y36.912955
G1 Z-0.040000 F60.000000
G1 Y45.533999 F200.000000
G1 X81.703100 Y49.438900 F200.000000
G1 X81.751586 Y49.516064 F200.000000
G1 X81.808406 Y49.587314 F200.000000
G1 X81.815281 Y49.617434 F200.000000
G1 X81.831717 Y49.643592 F200.000000
G1 X81.841921 Y49.734152 F200.000000
G1 X81.862200 Y49.823000 F200.000000
G1 Y54.052740 F200.000000
G1 X82.096328 Y54.214347 F200.000000
G1 X82.327323 Y54.654471 F200.000000
G1 Y55.151529 F200.000000
G1 X82.096328 Y55.591653 F200.000000
G1 X81.687257 Y55.874014 F200.000000
G1 X81.193823 Y55.933928 F200.000000
G1 X80.729065 Y55.757669 F200.000000
G1 X80.399454 Y55.385615 F200.000000
G1 X80.280500 Y54.903000 F200.000000
G1 X80.399454 Y54.420385 F200.000000
G1 X80.729065 Y54.048331 F200.000000
G1 X80.775800 Y54.030607 F200.000000
G1 Y50.048001 F200.000000
G1 X76.870900 Y46.143100 F200.000000
G1 X76.822414 Y46.065936 F200.000000
G1 X76.765594 Y45.994686 F200.000000
G1 X76.758719 Y45.964566 F200.000000
G1 X76.742283 Y45.938408 F200.000000
G1 X76.732079 Y45.847848 F200.000000
G1 X76.711800 Y45.759000 F200.000000
G1 Y36.912955 F200.000000
G0 Z0.500000
G0 X71.648686 Y50.095594
G1 Z-0.040000 F60.000000
G1 X71.719936 Y50.152414 F200.000000
G1 X71.797100 Y50.200900 F200.000000
G1 X73.829100 Y52.232900 F200.000000
G1 X73.877586 Y52.310064 F200.000000
G1 X73.934406 Y52.381314 F200.000000
G1 X73.941281 Y52.411434 F200.000000
G1 X73.957717 Y52.437592 F200.000000
G1 X73.967921 Y52.528152 F200.000000
G1 X73.988200 Y52.617000 F200.000000
G1 Y53.864500 F200.000000
G1 X74.483500 F200.000000
G1 Y55.173299 F200.000000
G1 X75.760095 Y56.449894 F200.000000
G1 X75.859823 Y56.412072 F200.000000
G1 X76.353257 Y56.471986 F200.000000
G1 X76.762328 Y56.754347 F200.000000
G1 X76.993323 Y57.194471 F200.000000
G1 Y57.691529 F200.000000
G1 X76.762328 Y58.131653 F200.000000
G1 X76.353257 Y58.414014 F200.000000
G1 X75.859823 Y58.473928 F200.000000
G1 X75.395065 Y58.297669 F200.000000
G1 X75.065454 Y57.925615 F200.000000
G0 Z0.500000
G0 X59.825454 Y55.385615
G1 Z-0.040000 F60.000000
G1 X59.706500 Y54.903000 F200.000000
G1 X59.825454 Y54.420385 F200.000000
G1 X60.155065 Y54.048331 F200.000000
G1 X60.619823 Y53.872072 F200.000000
G1 X61.113257 Y53.931986 F200.000000
G1 X61.438667 Y54.156600 F200.000000
G1 X62.599147 F200.000000
G1 X62.695065 Y54.048331 F200.000000
G1 X63.159823 Y53.872072 F200.000000
G1 X63.653257 Y53.931986 F200.000000
G1 X64.062328 Y54.214347 F200.000000
G1 X64.293323 Y54.654471 F200.000000
G1 Y55.151529 F200.000000
G1 X64.062328 Y55.591653 F200.000000
G1 X63.653257 Y55.874014 F200.000000
G1 X63.159823 Y55.933928 F200.000000
G1 X62.695065 Y55.757669 F200.000000
G1 X62.599147 Y55.649400 F200.000000
G1 X61.438667 Y55.649400 F200.000000
G1 X61.113257 Y55.874014 F200.000000
G1 X60.619823 Y55.933928 F200.000000
G1 X60.155065 Y55.757669 F200.000000
G1 X59.825454 Y55.385615 F200.000000
G0 Z0.500000
G0 X62.541594 Y49.042686
G1 Z-0.040000 F60.000000
G1 X62.534719 Y49.012566 F200.000000
G1 X62.518283 Y48.986408 F200.000000
G1 X62.508079 Y48.895848 F200.000000
G1 X62.488245 Y48.808951 F200.000000
G1 X62.447586 Y48.859936 F200.000000
G1 X62.399100 Y48.937100 F200.000000
G1 X58.748200 Y52.588001 F200.000000
G1 Y54.052740 F200.000000
G1 X58.982328 Y54.214347 F200.000000
G1 X59.213323 Y54.654471 F200.000000
G1 Y55.151529 F200.000000
G1 X58.982328 Y55.591653 F200.000000
G1 X58.573257 Y55.874014 F200.000000
G1 X58.079823 Y55.933928 F200.000000
G1 X57.615065 Y55.757669 F200.000000
G1 X57.285454 Y55.385615 F200.000000
G1 X57.166500 Y54.903000 F200.000000
G1 X57.285454 Y54.420385 F200.000000
G1 X57.615065 Y54.048331 F200.000000
G1 X57.661800 Y54.030607 F200.000000
G1 Y52.363000 F200.000000
G1 X57.682079 Y52.274152 F200.000000
G1 X57.692283 Y52.183592 F200.000000
G1 X57.708719 Y52.157434 F200.000000
G1 X57.715594 Y52.127314 F200.000000
G1 X57.772414 Y52.056064 F200.000000
G1 X57.820900 Y51.978900 F200.000000
G1 X61.471800 Y48.327999 F200.000000
G1 Y36.912955 F200.000000
G0 Z0.500000
G0 X100.929046 Y33.319495
G1 Z-0.040000 F60.000000
G1 X100.899288 Y33.346035 F200.000000
G1 X100.836537 Y33.364045 F200.000000
G1 X100.816798 Y33.373551 F200.000000
G1 X100.968800 Y33.478470 F200.000000
G1 Y33.297392 F200.000000
G1 X100.964970 Y33.302195 F200.000000
G1 X100.929046 Y33.319495 F200.000000
G0 Z0.500000
G0 X94.706408 Y15.528283
G1 Z-0.040000 F60.000000
G1 X94.732566 Y15.544719 F200.000000
G1 X94.762686 Y15.551594 F200.000000
G1 X94.833936 Y15.608414 F200.000000
G1 X94.911100 Y15.656900 F200.000000
G1 X96.143737 Y16.889537 F200.000000
G1 X96.028500 Y16.422000 F200.000000
G1 X96.081949 Y16.205150 F200.000000
G1 X95.190999 Y15.314200 F200.000000
G1 X87.640001 F200.000000
G1 X83.367330 Y19.586871 F200.000000
G0 Z0.500000
G0 X97.031305 Y17.454656
G1 Z-0.040000 F60.000000
G1 X97.038646 Y17.441172 F200.000000
G1 X96.941823 Y17.452928 F200.000000
G1 X96.563742 Y17.309541 F200.000000
G1 X96.936142 Y17.681941 F200.000000
G1 X96.935676 Y17.677813 F200.000000
G1 X96.948281 Y17.641791 F200.000000
G1 X96.950178 Y17.603675 F200.000000
G1 X96.982200 Y17.544855 F200.000000
G1 X97.004320 Y17.481641 F200.000000
G1 X97.031305 Y17.454656 F200.000000
G0 Z0.500000
G0 X99.275277 Y49.797391
G1 Z-0.040000 F60.000000
G1 X99.313970 Y49.816025 F200.000000
G1 X99.317800 Y49.820828 F200.000000
G1 Y49.361970 F200.000000
G1 X99.126801 Y49.725889 F200.000000
G1 X99.182799 Y49.752856 F200.000000
G1 X99.242851 Y49.769234 F200.000000
G1 X99.275277 Y49.797391 F200.000000
G0 Z0.500000
G0 X99.270842 Y48.329285
G1 Z-0.040000 F60.000000
G1 X99.234039 Y48.359894 F200.000000
G1 X99.178394 Y48.373805 F200.000000
G1 X99.127865 Y48.398139 F200.000000
G1 X99.317800 Y48.760030 F200.000000
G1 Y48.303712 F200.000000
G1 X99.313970 Y48.308515 F200.000000
G1 X99.270842 Y48.329285 F200.000000
G0 Z0.500000
G0 X45.279999 Y51.128200
G1 Z-0.040000 F60.000000
G1 X40.008668 Y51.128200 F200.000000
G1 X39.932328 Y51.273653 F200.000000
G1 X39.523257 Y51.556014 F200.000000
G1 X39.029823 Y51.615928 F200.000000
G1 X38.565065 Y51.439669 F200.000000
G1 X38.235454 Y51.067615 F200.000000
G1 X38.116500 Y50.585000 F200.000000
G1 X38.235454 Y50.102385 F200.000000
G1 X38.565065 Y49.730331 F200.000000
G1 X39.029823 Y49.554072 F200.000000
G1 X39.523257 Y49.613986 F200.000000
G1 X39.932328 Y49.896347 F200.000000
G1 X40.008668 Y50.041800 F200.000000
G1 X45.505000 Y50.041800 F200.000000
G1 X45.593848 Y50.062079 F200.000000
G1 X45.684408 Y50.072283 F200.000000
G1 X45.710566 Y50.088719 F200.000000
G0 Z0.500000
G0 X20.865906 Y15.738742
G1 Z-0.040000 F60.000000
G1 X20.833897 Y15.766653 F200.000000
G1 X20.775183 Y15.782796 F200.000000
G1 X20.908000 Y15.874473 F200.000000
G1 Y15.715512 F200.000000
G1 X20.904170 Y15.720315 F200.000000
G1 X20.865906 Y15.738742 F200.000000
G0 Z0.500000
G0 X75.046262 Y12.879524
G1 Z-0.040000 F60.000000
G1 X74.969000 Y12.875023 F200.000000
G1 X74.891738 Y12.879524 F200.000000
G1 X74.866272 Y12.869039 F200.000000
G1 X74.838779 Y12.867437 F200.000000
G1 X74.771122 Y12.829859 F200.000000
G1 X74.768978 Y12.828976 F200.000000
G1 Y13.256726 F200.000000
G1 X74.523859 Y13.723761 F200.000000
G1 X74.089775 Y14.023388 F200.000000
G1 X73.566169 Y14.086965 F200.000000
G1 X73.072993 Y13.899928 F200.000000
G1 X72.930777 Y13.739400 F200.000000
G1 X72.738169 F200.000000
G1 X72.159400 Y14.318169 F200.000000
G1 Y17.311000 F200.000000
G1 X72.131535 Y17.433084 F200.000000
G1 X72.117515 Y17.557520 F200.000000
G1 X72.094929 Y17.593464 F200.000000
G1 X72.085483 Y17.634851 F200.000000
G1 X72.007407 Y17.732755 F200.000000
G1 X71.940785 Y17.838785 F200.000000
G1 X70.479754 Y19.299815 F200.000000
G0 Z0.500000
G0 X73.179230 Y11.963655
G1 Z-0.040000 F60.000000
G1 X73.175400 Y11.958852 F200.000000
G1 Y12.047234 F200.000000
G1 X73.261749 Y12.014486 F200.000000
G1 X73.226638 Y11.986486 F200.000000
G1 X73.179230 Y11.963655 F200.000000
G0 Z0.500000
G0 X78.762670 Y19.586871
G1 Z-0.040000 F60.000000
G1 X77.124900 Y17.949100 F200.000000
G1 X77.076414 Y17.871936 F200.000000
G1 X77.019594 Y17.800686 F200.000000
G1 X77.012719 Y17.770566 F200.000000
G1 X76.996283 Y17.744408 F200.000000
G1 X76.986079 Y17.653848 F200.000000
G1 X76.965800 Y17.565000 F200.000000
G1 Y16.331446 F200.000000
G1 X76.782200 Y16.458176 F200.000000
G1 Y16.549000 F200.000000
G1 X76.761921 Y16.637848 F200.000000
G1 X76.751717 Y16.728408 F200.000000
G1 X76.735281 Y16.754566 F200.000000
G1 X76.728406 Y16.784686 F200.000000
G1 X76.671586 Y16.855936 F200.000000
G1 X76.623100 Y16.933100 F200.000000
G1 X75.258200 Y18.298001 F200.000000
G1 Y19.045045 F200.000000
G0 Z0.500000
G0 X72.901800 Y19.151905
G1 Z-0.040000 F60.000000
G1 Y18.327000 F200.000000
G1 X72.922079 Y18.238152 F200.000000
G1 X72.932283 Y18.147592 F200.000000
G1 X72.948719 Y18.121434 F200.000000
G1 X72.955594 Y18.091314 F200.000000
G1 X73.012414 Y18.020064 F200.000000
G1 X73.060900 Y17.942900 F200.000000
G1 X73.155800 Y17.847999 F200.000000
G1 Y16.635000 F200.000000
G1 X72.597000 F200.000000
G1 Y14.431000 F200.000000
G1 X74.801000 F200.000000
G1 Y16.635000 F200.000000
G1 X74.242200 F200.000000
G1 Y17.816491 F200.000000
G1 X74.282414 Y17.766064 F200.000000
G1 X74.330900 Y17.688900 F200.000000
G1 X75.597434 Y16.422366 F200.000000
G1 X75.263227 Y16.045125 F200.000000
G1 X75.137000 Y15.533000 F200.000000
G1 X75.263227 Y15.020875 F200.000000
G1 X75.612993 Y14.626072 F200.000000
G1 X76.106169 Y14.439035 F200.000000
G1 X76.629775 Y14.502612 F200.000000
G1 X76.965800 Y14.734554 F200.000000
G1 Y14.488001 F200.000000
G1 X76.515110 Y14.037311 F200.000000
G1 X76.106169 Y14.086965 F200.000000
G1 X75.612993 Y13.899928 F200.000000
G1 X75.263227 Y13.505125 F200.000000
G1 X75.137000 Y12.993000 F200.000000
G1 X75.178378 Y12.825124 F200.000000
G1 X75.166878 Y12.829859 F200.000000
G1 X75.099221 Y12.867437 F200.000000
G1 X75.071728 Y12.869039 F200.000000
G1 X75.046262 Y12.879524 F200.000000
G0 Z0.500000
G0 X80.521800 Y19.151905
G1 Z-0.040000 F60.000000
G1 Y16.076200 F200.000000
G1 X79.702299 F200.000000
G1 X79.603859 Y16.263761 F200.000000
G1 X79.169775 Y16.563388 F200.000000
G1 X78.646169 Y16.626965 F200.000000
G1 X78.152993 Y16.439928 F200.000000
G1 X78.052200 Y16.326157 F200.000000
G1 Y17.339999 F200.000000
G1 X79.616467 Y18.904266 F200.000000
G0 Z0.500000
G0 X77.803227 Y13.505125
G1 Z-0.040000 F60.000000
G1 X77.677000 Y12.993000 F200.000000
G1 X77.707877 Y12.867726 F200.000000
G1 X77.676502 Y12.887497 F200.000000
G1 X77.637305 Y12.891964 F200.000000
G1 X77.600888 Y12.907137 F200.000000
G1 X77.535283 Y12.903590 F200.000000
G1 X77.470004 Y12.911030 F200.000000
G1 X77.432750 Y12.898048 F200.000000
G1 X77.393357 Y12.895918 F200.000000
G1 X77.335787 Y12.864257 F200.000000
G1 X77.308978 Y12.854915 F200.000000
G1 Y13.256726 F200.000000
G1 X77.295881 Y13.281680 F200.000000
G1 X77.893100 Y13.878900 F200.000000
G1 X77.941586 Y13.956064 F200.000000
G1 X77.998406 Y14.027314 F200.000000
G1 X78.005281 Y14.057434 F200.000000
G1 X78.021717 Y14.083592 F200.000000
G1 X78.031921 Y14.174152 F200.000000
G1 X78.052200 Y14.263000 F200.000000
G1 Y14.739843 F200.000000
G1 X78.152993 Y14.626072 F200.000000
G1 X78.646169 Y14.439035 F200.000000
G1 X78.935023 Y14.474108 F200.000000
G1 X78.928662 Y14.459185 F200.000000
G1 X78.889904 Y14.390126 F200.000000
G1 X78.888296 Y14.364481 F200.000000
G1 X78.878221 Y14.340843 F200.000000
G1 X78.881854 Y14.261735 F200.000000
G1 X78.876898 Y14.182699 F200.000000
G1 X78.886576 Y14.158896 F200.000000
G1 X78.887755 Y14.133227 F200.000000
G1 X78.925351 Y14.063530 F200.000000
G1 X78.929827 Y14.052523 F200.000000
G1 X78.646169 Y14.086965 F200.000000
G1 X78.152993 Y13.899928 F200.000000
G1 X77.803227 Y13.505125 F200.000000
G0 Z0.500000
G0 X38.523039 Y63.133728
G1 Z-0.040000 F60.000000
G1 X38.521437 Y63.161221 F200.000000
G1 X38.491140 Y63.215768 F200.000000
G1 X38.514169 Y63.207035 F200.000000
G1 X39.037775 Y63.270612 F200.000000
G1 X39.449202 Y63.554600 F200.000000
G1 X40.418777 Y63.554600 F200.000000
G1 X40.560993 Y63.394072 F200.000000
G1 X41.054169 Y63.207035 F200.000000
G1 X41.577775 Y63.270612 F200.000000
G1 X41.989202 Y63.554600 F200.000000
G1 X42.958777 Y63.554600 F200.000000
G1 X43.100993 Y63.394072 F200.000000
G1 X43.594169 Y63.207035 F200.000000
G1 X44.117775 Y63.270612 F200.000000
G1 X44.322504 Y63.411927 F200.000000
G1 X44.758600 Y62.975831 F200.000000
G1 Y62.863000 F200.000000
G1 X42.625000 F200.000000
G1 Y60.659000 F200.000000
G1 X43.183800 F200.000000
G1 Y59.729000 F200.000000
G1 X43.204079 Y59.640152 F200.000000
G1 X43.214283 Y59.549592 F200.000000
G0 Z0.500000
G0 X40.211227 Y62.273125
G1 Z-0.040000 F60.000000
G1 X40.085000 Y61.761000 F200.000000
G1 X40.211227 Y61.248875 F200.000000
G1 X40.560993 Y60.854072 F200.000000
G1 X40.643800 Y60.822667 F200.000000
G1 Y59.221000 F200.000000
G1 X40.664079 Y59.132152 F200.000000
G1 X40.674283 Y59.041592 F200.000000
G1 X40.690719 Y59.015434 F200.000000
G1 X40.697594 Y58.985314 F200.000000
G1 X40.754414 Y58.914064 F200.000000
G1 X40.802900 Y58.836900 F200.000000
G1 X44.316175 Y55.323625 F200.000000
G1 X44.212500 Y54.903000 F200.000000
G1 X44.331454 Y54.420385 F200.000000
G1 X44.661065 Y54.048331 F200.000000
G1 X45.125823 Y53.872072 F200.000000
G1 X45.619257 Y53.931986 F200.000000
G1 X46.028328 Y54.214347 F200.000000
G1 X46.259323 Y54.654471 F200.000000
G1 Y55.151529 F200.000000
G1 X46.028328 Y55.591653 F200.000000
G1 X45.619257 Y55.874014 F200.000000
G1 X45.258366 Y55.917834 F200.000000
G1 X41.730200 Y59.446001 F200.000000
G1 Y60.835824 F200.000000
G1 X42.011859 Y61.030239 F200.000000
G1 X42.256978 Y61.497274 F200.000000
G1 Y62.024726 F200.000000
G1 X42.011859 Y62.491761 F200.000000
G1 X41.577775 Y62.791388 F200.000000
G1 X41.054169 Y62.854965 F200.000000
G1 X40.560993 Y62.667928 F200.000000
G1 X40.211227 Y62.273125 F200.000000
G0 Z0.500000
G0 X55.403520 Y62.580485
G1 Z-0.040000 F60.000000
G1 X55.439464 Y62.603071 F200.000000
G1 X55.480851 Y62.612517 F200.000000
G1 X55.578755 Y62.690593 F200.000000
G1 X55.684785 Y62.757215 F200.000000
G1 X56.482169 Y63.554600 F200.000000
G1 X60.230777 Y63.554600 F200.000000
G1 X60.372993 Y63.394072 F200.000000
G1 X60.866169 Y63.207035 F200.000000
G1 X61.389775 Y63.270612 F200.000000
G1 X61.801202 Y63.554600 F200.000000
G1 X62.770777 Y63.554600 F200.000000
G1 X62.912993 Y63.394072 F200.000000
G1 X63.406169 Y63.207035 F200.000000
G1 X63.929775 Y63.270612 F200.000000
G1 X64.341202 Y63.554600 F200.000000
G1 X65.310777 Y63.554600 F200.000000
G1 X65.452993 Y63.394072 F200.000000
G1 X65.946169 Y63.207035 F200.000000
G1 X66.098857 Y63.225574 F200.000000
G1 X66.461431 Y62.863000 F200.000000
G1 X64.977000 F200.000000
G1 Y60.659000 F200.000000
G1 X65.535800 F200.000000
G1 Y59.729000 F200.000000
G1 X65.556079 Y59.640152 F200.000000
G1 X65.566283 Y59.549592 F200.000000
G1 X65.582719 Y59.523434 F200.000000
G1 X65.589594 Y59.493314 F200.000000
G1 X65.646414 Y59.422064 F200.000000
G1 X65.694900 Y59.344900 F200.000000
G1 X69.919949 Y55.119850 F200.000000
G1 X69.866500 Y54.903000 F200.000000
G1 X69.985454 Y54.420385 F200.000000
G1 X70.315065 Y54.048331 F200.000000
G1 X70.361800 Y54.030607 F200.000000
G1 Y53.350001 F200.000000
G1 X69.663999 Y52.652200 F200.000000
G1 X67.694668 Y52.652200 F200.000000
G1 X67.618328 Y52.797653 F200.000000
G1 X67.209257 Y53.080014 F200.000000
G1 X66.715823 Y53.139928 F200.000000
G1 X66.251065 Y52.963669 F200.000000
G1 X65.921454 Y52.591615 F200.000000
G1 X65.802500 Y52.109000 F200.000000
G1 X65.921454 Y51.626385 F200.000000
G1 X66.251065 Y51.254331 F200.000000
G1 X66.583646 Y51.128200 F200.000000
G1 X64.809000 F200.000000
G1 X64.720152 Y51.107921 F200.000000
G1 X64.629592 Y51.097717 F200.000000
G1 X64.603434 Y51.081281 F200.000000
G1 X64.573314 Y51.074406 F200.000000
G1 X64.502064 Y51.017586 F200.000000
G1 X64.424900 Y50.969100 F200.000000
G1 X62.646900 Y49.191100 F200.000000
G1 X62.598414 Y49.113936 F200.000000
G1 X62.541594 Y49.042686 F200.000000
G0 Z0.500000
G0 X62.563227 Y62.273125
G1 Z-0.040000 F60.000000
G1 X62.437000 Y61.761000 F200.000000
G1 X62.563227 Y61.248875 F200.000000
G1 X62.912993 Y60.854072 F200.000000
G1 X62.995800 Y60.822667 F200.000000
G1 Y59.729000 F200.000000
G1 X63.016079 Y59.640152 F200.000000
G1 X63.026283 Y59.549592 F200.000000
G1 X63.042719 Y59.523434 F200.000000
G1 X63.049594 Y59.493314 F200.000000
G1 X63.106414 Y59.422064 F200.000000
G1 X63.154900 Y59.344900 F200.000000
G1 X67.379949 Y55.119850 F200.000000
G1 X67.326500 Y54.903000 F200.000000
G1 X67.445454 Y54.420385 F200.000000
G1 X67.775065 Y54.048331 F200.000000
G1 X68.239823 Y53.872072 F200.000000
G1 X68.733257 Y53.931986 F200.000000
G1 X69.142328 Y54.214347 F200.000000
G1 X69.373323 Y54.654471 F200.000000
G1 Y55.151529 F200.000000
G1 X69.142328 Y55.591653 F200.000000
G1 X68.733257 Y55.874014 F200.000000
G1 X68.239823 Y55.933928 F200.000000
G1 X68.140095 Y55.896106 F200.000000
G1 X64.082200 Y59.954001 F200.000000
G1 Y60.835824 F200.000000
G1 X64.363859 Y61.030239 F200.000000
G1 X64.608978 Y61.497274 F200.000000
G1 Y62.024726 F200.000000
G1 X64.363859 Y62.491761 F200.000000
G1 X63.929775 Y62.791388 F200.000000
G1 X63.406169 Y62.854965 F200.000000
G1 X62.912993 Y62.667928 F200.000000
G1 X62.563227 Y62.273125 F200.000000
G0 Z0.500000
G0 X60.023227
G1 Z-0.040000 F60.000000
G1 X59.897000 Y61.761000 F200.000000
G1 X60.023227 Y61.248875 F200.000000
G1 X60.372993 Y60.854072 F200.000000
G1 X60.455800 Y60.822667 F200.000000
G1 Y59.729000 F200.000000
G1 X60.476079 Y59.640152 F200.000000
G1 X60.486283 Y59.549592 F200.000000
G1 X60.502719 Y59.523434 F200.000000
G1 X60.509594 Y59.493314 F200.000000
G1 X60.566414 Y59.422064 F200.000000
G1 X60.614900 Y59.344900 F200.000000
G1 X64.839949 Y55.119850 F200.000000
G1 X64.786500 Y54.903000 F200.000000
G1 X64.905454 Y54.420385 F200.000000
G1 X65.235065 Y54.048331 F200.000000
G1 X65.699823 Y53.872072 F200.000000
G1 X66.193257 Y53.931986 F200.000000
G1 X66.602328 Y54.214347 F200.000000
G1 X66.833323 Y54.654471 F200.000000
G1 Y55.151529 F200.000000
G1 X66.602328 Y55.591653 F200.000000
G1 X66.193257 Y55.874014 F200.000000
G1 X65.699823 Y55.933928 F200.000000
G1 X65.600095 Y55.896106 F200.000000
G1 X61.542200 Y59.954001 F200.000000
G1 Y60.835824 F200.000000
G1 X61.823859 Y61.030239 F200.000000
G1 X62.068978 Y61.497274 F200.000000
G1 Y62.024726 F200.000000
G1 X61.823859 Y62.491761 F200.000000
G1 X61.389775 Y62.791388 F200.000000
G1 X60.866169 Y62.854965 F200.000000
G1 X60.372993 Y62.667928 F200.000000
G1 X60.023227 Y62.273125 F200.000000
G0 Z0.500000
G0 X78.263520 Y62.580485
G1 Z-0.040000 F60.000000
G1 X78.299464 Y62.603071 F200.000000
G1 X78.340851 Y62.612517 F200.000000
G1 X78.438755 Y62.690593 F200.000000
G1 X78.544785 Y62.757215 F200.000000
G1 X79.088169 Y63.300600 F200.000000
G1 X83.090777 F200.000000
G1 X83.232993 Y63.140072 F200.000000
G1 X83.726169 Y62.953035 F200.000000
G1 X84.249775 Y63.016612 F200.000000
G1 X84.661202 Y63.300600 F200.000000
G1 X85.630777 Y63.300600 F200.000000
G1 X85.772993 Y63.140072 F200.000000
G1 X86.266169 Y62.953035 F200.000000
G1 X86.789775 Y63.016612 F200.000000
G1 X87.201202 Y63.300600 F200.000000
G1 X88.170777 F200.000000
G1 X88.312993 Y63.140072 F200.000000
G1 X88.806169 Y62.953035 F200.000000
G1 X89.329775 Y63.016612 F200.000000
G1 X89.384231 Y63.054200 F200.000000
G1 X89.829431 Y62.609000 F200.000000
G1 X87.837000 F200.000000
G1 Y60.405000 F200.000000
G1 X88.395800 F200.000000
G1 Y59.729000 F200.000000
G1 X88.416079 Y59.640152 F200.000000
G1 X88.426283 Y59.549592 F200.000000
G1 X88.442719 Y59.523434 F200.000000
G1 X88.449594 Y59.493314 F200.000000
G1 X88.506414 Y59.422064 F200.000000
G1 X88.554900 Y59.344900 F200.000000
G1 X92.983723 Y54.916076 F200.000000
G1 X92.980500 Y54.903000 F200.000000
G1 X93.099454 Y54.420385 F200.000000
G1 X93.429065 Y54.048331 F200.000000
G1 X93.475800 Y54.030607 F200.000000
G1 Y52.588001 F200.000000
G1 X90.937727 Y50.049928 F200.000000
G1 X90.591823 Y50.091928 F200.000000
G1 X90.127065 Y49.915669 F200.000000
G1 X89.797454 Y49.543615 F200.000000
G1 X89.678500 Y49.061000 F200.000000
G1 X89.797454 Y48.578385 F200.000000
G1 X90.127065 Y48.206331 F200.000000
G1 X90.591823 Y48.030072 F200.000000
G1 X91.085257 Y48.089986 F200.000000
G1 X91.494328 Y48.372347 F200.000000
G1 X91.725323 Y48.812471 F200.000000
G1 Y49.301122 F200.000000
G1 X94.403100 Y51.978900 F200.000000
G1 X94.451586 Y52.056064 F200.000000
G1 X94.508406 Y52.127314 F200.000000
G0 Z0.500000
G0 X85.423227 Y62.019125
G1 Z-0.040000 F60.000000
G1 X85.297000 Y61.507000 F200.000000
G1 X85.423227 Y60.994875 F200.000000
G1 X85.772993 Y60.600072 F200.000000
G1 X85.855800 Y60.568667 F200.000000
G1 Y59.983000 F200.000000
G1 X85.876079 Y59.894152 F200.000000
G1 X85.886283 Y59.803592 F200.000000
G1 X85.902719 Y59.777434 F200.000000
G1 X85.909594 Y59.747314 F200.000000
G1 X85.966414 Y59.676064 F200.000000
G1 X86.014900 Y59.598900 F200.000000
G1 X90.493949 Y55.119850 F200.000000
G1 X90.440500 Y54.903000 F200.000000
G1 X90.559454 Y54.420385 F200.000000
G1 X90.889065 Y54.048331 F200.000000
G1 X91.353823 Y53.872072 F200.000000
G1 X91.847257 Y53.931986 F200.000000
G1 X92.256328 Y54.214347 F200.000000
G1 X92.487323 Y54.654471 F200.000000
G1 Y55.151529 F200.000000
G1 X92.256328 Y55.591653 F200.000000
G1 X91.847257 Y55.874014 F200.000000
G1 X91.353823 Y55.933928 F200.000000
G1 X91.254095 Y55.896106 F200.000000
G1 X86.942200 Y60.208001 F200.000000
G1 Y60.581824 F200.000000
G1 X87.223859 Y60.776239 F200.000000
G1 X87.468978 Y61.243274 F200.000000
G1 Y61.770726 F200.000000
G1 X87.223859 Y62.237761 F200.000000
G1 X86.789775 Y62.537388 F200.000000
G1 X86.266169 Y62.600965 F200.000000
G1 X85.772993 Y62.413928 F200.000000
G1 X85.423227 Y62.019125 F200.000000
G0 Z0.500000
G0 X83.346283 Y59.803592
G1 Z-0.040000 F60.000000
G1 X83.362719 Y59.777434 F200.000000
G1 X83.369594 Y59.747314 F200.000000
G1 X83.426414 Y59.676064 F200.000000
G1 X83.474900 Y59.598900 F200.000000
G1 X87.953949 Y55.119850 F200.000000
G1 X87.900500 Y54.903000 F200.000000
G1 X88.019454 Y54.420385 F200.000000
G1 X88.349065 Y54.048331 F200.000000
G1 X88.813823 Y53.872072 F200.000000
G1 X89.307257 Y53.931986 F200.000000
G1 X89.716328 Y54.214347 F200.000000
G1 X89.947323 Y54.654471 F200.000000
G1 Y55.151529 F200.000000
G1 X89.716328 Y55.591653 F200.000000
G1 X89.307257 Y55.874014 F200.000000
G1 X88.813823 Y55.933928 F200.000000
G1 X88.714095 Y55.896106 F200.000000
G1 X84.402200 Y60.208001 F200.000000
G1 Y60.581824 F200.000000
G1 X84.683859 Y60.776239 F200.000000
G1 X84.928978 Y61.243274 F200.000000
G1 Y61.770726 F200.000000
G1 X84.683859 Y62.237761 F200.000000
G1 X84.249775 Y62.537388 F200.000000
G1 X83.726169 Y62.600965 F200.000000
G1 X83.232993 Y62.413928 F200.000000
G1 X82.883227 Y62.019125 F200.000000
G1 X82.757000 Y61.507000 F200.000000
G1 X82.883227 Y60.994875 F200.000000
G1 X83.232993 Y60.600072 F200.000000
G1 X83.315800 Y60.568667 F200.000000
G1 Y59.983000 F200.000000
G1 X83.336079 Y59.894152 F200.000000
G1 X83.346283 Y59.803592 F200.000000
G0 Z0.500000
G0 X92.336146 Y59.988154
G1 Z-0.040000 F60.000000
G1 X92.323526 Y59.953106 F200.000000
G1 X92.325035 Y59.938534 F200.000000
G1 X91.971400 Y60.292169 F200.000000
G1 Y60.967376 F200.000000
G1 X92.027227 Y60.740875 F200.000000
G1 X92.376993 Y60.346072 F200.000000
G1 X92.534228 Y60.286440 F200.000000
G1 X92.493791 Y60.246725 F200.000000
G1 X92.438488 Y60.207379 F200.000000
G1 X92.420511 Y60.174753 F200.000000
G1 X92.393934 Y60.148651 F200.000000
G1 X92.370942 Y60.084793 F200.000000
G1 X92.338187 Y60.025349 F200.000000
G1 X92.336146 Y59.988154 F200.000000
G0 Z0.500000
G0 X92.050116 Y61.937606
G1 Z-0.040000 F60.000000
G1 X92.081866 Y61.929465 F200.000000
G1 X92.109620 Y61.912026 F200.000000
G1 X92.153037 Y61.907135 F200.000000
G1 X92.027227 Y61.765125 F200.000000
G1 X91.971400 Y61.538624 F200.000000
G1 Y61.998876 F200.000000
G1 X91.994833 Y61.984152 F200.000000
G1 X92.050116 Y61.937606 F200.000000
G0 Z0.500000
G0 X94.252457 Y61.529229
G1 Z-0.040000 F60.000000
G1 X94.337260 Y61.570068 F200.000000
G1 X94.423741 Y61.607223 F200.000000
G1 X94.430472 Y61.614956 F200.000000
G1 X94.439710 Y61.619405 F200.000000
G1 X94.441000 Y61.621023 F200.000000
G1 Y60.887517 F200.000000
G1 X94.439710 Y60.889135 F200.000000
G1 X94.427761 Y60.894889 F200.000000
G1 X94.418929 Y60.904781 F200.000000
G1 X94.334655 Y60.939727 F200.000000
G1 X94.252457 Y60.979311 F200.000000
G1 X94.239196 F200.000000
G1 X94.226946 Y60.984391 F200.000000
G1 X94.135855 Y60.979311 F200.000000
G1 X94.115507 Y60.979311 F200.000000
G1 X94.072978 Y61.021979 F200.000000
G1 Y61.484021 F200.000000
G1 X94.118038 Y61.529229 F200.000000
G1 X94.138747 F200.000000
G1 X94.232785 Y61.525181 F200.000000
G1 X94.242205 Y61.529229 F200.000000
G1 X94.252457 F200.000000
G0 Z0.500000
G0 X46.616072 Y60.240810
G1 Z-0.040000 F60.000000
G1 X46.603207 Y60.204419 F200.000000
G1 X46.604443 Y60.193126 F200.000000
G1 X46.251400 Y60.546169 F200.000000
G1 Y61.221376 F200.000000
G1 X46.307227 Y60.994875 F200.000000
G1 X46.656993 Y60.600072 F200.000000
G1 X46.813669 Y60.540652 F200.000000
G1 X46.772709 Y60.499955 F200.000000
G1 X46.718488 Y60.461379 F200.000000
G1 X46.699861 Y60.427574 F200.000000
G1 X46.672481 Y60.400369 F200.000000
G1 X46.650301 Y60.337631 F200.000000
G1 X46.618187 Y60.279349 F200.000000
G1 X46.616072 Y60.240810 F200.000000
G0 Z0.500000
G0 X46.290515 Y62.245032
G1 Z-0.040000 F60.000000
G1 X46.319664 Y62.218876 F200.000000
G1 X46.383032 Y62.200479 F200.000000
G1 X46.442483 Y62.171849 F200.000000
G1 X46.442529 Y62.171849 F200.000000
G1 X46.307227 Y62.019125 F200.000000
G1 X46.251400 Y61.792624 F200.000000
G1 Y62.266828 F200.000000
G1 X46.255230 Y62.262025 F200.000000
G1 X46.290515 Y62.245032 F200.000000
G0 Z0.500000
G0 X48.532457 Y61.783229
G1 Z-0.040000 F60.000000
G1 X48.617260 Y61.824068 F200.000000
G1 X48.703741 Y61.861223 F200.000000
G1 X48.710472 Y61.868956 F200.000000
G1 X48.719710 Y61.873405 F200.000000
G1 X48.721000 Y61.875023 F200.000000
G1 Y61.141517 F200.000000
G1 X48.719710 Y61.143135 F200.000000
G1 X48.707761 Y61.148889 F200.000000
G1 X48.698929 Y61.158781 F200.000000
G1 X48.614655 Y61.193727 F200.000000
G1 X48.532457 Y61.233311 F200.000000
G1 X48.519196 F200.000000
G1 X48.506946 Y61.238391 F200.000000
G1 X48.415855 Y61.233311 F200.000000
G1 X48.395507 F200.000000
G1 X48.352978 Y61.275979 F200.000000
G1 Y61.738021 F200.000000
G1 X48.398038 Y61.783229 F200.000000
G1 X48.418747 Y61.783229 F200.000000
G1 X48.512785 Y61.779181 F200.000000
G1 X48.522205 Y61.783229 F200.000000
G1 X48.532457 Y61.783229 F200.000000
G0 Z0.500000
G0 X69.489873 Y59.978474
G1 Z-0.040000 F60.000000
G1 X69.476277 Y59.940819 F200.000000
G1 X69.477824 Y59.925745 F200.000000
G1 X68.857400 Y60.546169 F200.000000
G1 Y60.967376 F200.000000
G1 X68.913227 Y60.740875 F200.000000
G1 X69.262993 Y60.346072 F200.000000
G1 X69.614755 Y60.212666 F200.000000
G1 X69.595216 Y60.199140 F200.000000
G1 X69.575446 Y60.164328 F200.000000
G1 X69.546859 Y60.136302 F200.000000
G1 X69.524742 Y60.075046 F200.000000
G1 X69.492581 Y60.018416 F200.000000
G1 X69.489873 Y59.978474 F200.000000
G0 Z0.500000
G0 X68.936116 Y61.937606
G1 Z-0.040000 F60.000000
G1 X68.967866 Y61.929465 F200.000000
G1 X68.995620 Y61.912026 F200.000000
G1 X69.039037 Y61.907135 F200.000000
G1 X68.913227 Y61.765125 F200.000000
G1 X68.857400 Y61.538624 F200.000000
G1 Y61.998876 F200.000000
G1 X68.880833 Y61.984152 F200.000000
G1 X68.936116 Y61.937606 F200.000000
G0 Z0.500000
G0 X71.138457 Y61.529229
G1 Z-0.040000 F60.000000
G1 X71.223260 Y61.570068 F200.000000
G1 X71.309741 Y61.607223 F200.000000
G1 X71.316472 Y61.614956 F200.000000
G1 X71.325710 Y61.619405 F200.000000
G1 X71.327000 Y61.621023 F200.000000
G1 Y60.887517 F200.000000
G1 X71.325710 Y60.889135 F200.000000
G1 X71.313761 Y60.894889 F200.000000
G1 X71.304929 Y60.904781 F200.000000
G1 X71.220655 Y60.939727 F200.000000
G1 X71.138457 Y60.979311 F200.000000
G1 X71.125196 F200.000000
G1 X71.112946 Y60.984391 F200.000000
G1 X71.021855 Y60.979311 F200.000000
G1 X71.001507 Y60.979311 F200.000000
G1 X70.958978 Y61.021979 F200.000000
G1 Y61.484021 F200.000000
G1 X71.004038 Y61.529229 F200.000000
G1 X71.024747 F200.000000
G1 X71.118785 Y61.525181 F200.000000
G1 X71.128205 Y61.529229 F200.000000
G1 X71.138457 F200.000000
G0 Z0.500000
G0 X20.316043 Y53.841911
G1 Z-0.040000 F60.000000
G1 X20.246750 Y53.808542 F200.000000
G1 X20.173998 Y53.783598 F200.000000
G1 X20.154049 Y53.763899 F200.000000
G1 X20.128790 Y53.751735 F200.000000
G1 X20.127500 Y53.750117 F200.000000
G1 Y54.054363 F200.000000
G1 X20.128790 Y54.052745 F200.000000
G1 X20.140899 Y54.046914 F200.000000
G1 X20.149857 Y54.036896 F200.000000
G1 X20.233999 Y54.002079 F200.000000
G1 X20.316043 Y53.962569 F200.000000
G1 X20.329482 F200.000000
G1 X20.341900 Y53.957430 F200.000000
G1 X20.432816 Y53.962569 F200.000000
G1 X20.523877 F200.000000
G1 X20.535986 Y53.968400 F200.000000
G1 X20.549403 Y53.969158 F200.000000
G1 X20.620434 Y54.008449 F200.000000
G1 X20.590500 Y53.887000 F200.000000
G1 X20.610730 Y53.804926 F200.000000
G1 X20.576975 Y53.826433 F200.000000
G1 X20.549136 Y53.829747 F200.000000
G1 X20.523877 Y53.841911 F200.000000
G1 X20.446968 F200.000000
G1 X20.370598 Y53.851004 F200.000000
G1 X20.344078 Y53.841911 F200.000000
G1 X20.316043 F200.000000
G0 Z0.500000
G0 X71.298334 Y48.273271
G1 Z-0.040000 F60.000000
G1 X71.280275 Y48.310770 F200.000000
G1 X71.275472 Y48.314600 F200.000000
G1 X71.428600 F200.000000
G1 Y48.067500 F200.000000
G1 X71.374466 F200.000000
G1 X71.370451 Y48.081897 F200.000000
G1 Y48.123517 F200.000000
G1 X71.342875 Y48.180781 F200.000000
G1 X71.325801 Y48.242002 F200.000000
G1 X71.298334 Y48.273271 F200.000000
G0 Z0.500000
G0 X70.947957 Y47.076629
G1 Z-0.040000 F60.000000
G1 X71.018164 Y47.110438 F200.000000
G1 X71.091762 Y47.136038 F200.000000
G1 X71.110887 Y47.155091 F200.000000
G1 X71.135210 Y47.166805 F200.000000
G1 X71.136500 Y47.168423 F200.000000
G1 Y46.864177 F200.000000
G1 X71.135210 Y46.865795 F200.000000
G1 X71.121822 Y46.872242 F200.000000
G1 X71.111851 Y46.883258 F200.000000
G1 X71.028768 Y46.917055 F200.000000
G1 X70.947957 Y46.955971 F200.000000
G1 X70.933098 F200.000000
G1 X70.919335 Y46.961570 F200.000000
G1 X70.829816 Y46.955971 F200.000000
G1 X70.740123 F200.000000
G1 X70.726735 Y46.949524 F200.000000
G1 X70.711906 Y46.948597 F200.000000
G1 X70.643323 Y46.910121 F200.000000
G1 Y47.120221 F200.000000
G1 X70.688979 Y47.091415 F200.000000
G1 X70.715800 Y47.088342 F200.000000
G1 X70.740123 Y47.076629 F200.000000
G1 X70.818046 F200.000000
G1 X70.895463 Y47.067760 F200.000000
G1 X70.920961 Y47.076629 F200.000000
G1 X70.947957 F200.000000
G0 Z0.500000
G0 X19.847532 Y49.307272
G1 Z-0.040000 F60.000000
G1 X19.843323 Y49.304955 F200.000000
G1 Y49.392414 F200.000000
G1 X19.851475 Y49.388488 F200.000000
G1 X19.860541 Y49.378363 F200.000000
G1 X19.924003 Y49.352151 F200.000000
G1 X19.876221 Y49.335688 F200.000000
G1 X19.847532 Y49.307272 F200.000000
G0 Z0.500000
G0 X20.333822 Y49.344398
G1 Z-0.040000 F60.000000
G1 X20.327677 Y49.348301 F200.000000
G1 X20.339658 Y49.354938 F200.000000
G1 X20.347244 Y49.358591 F200.000000
G1 X20.342823 Y49.340653 F200.000000
G1 X20.333822 Y49.344398 F200.000000
G0 Z0.500000
G0 X67.091532 Y10.191272
G1 Z-0.040000 F60.000000
G1 X67.087323 Y10.188955 F200.000000
G1 Y10.222575 F200.000000
G1 X67.092372 Y10.217028 F200.000000
G1 X67.110249 Y10.209811 F200.000000
G1 X67.091532 Y10.191272 F200.000000
G0 Z0.500000
G0 X72.921400 Y36.781518
G1 Z-0.040000 F60.000000
G1 Y40.984999 F200.000000
G1 X72.952328 Y41.006347 F200.000000
G1 X73.183323 Y41.446471 F200.000000
G1 Y41.943529 F200.000000
G1 X72.952328 Y42.383653 F200.000000
G1 X72.921400 Y42.405001 F200.000000
G1 Y45.990500 F200.000000
G0 Z0.500000
G0 X36.312188 Y12.628349
G1 Z-0.040000 F60.000000
G1 X36.313723 Y12.601573 F200.000000
G1 X36.351579 Y12.533266 F200.000000
G1 X36.372254 Y12.483362 F200.000000
G1 X36.235823 Y12.499928 F200.000000
G1 X35.771065 Y12.323669 F200.000000
G1 X35.509019 Y12.027881 F200.000000
G1 X35.514967 Y13.443406 F200.000000
G1 X35.771065 Y13.154331 F200.000000
G1 X36.235823 Y12.978072 F200.000000
G1 X36.378765 Y12.995428 F200.000000
G1 X36.351336 Y12.928988 F200.000000
G1 X36.313564 Y12.860635 F200.000000
G1 X36.312062 Y12.833857 F200.000000
G1 X36.301827 Y12.809067 F200.000000
G1 X36.306297 Y12.731099 F200.000000
G1 X36.301923 Y12.653126 F200.000000
G1 X36.312188 Y12.628349 F200.000000
G0 Z0.500000
G0 X35.546191 Y10.654708
G1 Z-0.040000 F60.000000
G1 X35.511030 Y10.637775 F200.000000
G1 X35.507200 Y10.632972 F200.000000
G1 Y10.912173 F200.000000
G1 X35.614600 Y10.790943 F200.000000
G1 Y10.692247 F200.000000
G1 X35.575221 Y10.680789 F200.000000
G1 X35.546191 Y10.654708 F200.000000
G0 Z0.500000
G0 X26.423604 Y54.654614
G1 Z-0.040000 F60.000000
G1 X26.437236 Y54.668215 F200.000000
G1 X26.432500 Y54.649000 F200.000000
G1 X26.433784 Y54.643789 F200.000000
G1 X26.414813 Y54.651550 F200.000000
G1 X26.423604 Y54.654614 F200.000000
G0 Z0.500000
G0 X25.954783 Y54.651325
G1 Z-0.040000 F60.000000
G1 X25.961453 Y54.647123 F200.000000
G1 X25.939323 Y54.638020 F200.000000
G1 Y54.658770 F200.000000
G1 X25.954783 Y54.651325 F200.000000
G0 Z0.500000
G0 X47.969519 Y75.492780
G1 Z-0.040000 F60.000000
G1 X47.957995 Y75.516710 F200.000000
G1 X47.956377 Y75.518000 F200.000000
G1 X48.300431 F200.000000
G1 X48.056523 Y75.274092 F200.000000
G1 X48.056944 Y75.277827 F200.000000
G1 X48.048171 Y75.302897 F200.000000
G1 Y75.329457 F200.000000
G1 X48.014177 Y75.400047 F200.000000
G1 X47.988300 Y75.473999 F200.000000
G1 X47.969519 Y75.492780 F200.000000
G0 Z0.500000
G0 X94.130514 Y75.363314
G1 Z-0.040000 F60.000000
G1 X94.127916 Y75.399714 F200.000000
G1 X94.093817 Y75.459260 F200.000000
G1 X94.071350 Y75.518000 F200.000000
G1 X94.329278 F200.000000
G1 X94.142827 Y75.320582 F200.000000
G1 X94.143551 Y75.329230 F200.000000
G1 X94.130514 Y75.363314 F200.000000
G0 Z0.500000
G0 X70.826979 Y75.492780
G1 Z-0.040000 F60.000000
G1 X70.815455 Y75.516710 F200.000000
G1 X70.813837 Y75.518000 F200.000000
G1 X71.160431 F200.000000
G1 X70.913660 Y75.271229 F200.000000
G1 X70.914404 Y75.277827 F200.000000
G1 X70.905631 Y75.302897 F200.000000
G1 Y75.329457 F200.000000
G1 X70.871637 Y75.400047 F200.000000
G1 X70.845760 Y75.473999 F200.000000
G1 X70.826979 Y75.492780 F200.000000
G0 Z0.500000
G0 X99.469408 Y9.097000
G1 Z-0.040000 F60.000000
G1 X99.481431 F200.000000
G1 X99.458239 Y9.073808 F200.000000
G1 X99.469408 Y9.097000 F200.000000
G0 Z0.500000
G0 X112.460660 Y9.068909
G1 Z-0.040000 F60.000000
G1 X112.432569 Y9.097000 F200.000000
G1 X112.447132 F200.000000
G1 X112.460660 Y9.068909 F200.000000
G0 Z0.500000
G0 X119.789408 Y9.097000
G1 Z-0.040000 F60.000000
G1 X119.801431 F200.000000
G1 X119.778239 Y9.073808 F200.000000
G1 X119.789408 Y9.097000 F200.000000
G0 Z0.500000
G0 X93.687313 Y41.210616
G1 Z-0.040000 F60.000000
G1 X93.739600 Y41.216508 F200.000000
G1 X93.791887 Y41.210616 F200.000000
G1 X93.841553 Y41.227995 F200.000000
G1 X93.893840 Y41.233886 F200.000000
G1 X93.907600 Y41.242532 F200.000000
G1 Y39.424600 F200.000000
G1 X94.415600 F200.000000
G1 Y37.580200 F200.000000
G1 Y37.580200 F200.000000
G1 Y37.580200 F200.000000
G1 Y22.600437 F200.000000
G1 X93.472416 Y21.842000 F200.000000
G1 X91.367600 F200.000000
G1 Y18.876000 F200.000000
G1 X93.545799 F200.000000
G1 X93.285999 Y18.616200 F200.000000
G1 X90.942001 F200.000000
G1 X90.508295 Y19.049906 F200.000000
G0 Z0.500000
G0 X89.411800 Y19.045045
G1 Z-0.040000 F60.000000
G1 X89.252078 Y19.121963 F200.000000
G1 X88.939248 Y19.514239 F200.000000
G1 X88.827600 Y20.003400 F200.000000
G1 X88.827600 Y20.714600 F200.000000
G1 X88.827600 F200.000000
G1 X88.939248 Y21.203761 F200.000000
G1 X89.252078 Y21.596037 F200.000000
G1 X89.704130 Y21.813734 F200.000000
G1 X90.205870 F200.000000
G1 X90.657922 Y21.596037 F200.000000
G1 X90.970752 Y21.203761 F200.000000
G1 X91.082400 Y20.714600 F200.000000
G1 Y20.003400 F200.000000
G1 X90.970752 Y19.514239 F200.000000
G1 X90.657922 Y19.121963 F200.000000
G1 X90.508295 Y19.049906 F200.000000
G0 Z0.500000
G0 X86.883071 Y19.039617
G1 Z-0.040000 F60.000000
G1 X86.712078 Y19.121963 F200.000000
G1 X86.399248 Y19.514239 F200.000000
G1 X86.287600 Y20.003400 F200.000000
G1 Y20.714600 F200.000000
G1 X86.399248 Y21.203761 F200.000000
G1 X86.712078 Y21.596037 F200.000000
G1 X87.164130 Y21.813734 F200.000000
G1 X87.665870 F200.000000
G1 X88.117922 Y21.596037 F200.000000
G1 X88.430752 Y21.203761 F200.000000
G1 X88.542400 Y20.714600 F200.000000
G1 Y20.003400 F200.000000
G1 X88.430752 Y19.514239 F200.000000
G1 X88.132259 Y19.139941 F200.000000
G0 Z0.500000
G0 X84.799533 Y18.904266
G1 Z-0.040000 F60.000000
G1 X84.624130 F200.000000
G1 X84.172078 Y19.121963 F200.000000
G1 X83.859248 Y19.514239 F200.000000
G1 X83.747600 Y20.003400 F200.000000
G1 Y20.714600 F200.000000
G1 X83.859248 Y21.203761 F200.000000
G1 X84.172078 Y21.596037 F200.000000
G1 X84.624130 Y21.813734 F200.000000
G1 X85.125870 F200.000000
G1 X85.577922 Y21.596037 F200.000000
G1 X85.890752 Y21.203761 F200.000000
G1 X86.002400 Y20.714600 F200.000000
G1 Y20.003400 F200.000000
G1 X85.890752 Y19.514239 F200.000000
G1 X85.817641 Y19.422560 F200.000000
G0 Z0.500000
G0 X81.608200 Y21.566095
G1 Z-0.040000 F60.000000
G1 X81.632078 Y21.596037 F200.000000
G1 X82.084130 Y21.813734 F200.000000
G1 X82.585870 F200.000000
G1 X83.037922 Y21.596037 F200.000000
G1 X83.350752 Y21.203761 F200.000000
G1 X83.462400 Y20.714600 F200.000000
G1 Y20.003400 F200.000000
G1 X83.367330 Y19.586871 F200.000000
G0 Z0.500000
G0 X82.513533 Y18.904266
G1 Z-0.040000 F60.000000
G1 X82.084130 F200.000000
G1 X81.632078 Y19.121963 F200.000000
G1 X81.608200 Y19.151905 F200.000000
G0 Z0.500000
G0 X78.762670 Y19.586871
G1 Z-0.040000 F60.000000
G1 X78.667600 Y20.003400 F200.000000
G1 X78.667600 Y20.714600 F200.000000
G1 X78.667600 F200.000000
G1 X78.779248 Y21.203761 F200.000000
G1 X79.092078 Y21.596037 F200.000000
G1 X79.544130 Y21.813734 F200.000000
G1 X80.045870 F200.000000
G1 X80.497922 Y21.596037 F200.000000
G1 X80.521800 Y21.566095 F200.000000
G0 Z0.500000
G0 Y19.151905
G1 Z-0.040000 F60.000000
G1 X80.497922 Y19.121963 F200.000000
G1 X80.045870 Y18.904266 F200.000000
G1 X79.616467 F200.000000
G0 Z0.500000
G0 X77.798200 Y21.672955
G1 Z-0.040000 F60.000000
G1 X77.957922 Y21.596037 F200.000000
G1 X78.270752 Y21.203761 F200.000000
G1 X78.382400 Y20.714600 F200.000000
G1 Y20.003400 F200.000000
G1 X78.270752 Y19.514239 F200.000000
G1 X77.957922 Y19.121963 F200.000000
G1 X77.505870 Y18.904266 F200.000000
G1 X77.004130 F200.000000
G1 X76.552078 Y19.121963 F200.000000
G1 X76.239248 Y19.514239 F200.000000
G1 X76.127600 Y20.003400 F200.000000
G1 X76.127600 Y20.714600 F200.000000
G1 X76.127600 F200.000000
G1 X76.239248 Y21.203761 F200.000000
G1 X76.552078 Y21.596037 F200.000000
G1 X76.701705 Y21.668094 F200.000000
G0 Z0.500000
G0 X73.988200 Y21.566095
G1 Z-0.040000 F60.000000
G1 X74.012078 Y21.596037 F200.000000
G1 X74.464130 Y21.813734 F200.000000
G1 X74.965870 F200.000000
G1 X75.417922 Y21.596037 F200.000000
G1 X75.730752 Y21.203761 F200.000000
G1 X75.842400 Y20.714600 F200.000000
G1 Y20.003400 F200.000000
G1 X75.730752 Y19.514239 F200.000000
G1 X75.417922 Y19.121963 F200.000000
G1 X75.258200 Y19.045045 F200.000000
G0 Z0.500000
G0 X74.171800
G1 Z-0.040000 F60.000000
G1 X74.012078 Y19.121963 F200.000000
G1 X73.988200 Y19.151905 F200.000000
G0 Z0.500000
G0 X72.901800 Y19.151905
G1 Z-0.040000 F60.000000
G1 X72.877922 Y19.121963 F200.000000
G1 X72.425870 Y18.904266 F200.000000
G1 X71.924130 F200.000000
G1 X71.472078 Y19.121963 F200.000000
G1 X71.159248 Y19.514239 F200.000000
G1 X71.047600 Y20.003400 F200.000000
G1 X71.047600 Y20.714600 F200.000000
G1 X71.047600 F200.000000
G1 X71.159248 Y21.203761 F200.000000
G1 X71.472078 Y21.596037 F200.000000
G1 X71.631800 Y21.672955 F200.000000
G0 Z0.500000
G0 X72.718200 Y21.672955
G1 Z-0.040000 F60.000000
G1 X72.877922 Y21.596037 F200.000000
G1 X72.901800 Y21.566095 F200.000000
G0 Z0.500000
G0 X68.550874 Y19.813806
G1 Z-0.040000 F60.000000
G1 X68.507600 Y20.003400 F200.000000
G1 X68.507600 Y20.714600 F200.000000
G1 X68.507600 F200.000000
G1 X68.551549 Y20.907154 F200.000000
G0 Z0.500000
G0 X70.381400 Y21.541518
G1 Z-0.040000 F60.000000
G1 X70.650752 Y21.203761 F200.000000
G1 X70.762400 Y20.714600 F200.000000
G1 Y20.003400 F200.000000
G1 X70.650752 Y19.514239 F200.000000
G1 X70.479754 Y19.299815 F200.000000
G0 Z0.500000
G0 X66.013388 Y19.802790
G1 Z-0.040000 F60.000000
G1 X65.967600 Y20.003400 F200.000000
G1 X65.967600 Y20.714600 F200.000000
G1 X65.967600 F200.000000
G1 X66.013956 Y20.917700 F200.000000
G0 Z0.500000
G0 X68.175946 Y20.918128
G1 Z-0.040000 F60.000000
G1 X68.222400 Y20.714600 F200.000000
G1 Y20.003400 F200.000000
G1 X68.176510 Y19.802345 F200.000000
G0 Z0.500000
G0 X63.470847 Y19.813921
G1 Z-0.040000 F60.000000
G1 X63.427600 Y20.003400 F200.000000
G1 X63.427600 Y20.714600 F200.000000
G1 X63.427600 F200.000000
G1 X63.471559 Y20.907198 F200.000000
G0 Z0.500000
G0 X65.638148 Y20.908480
G1 Z-0.040000 F60.000000
G1 X65.682400 Y20.714600 F200.000000
G1 Y20.003400 F200.000000
G1 X65.638745 Y19.812134 F200.000000
G0 Z0.500000
G0 X61.186600 Y21.438693
G1 Z-0.040000 F60.000000
G1 X61.312078 Y21.596037 F200.000000
G1 X61.532023 Y21.701957 F200.000000
G0 Z0.500000
G0 X63.098441 Y20.907198
G1 Z-0.040000 F60.000000
G1 X63.142400 Y20.714600 F200.000000
G1 Y20.003400 F200.000000
G1 X63.099153 Y19.813921 F200.000000
G0 Z0.500000
G0 X61.471800 Y19.045045
G1 Z-0.040000 F60.000000
G1 X61.312078 Y19.121963 F200.000000
G1 X61.186600 Y19.279307 F200.000000
G0 Z0.500000
G0 X60.303400 Y19.279307
G1 Z-0.040000 F60.000000
G1 X60.177922 Y19.121963 F200.000000
G1 X59.725870 Y18.904266 F200.000000
G1 X59.224130 F200.000000
G1 X58.772078 Y19.121963 F200.000000
G1 X58.459248 Y19.514239 F200.000000
G1 X58.347600 Y20.003400 F200.000000
G1 X58.347600 Y20.714600 F200.000000
G1 X58.347600 F200.000000
G1 X58.444133 Y21.137539 F200.000000
G0 Z0.500000
G0 X60.062484 Y21.651629
G1 Z-0.040000 F60.000000
G1 X60.177922 Y21.596037 F200.000000
G1 X60.303400 Y21.438693 F200.000000
G0 Z0.500000
G0 X57.295942 Y21.760726
G1 Z-0.040000 F60.000000
G1 X57.637922 Y21.596037 F200.000000
G1 X57.950752 Y21.203761 F200.000000
G1 X58.062400 Y20.714600 F200.000000
G1 Y20.003400 F200.000000
G1 X57.950752 Y19.514239 F200.000000
G1 X57.637922 Y19.121963 F200.000000
G1 X57.185870 Y18.904266 F200.000000
G1 X56.684130 F200.000000
G1 X56.232078 Y19.121963 F200.000000
G1 X55.919248 Y19.514239 F200.000000
G1 X55.807600 Y20.003400 F200.000000
G1 X55.807600 Y20.714600 F200.000000
G1 X55.807600 F200.000000
G1 X55.902670 Y21.131129 F200.000000
G0 Z0.500000
G0 X53.565050 Y19.281251
G1 Z-0.040000 F60.000000
G1 X53.379248 Y19.514239 F200.000000
G1 X53.267600 Y20.003400 F200.000000
G1 Y20.714600 F200.000000
G1 X53.379248 Y21.203761 F200.000000
G1 X53.692078 Y21.596037 F200.000000
G1 X54.144130 Y21.813734 F200.000000
G1 X54.645870 F200.000000
G1 X55.097922 Y21.596037 F200.000000
G1 X55.410752 Y21.203761 F200.000000
G1 X55.522400 Y20.714600 F200.000000
G1 Y20.003400 F200.000000
G1 X55.410752 Y19.514239 F200.000000
G1 X55.097922 Y19.121963 F200.000000
G1 X54.787684 Y18.972560 F200.000000
G0 Z0.500000
G0 X50.912359 Y19.422560
G1 Z-0.040000 F60.000000
G1 X50.839248 Y19.514239 F200.000000
G1 X50.727600 Y20.003400 F200.000000
G1 Y20.714600 F200.000000
G1 X50.839248 Y21.203761 F200.000000
G1 X51.152078 Y21.596037 F200.000000
G1 X51.604130 Y21.813734 F200.000000
G1 X52.105870 F200.000000
G1 X52.557922 Y21.596037 F200.000000
G1 X52.870752 Y21.203761 F200.000000
G1 X52.982400 Y20.714600 F200.000000
G1 Y20.003400 F200.000000
G1 X52.870752 Y19.514239 F200.000000
G1 X52.557922 Y19.121963 F200.000000
G1 X52.105870 Y18.904266 F200.000000
G1 X51.930467 F200.000000
G0 Z0.500000
G0 X48.372359 Y19.422560
G1 Z-0.040000 F60.000000
G1 X48.299248 Y19.514239 F200.000000
G1 X48.187600 Y20.003400 F200.000000
G1 Y20.714600 F200.000000
G1 X48.299248 Y21.203761 F200.000000
G1 X48.612078 Y21.596037 F200.000000
G1 X49.064130 Y21.813734 F200.000000
G1 X49.565870 F200.000000
G1 X50.017922 Y21.596037 F200.000000
G1 X50.330752 Y21.203761 F200.000000
G1 X50.442400 Y20.714600 F200.000000
G1 Y20.003400 F200.000000
G1 X50.330752 Y19.514239 F200.000000
G1 X50.017922 Y19.121963 F200.000000
G1 X49.565870 Y18.904266 F200.000000
G1 X49.390467 F200.000000
G0 Z0.500000
G0 X45.832359 Y19.422560
G1 Z-0.040000 F60.000000
G1 X45.759248 Y19.514239 F200.000000
G1 X45.647600 Y20.003400 F200.000000
G1 Y20.714600 F200.000000
G1 X45.759248 Y21.203761 F200.000000
G1 X46.072078 Y21.596037 F200.000000
G1 X46.524130 Y21.813734 F200.000000
G1 X47.025870 F200.000000
G1 X47.477922 Y21.596037 F200.000000
G1 X47.790752 Y21.203761 F200.000000
G1 X47.902400 Y20.714600 F200.000000
G1 Y20.003400 F200.000000
G1 X47.790752 Y19.514239 F200.000000
G1 X47.477922 Y19.121963 F200.000000
G1 X47.025870 Y18.904266 F200.000000
G1 X46.850467 F200.000000
G0 Z0.500000
G0 X43.292359 Y19.422560
G1 Z-0.040000 F60.000000
G1 X43.219248 Y19.514239 F200.000000
G1 X43.107600 Y20.003400 F200.000000
G1 Y20.714600 F200.000000
G1 X43.219248 Y21.203761 F200.000000
G1 X43.532078 Y21.596037 F200.000000
G1 X43.984130 Y21.813734 F200.000000
G1 X44.485870 F200.000000
G1 X44.937922 Y21.596037 F200.000000
G1 X45.250752 Y21.203761 F200.000000
G1 X45.362400 Y20.714600 F200.000000
G1 Y20.003400 F200.000000
G1 X45.250752 Y19.514239 F200.000000
G1 X44.937922 Y19.121963 F200.000000
G1 X44.485870 Y18.904266 F200.000000
G1 X44.310467 F200.000000
G0 Z0.500000
G0 X44.778200 Y36.912955
G1 Z-0.040000 F60.000000
G1 X44.937922 Y36.836037 F200.000000
G1 X45.250752 Y36.443761 F200.000000
G1 X45.362400 Y35.954600 F200.000000
G1 Y35.243400 F200.000000
G1 X45.319153 Y35.053921 F200.000000
G0 Z0.500000
G0 X45.690847 Y35.053921
G1 Z-0.040000 F60.000000
G1 X45.647600 Y35.243400 F200.000000
G1 Y35.954600 F200.000000
G1 X45.759248 Y36.443761 F200.000000
G1 X46.072078 Y36.836037 F200.000000
G1 X46.524130 Y37.053734 F200.000000
G1 X47.025870 F200.000000
G1 X47.477922 Y36.836037 F200.000000
G1 X47.790752 Y36.443761 F200.000000
G1 X47.902400 Y35.954600 F200.000000
G1 Y35.243400 F200.000000
G1 X47.790752 Y34.754239 F200.000000
G1 X47.477922 Y34.361963 F200.000000
G1 X47.318200 Y34.285045 F200.000000
G0 Z0.500000
G0 X48.771800 Y34.285045
G1 Z-0.040000 F60.000000
G1 X48.612078 Y34.361963 F200.000000
G1 X48.299248 Y34.754239 F200.000000
G1 X48.187600 Y35.243400 F200.000000
G1 Y35.954600 F200.000000
G1 X48.299248 Y36.443761 F200.000000
G1 X48.612078 Y36.836037 F200.000000
G1 X49.064130 Y37.053734 F200.000000
G1 X49.565870 F200.000000
G1 X50.017922 Y36.836037 F200.000000
G1 X50.330752 Y36.443761 F200.000000
G1 X50.442400 Y35.954600 F200.000000
G1 Y35.243400 F200.000000
G1 X50.399153 Y35.053921 F200.000000
G0 Z0.500000
G0 X50.770847 Y35.053921
G1 Z-0.040000 F60.000000
G1 X50.727600 Y35.243400 F200.000000
G1 Y35.954600 F200.000000
G1 X50.839248 Y36.443761 F200.000000
G1 X51.152078 Y36.836037 F200.000000
G1 X51.311800 Y36.912955 F200.000000
G0 Z0.500000
G0 X52.398200
G1 Z-0.040000 F60.000000
G1 X52.557922 Y36.836037 F200.000000
G1 X52.870752 Y36.443761 F200.000000
G1 X52.982400 Y35.954600 F200.000000
G1 Y35.243400 F200.000000
G1 X52.939153 Y35.053921 F200.000000
G0 Z0.500000
G0 X53.310847 Y35.053921
G1 Z-0.040000 F60.000000
G1 X53.267600 Y35.243400 F200.000000
G1 Y35.954600 F200.000000
G1 X53.379248 Y36.443761 F200.000000
G1 X53.692078 Y36.836037 F200.000000
G1 X53.851800 Y36.912955 F200.000000
G0 Z0.500000
G0 X54.938200
G1 Z-0.040000 F60.000000
G1 X55.097922 Y36.836037 F200.000000
G1 X55.410752 Y36.443761 F200.000000
G1 X55.522400 Y35.954600 F200.000000
G1 Y35.243400 F200.000000
G1 X55.479153 Y35.053921 F200.000000
G0 Z0.500000
G0 X55.850847 Y35.053921
G1 Z-0.040000 F60.000000
G1 X55.807600 Y35.243400 F200.000000
G1 X55.807600 Y35.954600 F200.000000
G1 X55.807600 F200.000000
G1 X55.919248 Y36.443761 F200.000000
G1 X56.232078 Y36.836037 F200.000000
G1 X56.391800 Y36.912955 F200.000000
G0 Z0.500000
G0 X57.478200
G1 Z-0.040000 F60.000000
G1 X57.637922 Y36.836037 F200.000000
G1 X57.950752 Y36.443761 F200.000000
G1 X58.062400 Y35.954600 F200.000000
G1 Y35.243400 F200.000000
G1 X58.019153 Y35.053921 F200.000000
G0 Z0.500000
G0 X58.390847 Y35.053921
G1 Z-0.040000 F60.000000
G1 X58.347600 Y35.243400 F200.000000
G1 X58.347600 Y35.954600 F200.000000
G1 X58.347600 F200.000000
G1 X58.459248 Y36.443761 F200.000000
G1 X58.772078 Y36.836037 F200.000000
G1 X58.931800 Y36.912955 F200.000000
G0 Z0.500000
G0 X60.018200
G1 Z-0.040000 F60.000000
G1 X60.177922 Y36.836037 F200.000000
G1 X60.490752 Y36.443761 F200.000000
G1 X60.602400 Y35.954600 F200.000000
G1 Y35.243400 F200.000000
G1 X60.559153 Y35.053921 F200.000000
G0 Z0.500000
G0 X60.930847
G1 Z-0.040000 F60.000000
G1 X60.887600 Y35.243400 F200.000000
G1 X60.887600 Y35.954600 F200.000000
G1 X60.887600 F200.000000
G1 X60.999248 Y36.443761 F200.000000
G1 X61.312078 Y36.836037 F200.000000
G1 X61.471800 Y36.912955 F200.000000
G0 Z0.500000
G0 X62.558200
G1 Z-0.040000 F60.000000
G1 X62.717922 Y36.836037 F200.000000
G1 X63.030752 Y36.443761 F200.000000
G1 X63.142400 Y35.954600 F200.000000
G1 Y35.243400 F200.000000
G1 X63.099153 Y35.053921 F200.000000
G0 Z0.500000
G0 X63.470847 Y35.053921
G1 Z-0.040000 F60.000000
G1 X63.427600 Y35.243400 F200.000000
G1 X63.427600 Y35.954600 F200.000000
G1 X63.427600 F200.000000
G1 X63.539248 Y36.443761 F200.000000
G1 X63.852078 Y36.836037 F200.000000
G1 X64.011800 Y36.912955 F200.000000
G0 Z0.500000
G0 X65.098200
G1 Z-0.040000 F60.000000
G1 X65.257922 Y36.836037 F200.000000
G1 X65.570752 Y36.443761 F200.000000
G1 X65.682400 Y35.954600 F200.000000
G1 Y35.243400 F200.000000
G1 X65.639153 Y35.053921 F200.000000
G0 Z0.500000
G0 X66.010847 Y35.053921
G1 Z-0.040000 F60.000000
G1 X65.967600 Y35.243400 F200.000000
G1 X65.967600 Y35.954600 F200.000000
G1 X65.967600 F200.000000
G1 X66.079248 Y36.443761 F200.000000
G1 X66.348600 Y36.781518 F200.000000
G0 Z0.500000
G0 X68.178148 Y36.148480
G1 Z-0.040000 F60.000000
G1 X68.222400 Y35.954600 F200.000000
G1 Y35.243400 F200.000000
G1 X68.178745 Y35.052134 F200.000000
G0 Z0.500000
G0 X68.553388 Y35.042790
G1 Z-0.040000 F60.000000
G1 X68.507600 Y35.243400 F200.000000
G1 X68.507600 Y35.954600 F200.000000
G1 X68.507600 F200.000000
G1 X68.553956 Y36.157700 F200.000000
G0 Z0.500000
G0 X70.715946 Y36.158128
G1 Z-0.040000 F60.000000
G1 X70.762400 Y35.954600 F200.000000
G1 Y35.243400 F200.000000
G1 X70.716510 Y35.042345 F200.000000
G0 Z0.500000
G0 X71.090874 Y35.053806
G1 Z-0.040000 F60.000000
G1 X71.047600 Y35.243400 F200.000000
G1 X71.047600 Y35.954600 F200.000000
G1 X71.047600 F200.000000
G1 X71.091549 Y36.147154 F200.000000
G0 Z0.500000
G0 X72.921400 Y36.781518
G1 Z-0.040000 F60.000000
G1 X73.190752 Y36.443761 F200.000000
G1 X73.302400 Y35.954600 F200.000000
G1 Y35.243400 F200.000000
G1 X73.190752 Y34.754239 F200.000000
G1 X72.921400 Y34.416482 F200.000000
G0 Z0.500000
G0 X75.258200 Y36.912955
G1 Z-0.040000 F60.000000
G1 X75.417922 Y36.836037 F200.000000
G1 X75.730752 Y36.443761 F200.000000
G1 X75.842400 Y35.954600 F200.000000
G1 Y35.243400 F200.000000
G1 X75.730752 Y34.754239 F200.000000
G1 X75.417922 Y34.361963 F200.000000
G1 X74.965870 Y34.144266 F200.000000
G1 X74.464130 F200.000000
G1 X74.012078 Y34.361963 F200.000000
G1 X73.699248 Y34.754239 F200.000000
G1 X73.587600 Y35.243400 F200.000000
G1 X73.587600 Y35.954600 F200.000000
G1 X73.587600 F200.000000
G1 X73.699248 Y36.443761 F200.000000
G1 X74.012078 Y36.836037 F200.000000
G1 X74.171800 Y36.912955 F200.000000
G0 Z0.500000
G0 X77.798200 Y36.912955
G1 Z-0.040000 F60.000000
G1 X77.957922 Y36.836037 F200.000000
G1 X78.270752 Y36.443761 F200.000000
G1 X78.382400 Y35.954600 F200.000000
G1 Y35.243400 F200.000000
G1 X78.270752 Y34.754239 F200.000000
G1 X77.957922 Y34.361963 F200.000000
G1 X77.505870 Y34.144266 F200.000000
G1 X77.004130 F200.000000
G1 X76.552078 Y34.361963 F200.000000
G1 X76.239248 Y34.754239 F200.000000
G1 X76.127600 Y35.243400 F200.000000
G1 X76.127600 Y35.954600 F200.000000
G1 X76.127600 F200.000000
G1 X76.239248 Y36.443761 F200.000000
G1 X76.552078 Y36.836037 F200.000000
G1 X76.711800 Y36.912955 F200.000000
G0 Z0.500000
G0 X80.878441 Y36.147198
G1 Z-0.040000 F60.000000
G1 X80.922400 Y35.954600 F200.000000
G1 Y35.243400 F200.000000
G1 X80.810752 Y34.754239 F200.000000
G1 X80.497922 Y34.361963 F200.000000
G1 X80.045870 Y34.144266 F200.000000
G1 X79.544130 F200.000000
G1 X79.092078 Y34.361963 F200.000000
G1 X78.779248 Y34.754239 F200.000000
G1 X78.667600 Y35.243400 F200.000000
G1 X78.667600 Y35.954600 F200.000000
G1 X78.667600 F200.000000
G1 X78.779248 Y36.443761 F200.000000
G1 X79.092078 Y36.836037 F200.000000
G1 X79.251800 Y36.912955 F200.000000
G0 Z0.500000
G0 X82.878200
G1 Z-0.040000 F60.000000
G1 X83.037922 Y36.836037 F200.000000
G1 X83.350752 Y36.443761 F200.000000
G1 X83.462400 Y35.954600 F200.000000
G1 Y35.243400 F200.000000
G1 X83.350752 Y34.754239 F200.000000
G1 X83.037922 Y34.361963 F200.000000
G1 X82.585870 Y34.144266 F200.000000
G1 X82.084130 F200.000000
G1 X81.632078 Y34.361963 F200.000000
G1 X81.319248 Y34.754239 F200.000000
G1 X81.207600 Y35.243400 F200.000000
G1 X81.207600 Y35.954600 F200.000000
G1 X81.207600 F200.000000
G1 X81.251559 Y36.147198 F200.000000
G0 Z0.500000
G0 X85.418200 Y36.912955
G1 Z-0.040000 F60.000000
G1 X85.577922 Y36.836037 F200.000000
G1 X85.890752 Y36.443761 F200.000000
G1 X86.002400 Y35.954600 F200.000000
G1 Y35.243400 F200.000000
G1 X85.890752 Y34.754239 F200.000000
G1 X85.577922 Y34.361963 F200.000000
G1 X85.125870 Y34.144266 F200.000000
G1 X84.624130 F200.000000
G1 X84.172078 Y34.361963 F200.000000
G1 X83.859248 Y34.754239 F200.000000
G1 X83.747600 Y35.243400 F200.000000
G1 Y35.954600 F200.000000
G1 X83.859248 Y36.443761 F200.000000
G1 X84.172078 Y36.836037 F200.000000
G1 X84.331800 Y36.912955 F200.000000
G0 Z0.500000
G0 X87.958200 Y36.912955
G1 Z-0.040000 F60.000000
G1 X88.117922 Y36.836037 F200.000000
G1 X88.430752 Y36.443761 F200.000000
G1 X88.542400 Y35.954600 F200.000000
G1 Y35.243400 F200.000000
G1 X88.430752 Y34.754239 F200.000000
G1 X88.117922 Y34.361963 F200.000000
G1 X87.665870 Y34.144266 F200.000000
G1 X87.164130 F200.000000
G1 X86.712078 Y34.361963 F200.000000
G1 X86.399248 Y34.754239 F200.000000
G1 X86.287600 Y35.243400 F200.000000
G1 Y35.954600 F200.000000
G1 X86.399248 Y36.443761 F200.000000
G1 X86.712078 Y36.836037 F200.000000
G1 X86.871800 Y36.912955 F200.000000
G0 Z0.500000
G0 X90.498200
G1 Z-0.040000 F60.000000
G1 X90.657922 Y36.836037 F200.000000
G1 X90.970752 Y36.443761 F200.000000
G1 X91.082400 Y35.954600 F200.000000
G1 Y35.243400 F200.000000
G1 X90.970752 Y34.754239 F200.000000
G1 X90.657922 Y34.361963 F200.000000
G1 X90.205870 Y34.144266 F200.000000
G1 X89.704130 F200.000000
G1 X89.252078 Y34.361963 F200.000000
G1 X88.939248 Y34.754239 F200.000000
G1 X88.827600 Y35.243400 F200.000000
G1 X88.827600 Y35.954600 F200.000000
G1 X88.827600 F200.000000
G1 X88.939248 Y36.443761 F200.000000
G1 X89.252078 Y36.836037 F200.000000
G1 X89.411800 Y36.912955 F200.000000
G0 Z0.500000
G0 X93.038200
G1 Z-0.040000 F60.000000
G1 X93.197922 Y36.836037 F200.000000
G1 X93.510752 Y36.443761 F200.000000
G1 X93.622400 Y35.954600 F200.000000
G1 Y35.243400 F200.000000
G1 X93.510752 Y34.754239 F200.000000
G1 X93.197922 Y34.361963 F200.000000
G1 X92.745870 Y34.144266 F200.000000
G1 X92.244130 F200.000000
G1 X91.792078 Y34.361963 F200.000000
G1 X91.479248 Y34.754239 F200.000000
G1 X91.367600 Y35.243400 F200.000000
G1 Y35.954600 F200.000000
G1 X91.479248 Y36.443761 F200.000000
G1 X91.792078 Y36.836037 F200.000000
G1 X91.951800 Y36.912955 F200.000000
G0 Z0.500000
G0 X53.565050 Y19.281251
G1 Z-0.040000 F60.000000
G1 X51.978900 Y17.695100 F200.000000
G1 X51.930414 Y17.617936 F200.000000
G1 X51.873594 Y17.546686 F200.000000
G1 X51.866719 Y17.516566 F200.000000
G1 X51.850283 Y17.490408 F200.000000
G1 X51.840079 Y17.399848 F200.000000
G1 X51.819800 Y17.311000 F200.000000
G1 Y11.071393 F200.000000
G1 X51.773065 Y11.053669 F200.000000
G1 X51.443454 Y10.681615 F200.000000
G1 X51.324500 Y10.199000 F200.000000
G1 X51.443454 Y9.716385 F200.000000
G1 X51.773065 Y9.344331 F200.000000
G1 X52.237823 Y9.168072 F200.000000
G1 X52.731257 Y9.227986 F200.000000
G1 X53.140328 Y9.510347 F200.000000
G1 X53.371323 Y9.950471 F200.000000
G1 Y10.447529 F200.000000
G1 X53.140328 Y10.887653 F200.000000
G1 X52.906200 Y11.049260 F200.000000
G1 Y17.085999 F200.000000
G1 X54.779100 Y18.958900 F200.000000
G1 X54.787684 Y18.972560 F200.000000
G0 Z0.500000
G0 X50.912359 Y19.422560
G1 Z-0.040000 F60.000000
G1 X49.438900 Y17.949100 F200.000000
G1 X49.390414 Y17.871936 F200.000000
G1 X49.333594 Y17.800686 F200.000000
G1 X49.326719 Y17.770566 F200.000000
G1 X49.310283 Y17.744408 F200.000000
G1 X49.300079 Y17.653848 F200.000000
G1 X49.279800 Y17.565000 F200.000000
G1 Y11.071393 F200.000000
G1 X49.233065 Y11.053669 F200.000000
G1 X48.903454 Y10.681615 F200.000000
G1 X48.784500 Y10.199000 F200.000000
G1 X48.903454 Y9.716385 F200.000000
G1 X49.233065 Y9.344331 F200.000000
G1 X49.697823 Y9.168072 F200.000000
G1 X50.191257 Y9.227986 F200.000000
G1 X50.600328 Y9.510347 F200.000000
G1 X50.831323 Y9.950471 F200.000000
G1 Y10.447529 F200.000000
G1 X50.600328 Y10.887653 F200.000000
G1 X50.366200 Y11.049260 F200.000000
G1 Y17.339999 F200.000000
G1 X51.930467 Y18.904266 F200.000000
G0 Z0.500000
G0 X45.832359 Y19.422560
G1 Z-0.040000 F60.000000
G1 X44.358900 Y17.949100 F200.000000
G1 X44.310414 Y17.871936 F200.000000
G1 X44.253594 Y17.800686 F200.000000
G1 X44.246719 Y17.770566 F200.000000
G1 X44.230283 Y17.744408 F200.000000
G1 X44.220079 Y17.653848 F200.000000
G1 X44.199800 Y17.565000 F200.000000
G1 Y11.071393 F200.000000
G1 X44.153065 Y11.053669 F200.000000
G1 X43.823454 Y10.681615 F200.000000
G1 X43.704500 Y10.199000 F200.000000
G1 X43.823454 Y9.716385 F200.000000
G1 X44.153065 Y9.344331 F200.000000
G1 X44.617823 Y9.168072 F200.000000
G1 X45.111257 Y9.227986 F200.000000
G1 X45.520328 Y9.510347 F200.000000
G1 X45.751323 Y9.950471 F200.000000
G1 Y10.447529 F200.000000
G1 X45.520328 Y10.887653 F200.000000
G1 X45.286200 Y11.049260 F200.000000
G1 Y17.339999 F200.000000
G1 X46.850467 Y18.904266 F200.000000
G0 Z0.500000
G0 X60.303400 Y19.279307
G1 Z-0.040000 F60.000000
G1 Y18.654938 F200.000000
G1 X60.217215 Y18.600785 F200.000000
G1 X54.375215 Y12.758785 F200.000000
G1 X54.308593 Y12.652755 F200.000000
G1 X54.230517 Y12.554851 F200.000000
G1 X54.221071 Y12.513464 F200.000000
G1 X54.198485 Y12.477520 F200.000000
G1 X54.184465 Y12.353084 F200.000000
G1 X54.156600 Y12.231000 F200.000000
G1 Y11.237500 F200.000000
G1 X53.864500 F200.000000
G1 Y9.160500 F200.000000
G1 X54.359800 F200.000000
G1 Y9.154001 F200.000000
G1 X53.661999 Y8.456200 F200.000000
G1 X42.174001 Y8.456200 F200.000000
G1 X41.476200 Y9.154001 F200.000000
G1 Y9.498820 F200.000000
G1 X41.613065 Y9.344331 F200.000000
G1 X42.077823 Y9.168072 F200.000000
G1 X42.571257 Y9.227986 F200.000000
G1 X42.980328 Y9.510347 F200.000000
G1 X43.211323 Y9.950471 F200.000000
G1 Y10.447529 F200.000000
G1 X42.980328 Y10.887653 F200.000000
G1 X42.746200 Y11.049260 F200.000000
G1 Y17.339999 F200.000000
G1 X44.310467 Y18.904266 F200.000000
G0 Z0.500000
G0 X40.352807 Y11.067595
G1 Z-0.040000 F60.000000
G1 X40.385970 Y11.083565 F200.000000
G1 X40.389800 Y11.088368 F200.000000
G1 Y10.922530 F200.000000
G1 X40.250804 Y11.018472 F200.000000
G1 X40.260261 Y11.023026 F200.000000
G1 X40.325663 Y11.042735 F200.000000
G1 X40.352807 Y11.067595 F200.000000
G0 Z0.500000
G0 X38.276791 Y32.022457
G1 Z-0.040000 F60.000000
G1 X38.242797 Y32.093047 F200.000000
G1 X38.216920 Y32.166999 F200.000000
G1 X38.198139 Y32.185780 F200.000000
G1 X38.186615 Y32.209710 F200.000000
G1 X38.184997 Y32.211000 F200.000000
G1 X39.109003 F200.000000
G1 X39.107385 Y32.209710 F200.000000
G1 X39.095861 Y32.185780 F200.000000
G1 X39.077080 Y32.166999 F200.000000
G1 X39.051203 Y32.093047 F200.000000
G1 X39.017209 Y32.022457 F200.000000
G1 Y31.995897 F200.000000
G1 X39.008436 Y31.970827 F200.000000
G1 X39.017209 Y31.892971 F200.000000
G1 Y31.814623 F200.000000
G1 X39.021678 Y31.805342 F200.000000
G1 X38.514169 Y31.866965 F200.000000
G1 X38.263134 Y31.771760 F200.000000
G1 X38.265267 Y31.790693 F200.000000
G1 X38.276791 Y31.814623 F200.000000
G1 Y31.892971 F200.000000
G1 X38.285564 Y31.970827 F200.000000
G1 X38.276791 Y31.995897 F200.000000
G1 Y32.022457 F200.000000
G0 Z0.500000
G0 X38.561824 Y26.877755
G1 Z-0.040000 F60.000000
G1 X38.557628 Y26.944364 F200.000000
G1 X38.564293 Y27.010772 F200.000000
G1 X38.551171 Y27.046857 F200.000000
G1 X38.548757 Y27.085178 F200.000000
G1 X38.518233 Y27.139528 F200.000000
G1 X38.803023 Y27.174108 F200.000000
G1 X38.796662 Y27.159185 F200.000000
G1 X38.757904 Y27.090126 F200.000000
G1 X38.756296 Y27.064481 F200.000000
G1 X38.746221 Y27.040843 F200.000000
G1 X38.749854 Y26.961735 F200.000000
G1 X38.744898 Y26.882699 F200.000000
G1 X38.754576 Y26.858896 F200.000000
G1 X38.755755 Y26.833227 F200.000000
G1 X38.793351 Y26.763530 F200.000000
G1 X38.797827 Y26.752523 F200.000000
G1 X38.531825 Y26.784821 F200.000000
G1 X38.543538 Y26.803976 F200.000000
G1 X38.547373 Y26.842181 F200.000000
G1 X38.561824 Y26.877755 F200.000000
G0 Z0.500000
G0 X59.554897 Y15.790171
G1 Z-0.040000 F60.000000
G1 X59.529827 Y15.798944 F200.000000
G1 X59.526092 Y15.798523 F200.000000
G1 X61.272785 Y17.545215 F200.000000
G1 X61.295370 Y17.581160 F200.000000
G1 X61.328559 Y17.607627 F200.000000
G1 X61.382892 Y17.720450 F200.000000
G1 X61.449515 Y17.826480 F200.000000
G1 X61.454267 Y17.868664 F200.000000
G1 X61.471800 Y17.905070 F200.000000
G1 Y16.520001 F200.000000
G1 X61.373217 Y16.421418 F200.000000
G1 X61.127465 Y16.501267 F200.000000
G1 X60.619218 Y16.447848 F200.000000
G1 X60.176638 Y16.192325 F200.000000
G1 X59.876253 Y15.778879 F200.000000
G1 X59.841398 Y15.614901 F200.000000
G1 X59.817559 Y15.638740 F200.000000
G1 X59.768710 Y15.699995 F200.000000
G1 X59.744780 Y15.711519 F200.000000
G1 X59.725999 Y15.730300 F200.000000
G1 X59.652047 Y15.756177 F200.000000
G1 X59.581457 Y15.790171 F200.000000
G1 X59.554897 F200.000000
G0 Z0.500000
G0 X106.714591 Y69.589144
G1 Z-0.040000 F60.000000
G1 X106.714920 Y69.580294 F200.000000
G1 X106.759504 Y69.495881 F200.000000
G1 X106.763847 Y69.486863 F200.000000
G1 X106.466823 Y69.522928 F200.000000
G1 X106.182936 Y69.415264 F200.000000
G1 X105.604701 Y69.993500 F200.000000
G1 X106.802543 F200.000000
G1 X106.800925 Y69.992210 F200.000000
G1 X106.797082 Y69.984231 F200.000000
G1 X106.790368 Y69.978456 F200.000000
G1 X106.752169 Y69.890968 F200.000000
G1 X106.710749 Y69.804957 F200.000000
G1 Y69.796102 F200.000000
G1 X106.707205 Y69.787986 F200.000000
G1 X106.710749 Y69.692587 F200.000000
G1 Y69.597123 F200.000000
G1 X106.714591 Y69.589144 F200.000000
G0 Z0.500000
G0 X102.627283 Y68.650111
G1 Z-0.040000 F60.000000
G1 X102.545139 Y68.610553 F200.000000
G1 X102.460911 Y68.575652 F200.000000
G1 X102.452034 Y68.565716 F200.000000
G1 X102.440030 Y68.559935 F200.000000
G1 X102.436200 Y68.555132 F200.000000
G1 Y68.901999 F200.000000
G1 X103.388001 Y69.853800 F200.000000
G1 X104.207999 F200.000000
G1 X105.556723 Y68.505076 F200.000000
G1 X105.553500 Y68.492000 F200.000000
G1 X105.558851 Y68.470291 F200.000000
G1 X105.520116 Y68.486241 F200.000000
G1 X105.452726 Y68.523770 F200.000000
G1 X105.424971 Y68.525418 F200.000000
G1 X105.399262 Y68.536004 F200.000000
G1 X105.322257 Y68.531518 F200.000000
G1 X105.245257 Y68.536091 F200.000000
G1 X105.219536 Y68.525534 F200.000000
G1 X105.191779 Y68.523917 F200.000000
G1 X105.124347 Y68.486464 F200.000000
G1 X105.060323 Y68.460186 F200.000000
G1 Y68.740529 F200.000000
G1 X104.829328 Y69.180653 F200.000000
G1 X104.420257 Y69.463014 F200.000000
G1 X103.926823 Y69.522928 F200.000000
G1 X103.462065 Y69.346669 F200.000000
G1 X103.132454 Y68.974615 F200.000000
G1 X103.028385 Y68.552392 F200.000000
G1 X103.022370 Y68.559935 F200.000000
G1 X102.940226 Y68.599494 F200.000000
G1 X102.860424 Y68.643585 F200.000000
G1 X102.847121 Y68.644330 F200.000000
G1 X102.835117 Y68.650111 F200.000000
G1 X102.743945 F200.000000
G1 X102.652915 Y68.655212 F200.000000
G1 X102.640606 Y68.650111 F200.000000
G1 X102.627283 F200.000000
G0 Z0.500000
G0 X104.809591 Y51.809144
G1 Z-0.040000 F60.000000
G1 X104.809920 Y51.800294 F200.000000
G1 X104.854504 Y51.715881 F200.000000
G1 X104.858847 Y51.706863 F200.000000
G1 X104.561823 Y51.742928 F200.000000
G1 X104.370016 Y51.670185 F200.000000
G1 X103.826701 Y52.213500 F200.000000
G1 X104.897543 F200.000000
G1 X104.895925 Y52.212210 F200.000000
G1 X104.892082 Y52.204231 F200.000000
G1 X104.885368 Y52.198456 F200.000000
G1 X104.847169 Y52.110968 F200.000000
G1 X104.805749 Y52.024957 F200.000000
G1 Y52.016102 F200.000000
G1 X104.802205 Y52.007986 F200.000000
G1 X104.805749 Y51.912587 F200.000000
G1 Y51.817123 F200.000000
G1 X104.809591 Y51.809144 F200.000000
G0 Z0.500000
G0 X103.543408 Y52.495420
G1 Z-0.040000 F60.000000
G1 X103.571366 Y52.510485 F200.000000
G1 X103.648500 Y52.551729 F200.000000
G1 Y52.391701 F200.000000
G1 X103.547100 Y52.493100 F200.000000
G1 X103.543408 Y52.495420 F200.000000
G0 Z0.500000
G0 X105.131196 Y49.377099
G1 Z-0.040000 F60.000000
G1 X105.142305 Y49.354030 F200.000000
G1 X105.147108 Y49.350200 F200.000000
G1 X103.134001 F200.000000
G1 X102.690200 Y49.794001 F200.000000
G1 Y49.861740 F200.000000
G1 X102.924328 Y50.023347 F200.000000
G1 X103.155323 Y50.463471 F200.000000
G1 Y50.960529 F200.000000
G1 X102.924328 Y51.400653 F200.000000
G1 X102.685072 Y51.565800 F200.000000
G1 X102.937999 Y51.565800 F200.000000
G1 X103.676836 Y50.826963 F200.000000
G1 X103.648500 Y50.712000 F200.000000
G1 X103.767454 Y50.229385 F200.000000
G1 X104.097065 Y49.857331 F200.000000
G1 X104.561823 Y49.681072 F200.000000
G1 X105.052129 Y49.740606 F200.000000
G1 Y49.669837 F200.000000
G1 X105.043574 Y49.591019 F200.000000
G1 X105.052129 Y49.566887 F200.000000
G1 Y49.541283 F200.000000
G1 X105.086527 Y49.469853 F200.000000
G1 X105.113017 Y49.395129 F200.000000
G1 X105.131196 Y49.377099 F200.000000
G0 Z0.500000
G0 X99.300064 Y37.174586
G1 Z-0.040000 F60.000000
G1 X99.222900 Y37.126100 F200.000000
G1 X97.698900 Y35.602100 F200.000000
G1 X97.650414 Y35.524936 F200.000000
G1 X97.610200 Y35.474509 F200.000000
G1 Y35.881999 F200.000000
G1 X100.467001 Y38.738800 F200.000000
G1 X101.281128 F200.000000
G1 X101.557065 Y38.427331 F200.000000
G1 X102.021823 Y38.251072 F200.000000
G1 X102.515257 Y38.310986 F200.000000
G1 X102.924328 Y38.593347 F200.000000
G1 X103.127800 Y38.981030 F200.000000
G1 Y38.491001 F200.000000
G1 X101.921999 Y37.285200 F200.000000
G1 X99.607000 F200.000000
G1 X99.518152 Y37.264921 F200.000000
G1 X99.427592 Y37.254717 F200.000000
G1 X99.401434 Y37.238281 F200.000000
G1 X99.371314 Y37.231406 F200.000000
G1 X99.300064 Y37.174586 F200.000000
G0 Z0.500000
G0 X109.113207 Y36.604184
G1 Z-0.040000 F60.000000
G1 X109.099736 Y36.565687 F200.000000
G1 X109.100480 Y36.559089 F200.000000
G1 X109.024785 Y36.634785 F200.000000
G1 X108.918755 Y36.701407 F200.000000
G1 X108.820851 Y36.779483 F200.000000
G1 X108.805443 Y36.783000 F200.000000
G1 X109.189521 F200.000000
G1 X109.168380 Y36.761859 F200.000000
G1 X109.147115 Y36.701088 F200.000000
G1 X109.115694 Y36.644892 F200.000000
G1 X109.113207 Y36.604184 F200.000000
G0 Z0.500000
G0 X126.926354 Y39.764940
G1 Z-0.040000 F60.000000
G1 X126.898879 Y39.780200 F200.000000
G1 X126.953000 F200.000000
G1 Y39.755616 F200.000000
G1 X126.926354 Y39.764940 F200.000000
G0 Z0.500000
G0 X103.333465 Y34.324084
G1 Z-0.040000 F60.000000
G1 X103.305600 Y34.202000 F200.000000
G1 Y31.349181 F200.000000
G1 X103.229638 Y31.305325 F200.000000
G1 X102.929253 Y30.891879 F200.000000
G1 X102.823000 Y30.392000 F200.000000
G1 X102.916169 Y29.953675 F200.000000
G1 X102.883953 Y29.957305 F200.000000
G1 X102.834287 Y29.974684 F200.000000
G1 X102.782000 Y29.968792 F200.000000
G1 X102.729713 Y29.974684 F200.000000
G1 X102.680047 Y29.957305 F200.000000
G1 X102.631959 Y29.951887 F200.000000
G1 X102.714143 Y30.136477 F200.000000
G1 Y30.647523 F200.000000
G1 X102.506282 Y31.114388 F200.000000
G1 X102.126500 Y31.456345 F200.000000
G1 X102.055200 Y31.479512 F200.000000
G1 Y33.755270 F200.000000
G1 X102.072936 Y33.769414 F200.000000
G1 X102.150100 Y33.817900 F200.000000
G1 X105.632555 Y37.300354 F200.000000
G1 X105.639748 Y37.268839 F200.000000
G1 X105.952578 Y36.876563 F200.000000
G1 X106.000676 Y36.853400 F200.000000
G1 X105.957000 F200.000000
G1 X105.834916 Y36.825535 F200.000000
G1 X105.710480 Y36.811515 F200.000000
G1 X105.674536 Y36.788929 F200.000000
G1 X105.633149 Y36.779483 F200.000000
G1 X105.535245 Y36.701407 F200.000000
G1 X105.429215 Y36.634785 F200.000000
G1 X103.524215 Y34.729785 F200.000000
G1 X103.457593 Y34.623755 F200.000000
G1 X103.379517 Y34.525851 F200.000000
G1 X103.370071 Y34.484464 F200.000000
G1 X103.347485 Y34.448520 F200.000000
G1 X103.333465 Y34.324084 F200.000000
G0 Z0.500000
G0 X105.221761 Y31.042339
G1 Z-0.040000 F60.000000
G1 X105.235543 Y31.043118 F200.000000
G1 X105.314919 Y31.087025 F200.000000
G1 X105.363000 Y31.110088 F200.000000
G1 Y29.681699 F200.000000
G1 X105.354559 Y29.690140 F200.000000
G1 X105.294099 Y29.711296 F200.000000
G1 X105.238234 Y29.742637 F200.000000
G1 X105.197197 Y29.745203 F200.000000
G1 X105.158387 Y29.758784 F200.000000
G1 X105.094735 Y29.751612 F200.000000
G1 X105.083114 Y29.752339 F200.000000
G1 X105.254143 Y30.136477 F200.000000
G1 Y30.647523 F200.000000
G1 X105.081880 Y31.034433 F200.000000
G1 X105.118605 Y31.036509 F200.000000
G1 X105.209315 Y31.036369 F200.000000
G1 X105.221761 Y31.042339 F200.000000
G0 Z0.500000
G0 X104.871044 Y15.222196
G1 Z-0.040000 F60.000000
G1 X104.852197 Y15.255963 F200.000000
G1 X104.843592 Y15.293664 F200.000000
G1 X104.825449 Y15.316415 F200.000000
G1 X104.818260 Y15.336959 F200.000000
G1 X104.792753 Y15.362467 F200.000000
G1 X104.769752 Y15.403676 F200.000000
G1 X104.754421 Y15.414458 F200.000000
G1 X105.055257 Y15.450986 F200.000000
G1 X105.464328 Y15.733347 F200.000000
G1 X105.695323 Y16.173471 F200.000000
G1 Y16.670529 F200.000000
G1 X105.464328 Y17.110653 F200.000000
G1 X105.055257 Y17.393014 F200.000000
G1 X104.561823 Y17.452928 F200.000000
G1 X104.097065 Y17.276669 F200.000000
G1 X104.035277 Y17.206924 F200.000000
G1 X102.055200 Y19.187001 F200.000000
G1 Y21.049488 F200.000000
G1 X102.126500 Y21.072655 F200.000000
G1 X102.506282 Y21.414612 F200.000000
G1 X102.714143 Y21.881477 F200.000000
G1 Y22.392523 F200.000000
G1 X102.631959 Y22.577113 F200.000000
G1 X102.680047 Y22.571695 F200.000000
G1 X102.729713 Y22.554316 F200.000000
G1 X102.782000 Y22.560208 F200.000000
G1 X102.834287 Y22.554316 F200.000000
G1 X102.883953 Y22.571695 F200.000000
G1 X102.916169 Y22.575325 F200.000000
G1 X102.823000 Y22.137000 F200.000000
G1 X102.929253 Y21.637121 F200.000000
G1 X103.229638 Y21.223675 F200.000000
G1 X103.305600 Y21.179819 F200.000000
G1 Y20.232000 F200.000000
G1 X103.333465 Y20.109916 F200.000000
G1 X103.347485 Y19.985480 F200.000000
G1 X103.370071 Y19.949536 F200.000000
G1 X103.379517 Y19.908149 F200.000000
G1 X103.457593 Y19.810245 F200.000000
G1 X103.524215 Y19.704215 F200.000000
G1 X105.845600 Y17.382831 F200.000000
G1 Y16.096169 F200.000000
G1 X104.886483 Y15.137052 F200.000000
G1 X104.886904 Y15.140787 F200.000000
G1 X104.873676 Y15.178590 F200.000000
G1 X104.871044 Y15.222196 F200.000000
G0 Z0.500000
G0 X105.197418 Y22.785963
G1 Z-0.040000 F60.000000
G1 X105.235543 Y22.788118 F200.000000
G1 X105.294127 Y22.820524 F200.000000
G1 X105.357172 Y22.843054 F200.000000
G1 X105.363000 Y22.848959 F200.000000
G1 Y21.426699 F200.000000
G1 X105.354559 Y21.435140 F200.000000
G1 X105.294099 Y21.456296 F200.000000
G1 X105.238234 Y21.487637 F200.000000
G1 X105.197197 Y21.490203 F200.000000
G1 X105.158387 Y21.503784 F200.000000
G1 X105.094735 Y21.496612 F200.000000
G1 X105.083114 Y21.497339 F200.000000
G1 X105.254143 Y21.881477 F200.000000
G1 Y22.392523 F200.000000
G1 X105.081880 Y22.779433 F200.000000
G1 X105.094883 Y22.780168 F200.000000
G1 X105.161459 Y22.773113 F200.000000
G1 X105.197418 Y22.785963 F200.000000
G0 Z0.500000
G0 X25.864917 Y59.889861
G1 Z-0.040000 F60.000000
G1 X25.846537 Y59.908241 F200.000000
G1 X25.879143 Y59.981477 F200.000000
G1 Y60.492523 F200.000000
G1 X25.846537 Y60.565759 F200.000000
G1 X25.869392 Y60.588614 F200.000000
G1 X25.910485 Y60.592563 F200.000000
G1 X25.971996 Y60.587082 F200.000000
G1 X26.012653 Y60.602382 F200.000000
G1 X26.055895 Y60.606538 F200.000000
G1 X26.068122 Y60.613944 F200.000000
G1 X25.988000 Y60.237000 F200.000000
G1 X26.067058 Y59.865063 F200.000000
G1 X26.063107 Y59.867545 F200.000000
G1 X26.013273 Y59.873156 F200.000000
G1 X25.966117 Y59.890222 F200.000000
G1 X25.911316 Y59.884636 F200.000000
G1 X25.864917 Y59.889861 F200.000000
G0 Z0.500000
G0 X23.525476 Y59.563019
G1 Z-0.040000 F60.000000
G1 X23.484397 Y59.560798 F200.000000
G1 X23.428288 Y59.529941 F200.000000
G1 X23.367670 Y59.509309 F200.000000
G1 X23.366000 Y59.507668 F200.000000
G1 Y60.968738 F200.000000
G1 X23.428200 Y60.946974 F200.000000
G1 X23.487782 Y60.914788 F200.000000
G1 X23.525146 Y60.913051 F200.000000
G1 X23.560453 Y60.900696 F200.000000
G1 X23.627746 Y60.908279 F200.000000
G1 X23.677113 Y60.905982 F200.000000
G1 X23.554253 Y60.736879 F200.000000
G1 X23.448000 Y60.237000 F200.000000
G1 X23.554253 Y59.737121 F200.000000
G1 X23.674877 Y59.571095 F200.000000
G1 X23.627988 Y59.568560 F200.000000
G1 X23.564421 Y59.576274 F200.000000
G1 X23.525476 Y59.563019 F200.000000
G0 Z0.500000
G0 X21.426586 Y21.453336
G1 Z-0.040000 F60.000000
G1 X21.399067 Y21.497132 F200.000000
G1 X22.133900 Y20.762300 F200.000000
G1 X22.338592 Y20.633683 F200.000000
G1 X22.578819 Y20.606616 F200.000000
G1 X22.736800 Y20.661895 F200.000000
G1 Y20.603200 F200.000000
G1 Y20.394200 F200.000000
G1 Y19.993600 F200.000000
G1 Y19.733800 F200.000000
G1 Y19.307800 F200.000000
G1 Y19.098800 F200.000000
G1 Y18.997200 F200.000000
G1 X22.692201 F200.000000
G1 X22.096010 Y19.593391 F200.000000
G1 X22.172200 Y19.927200 F200.000000
G1 X22.055522 Y20.438402 F200.000000
G1 X21.728596 Y20.848354 F200.000000
G1 X21.537200 Y20.940525 F200.000000
G1 Y21.146400 F200.000000
G1 X21.516921 Y21.235248 F200.000000
G1 X21.506717 Y21.325808 F200.000000
G1 X21.490281 Y21.351966 F200.000000
G1 X21.483406 Y21.382086 F200.000000
G1 X21.426586 Y21.453336 F200.000000
G0 Z0.500000
G0 X18.277130 Y17.356075
G1 Z-0.040000 F60.000000
G1 X18.228281 Y17.294820 F200.000000
G1 X18.172880 Y17.239419 F200.000000
G1 X18.164108 Y17.214349 F200.000000
G1 X18.147548 Y17.193584 F200.000000
G1 X18.141797 Y17.168390 F200.000000
G1 X18.012128 Y17.415453 F200.000000
G1 X17.603057 Y17.697814 F200.000000
G1 X17.109623 Y17.757728 F200.000000
G1 X16.644865 Y17.581469 F200.000000
G1 X16.368928 Y17.270000 F200.000000
G1 X14.818201 Y17.270000 F200.000000
G1 X13.942600 Y18.145601 F200.000000
G1 Y18.888475 F200.000000
G1 X14.133996 Y18.980646 F200.000000
G1 X14.460922 Y19.390598 F200.000000
G1 X14.577600 Y19.901800 F200.000000
G1 X14.460922 Y20.413002 F200.000000
G1 X14.133996 Y20.822954 F200.000000
G1 X13.661574 Y21.050460 F200.000000
G1 X13.375497 F200.000000
G1 X13.403731 Y21.101944 F200.000000
G1 X13.450793 Y21.173479 F200.000000
G1 X13.453323 Y21.192378 F200.000000
G1 X13.462492 Y21.209097 F200.000000
G1 X13.467011 Y21.294605 F200.000000
G1 X13.478375 Y21.379475 F200.000000
G1 X13.472455 Y21.397601 F200.000000
G1 X13.473462 Y21.416642 F200.000000
G1 X13.469802 Y21.425396 F200.000000
G1 X13.736970 Y21.395293 F200.000000
G1 X14.050509 Y21.505005 F200.000000
G1 X14.139304 Y21.593800 F200.000000
G1 X15.028599 Y21.593800 F200.000000
G1 X15.396200 Y21.226199 F200.000000
G1 Y20.915125 F200.000000
G1 X15.204804 Y20.822954 F200.000000
G1 X14.877878 Y20.413002 F200.000000
G1 X14.761200 Y19.901800 F200.000000
G1 X14.877878 Y19.390598 F200.000000
G1 X15.204804 Y18.980646 F200.000000
G1 X15.677226 Y18.753140 F200.000000
G1 X16.201574 F200.000000
G1 X16.673996 Y18.980646 F200.000000
G1 X17.000922 Y19.390598 F200.000000
G1 X17.117600 Y19.901800 F200.000000
G1 X17.000922 Y20.413002 F200.000000
G1 X16.673996 Y20.822954 F200.000000
G1 X16.482600 Y20.915125 F200.000000
G1 Y21.035000 F200.000000
G1 X18.106979 F200.000000
G1 X17.719404 Y20.848354 F200.000000
G1 X17.392478 Y20.438402 F200.000000
G1 X17.275800 Y19.927200 F200.000000
G1 X17.392478 Y19.415998 F200.000000
G1 X17.719404 Y19.006046 F200.000000
G1 X17.910800 Y18.913875 F200.000000
G1 Y18.288900 F200.000000
G1 X17.931079 Y18.200052 F200.000000
G1 X17.941283 Y18.109492 F200.000000
G1 X17.957719 Y18.083334 F200.000000
G1 X17.964594 Y18.053214 F200.000000
