(Generated by ./pygerber2gcode_cui_MOD.py )
( 2013-06-06 17:09:39 )
(Initialize)

(Start form here)
G0 Z0.500000
G0 X52.459670 Y10.340328
G1 Z-0.040000 F60.000000
G1 X52.392725 Y10.233787 F200.000000
G1 X52.314273 Y10.135411 F200.000000
G1 X52.304782 Y10.093825 F200.000000
G1 X52.282087 Y10.057708 F200.000000
G1 X52.268036 Y9.932999 F200.000000
G1 X51.952599 F200.000000
G1 Y7.146999 F200.000000
G1 X54.027399 F200.000000
G1 Y9.786740 F200.000000
G1 X57.110659 Y12.870000 F200.000000
G1 X58.707580 F200.000000
G1 X58.833999 Y12.743581 F200.000000
G1 X59.339999 Y12.607999 F200.000000
G1 X59.845999 Y12.743581 F200.000000
G1 X60.216417 Y13.113999 F200.000000
G1 X60.351999 Y13.619999 F200.000000
G1 X60.216417 Y14.125999 F200.000000
G1 X59.845999 Y14.496417 F200.000000
G1 X59.339999 Y14.631999 F200.000000
G1 X58.833999 Y14.496417 F200.000000
G1 X58.707580 Y14.369998 F200.000000
G1 X56.799999 F200.000000
G1 X56.677326 Y14.341999 F200.000000
G1 X56.552290 Y14.327911 F200.000000
G1 X56.516173 Y14.305216 F200.000000
G1 X56.474587 Y14.295725 F200.000000
G1 X56.376211 Y14.217273 F200.000000
G1 X56.269670 Y14.150328 F200.000000
G1 X52.459670 Y10.340328 F200.000000
G0 Z0.500000
G0 X49.700000 Y7.502724
G1 Z-0.040000 F60.000000
G1 X49.515334 Y7.734288 F200.000000
G1 X49.412599 Y8.184399 F200.000000
G1 Y8.895599 F200.000000
G1 X49.515334 Y9.345710 F200.000000
G1 X49.803191 Y9.706671 F200.000000
G1 X50.219156 Y9.906989 F200.000000
G1 X50.680842 F200.000000
G1 X51.096807 Y9.706671 F200.000000
G1 X51.384664 Y9.345710 F200.000000
G1 X51.487399 Y8.895599 F200.000000
G1 Y8.184399 F200.000000
G1 X51.384664 Y7.734288 F200.000000
G1 X51.199998 Y7.502724 F200.000000
G0 Z0.500000
G0 X46.962618 Y9.289998
G1 Z-0.040000 F60.000000
G1 X46.975334 Y9.345710 F200.000000
G1 X47.263191 Y9.706671 F200.000000
G1 X47.679156 Y9.906989 F200.000000
G1 X48.140842 F200.000000
G1 X48.556807 Y9.706671 F200.000000
G1 X48.844664 Y9.345710 F200.000000
G1 X48.947399 Y8.895599 F200.000000
G1 Y8.184399 F200.000000
G1 X48.844664 Y7.734288 F200.000000
G1 X48.556807 Y7.373327 F200.000000
G1 X48.140842 Y7.173009 F200.000000
G1 X47.679156 F200.000000
G1 X47.263191 Y7.373327 F200.000000
G1 X46.975334 Y7.734288 F200.000000
G1 X46.962618 Y7.790000 F200.000000
G0 Z0.500000
G0 X44.422618 Y9.289998
G1 Z-0.040000 F60.000000
G1 X44.435334 Y9.345710 F200.000000
G1 X44.723191 Y9.706671 F200.000000
G1 X45.139156 Y9.906989 F200.000000
G1 X45.600842 F200.000000
G1 X46.016807 Y9.706671 F200.000000
G1 X46.304664 Y9.345710 F200.000000
G1 X46.317380 Y9.289998 F200.000000
G0 Z0.500000
G0 Y7.790000
G1 Z-0.040000 F60.000000
G1 X46.304664 Y7.734288 F200.000000
G1 X46.016807 Y7.373327 F200.000000
G1 X45.600842 Y7.173009 F200.000000
G1 X45.139156 F200.000000
G1 X44.723191 Y7.373327 F200.000000
G1 X44.435334 Y7.734288 F200.000000
G1 X44.422618 Y7.790000 F200.000000
G0 Z0.500000
G0 X41.882618 Y9.289998
G1 Z-0.040000 F60.000000
G1 X41.895334 Y9.345710 F200.000000
G1 X42.183191 Y9.706671 F200.000000
G1 X42.599156 Y9.906989 F200.000000
G1 X43.060842 F200.000000
G1 X43.476807 Y9.706671 F200.000000
G1 X43.764664 Y9.345710 F200.000000
G1 X43.777380 Y9.289998 F200.000000
G0 Z0.500000
G0 Y7.790000
G1 Z-0.040000 F60.000000
G1 X43.764664 Y7.734288 F200.000000
G1 X43.476807 Y7.373327 F200.000000
G1 X43.060842 Y7.173009 F200.000000
G1 X42.599156 F200.000000
G1 X42.183191 Y7.373327 F200.000000
G1 X41.895334 Y7.734288 F200.000000
G1 X41.882618 Y7.790000 F200.000000
G0 Z0.500000
G0 X41.237380
G1 Z-0.040000 F60.000000
G1 X41.224664 Y7.734288 F200.000000
G1 X40.936807 Y7.373327 F200.000000
G1 X40.520842 Y7.173009 F200.000000
G1 X40.059156 F200.000000
G1 X39.643191 Y7.373327 F200.000000
G1 X39.355334 Y7.734288 F200.000000
G1 X39.252599 Y8.184399 F200.000000
G1 Y8.895599 F200.000000
G1 X39.355334 Y9.345710 F200.000000
G1 X39.540000 Y9.577274 F200.000000
G0 Z0.500000
G0 X41.039998
G1 Z-0.040000 F60.000000
G1 X41.224664 Y9.345710 F200.000000
G1 X41.237380 Y9.289998 F200.000000
G0 Z0.500000
G0 X36.712599 Y8.563258
G1 Z-0.040000 F60.000000
G1 Y8.895599 F200.000000
G1 X36.815334 Y9.345710 F200.000000
G1 X37.103191 Y9.706671 F200.000000
G1 X37.519156 Y9.906989 F200.000000
G1 X37.980842 F200.000000
G1 X38.396807 Y9.706671 F200.000000
G1 X38.684664 Y9.345710 F200.000000
G1 X38.787399 Y8.895599 F200.000000
G1 Y8.184399 F200.000000
G1 X38.684664 Y7.734288 F200.000000
G1 X38.396807 Y7.373327 F200.000000
G1 X37.980842 Y7.173009 F200.000000
G1 X37.519156 F200.000000
G1 X37.468204 Y7.197546 F200.000000
G0 Z0.500000
G0 X36.712599 Y16.183258
G1 Z-0.040000 F60.000000
G1 Y16.515599 F200.000000
G1 X36.815334 Y16.965710 F200.000000
G1 X37.103191 Y17.326671 F200.000000
G1 X37.519156 Y17.526989 F200.000000
G1 X37.980842 F200.000000
G1 X38.396807 Y17.326671 F200.000000
G1 X38.684664 Y16.965710 F200.000000
G1 X38.787399 Y16.515599 F200.000000
G1 Y15.804399 F200.000000
G1 X38.684664 Y15.354288 F200.000000
G1 X38.396807 Y14.993327 F200.000000
G1 X37.980842 Y14.793009 F200.000000
G1 X37.519156 F200.000000
G1 X37.468204 Y14.817546 F200.000000
G0 Z0.500000
G0 X41.039998 Y17.197274
G1 Z-0.040000 F60.000000
G1 X41.224664 Y16.965710 F200.000000
G1 X41.327399 Y16.515599 F200.000000
G1 Y15.804399 F200.000000
G1 X41.224664 Y15.354288 F200.000000
G1 X40.936807 Y14.993327 F200.000000
G1 X40.520842 Y14.793009 F200.000000
G1 X40.059156 F200.000000
G1 X39.643191 Y14.993327 F200.000000
G1 X39.355334 Y15.354288 F200.000000
G1 X39.252599 Y15.804399 F200.000000
G1 Y16.515599 F200.000000
G1 X39.355334 Y16.965710 F200.000000
G1 X39.540000 Y17.197274 F200.000000
G0 Z0.500000
G0 X43.579998 Y17.197274
G1 Z-0.040000 F60.000000
G1 X43.764664 Y16.965710 F200.000000
G1 X43.867399 Y16.515599 F200.000000
G1 Y15.804399 F200.000000
G1 X43.764664 Y15.354288 F200.000000
G1 X43.476807 Y14.993327 F200.000000
G1 X43.060842 Y14.793009 F200.000000
G1 X42.599156 F200.000000
G1 X42.183191 Y14.993327 F200.000000
G1 X41.895334 Y15.354288 F200.000000
G1 X41.792599 Y15.804399 F200.000000
G1 Y16.515599 F200.000000
G1 X41.895334 Y16.965710 F200.000000
G1 X42.080000 Y17.197274 F200.000000
G0 Z0.500000
G0 X44.332599 Y16.515599
G1 Z-0.040000 F60.000000
G1 X44.332599 F200.000000
G1 X44.435334 Y16.965710 F200.000000
G1 X44.723191 Y17.326671 F200.000000
G1 X45.139156 Y17.526989 F200.000000
G1 X45.600842 F200.000000
G1 X46.016807 Y17.326671 F200.000000
G1 X46.304664 Y16.965710 F200.000000
G1 X46.407399 Y16.515599 F200.000000
G1 Y15.804399 F200.000000
G1 X46.304664 Y15.354288 F200.000000
G1 X46.016807 Y14.993327 F200.000000
G1 X45.600842 Y14.793009 F200.000000
G1 X45.139156 F200.000000
G1 X44.723191 Y14.993327 F200.000000
G1 X44.435334 Y15.354288 F200.000000
G1 X44.332599 Y15.804399 F200.000000
G1 X44.332599 Y16.515599 F200.000000
G0 Z0.500000
G0 X48.694575 Y17.153916
G1 Z-0.040000 F60.000000
G1 X48.844664 Y16.965710 F200.000000
G1 X48.947399 Y16.515599 F200.000000
G1 Y15.804399 F200.000000
G1 X48.844664 Y15.354288 F200.000000
G1 X48.556807 Y14.993327 F200.000000
G1 X48.140842 Y14.793009 F200.000000
G1 X47.679156 F200.000000
G1 X47.263191 Y14.993327 F200.000000
G1 X46.975334 Y15.354288 F200.000000
G1 X46.872599 Y15.804399 F200.000000
G1 Y16.515599 F200.000000
G1 X46.975334 Y16.965710 F200.000000
G1 X47.160000 Y17.197274 F200.000000
G0 Z0.500000
G0 X51.234575 Y17.153916
G1 Z-0.040000 F60.000000
G1 X51.384664 Y16.965710 F200.000000
G1 X51.487399 Y16.515599 F200.000000
G1 Y15.804399 F200.000000
G1 X51.384664 Y15.354288 F200.000000
G1 X51.096807 Y14.993327 F200.000000
G1 X50.680842 Y14.793009 F200.000000
G1 X50.219156 F200.000000
G1 X49.803191 Y14.993327 F200.000000
G1 X49.515334 Y15.354288 F200.000000
G1 X49.412599 Y15.804399 F200.000000
G1 Y16.515599 F200.000000
G1 X49.515334 Y16.965710 F200.000000
G1 X49.700000 Y17.197274 F200.000000
G0 Z0.500000
G0 X53.937380 Y15.410000
G1 Z-0.040000 F60.000000
G1 X53.924664 Y15.354288 F200.000000
G1 X53.636807 Y14.993327 F200.000000
G1 X53.220842 Y14.793009 F200.000000
G1 X52.759156 F200.000000
G1 X52.343191 Y14.993327 F200.000000
G1 X52.055334 Y15.354288 F200.000000
G1 X51.952599 Y15.804399 F200.000000
G1 X51.952599 Y16.515599 F200.000000
G1 X51.952599 F200.000000
G1 X52.055334 Y16.965710 F200.000000
G1 X52.343191 Y17.326671 F200.000000
G1 X52.759156 Y17.526989 F200.000000
G1 X53.220842 F200.000000
G1 X53.636807 Y17.326671 F200.000000
G1 X53.924664 Y16.965710 F200.000000
G1 X53.937380 Y16.909998 F200.000000
G0 Z0.500000
G0 X14.538825 Y12.400216
G1 Z-0.040000 F60.000000
G1 X14.502708 Y12.422911 F200.000000
G1 X14.377672 Y12.436999 F200.000000
G1 X14.254999 Y12.464998 F200.000000
G1 X9.088501 F200.000000
G1 X8.674985 Y12.653845 F200.000000
G1 X8.145978 Y12.577785 F200.000000
G1 X7.742070 Y12.227797 F200.000000
G1 X7.591499 Y11.714999 F200.000000
G1 X7.742070 Y11.202201 F200.000000
G1 X8.145978 Y10.852213 F200.000000
G1 X8.674985 Y10.776153 F200.000000
G1 X9.088501 Y10.965000 F200.000000
G1 X13.842844 F200.000000
G1 X13.937691 Y10.580189 F200.000000
G1 X14.279045 Y10.194880 F200.000000
G1 X14.760362 Y10.012341 F200.000000
G1 X15.271377 Y10.074389 F200.000000
G1 X15.695022 Y10.366811 F200.000000
G1 X15.934247 Y10.822615 F200.000000
G1 Y11.337383 F200.000000
G1 X15.695022 Y11.793187 F200.000000
G1 X15.271377 Y12.085609 F200.000000
G1 X14.899948 Y12.130709 F200.000000
G1 X14.785328 Y12.245328 F200.000000
G1 X14.678787 Y12.312273 F200.000000
G1 X14.580411 Y12.390725 F200.000000
G1 X14.538825 Y12.400216 F200.000000
G0 Z0.500000
G0 X36.712599 Y8.563258
G1 Z-0.040000 F60.000000
G1 X36.169339 Y8.019998 F200.000000
G1 X30.678501 F200.000000
G1 X30.264985 Y8.208845 F200.000000
G1 X29.735978 Y8.132785 F200.000000
G1 X29.332070 Y7.782797 F200.000000
G1 X29.181499 Y7.269999 F200.000000
G1 X29.332070 Y6.757201 F200.000000
G1 X29.735978 Y6.407213 F200.000000
G1 X30.264985 Y6.331153 F200.000000
G1 X30.678501 Y6.520000 F200.000000
G1 X36.479999 F200.000000
G1 X36.602672 Y6.547999 F200.000000
G1 X36.727708 Y6.562087 F200.000000
G1 X36.763825 Y6.584782 F200.000000
G1 X36.805411 Y6.594273 F200.000000
G1 X36.903787 Y6.672725 F200.000000
G1 X37.010328 Y6.739670 F200.000000
G1 X37.468204 Y7.197546 F200.000000
G0 Z0.500000
G0 X27.915411 Y6.594273
G1 Z-0.040000 F60.000000
G1 X28.013787 Y6.672725 F200.000000
G1 X28.120328 Y6.739670 F200.000000
G1 X29.390328 Y8.009670 F200.000000
G1 X29.457273 Y8.116211 F200.000000
G1 X29.535725 Y8.214587 F200.000000
G1 X29.545216 Y8.256173 F200.000000
G1 X29.567911 Y8.292290 F200.000000
G1 X29.581999 Y8.417326 F200.000000
G1 X29.609998 Y8.539999 F200.000000
G1 Y9.060000 F200.000000
G1 X33.415815 F200.000000
G1 X33.545978 Y8.947213 F200.000000
G1 X34.074985 Y8.871153 F200.000000
G1 X34.561134 Y9.093171 F200.000000
G1 X34.850078 Y9.542776 F200.000000
G1 Y10.077222 F200.000000
G1 X34.689998 Y10.326312 F200.000000
G1 Y10.769339 F200.000000
G1 X35.520659 Y11.600000 F200.000000
G1 X38.709339 F200.000000
G1 X39.540000 Y10.769339 F200.000000
G1 Y9.577274 F200.000000
G0 Z0.500000
G0 X27.267380 Y16.680000
G1 Z-0.040000 F60.000000
G1 X33.190000 F200.000000
G1 Y15.444328 F200.000000
G1 X33.142070 Y15.402797 F200.000000
G1 X32.991499 Y14.889999 F200.000000
G1 X33.142070 Y14.377201 F200.000000
G1 X33.545978 Y14.027213 F200.000000
G1 X34.074985 Y13.951153 F200.000000
G1 X34.488501 Y14.140000 F200.000000
G1 X36.479999 F200.000000
G1 X36.602672 Y14.167999 F200.000000
G1 X36.727708 Y14.182087 F200.000000
G1 X36.763825 Y14.204782 F200.000000
G1 X36.805411 Y14.214273 F200.000000
G1 X36.903787 Y14.292725 F200.000000
G1 X37.010328 Y14.359670 F200.000000
G1 X37.468204 Y14.817546 F200.000000
G0 Z0.500000
G0 X40.615411 Y20.645725
G1 Z-0.040000 F60.000000
G1 X40.533025 Y20.664529 F200.000000
G1 X40.456889 Y20.701194 F200.000000
G1 X40.372385 F200.000000
G1 X40.289999 Y20.719998 F200.000000
G1 X39.769998 F200.000000
G1 Y25.570000 F200.000000
G1 X41.035815 F200.000000
G1 X41.165978 Y25.457213 F200.000000
G1 X41.694985 Y25.381153 F200.000000
G1 X42.108501 Y25.570000 F200.000000
G1 X46.639999 F200.000000
G1 X46.762672 Y25.597999 F200.000000
G1 X46.887708 Y25.612087 F200.000000
G1 X46.923825 Y25.634782 F200.000000
G0 Z0.500000
G0 Y25.634782
G1 Z-0.040000 F60.000000
G1 X46.965411 Y25.644273 F200.000000
G1 X47.063787 Y25.722725 F200.000000
G1 X47.170328 Y25.789670 F200.000000
G1 X50.400215 Y29.019556 F200.000000
G1 X50.703450 F200.000000
G1 X51.160154 Y29.239493 F200.000000
G1 X51.476203 Y29.635805 F200.000000
G1 X51.588999 Y30.129999 F200.000000
G1 X51.476203 Y30.624193 F200.000000
G1 X51.160154 Y31.020505 F200.000000
G1 X50.703450 Y31.240442 F200.000000
G1 X50.196548 F200.000000
G1 X49.739844 Y31.020505 F200.000000
G1 X49.423795 Y30.624193 F200.000000
G1 X49.310999 Y30.129999 F200.000000
G1 X49.325557 Y30.066216 F200.000000
G1 X46.329339 Y27.069998 F200.000000
G1 X42.108501 F200.000000
G1 X41.694985 Y27.258845 F200.000000
G1 X41.165978 Y27.182785 F200.000000
G1 X41.035815 Y27.069998 F200.000000
G1 X39.019999 Y27.069998 F200.000000
G1 X38.937613 Y27.051194 F200.000000
G1 X38.853109 Y27.051194 F200.000000
G1 X38.776973 Y27.014529 F200.000000
G1 X38.694587 Y26.995725 F200.000000
G1 X38.628518 Y26.943037 F200.000000
G1 X38.552382 Y26.906372 F200.000000
G1 X38.499695 Y26.840303 F200.000000
G1 X38.433626 Y26.787616 F200.000000
G1 X38.396961 Y26.711480 F200.000000
G1 X38.344273 Y26.645411 F200.000000
G1 X38.325469 Y26.563025 F200.000000
G1 X38.288804 Y26.486889 F200.000000
G1 Y26.402385 F200.000000
G1 X38.270000 Y26.319999 F200.000000
G1 Y20.719998 F200.000000
G0 Z0.500000
G0 X34.407616 Y18.016372
G1 Z-0.040000 F60.000000
G1 X34.331480 Y18.053037 F200.000000
G1 X34.265411 Y18.105725 F200.000000
G1 X34.183025 Y18.124529 F200.000000
G1 X34.106889 Y18.161194 F200.000000
G1 X34.022385 F200.000000
G1 X33.939999 Y18.179998 F200.000000
G1 X33.419998 F200.000000
G1 Y24.298830 F200.000000
G1 X33.421693 Y24.300000 F200.000000
G1 X35.690383 F200.000000
G1 X35.682070 Y24.292797 F200.000000
G1 X35.531499 Y23.779999 F200.000000
G1 X35.682070 Y23.267201 F200.000000
G1 X36.085978 Y22.917213 F200.000000
G1 X36.614985 Y22.841153 F200.000000
G1 X37.101134 Y23.063171 F200.000000
G1 X37.390078 Y23.512776 F200.000000
G1 Y24.047222 F200.000000
G1 X37.229998 Y24.296312 F200.000000
G1 Y25.049999 F200.000000
G1 Y25.803686 F200.000000
G1 X37.390078 Y26.052776 F200.000000
G1 Y26.587222 F200.000000
G1 X37.101134 Y27.036827 F200.000000
G1 X36.614985 Y27.258845 F200.000000
G1 X36.085978 Y27.182785 F200.000000
G1 X35.682070 Y26.832797 F200.000000
G1 X35.531499 Y26.319999 F200.000000
G1 X35.682070 Y25.807201 F200.000000
G1 X35.690383 Y25.799998 F200.000000
G1 X33.421693 Y25.799998 F200.000000
G1 X33.051377 Y26.055609 F200.000000
G1 X32.679948 Y26.100709 F200.000000
G1 X25.580328 Y33.200328 F200.000000
G1 X25.473787 Y33.267273 F200.000000
G1 X25.375411 Y33.345725 F200.000000
G1 X25.333825 Y33.355216 F200.000000
G1 X25.297708 Y33.377911 F200.000000
G1 X25.172672 Y33.391999 F200.000000
G1 X25.049999 Y33.419998 F200.000000
G1 X16.159999 F200.000000
G0 Z0.500000
G0 X43.537911 Y21.487708
G1 Z-0.040000 F60.000000
G1 X43.515216 Y21.523825 F200.000000
G1 X43.505725 Y21.565411 F200.000000
G1 X43.427273 Y21.663787 F200.000000
G1 X43.360328 Y21.770328 F200.000000
G1 X42.309998 Y22.820659 F200.000000
G1 Y23.263686 F200.000000
G1 X42.470078 Y23.512776 F200.000000
G1 Y24.047222 F200.000000
G1 X42.181134 Y24.496827 F200.000000
G1 X41.694985 Y24.718845 F200.000000
G1 X41.165978 Y24.642785 F200.000000
G1 X40.762070 Y24.292797 F200.000000
G1 X40.611499 Y23.779999 F200.000000
G1 X40.762070 Y23.267201 F200.000000
G1 X40.810000 Y23.225670 F200.000000
G1 Y22.509999 F200.000000
G1 X40.837999 Y22.387326 F200.000000
G1 X40.852087 Y22.262290 F200.000000
G1 X40.874782 Y22.226173 F200.000000
G1 X40.884273 Y22.184587 F200.000000
G1 X40.962725 Y22.086211 F200.000000
G1 X41.029670 Y21.979670 F200.000000
G1 X42.080000 Y20.929339 F200.000000
G1 Y19.969999 F200.000000
G1 Y19.969999 F200.000000
G1 Y19.969999 F200.000000
G1 Y17.197274 F200.000000
G0 Z0.500000
G0 X17.950000 Y8.772724
G1 Z-0.040000 F60.000000
G1 Y8.019998 F200.000000
G1 X15.641693 Y8.019998 F200.000000
G1 X15.271377 Y8.275609 F200.000000
G1 X14.760362 Y8.337657 F200.000000
G1 X14.279045 Y8.155118 F200.000000
G1 X13.937691 Y7.769809 F200.000000
G1 X13.814499 Y7.269999 F200.000000
G1 X13.937691 Y6.770189 F200.000000
G1 X14.279045 Y6.384880 F200.000000
G1 X14.760362 Y6.202341 F200.000000
G1 X15.271377 Y6.264389 F200.000000
G1 X15.641693 Y6.520000 F200.000000
G1 X27.589999 Y6.520000 F200.000000
G1 X27.712672 Y6.547999 F200.000000
G1 X27.837708 Y6.562087 F200.000000
G1 X27.873825 Y6.584782 F200.000000
G1 X27.915411 Y6.594273 F200.000000
G0 Z0.500000
G0 X17.182290 Y20.677911
G1 Z-0.040000 F60.000000
G1 X17.146173 Y20.655216 F200.000000
G1 X17.104587 Y20.645725 F200.000000
G1 X17.006211 Y20.567273 F200.000000
G1 X16.899670 Y20.500328 F200.000000
G1 X15.849339 Y19.449998 F200.000000
G1 X15.641693 F200.000000
G1 X15.271377 Y19.705609 F200.000000
G1 X14.760362 Y19.767657 F200.000000
G1 X14.279045 Y19.585118 F200.000000
G1 X13.937691 Y19.199809 F200.000000
G1 X13.814499 Y18.699999 F200.000000
G1 X13.937691 Y18.200189 F200.000000
G1 X14.279045 Y17.814880 F200.000000
G1 X14.760362 Y17.632341 F200.000000
G1 X15.271377 Y17.694389 F200.000000
G1 X15.641693 Y17.950000 F200.000000
G1 X16.159999 F200.000000
G1 X16.282672 Y17.977999 F200.000000
G1 X16.407708 Y17.992087 F200.000000
G1 X16.443825 Y18.014782 F200.000000
G1 X16.485411 Y18.024273 F200.000000
G1 X16.583787 Y18.102725 F200.000000
G1 X16.690328 Y18.169670 F200.000000
G1 X17.740659 Y19.220000 F200.000000
G1 X20.490000 F200.000000
G1 Y18.467274 F200.000000
G0 Z0.500000
G0 X24.529998
G1 Z-0.040000 F60.000000
G1 Y21.758830 F200.000000
G1 X24.585022 Y21.796811 F200.000000
G1 X24.824247 Y22.252615 F200.000000
G1 Y22.493588 F200.000000
G1 X25.580328 Y23.249670 F200.000000
G1 X25.647273 Y23.356211 F200.000000
G1 X25.725725 Y23.454587 F200.000000
G1 X25.735216 Y23.496173 F200.000000
G1 X25.757911 Y23.532290 F200.000000
G1 X25.771999 Y23.657326 F200.000000
G1 X25.799998 Y23.779999 F200.000000
G1 Y24.298830 F200.000000
G1 X25.855022 Y24.336811 F200.000000
G1 X26.094247 Y24.792615 F200.000000
G1 Y25.307383 F200.000000
G1 X25.855022 Y25.763187 F200.000000
G1 X25.431377 Y26.055609 F200.000000
G1 X24.920362 Y26.117657 F200.000000
G1 X24.439045 Y25.935118 F200.000000
G1 X24.097691 Y25.549809 F200.000000
G1 X23.974499 Y25.049999 F200.000000
G1 X24.097691 Y24.550189 F200.000000
G1 X24.300000 Y24.321830 F200.000000
G1 Y24.090659 F200.000000
G1 X23.772204 Y23.562863 F200.000000
G1 X23.650362 Y23.577657 F200.000000
G1 X23.169045 Y23.395118 F200.000000
G1 X22.827691 Y23.009809 F200.000000
G1 X22.704499 Y22.509999 F200.000000
G1 X22.827691 Y22.010189 F200.000000
G1 X23.030000 Y21.781830 F200.000000
G1 Y18.467274 F200.000000
G0 Z0.500000
G0 X17.992087 Y14.642290
G1 Z-0.040000 F60.000000
G1 X18.014782 Y14.606173 F200.000000
G1 X18.024273 Y14.564587 F200.000000
G1 X18.102725 Y14.466211 F200.000000
G1 X18.169670 Y14.359670 F200.000000
G1 X19.439670 Y13.089670 F200.000000
G1 X19.546211 Y13.022725 F200.000000
G1 X19.644587 Y12.944273 F200.000000
G1 X19.686173 Y12.934782 F200.000000
G1 X19.722290 Y12.912087 F200.000000
G1 X19.847326 Y12.897999 F200.000000
G1 X19.969999 Y12.870000 F200.000000
G1 X29.340383 Y12.870000 F200.000000
G1 X29.332070 Y12.862797 F200.000000
G1 X29.181499 Y12.349999 F200.000000
G1 X29.332070 Y11.837201 F200.000000
G1 X29.735978 Y11.487213 F200.000000
G1 X30.264985 Y11.411153 F200.000000
G1 X30.751134 Y11.633171 F200.000000
G1 X31.040078 Y12.082776 F200.000000
G1 Y12.617222 F200.000000
G1 X30.879998 Y12.866312 F200.000000
G1 Y13.619999 F200.000000
G1 Y14.138830 F200.000000
G1 X30.935022 Y14.176811 F200.000000
G1 X31.174247 Y14.632615 F200.000000
G1 Y15.147383 F200.000000
G1 X30.935022 Y15.603187 F200.000000
G1 X30.511377 Y15.895609 F200.000000
G1 X30.000362 Y15.957657 F200.000000
G1 X29.519045 Y15.775118 F200.000000
G1 X29.177691 Y15.389809 F200.000000
G1 X29.054499 Y14.889999 F200.000000
G1 X29.177691 Y14.390189 F200.000000
G1 X29.195579 Y14.369998 F200.000000
G1 X20.280659 F200.000000
G1 X19.449998 Y15.200659 F200.000000
G1 Y16.036999 F200.000000
G1 X19.737399 F200.000000
G1 Y18.822999 F200.000000
G1 X17.662599 F200.000000
G1 Y16.036999 F200.000000
G1 X17.950000 F200.000000
G1 Y14.889999 F200.000000
G1 X17.977999 Y14.767326 F200.000000
G1 X17.992087 Y14.642290 F200.000000
G0 Z0.500000
G0 X38.270000 Y20.719998
G1 Z-0.040000 F60.000000
G1 X37.302205 Y20.719998 F200.000000
G1 X37.190154 Y20.860505 F200.000000
G1 X36.733450 Y21.080442 F200.000000
G1 X36.226548 F200.000000
G1 X35.769844 Y20.860505 F200.000000
G1 X35.453795 Y20.464193 F200.000000
G1 X35.340999 Y19.969999 F200.000000
G1 X35.453795 Y19.475805 F200.000000
G1 X35.769844 Y19.079493 F200.000000
G1 X36.226548 Y18.859556 F200.000000
G1 X36.733450 F200.000000
G1 X37.190154 Y19.079493 F200.000000
G1 X37.302205 Y19.220000 F200.000000
G1 X39.540000 Y19.220000 F200.000000
G1 Y17.197274 F200.000000
G0 Z0.500000
G0 X45.964273 Y21.565411
G1 Z-0.040000 F60.000000
G1 X45.954782 Y21.523825 F200.000000
G1 X45.932087 Y21.487708 F200.000000
G1 X45.917999 Y21.362672 F200.000000
G1 X45.890000 Y21.239999 F200.000000
G1 Y20.810542 F200.000000
G1 X45.817793 Y20.719998 F200.000000
G1 X43.579998 Y20.719998 F200.000000
G1 Y21.239999 F200.000000
G1 X43.551999 Y21.362672 F200.000000
G1 X43.537911 Y21.487708 F200.000000
G0 Z0.500000
G0 X21.989998 Y18.467274
G1 Z-0.040000 F60.000000
G1 X22.174664 Y18.235710 F200.000000
G1 X22.277399 Y17.785599 F200.000000
G1 Y17.074399 F200.000000
G1 X22.174664 Y16.624288 F200.000000
G1 X21.886807 Y16.263327 F200.000000
G1 X21.470842 Y16.063009 F200.000000
G1 X21.009156 F200.000000
G1 X20.593191 Y16.263327 F200.000000
G1 X20.305334 Y16.624288 F200.000000
G1 X20.202599 Y17.074399 F200.000000
G1 Y17.785599 F200.000000
G1 X20.305334 Y18.235710 F200.000000
G1 X20.490000 Y18.467274 F200.000000
G0 Z0.500000
G0 X24.529998
G1 Z-0.040000 F60.000000
G1 X24.714664 Y18.235710 F200.000000
G1 X24.817399 Y17.785599 F200.000000
G1 Y17.074399 F200.000000
G1 X24.714664 Y16.624288 F200.000000
G1 X24.426807 Y16.263327 F200.000000
G1 X24.010842 Y16.063009 F200.000000
G1 X23.549156 F200.000000
G1 X23.133191 Y16.263327 F200.000000
G1 X22.845334 Y16.624288 F200.000000
G1 X22.742599 Y17.074399 F200.000000
G1 Y17.785599 F200.000000
G1 X22.845334 Y18.235710 F200.000000
G1 X23.030000 Y18.467274 F200.000000
G0 Z0.500000
G0 X27.267380 Y16.680000
G1 Z-0.040000 F60.000000
G1 X27.254664 Y16.624288 F200.000000
G1 X26.966807 Y16.263327 F200.000000
G1 X26.550842 Y16.063009 F200.000000
G1 X26.089156 F200.000000
G1 X25.673191 Y16.263327 F200.000000
G1 X25.385334 Y16.624288 F200.000000
G1 X25.282599 Y17.074399 F200.000000
G1 Y17.785599 F200.000000
G1 X25.385334 Y18.235710 F200.000000
G1 X25.673191 Y18.596671 F200.000000
G1 X26.089156 Y18.796989 F200.000000
G1 X26.550842 F200.000000
G1 X26.966807 Y18.596671 F200.000000
G1 X27.254664 Y18.235710 F200.000000
G1 X27.267380 Y18.179998 F200.000000
G0 Z0.500000
G0 X25.282599 Y10.165599
G1 Z-0.040000 F60.000000
G1 X25.385334 Y10.615710 F200.000000
G1 X25.673191 Y10.976671 F200.000000
G1 X26.089156 Y11.176989 F200.000000
G1 X26.550842 F200.000000
G1 X26.966807 Y10.976671 F200.000000
G1 X27.254664 Y10.615710 F200.000000
G1 X27.357399 Y10.165599 F200.000000
G1 Y9.454399 F200.000000
G1 X27.254664 Y9.004288 F200.000000
G1 X26.966807 Y8.643327 F200.000000
G1 X26.550842 Y8.443009 F200.000000
G1 X26.089156 F200.000000
G1 X25.673191 Y8.643327 F200.000000
G1 X25.385334 Y9.004288 F200.000000
G1 X25.282599 Y9.454399 F200.000000
G1 Y10.165599 F200.000000
G0 Z0.500000
G0 X22.742599
G1 Z-0.040000 F60.000000
G1 X22.845334 Y10.615710 F200.000000
G1 X23.133191 Y10.976671 F200.000000
G1 X23.549156 Y11.176989 F200.000000
G1 X24.010842 F200.000000
G1 X24.426807 Y10.976671 F200.000000
G1 X24.714664 Y10.615710 F200.000000
G1 X24.817399 Y10.165599 F200.000000
G1 Y9.454399 F200.000000
G1 X24.714664 Y9.004288 F200.000000
G1 X24.426807 Y8.643327 F200.000000
G1 X24.010842 Y8.443009 F200.000000
G1 X23.549156 F200.000000
G1 X23.133191 Y8.643327 F200.000000
G1 X22.845334 Y9.004288 F200.000000
G1 X22.742599 Y9.454399 F200.000000
G1 Y10.165599 F200.000000
G0 Z0.500000
G0 X20.202599
G1 Z-0.040000 F60.000000
G1 X20.305334 Y10.615710 F200.000000
G1 X20.593191 Y10.976671 F200.000000
G1 X21.009156 Y11.176989 F200.000000
G1 X21.470842 F200.000000
G1 X21.886807 Y10.976671 F200.000000
G1 X22.174664 Y10.615710 F200.000000
G1 X22.277399 Y10.165599 F200.000000
G1 Y9.454399 F200.000000
G1 X22.174664 Y9.004288 F200.000000
G1 X21.886807 Y8.643327 F200.000000
G1 X21.470842 Y8.443009 F200.000000
G1 X21.009156 F200.000000
G1 X20.593191 Y8.643327 F200.000000
G1 X20.305334 Y9.004288 F200.000000
G1 X20.202599 Y9.454399 F200.000000
G1 Y10.165599 F200.000000
G0 Z0.500000
G0 X17.950000 Y8.772724
G1 Z-0.040000 F60.000000
G1 X17.765334 Y9.004288 F200.000000
G1 X17.662599 Y9.454399 F200.000000
G1 Y10.165599 F200.000000
G1 X17.765334 Y10.615710 F200.000000
G1 X17.915423 Y10.803916 F200.000000
G0 Z0.500000
G0 X19.449998 Y10.847274
G1 Z-0.040000 F60.000000
G1 X19.634664 Y10.615710 F200.000000
G1 X19.737399 Y10.165599 F200.000000
G1 Y9.454399 F200.000000
G1 X19.634664 Y9.004288 F200.000000
G1 X19.449998 Y8.772724 F200.000000
G0 Z0.500000
G0 X43.579998 Y17.197274
G1 Z-0.040000 F60.000000
G1 Y19.220000 F200.000000
G1 X45.817793 Y19.220000 F200.000000
G1 X45.929844 Y19.079493 F200.000000
G1 X46.386548 Y18.859556 F200.000000
G1 X46.893450 F200.000000
G1 X47.350154 Y19.079493 F200.000000
G1 X47.666203 Y19.475805 F200.000000
G1 X47.778999 Y19.969999 F200.000000
G1 X47.666203 Y20.464193 F200.000000
G1 X47.389998 Y20.810542 F200.000000
G1 Y20.929339 F200.000000
G1 X50.400215 Y23.939556 F200.000000
G1 X50.703450 F200.000000
G1 X51.160154 Y24.159493 F200.000000
G1 X51.476203 Y24.555805 F200.000000
G1 X51.588999 Y25.049999 F200.000000
G1 X51.476203 Y25.544193 F200.000000
G1 X51.160154 Y25.940505 F200.000000
G1 X50.703450 Y26.160442 F200.000000
G1 X50.196548 F200.000000
G1 X49.739844 Y25.940505 F200.000000
G1 X49.423795 Y25.544193 F200.000000
G1 X49.310999 Y25.049999 F200.000000
G1 X49.325557 Y24.986216 F200.000000
G1 X46.109670 Y21.770328 F200.000000
G1 X46.042725 Y21.663787 F200.000000
G1 X45.964273 Y21.565411 F200.000000
G0 Z0.500000
G0 X16.159999 Y33.419998
G1 Z-0.040000 F60.000000
G1 X16.037326 Y33.391999 F200.000000
G1 X15.912290 Y33.377911 F200.000000
G1 X15.876173 Y33.355216 F200.000000
G1 X15.834587 Y33.345725 F200.000000
G1 X15.736211 Y33.267273 F200.000000
G1 X15.629670 Y33.200328 F200.000000
G1 X14.359670 Y31.930328 F200.000000
G1 X14.292725 Y31.823787 F200.000000
G1 X14.214273 Y31.725411 F200.000000
G1 X14.204782 Y31.683825 F200.000000
G1 X14.182087 Y31.647708 F200.000000
G1 X14.167999 Y31.522672 F200.000000
G1 X14.140000 Y31.399999 F200.000000
G1 Y30.168181 F200.000000
G1 X14.058638 Y30.132492 F200.000000
G1 X13.690505 Y29.793602 F200.000000
G1 X13.452357 Y29.353542 F200.000000
G1 X13.369999 Y28.859999 F200.000000
G1 X13.435688 Y28.466347 F200.000000
G1 X9.551999 Y24.582658 F200.000000
G1 Y24.791999 F200.000000
G1 X7.527999 F200.000000
G1 Y22.767999 F200.000000
G1 X9.551999 F200.000000
G1 Y23.030000 F200.000000
G1 X9.809999 F200.000000
G1 X9.932672 Y23.057999 F200.000000
G1 X10.057708 Y23.072087 F200.000000
G1 X10.093825 Y23.094782 F200.000000
G1 X10.135411 Y23.104273 F200.000000
G1 X10.233787 Y23.182725 F200.000000
G1 X10.340328 Y23.249670 F200.000000
G1 X14.489271 Y27.398613 F200.000000
G1 X14.516861 Y27.386511 F200.000000
G1 X15.015520 Y27.345191 F200.000000
G1 X15.500576 Y27.468024 F200.000000
G1 X15.919467 Y27.741699 F200.000000
G1 X16.226799 Y28.136559 F200.000000
G1 X16.389268 Y28.609815 F200.000000
G1 Y29.110183 F200.000000
G1 X16.226799 Y29.583439 F200.000000
G1 X15.919467 Y29.978299 F200.000000
G1 X15.639998 Y30.160886 F200.000000
G1 Y31.089339 F200.000000
G1 X16.470659 Y31.920000 F200.000000
G1 X24.739339 F200.000000
G1 X31.597434 Y25.061906 F200.000000
G1 X31.594499 Y25.049999 F200.000000
G1 X31.717691 Y24.550189 F200.000000
G1 X31.920000 Y24.321830 F200.000000
G1 Y18.179998 F200.000000
G1 X27.267380 F200.000000
G0 Z0.500000
G0 X53.937380 Y15.410000
G1 Z-0.040000 F60.000000
G1 X58.707580 Y15.410000 F200.000000
G1 X58.833999 Y15.283581 F200.000000
G1 X59.339999 Y15.147999 F200.000000
G1 X59.845999 Y15.283581 F200.000000
G1 X60.216417 Y15.653999 F200.000000
G1 X60.351999 Y16.159999 F200.000000
G1 X60.216417 Y16.665999 F200.000000
G1 X59.845999 Y17.036417 F200.000000
G1 X59.339999 Y17.171999 F200.000000
G1 X58.833999 Y17.036417 F200.000000
G1 X58.707580 Y16.909998 F200.000000
G1 X53.937380 Y16.909998 F200.000000
G0 Z0.500000
G0 X41.039998 Y9.577274
G1 Z-0.040000 F60.000000
G1 Y11.079999 F200.000000
G1 X41.011999 Y11.202672 F200.000000
G1 X40.997911 Y11.327708 F200.000000
G1 X40.975216 Y11.363825 F200.000000
G1 X40.965725 Y11.405411 F200.000000
G1 X40.887273 Y11.503787 F200.000000
G1 X40.820328 Y11.610328 F200.000000
G1 X39.550328 Y12.880328 F200.000000
G1 X39.443787 Y12.947273 F200.000000
G1 X39.345411 Y13.025725 F200.000000
G1 X39.303825 Y13.035216 F200.000000
G1 X39.267708 Y13.057911 F200.000000
G1 X39.142672 Y13.071999 F200.000000
G1 X39.019999 Y13.099998 F200.000000
G1 X35.209999 F200.000000
G1 X35.087326 Y13.071999 F200.000000
G1 X34.962290 Y13.057911 F200.000000
G1 X34.926173 Y13.035216 F200.000000
G1 X34.884587 Y13.025725 F200.000000
G1 X34.786211 Y12.947273 F200.000000
G1 X34.679670 Y12.880328 F200.000000
G1 X33.409670 Y11.610328 F200.000000
G1 X33.342725 Y11.503787 F200.000000
G1 X33.264273 Y11.405411 F200.000000
G1 X33.254782 Y11.363825 F200.000000
G1 X33.232087 Y11.327708 F200.000000
G1 X33.217999 Y11.202672 F200.000000
G1 X33.190000 Y11.079999 F200.000000
G1 Y10.559998 F200.000000
G1 X28.859999 F200.000000
G1 X28.777613 Y10.541194 F200.000000
G1 X28.693109 F200.000000
G1 X28.616973 Y10.504529 F200.000000
G1 X28.534587 Y10.485725 F200.000000
G1 X28.468518 Y10.433037 F200.000000
G1 X28.392382 Y10.396372 F200.000000
G1 X28.339695 Y10.330303 F200.000000
G1 X28.273626 Y10.277616 F200.000000
G1 X28.236961 Y10.201480 F200.000000
G1 X28.184273 Y10.135411 F200.000000
G1 X28.165469 Y10.053025 F200.000000
G1 X28.128804 Y9.976889 F200.000000
G1 Y9.892385 F200.000000
G1 X28.110000 Y9.809999 F200.000000
G1 Y8.850659 F200.000000
G1 X27.279339 Y8.019998 F200.000000
G1 X19.449998 F200.000000
G1 Y8.772724 F200.000000
G0 Z0.500000
G0 Y10.847274
G1 Z-0.040000 F60.000000
G1 Y11.079999 F200.000000
G1 X19.421999 Y11.202672 F200.000000
G1 X19.407911 Y11.327708 F200.000000
G1 X19.385216 Y11.363825 F200.000000
G1 X19.375725 Y11.405411 F200.000000
G1 X19.297273 Y11.503787 F200.000000
G1 X19.230328 Y11.610328 F200.000000
G1 X13.099998 Y17.740659 F200.000000
G1 Y19.659339 F200.000000
G1 X15.200659 Y21.760000 F200.000000
G1 X15.429339 Y21.760000 F200.000000
G1 X15.549045 Y21.624880 F200.000000
G1 X16.030362 Y21.442341 F200.000000
G1 X16.541377 Y21.504389 F200.000000
G1 X16.965022 Y21.796811 F200.000000
G1 X17.204247 Y22.252615 F200.000000
G1 Y22.767383 F200.000000
G1 X16.965022 Y23.223187 F200.000000
G1 X16.909998 Y23.261168 F200.000000
G1 Y24.739339 F200.000000
G1 X19.510658 Y27.339999 F200.000000
G1 X21.489999 F200.000000
G1 Y30.379999 F200.000000
G1 X18.449999 F200.000000
G1 Y28.400658 F200.000000
G1 X15.629670 Y25.580328 F200.000000
G1 X15.562725 Y25.473787 F200.000000
G1 X15.484273 Y25.375411 F200.000000
G1 X15.474782 Y25.333825 F200.000000
G1 X15.452087 Y25.297708 F200.000000
G1 X15.437999 Y25.172672 F200.000000
G1 X15.410000 Y25.049999 F200.000000
G1 Y23.259998 F200.000000
G1 X14.889999 F200.000000
G1 X14.767326 Y23.231999 F200.000000
G1 X14.642290 Y23.217911 F200.000000
G1 X14.606173 Y23.195216 F200.000000
G1 X14.564587 Y23.185725 F200.000000
G1 X14.466211 Y23.107273 F200.000000
G1 X14.359670 Y23.040328 F200.000000
G1 X11.819670 Y20.500328 F200.000000
G1 X11.752725 Y20.393787 F200.000000
G1 X11.674273 Y20.295411 F200.000000
G1 X11.664782 Y20.253825 F200.000000
G1 X11.642087 Y20.217708 F200.000000
G1 X11.627999 Y20.092672 F200.000000
G1 X11.600000 Y19.969999 F200.000000
G1 Y17.429999 F200.000000
G1 X11.627999 Y17.307326 F200.000000
G1 X11.642087 Y17.182290 F200.000000
G1 X11.664782 Y17.146173 F200.000000
G1 X11.674273 Y17.104587 F200.000000
G1 X11.752725 Y17.006211 F200.000000
G1 X11.819670 Y16.899670 F200.000000
G1 X17.915423 Y10.803916 F200.000000
G0 Z0.500000
G0 X46.962618 Y9.289998
G1 Z-0.040000 F60.000000
G1 X46.317380 F200.000000
G0 Z0.500000
G0 Y7.790000
G1 Z-0.040000 F60.000000
G1 X46.962618 F200.000000
G0 Z0.500000
G0 X44.422618 Y9.289998
G1 Z-0.040000 F60.000000
G1 X43.777380 F200.000000
G0 Z0.500000
G0 Y7.790000
G1 Z-0.040000 F60.000000
G1 X44.422618 F200.000000
G0 Z0.500000
G0 X41.882618 Y9.289998
G1 Z-0.040000 F60.000000
G1 X41.237380 F200.000000
G0 Z0.500000
G0 Y7.790000
G1 Z-0.040000 F60.000000
G1 X41.882618 F200.000000
G0 Z0.500000
G0 X36.712599 Y16.183258
G1 Z-0.040000 F60.000000
G1 X36.169339 Y15.639998 F200.000000
G1 X34.689998 F200.000000
G1 Y17.429999 F200.000000
G1 X34.671194 Y17.512385 F200.000000
G1 Y17.596889 F200.000000
G1 X34.634529 Y17.673025 F200.000000
G1 X34.615725 Y17.755411 F200.000000
G1 X34.563037 Y17.821480 F200.000000
G1 X34.526372 Y17.897616 F200.000000
G1 X34.460303 Y17.950303 F200.000000
G1 X34.407616 Y18.016372 F200.000000
G0 Z0.500000
G0 X48.694575 Y17.153916
G1 Z-0.040000 F60.000000
G1 X52.030659 Y20.490000 F200.000000
G1 X58.707580 Y20.490000 F200.000000
G1 X58.833999 Y20.363581 F200.000000
G1 X59.339999 Y20.227999 F200.000000
G1 X59.845999 Y20.363581 F200.000000
G1 X60.216417 Y20.733999 F200.000000
G1 X60.351999 Y21.239999 F200.000000
G1 X60.216417 Y21.745999 F200.000000
G1 X59.845999 Y22.116417 F200.000000
G1 X59.339999 Y22.251999 F200.000000
G1 X58.833999 Y22.116417 F200.000000
G1 X58.707580 Y21.989998 F200.000000
G1 X51.719999 Y21.989998 F200.000000
G1 X51.597326 Y21.961999 F200.000000
G1 X51.472290 Y21.947911 F200.000000
G1 X51.436173 Y21.925216 F200.000000
G1 X51.394587 Y21.915725 F200.000000
G1 X51.296211 Y21.837273 F200.000000
G1 X51.189670 Y21.770328 F200.000000
G1 X47.379670 Y17.960328 F200.000000
G1 X47.312725 Y17.853787 F200.000000
G1 X47.234273 Y17.755411 F200.000000
G1 X47.224782 Y17.713825 F200.000000
G1 X47.202087 Y17.677708 F200.000000
G1 X47.187999 Y17.552672 F200.000000
G1 X47.160000 Y17.429999 F200.000000
G1 Y17.197274 F200.000000
G0 Z0.500000
G0 X5.469670 Y14.150328
G1 Z-0.040000 F60.000000
G1 X5.402725 Y14.043787 F200.000000
G1 X5.324273 Y13.945411 F200.000000
G1 X5.314782 Y13.903825 F200.000000
G1 X5.292087 Y13.867708 F200.000000
G1 X5.277999 Y13.742672 F200.000000
G1 X5.250000 Y13.619999 F200.000000
G1 Y8.539999 F200.000000
G1 X5.277999 Y8.417326 F200.000000
G1 X5.292087 Y8.292290 F200.000000
G1 X5.314782 Y8.256173 F200.000000
G1 X5.324273 Y8.214587 F200.000000
G1 X5.402725 Y8.116211 F200.000000
G1 X5.469670 Y8.009670 F200.000000
G1 X6.197434 Y7.281906 F200.000000
G1 X6.194499 Y7.269999 F200.000000
G1 X6.317691 Y6.770189 F200.000000
G1 X6.659045 Y6.384880 F200.000000
G1 X7.140362 Y6.202341 F200.000000
G1 X7.651377 Y6.264389 F200.000000
G1 X8.075022 Y6.556811 F200.000000
G1 X8.314247 Y7.012615 F200.000000
G1 Y7.527383 F200.000000
G1 X8.075022 Y7.983187 F200.000000
G1 X7.651377 Y8.275609 F200.000000
G1 X7.279948 Y8.320709 F200.000000
G1 X6.749998 Y8.850659 F200.000000
G1 Y13.309339 F200.000000
G1 X8.017158 Y14.576499 F200.000000
G1 X9.488499 F200.000000
G1 Y16.473499 F200.000000
G1 X9.289998 F200.000000
G1 Y20.607580 F200.000000
G1 X9.416417 Y20.733999 F200.000000
G1 X9.551999 Y21.239999 F200.000000
G1 X9.416417 Y21.745999 F200.000000
G1 X9.045999 Y22.116417 F200.000000
G1 X8.539999 Y22.251999 F200.000000
G1 X8.033999 Y22.116417 F200.000000
G1 X7.663581 Y21.745999 F200.000000
G1 X7.527999 Y21.239999 F200.000000
G1 X7.663581 Y20.733999 F200.000000
G1 X7.790000 Y20.607580 F200.000000
G1 Y16.473499 F200.000000
G1 X7.591499 F200.000000
G1 Y16.203444 F200.000000
G1 X7.579587 Y16.200725 F200.000000
G1 X7.481211 Y16.122273 F200.000000
G1 X7.374670 Y16.055328 F200.000000
G1 X5.469670 Y14.150328 F200.000000
G0 Z0.500000
G0 X30.879998 Y13.619999
G1 Z-0.040000 F60.000000
G1 Y13.619999 F200.000000
G1 Y13.619999 F200.000000
G0 Z0.500000
G0 X21.989998 Y18.467274
G1 Z-0.040000 F60.000000
G1 Y19.969999 F200.000000
G1 X21.971194 Y20.052385 F200.000000
G1 Y20.136889 F200.000000
G1 X21.934529 Y20.213025 F200.000000
G1 X21.915725 Y20.295411 F200.000000
G1 X21.863037 Y20.361480 F200.000000
G1 X21.826372 Y20.437616 F200.000000
G1 X21.760303 Y20.490303 F200.000000
G1 X21.707616 Y20.556372 F200.000000
G1 X21.631480 Y20.593037 F200.000000
G1 X21.565411 Y20.645725 F200.000000
G1 X21.483025 Y20.664529 F200.000000
G1 X21.406889 Y20.701194 F200.000000
G1 X21.322385 F200.000000
G1 X21.239999 Y20.719998 F200.000000
G1 X20.719998 F200.000000
G1 Y23.469339 F200.000000
G1 X24.090659 Y26.840000 F200.000000
G1 X26.009339 F200.000000
G1 X29.380000 Y23.469339 F200.000000
G1 Y23.238168 F200.000000
G1 X29.177691 Y23.009809 F200.000000
G1 X29.054499 Y22.509999 F200.000000
G1 X29.177691 Y22.010189 F200.000000
G1 X29.519045 Y21.624880 F200.000000
G1 X30.000362 Y21.442341 F200.000000
G1 X30.511377 Y21.504389 F200.000000
G1 X30.935022 Y21.796811 F200.000000
G1 X31.174247 Y22.252615 F200.000000
G1 Y22.767383 F200.000000
G1 X30.935022 Y23.223187 F200.000000
G1 X30.879998 Y23.261168 F200.000000
G1 Y23.779999 F200.000000
G1 X30.851999 Y23.902672 F200.000000
G1 X30.837911 Y24.027708 F200.000000
G1 X30.815216 Y24.063825 F200.000000
G1 X30.805725 Y24.105411 F200.000000
G1 X30.727273 Y24.203787 F200.000000
G1 X30.660328 Y24.310328 F200.000000
G1 X26.850328 Y28.120328 F200.000000
G1 X26.743787 Y28.187273 F200.000000
G1 X26.645411 Y28.265725 F200.000000
G1 X26.603825 Y28.275216 F200.000000
G1 X26.567708 Y28.297911 F200.000000
G1 X26.442672 Y28.311999 F200.000000
G1 X26.319999 Y28.339998 F200.000000
G1 X23.779999 F200.000000
G1 X23.657326 Y28.311999 F200.000000
G1 X23.532290 Y28.297911 F200.000000
G1 X23.496173 Y28.275216 F200.000000
G1 X23.454587 Y28.265725 F200.000000
G1 X23.356211 Y28.187273 F200.000000
G1 X23.249670 Y28.120328 F200.000000
G1 X19.439670 Y24.310328 F200.000000
G1 X19.372725 Y24.203787 F200.000000
G1 X19.294273 Y24.105411 F200.000000
G1 X19.284782 Y24.063825 F200.000000
G1 X19.262087 Y24.027708 F200.000000
G1 X19.247999 Y23.902672 F200.000000
G1 X19.220000 Y23.779999 F200.000000
G1 Y20.719998 F200.000000
G1 X17.429999 F200.000000
G1 X17.307326 Y20.691999 F200.000000
G1 X17.182290 Y20.677911 F200.000000
G0 Z0.500000
G0 X41.039998 Y17.197274
G1 Z-0.040000 F60.000000
G1 Y19.969999 F200.000000
G1 X41.021194 Y20.052385 F200.000000
G1 Y20.136889 F200.000000
G1 X40.984529 Y20.213025 F200.000000
G1 X40.965725 Y20.295411 F200.000000
G1 X40.913037 Y20.361480 F200.000000
G1 X40.876372 Y20.437616 F200.000000
G1 X40.810303 Y20.490303 F200.000000
G1 X40.757616 Y20.556372 F200.000000
G1 X40.681480 Y20.593037 F200.000000
G1 X40.615411 Y20.645725 F200.000000
G0 Z0.500000
G0 X51.234575 Y17.153916
G1 Z-0.040000 F60.000000
G1 X52.030659 Y17.950000 F200.000000
G1 X58.707580 F200.000000
G1 X58.833999 Y17.823581 F200.000000
G1 X59.339999 Y17.687999 F200.000000
G1 X59.845999 Y17.823581 F200.000000
G1 X60.216417 Y18.193999 F200.000000
G1 X60.351999 Y18.699999 F200.000000
G1 X60.216417 Y19.205999 F200.000000
G1 X59.845999 Y19.576417 F200.000000
G1 X59.339999 Y19.711999 F200.000000
G1 X58.833999 Y19.576417 F200.000000
G1 X58.707580 Y19.449998 F200.000000
G1 X51.719999 Y19.449998 F200.000000
G1 X51.597326 Y19.421999 F200.000000
G1 X51.472290 Y19.407911 F200.000000
G1 X51.436173 Y19.385216 F200.000000
G1 X51.394587 Y19.375725 F200.000000
G1 X51.296211 Y19.297273 F200.000000
G1 X51.189670 Y19.230328 F200.000000
G1 X49.919670 Y17.960328 F200.000000
G1 X49.852725 Y17.853787 F200.000000
G1 X49.774273 Y17.755411 F200.000000
G1 X49.764782 Y17.713825 F200.000000
G1 X49.742087 Y17.677708 F200.000000
G1 X49.727999 Y17.552672 F200.000000
G1 X49.700000 Y17.429999 F200.000000
G1 Y17.197274 F200.000000
G0 Z0.500000
G0 Y7.502724
G1 Z-0.040000 F60.000000
G1 Y5.999999 F200.000000
G1 X49.718804 Y5.917613 F200.000000
G1 Y5.833109 F200.000000
G1 X49.755469 Y5.756973 F200.000000
G1 X49.774273 Y5.674587 F200.000000
G1 X49.826961 Y5.608518 F200.000000
G1 X49.863626 Y5.532382 F200.000000
G1 X49.929695 Y5.479695 F200.000000
G1 X49.982382 Y5.413626 F200.000000
G1 X50.058518 Y5.376961 F200.000000
G1 X50.124587 Y5.324273 F200.000000
G1 X50.206973 Y5.305469 F200.000000
G1 X50.283109 Y5.268804 F200.000000
G1 X50.367613 F200.000000
G1 X50.449999 Y5.250000 F200.000000
G1 X55.529999 F200.000000
G1 X55.652672 Y5.277999 F200.000000
G1 X55.777708 Y5.292087 F200.000000
G1 X55.813825 Y5.314782 F200.000000
G1 X55.855411 Y5.324273 F200.000000
G1 X55.953787 Y5.402725 F200.000000
G1 X56.060328 Y5.469670 F200.000000
G1 X59.870328 Y9.279670 F200.000000
G1 X59.937273 Y9.386211 F200.000000
G1 X60.015725 Y9.484587 F200.000000
G1 X60.025216 Y9.526173 F200.000000
G1 X60.047911 Y9.562290 F200.000000
G1 X60.061999 Y9.687326 F200.000000
G1 X60.089998 Y9.809999 F200.000000
G1 Y10.067999 F200.000000
G1 X60.351999 F200.000000
G1 Y12.091999 F200.000000
G1 X58.327999 F200.000000
G1 Y10.067999 F200.000000
G1 X58.537340 F200.000000
G1 X55.219339 Y6.749998 F200.000000
G1 X51.199998 F200.000000
G1 Y7.502724 F200.000000

(Goto to Initial position)
G0 Z0.500000
G0 X0.000000 Y0.000000
G0 Z0.000000
