(Generated by ./pygerber2gcode_cui_MOD.py )
( 2013-06-06 17:09:39 )
(Initialize)

(Start form here)
G0 Z0.500000
G0 X52.601091 Y10.198907
G1 Z-0.040000 F60.000000
G1 X52.551999 Y10.120777 F200.000000
G1 X52.494467 Y10.048635 F200.000000
G1 X52.487506 Y10.018138 F200.000000
G1 X52.470864 Y9.991652 F200.000000
G1 X52.460533 Y9.899959 F200.000000
G1 X52.440000 Y9.809999 F200.000000
G1 Y9.732999 F200.000000
G1 X52.152599 F200.000000
G1 Y7.346999 F200.000000
G1 X53.827399 F200.000000
G1 Y9.732999 F200.000000
G1 X53.690815 F200.000000
G1 X57.027816 Y13.070000 F200.000000
G1 X58.783164 F200.000000
G1 X59.089077 Y12.847741 F200.000000
G1 X59.590921 F200.000000
G1 X59.996921 Y13.142717 F200.000000
G1 X60.151999 Y13.619999 F200.000000
G1 X59.996921 Y14.097281 F200.000000
G1 X59.590921 Y14.392257 F200.000000
G1 X59.089077 F200.000000
G1 X58.783164 Y14.169998 F200.000000
G1 X56.799999 F200.000000
G1 X56.710039 Y14.149465 F200.000000
G1 X56.618346 Y14.139134 F200.000000
G1 X56.591860 Y14.122492 F200.000000
G1 X56.561363 Y14.115531 F200.000000
G1 X56.489221 Y14.057999 F200.000000
G1 X56.411091 Y14.008907 F200.000000
G1 X52.601091 Y10.198907 F200.000000
G0 Z0.500000
G0 X49.900000 Y7.564665
G1 Z-0.040000 F60.000000
G1 X49.695528 Y7.821065 F200.000000
G1 X49.612599 Y8.184399 F200.000000
G1 Y8.895599 F200.000000
G1 X49.695528 Y9.258933 F200.000000
G1 X49.927889 Y9.550305 F200.000000
G1 X50.263660 Y9.712004 F200.000000
G1 X50.636338 F200.000000
G1 X50.972109 Y9.550305 F200.000000
G1 X51.204470 Y9.258933 F200.000000
G1 X51.287399 Y8.895599 F200.000000
G1 Y8.184399 F200.000000
G1 X51.204470 Y7.821065 F200.000000
G1 X50.999998 Y7.564665 F200.000000
G0 Z0.500000
G0 X47.116969 Y9.089998
G1 Z-0.040000 F60.000000
G1 X47.155528 Y9.258933 F200.000000
G1 X47.387889 Y9.550305 F200.000000
G1 X47.723660 Y9.712004 F200.000000
G1 X48.096338 F200.000000
G1 X48.432109 Y9.550305 F200.000000
G1 X48.664470 Y9.258933 F200.000000
G1 X48.747399 Y8.895599 F200.000000
G1 Y8.184399 F200.000000
G1 X48.664470 Y7.821065 F200.000000
G1 X48.432109 Y7.529693 F200.000000
G1 X48.096338 Y7.367994 F200.000000
G1 X47.723660 F200.000000
G1 X47.387889 Y7.529693 F200.000000
G1 X47.155528 Y7.821065 F200.000000
G1 X47.116969 Y7.990000 F200.000000
G0 Z0.500000
G0 X44.576969 Y9.089998
G1 Z-0.040000 F60.000000
G1 X44.615528 Y9.258933 F200.000000
G1 X44.847889 Y9.550305 F200.000000
G1 X45.183660 Y9.712004 F200.000000
G1 X45.556338 F200.000000
G1 X45.892109 Y9.550305 F200.000000
G1 X46.124470 Y9.258933 F200.000000
G1 X46.163029 Y9.089998 F200.000000
G0 Z0.500000
G0 X46.163029 Y7.990000
G1 Z-0.040000 F60.000000
G1 X46.124470 Y7.821065 F200.000000
G1 X45.892109 Y7.529693 F200.000000
G1 X45.556338 Y7.367994 F200.000000
G1 X45.183660 F200.000000
G1 X44.847889 Y7.529693 F200.000000
G1 X44.615528 Y7.821065 F200.000000
G1 X44.576969 Y7.990000 F200.000000
G0 Z0.500000
G0 X42.036969 Y9.089998
G1 Z-0.040000 F60.000000
G1 X42.075528 Y9.258933 F200.000000
G1 X42.307889 Y9.550305 F200.000000
G1 X42.643660 Y9.712004 F200.000000
G1 X43.016338 F200.000000
G1 X43.352109 Y9.550305 F200.000000
G1 X43.584470 Y9.258933 F200.000000
G1 X43.623029 Y9.089998 F200.000000
G0 Z0.500000
G0 Y7.990000
G1 Z-0.040000 F60.000000
G1 X43.584470 Y7.821065 F200.000000
G1 X43.352109 Y7.529693 F200.000000
G1 X43.016338 Y7.367994 F200.000000
G1 X42.643660 F200.000000
G1 X42.307889 Y7.529693 F200.000000
G1 X42.075528 Y7.821065 F200.000000
G1 X42.036969 Y7.990000 F200.000000
G0 Z0.500000
G0 X41.083029
G1 Z-0.040000 F60.000000
G1 X41.044470 Y7.821065 F200.000000
G1 X40.812109 Y7.529693 F200.000000
G1 X40.476338 Y7.367994 F200.000000
G1 X40.103660 F200.000000
G1 X39.767889 Y7.529693 F200.000000
G1 X39.535528 Y7.821065 F200.000000
G1 X39.452599 Y8.184399 F200.000000
G1 Y8.895599 F200.000000
G1 X39.535528 Y9.258933 F200.000000
G1 X39.740000 Y9.515333 F200.000000
G0 Z0.500000
G0 X40.839998 Y9.515333
G1 Z-0.040000 F60.000000
G1 X41.044470 Y9.258933 F200.000000
G1 X41.083029 Y9.089998 F200.000000
G0 Z0.500000
G0 X36.912599 Y8.480415
G1 Z-0.040000 F60.000000
G1 Y8.895599 F200.000000
G1 X36.995528 Y9.258933 F200.000000
G1 X37.227889 Y9.550305 F200.000000
G1 X37.563660 Y9.712004 F200.000000
G1 X37.936338 F200.000000
G1 X38.272109 Y9.550305 F200.000000
G1 X38.504470 Y9.258933 F200.000000
G1 X38.587399 Y8.895599 F200.000000
G1 Y8.184399 F200.000000
G1 X38.504470 Y7.821065 F200.000000
G1 X38.272109 Y7.529693 F200.000000
G1 X37.936338 Y7.367994 F200.000000
G1 X37.563660 F200.000000
G1 X37.423370 Y7.435554 F200.000000
G0 Z0.500000
G0 X36.912599 Y16.100415
G1 Z-0.040000 F60.000000
G1 Y16.515599 F200.000000
G1 X36.995528 Y16.878933 F200.000000
G1 X37.227889 Y17.170305 F200.000000
G1 X37.563660 Y17.332004 F200.000000
G1 X37.936338 F200.000000
G1 X38.272109 Y17.170305 F200.000000
G1 X38.504470 Y16.878933 F200.000000
G1 X38.587399 Y16.515599 F200.000000
G1 Y15.804399 F200.000000
G1 X38.504470 Y15.441065 F200.000000
G1 X38.272109 Y15.149693 F200.000000
G1 X37.936338 Y14.987994 F200.000000
G1 X37.563660 F200.000000
G1 X37.423370 Y15.055554 F200.000000
G0 Z0.500000
G0 X40.839998 Y17.135333
G1 Z-0.040000 F60.000000
G1 X41.044470 Y16.878933 F200.000000
G1 X41.127399 Y16.515599 F200.000000
G1 Y15.804399 F200.000000
G1 X41.044470 Y15.441065 F200.000000
G1 X40.812109 Y15.149693 F200.000000
G1 X40.476338 Y14.987994 F200.000000
G1 X40.103660 F200.000000
G1 X39.767889 Y15.149693 F200.000000
G1 X39.535528 Y15.441065 F200.000000
G1 X39.452599 Y15.804399 F200.000000
G1 Y16.515599 F200.000000
G1 X39.535528 Y16.878933 F200.000000
G1 X39.740000 Y17.135333 F200.000000
G0 Z0.500000
G0 X43.379998
G1 Z-0.040000 F60.000000
G1 X43.584470 Y16.878933 F200.000000
G1 X43.667399 Y16.515599 F200.000000
G1 Y15.804399 F200.000000
G1 X43.584470 Y15.441065 F200.000000
G1 X43.352109 Y15.149693 F200.000000
G1 X43.016338 Y14.987994 F200.000000
G1 X42.643660 F200.000000
G1 X42.307889 Y15.149693 F200.000000
G1 X42.075528 Y15.441065 F200.000000
G1 X41.992599 Y15.804399 F200.000000
G1 Y16.515599 F200.000000
G1 X42.075528 Y16.878933 F200.000000
G1 X42.280000 Y17.135333 F200.000000
G0 Z0.500000
G0 X44.532599 Y16.515599
G1 Z-0.040000 F60.000000
G1 X44.615528 Y16.878933 F200.000000
G1 X44.847889 Y17.170305 F200.000000
G1 X45.183660 Y17.332004 F200.000000
G1 X45.556338 F200.000000
G1 X45.892109 Y17.170305 F200.000000
G1 X46.124470 Y16.878933 F200.000000
G1 X46.207399 Y16.515599 F200.000000
G1 Y15.804399 F200.000000
G1 X46.124470 Y15.441065 F200.000000
G1 X45.892109 Y15.149693 F200.000000
G1 X45.556338 Y14.987994 F200.000000
G1 X45.183660 F200.000000
G1 X44.847889 Y15.149693 F200.000000
G1 X44.615528 Y15.441065 F200.000000
G1 X44.532599 Y15.804399 F200.000000
G1 Y16.515599 F200.000000
G0 Z0.500000
G0 X48.459998 Y17.135333
G1 Z-0.040000 F60.000000
G1 X48.664470 Y16.878933 F200.000000
G1 X48.747399 Y16.515599 F200.000000
G1 Y15.804399 F200.000000
G1 X48.664470 Y15.441065 F200.000000
G1 X48.432109 Y15.149693 F200.000000
G1 X48.096338 Y14.987994 F200.000000
G1 X47.723660 F200.000000
G1 X47.387889 Y15.149693 F200.000000
G1 X47.155528 Y15.441065 F200.000000
G1 X47.072599 Y15.804399 F200.000000
G1 Y16.515599 F200.000000
G1 X47.155528 Y16.878933 F200.000000
G1 X47.360000 Y17.135333 F200.000000
G0 Z0.500000
G0 X50.999998 Y17.135333
G1 Z-0.040000 F60.000000
G1 X51.204470 Y16.878933 F200.000000
G1 X51.287399 Y16.515599 F200.000000
G1 Y15.804399 F200.000000
G1 X51.204470 Y15.441065 F200.000000
G1 X50.972109 Y15.149693 F200.000000
G1 X50.636338 Y14.987994 F200.000000
G1 X50.263660 F200.000000
G1 X49.927889 Y15.149693 F200.000000
G1 X49.695528 Y15.441065 F200.000000
G1 X49.612599 Y15.804399 F200.000000
G1 Y16.515599 F200.000000
G1 X49.695528 Y16.878933 F200.000000
G1 X49.900000 Y17.135333 F200.000000
G0 Z0.500000
G0 X53.783029 Y15.610000
G1 Z-0.040000 F60.000000
G1 X53.744470 Y15.441065 F200.000000
G1 X53.512109 Y15.149693 F200.000000
G1 X53.176338 Y14.987994 F200.000000
G1 X52.803660 F200.000000
G1 X52.467889 Y15.149693 F200.000000
G1 X52.235528 Y15.441065 F200.000000
G1 X52.152599 Y15.804399 F200.000000
G1 Y16.515599 F200.000000
G1 X52.235528 Y16.878933 F200.000000
G1 X52.467889 Y17.170305 F200.000000
G1 X52.803660 Y17.332004 F200.000000
G1 X53.176338 F200.000000
G1 X53.512109 Y17.170305 F200.000000
G1 X53.744470 Y16.878933 F200.000000
G1 X53.783029 Y16.709998 F200.000000
G0 Z0.500000
G0 X14.463138 Y12.217492
G1 Z-0.040000 F60.000000
G1 X14.436652 Y12.234134 F200.000000
G1 X14.344959 Y12.244465 F200.000000
G1 X14.254999 Y12.264998 F200.000000
G1 X8.996666 Y12.264998 F200.000000
G1 X8.914249 Y12.363219 F200.000000
G1 X8.410023 Y12.452128 F200.000000
G1 X7.966615 Y12.196126 F200.000000
G1 X7.791499 Y11.714999 F200.000000
G1 X7.966615 Y11.233872 F200.000000
G1 X8.410023 Y10.977870 F200.000000
G1 X8.914249 Y11.066779 F200.000000
G1 X8.996666 Y11.165000 F200.000000
G1 X14.027182 F200.000000
G1 X14.036671 Y11.155511 F200.000000
G1 X14.014499 Y11.079999 F200.000000
G1 X14.153482 Y10.606668 F200.000000
G1 X14.526303 Y10.283616 F200.000000
G1 X15.014596 Y10.213410 F200.000000
G1 X15.463330 Y10.418340 F200.000000
G1 X15.730035 Y10.833342 F200.000000
G1 Y11.326656 F200.000000
G1 X15.463330 Y11.741658 F200.000000
G1 X15.014596 Y11.946588 F200.000000
G1 X14.828048 Y11.919766 F200.000000
G1 X14.643907 Y12.103907 F200.000000
G1 X14.565777 Y12.152999 F200.000000
G1 X14.493635 Y12.210531 F200.000000
G1 X14.463138 Y12.217492 F200.000000
G0 Z0.500000
G0 X36.912599 Y8.480415
G1 Z-0.040000 F60.000000
G1 X36.252182 Y7.819998 F200.000000
G1 X30.586666 Y7.819998 F200.000000
G1 X30.504249 Y7.918219 F200.000000
G1 X30.000023 Y8.007128 F200.000000
G1 X29.556615 Y7.751126 F200.000000
G1 X29.381499 Y7.269999 F200.000000
G1 X29.556615 Y6.788872 F200.000000
G1 X30.000023 Y6.532870 F200.000000
G1 X30.504249 Y6.621779 F200.000000
G1 X30.586666 Y6.720000 F200.000000
G1 X36.479999 F200.000000
G1 X36.569959 Y6.740533 F200.000000
G1 X36.661652 Y6.750864 F200.000000
G1 X36.688138 Y6.767506 F200.000000
G1 X36.718635 Y6.774467 F200.000000
G1 X36.790777 Y6.831999 F200.000000
G1 X36.868907 Y6.881091 F200.000000
G1 X37.423370 Y7.435554 F200.000000
G0 Z0.500000
G0 X27.828635 Y6.774467
G1 Z-0.040000 F60.000000
G1 X27.900777 Y6.831999 F200.000000
G1 X27.978907 Y6.881091 F200.000000
G1 X29.248907 Y8.151091 F200.000000
G1 X29.297999 Y8.229221 F200.000000
G1 X29.355531 Y8.301363 F200.000000
G1 X29.362492 Y8.331860 F200.000000
G1 X29.379134 Y8.358346 F200.000000
G1 X29.389465 Y8.450039 F200.000000
G1 X29.409998 Y8.539999 F200.000000
G1 Y9.260000 F200.000000
G1 X33.485905 F200.000000
G1 X33.810023 Y9.072870 F200.000000
G1 X34.314249 Y9.161779 F200.000000
G1 X34.643359 Y9.553997 F200.000000
G1 Y10.066001 F200.000000
G1 X34.489998 Y10.248770 F200.000000
G1 Y10.852182 F200.000000
G1 X35.437816 Y11.800000 F200.000000
G1 X38.792182 Y11.800000 F200.000000
G1 X39.740000 Y10.852182 F200.000000
G1 Y9.515333 F200.000000
G0 Z0.500000
G0 X27.113029 Y16.880000
G1 Z-0.040000 F60.000000
G1 X33.390000 F200.000000
G1 Y15.384627 F200.000000
G1 X33.366615 Y15.371126 F200.000000
G1 X33.191499 Y14.889999 F200.000000
G1 X33.366615 Y14.408872 F200.000000
G1 X33.810023 Y14.152870 F200.000000
G1 X34.314249 Y14.241779 F200.000000
G1 X34.396666 Y14.340000 F200.000000
G1 X36.479999 F200.000000
G1 X36.569959 Y14.360533 F200.000000
G1 X36.661652 Y14.370864 F200.000000
G1 X36.688138 Y14.387506 F200.000000
G1 X36.718635 Y14.394467 F200.000000
G1 X36.790777 Y14.451999 F200.000000
G1 X36.868907 Y14.501091 F200.000000
G1 X37.423370 Y15.055554 F200.000000
G0 Z0.500000
G0 X40.528635 Y20.465531
G1 Z-0.040000 F60.000000
G1 X40.468218 Y20.479321 F200.000000
G1 X40.412385 Y20.506208 F200.000000
G1 X40.350415 Y20.506208 F200.000000
G1 X40.289999 Y20.519998 F200.000000
G1 X39.569998 F200.000000
G1 Y25.770000 F200.000000
G1 X41.105905 Y25.770000 F200.000000
G1 X41.430023 Y25.582870 F200.000000
G1 X41.934249 Y25.671779 F200.000000
G1 X42.016666 Y25.770000 F200.000000
G1 X46.639999 Y25.770000 F200.000000
G1 X46.729959 Y25.790533 F200.000000
G1 X46.821652 Y25.800864 F200.000000
G1 X46.848138 Y25.817506 F200.000000
G0 Z0.500000
G1 Z-0.040000 F60.000000
G1 X46.878635 Y25.824467 F200.000000
G1 X46.950777 Y25.881999 F200.000000
G1 X47.028907 Y25.931091 F200.000000
G1 X50.334231 Y29.236415 F200.000000
G1 X50.583633 Y29.200557 F200.000000
G1 X51.064913 Y29.420350 F200.000000
G1 X51.350963 Y29.865452 F200.000000
G1 Y30.394546 F200.000000
G1 X51.064913 Y30.839648 F200.000000
G1 X50.583633 Y31.059441 F200.000000
G1 X50.059924 Y30.984143 F200.000000
G1 X49.660062 Y30.637661 F200.000000
G1 X49.510999 Y30.129999 F200.000000
G1 X49.547584 Y30.005400 F200.000000
G1 X46.412182 Y26.869998 F200.000000
G1 X42.016666 Y26.869998 F200.000000
G1 X41.934249 Y26.968219 F200.000000
G1 X41.430023 Y27.057128 F200.000000
G1 X41.105905 Y26.869998 F200.000000
G1 X39.019999 Y26.869998 F200.000000
G1 X38.959583 Y26.856208 F200.000000
G1 X38.897613 F200.000000
G1 X38.841780 Y26.829321 F200.000000
G1 X38.781363 Y26.815531 F200.000000
G1 X38.732913 Y26.776893 F200.000000
G1 X38.677080 Y26.750006 F200.000000
G1 X38.638443 Y26.701555 F200.000000
G1 X38.589992 Y26.662918 F200.000000
G1 X38.563105 Y26.607085 F200.000000
G1 X38.524467 Y26.558635 F200.000000
G1 X38.510677 Y26.498218 F200.000000
G1 X38.483790 Y26.442385 F200.000000
G1 Y26.380415 F200.000000
G1 X38.470000 Y26.319999 F200.000000
G1 Y20.519998 F200.000000
G0 Z0.500000
G0 X34.282918 Y17.860006
G1 Z-0.040000 F60.000000
G1 X34.227085 Y17.886893 F200.000000
G1 X34.178635 Y17.925531 F200.000000
G1 X34.118218 Y17.939321 F200.000000
G1 X34.062385 Y17.966208 F200.000000
G1 X34.000415 F200.000000
G1 X33.939999 Y17.979998 F200.000000
G1 X33.219998 F200.000000
G1 Y24.377685 F200.000000
G1 X33.243330 Y24.388340 F200.000000
G1 X33.315089 Y24.500000 F200.000000
G1 X35.930000 Y24.500000 F200.000000
G1 Y24.274627 F200.000000
G1 X35.906615 Y24.261126 F200.000000
G1 X35.731499 Y23.779999 F200.000000
G1 X35.906615 Y23.298872 F200.000000
G1 X36.350023 Y23.042870 F200.000000
G1 X36.854249 Y23.131779 F200.000000
G1 X37.183359 Y23.523997 F200.000000
G1 Y24.036001 F200.000000
G1 X37.029998 Y24.218770 F200.000000
G1 Y25.049999 F200.000000
G1 Y25.881228 F200.000000
G1 X37.183359 Y26.063997 F200.000000
G1 Y26.576001 F200.000000
G1 X36.854249 Y26.968219 F200.000000
G1 X36.350023 Y27.057128 F200.000000
G1 X35.906615 Y26.801126 F200.000000
G1 X35.731499 Y26.319999 F200.000000
G1 X35.906615 Y25.838872 F200.000000
G1 X35.930000 Y25.825371 F200.000000
G1 Y25.599998 F200.000000
G1 X33.315089 Y25.599998 F200.000000
G1 X33.243330 Y25.711658 F200.000000
G1 X32.794596 Y25.916588 F200.000000
G1 X32.608048 Y25.889766 F200.000000
G1 X25.438907 Y33.058907 F200.000000
G1 X25.360777 Y33.107999 F200.000000
G1 X25.288635 Y33.165531 F200.000000
G1 X25.258138 Y33.172492 F200.000000
G1 X25.231652 Y33.189134 F200.000000
G1 X25.139959 Y33.199465 F200.000000
G1 X25.049999 Y33.219998 F200.000000
G1 X16.159999 F200.000000
G0 Z0.500000
G0 X43.349134 Y21.421652
G1 Z-0.040000 F60.000000
G1 X43.332492 Y21.448138 F200.000000
G1 X43.325531 Y21.478635 F200.000000
G1 X43.267999 Y21.550777 F200.000000
G1 X43.218907 Y21.628907 F200.000000
G1 X42.109998 Y22.737816 F200.000000
G1 Y23.341228 F200.000000
G1 X42.263359 Y23.523997 F200.000000
G1 Y24.036001 F200.000000
G1 X41.934249 Y24.428219 F200.000000
G1 X41.430023 Y24.517128 F200.000000
G1 X40.986615 Y24.261126 F200.000000
G1 X40.811499 Y23.779999 F200.000000
G1 X40.986615 Y23.298872 F200.000000
G1 X41.010000 Y23.285371 F200.000000
G1 Y22.509999 F200.000000
G1 X41.030533 Y22.420039 F200.000000
G1 X41.040864 Y22.328346 F200.000000
G1 X41.057506 Y22.301860 F200.000000
G1 X41.064467 Y22.271363 F200.000000
G1 X41.121999 Y22.199221 F200.000000
G1 X41.171091 Y22.121091 F200.000000
G1 X42.280000 Y21.012182 F200.000000
G1 Y19.969999 F200.000000
G1 Y19.969999 F200.000000
G1 Y19.969999 F200.000000
G1 Y17.135333 F200.000000
G0 Z0.500000
G0 X18.150000 Y8.834665
G1 Z-0.040000 F60.000000
G1 Y7.819998 F200.000000
G1 X15.535089 Y7.819998 F200.000000
G1 X15.463330 Y7.931658 F200.000000
G1 X15.014596 Y8.136588 F200.000000
G1 X14.526303 Y8.066382 F200.000000
G1 X14.153482 Y7.743330 F200.000000
G1 X14.014499 Y7.269999 F200.000000
G1 X14.153482 Y6.796668 F200.000000
G1 X14.526303 Y6.473616 F200.000000
G1 X15.014596 Y6.403410 F200.000000
G1 X15.463330 Y6.608340 F200.000000
G1 X15.535089 Y6.720000 F200.000000
G1 X27.589999 Y6.720000 F200.000000
G1 X27.679959 Y6.740533 F200.000000
G1 X27.771652 Y6.750864 F200.000000
G1 X27.798138 Y6.767506 F200.000000
G1 X27.828635 Y6.774467 F200.000000
G0 Z0.500000
G0 X17.248346 Y20.489134
G1 Z-0.040000 F60.000000
G1 X17.221860 Y20.472492 F200.000000
G1 X17.191363 Y20.465531 F200.000000
G1 X17.119221 Y20.407999 F200.000000
G1 X17.041091 Y20.358907 F200.000000
G1 X15.932182 Y19.249998 F200.000000
G1 X15.535089 Y19.249998 F200.000000
G1 X15.463330 Y19.361658 F200.000000
G1 X15.014596 Y19.566588 F200.000000
G1 X14.526303 Y19.496382 F200.000000
G1 X14.153482 Y19.173330 F200.000000
G1 X14.014499 Y18.699999 F200.000000
G1 X14.153482 Y18.226668 F200.000000
G1 X14.526303 Y17.903616 F200.000000
G1 X15.014596 Y17.833410 F200.000000
G1 X15.463330 Y18.038340 F200.000000
G1 X15.535089 Y18.150000 F200.000000
G1 X16.159999 Y18.150000 F200.000000
G1 X16.249959 Y18.170533 F200.000000
G1 X16.341652 Y18.180864 F200.000000
G1 X16.368138 Y18.197506 F200.000000
G1 X16.398635 Y18.204467 F200.000000
G1 X16.470777 Y18.261999 F200.000000
G1 X16.548907 Y18.311091 F200.000000
G1 X17.657816 Y19.420000 F200.000000
G1 X20.690000 F200.000000
G1 Y18.405333 F200.000000
G0 Z0.500000
G0 X24.329998 Y18.405333
G1 Z-0.040000 F60.000000
G1 Y21.837685 F200.000000
G1 X24.353330 Y21.848340 F200.000000
G1 X24.620035 Y22.263342 F200.000000
G1 Y22.572219 F200.000000
G1 X25.438907 Y23.391091 F200.000000
G1 X25.487999 Y23.469221 F200.000000
G1 X25.545531 Y23.541363 F200.000000
G1 X25.552492 Y23.571860 F200.000000
G1 X25.569134 Y23.598346 F200.000000
G1 X25.579465 Y23.690039 F200.000000
G1 X25.599998 Y23.779999 F200.000000
G1 Y24.377685 F200.000000
G1 X25.623330 Y24.388340 F200.000000
G1 X25.890035 Y24.803342 F200.000000
G1 Y25.296656 F200.000000
G1 X25.623330 Y25.711658 F200.000000
G1 X25.174596 Y25.916588 F200.000000
G1 X24.686303 Y25.846382 F200.000000
G1 X24.313482 Y25.523330 F200.000000
G1 X24.174499 Y25.049999 F200.000000
G1 X24.313482 Y24.576668 F200.000000
G1 X24.500000 Y24.415049 F200.000000
G1 Y24.007816 F200.000000
G1 X23.862756 Y23.370572 F200.000000
G1 X23.416303 Y23.306382 F200.000000
G1 X23.043482 Y22.983330 F200.000000
G1 X22.904499 Y22.509999 F200.000000
G1 X23.043482 Y22.036668 F200.000000
G1 X23.230000 Y21.875049 F200.000000
G1 Y18.405333 F200.000000
G0 Z0.500000
G0 X38.470000 Y20.519998
G1 Z-0.040000 F60.000000
G1 X37.197514 Y20.519998 F200.000000
G1 X37.094913 Y20.679648 F200.000000
G1 X36.613633 Y20.899441 F200.000000
G1 X36.089924 Y20.824143 F200.000000
G1 X35.690062 Y20.477661 F200.000000
G1 X35.540999 Y19.969999 F200.000000
G1 X35.690062 Y19.462337 F200.000000
G1 X36.089924 Y19.115855 F200.000000
G1 X36.613633 Y19.040557 F200.000000
G1 X37.094913 Y19.260350 F200.000000
G1 X37.197514 Y19.420000 F200.000000
G1 X39.740000 F200.000000
G1 Y17.135333 F200.000000
G0 Z0.500000
G0 X46.144467 Y21.478635
G1 Z-0.040000 F60.000000
G1 X46.137506 Y21.448138 F200.000000
G1 X46.120864 Y21.421652 F200.000000
G1 X46.110533 Y21.329959 F200.000000
G1 X46.090000 Y21.239999 F200.000000
G1 Y20.685568 F200.000000
G1 X45.898922 Y20.519998 F200.000000
G1 X43.379998 Y20.519998 F200.000000
G1 Y21.239999 F200.000000
G1 X43.359465 Y21.329959 F200.000000
G1 X43.349134 Y21.421652 F200.000000
G0 Z0.500000
G0 X18.180864 Y14.708346
G1 Z-0.040000 F60.000000
G1 X18.197506 Y14.681860 F200.000000
G1 X18.204467 Y14.651363 F200.000000
G1 X18.261999 Y14.579221 F200.000000
G1 X18.311091 Y14.501091 F200.000000
G1 X19.581091 Y13.231091 F200.000000
G1 X19.659221 Y13.181999 F200.000000
G1 X19.731363 Y13.124467 F200.000000
G1 X19.761860 Y13.117506 F200.000000
G1 X19.788346 Y13.100864 F200.000000
G1 X19.880039 Y13.090533 F200.000000
G1 X19.969999 Y13.070000 F200.000000
G1 X29.580000 F200.000000
G1 Y12.844627 F200.000000
G1 X29.556615 Y12.831126 F200.000000
G1 X29.381499 Y12.349999 F200.000000
G1 X29.556615 Y11.868872 F200.000000
G1 X30.000023 Y11.612870 F200.000000
G1 X30.504249 Y11.701779 F200.000000
G1 X30.833359 Y12.093997 F200.000000
G1 Y12.606001 F200.000000
G1 X30.679998 Y12.788770 F200.000000
G1 Y13.619999 F200.000000
G1 Y14.217685 F200.000000
G1 X30.703330 Y14.228340 F200.000000
G1 X30.970035 Y14.643342 F200.000000
G1 Y15.136656 F200.000000
G1 X30.703330 Y15.551658 F200.000000
G1 X30.254596 Y15.756588 F200.000000
G1 X29.766303 Y15.686382 F200.000000
G1 X29.393482 Y15.363330 F200.000000
G1 X29.254499 Y14.889999 F200.000000
G1 X29.393482 Y14.416668 F200.000000
G1 X29.580000 Y14.255049 F200.000000
G1 Y14.169998 F200.000000
G1 X20.197816 F200.000000
G1 X19.249998 Y15.117816 F200.000000
G1 Y16.236999 F200.000000
G1 X19.537399 F200.000000
G1 Y18.622999 F200.000000
G1 X17.862599 F200.000000
G1 Y16.236999 F200.000000
G1 X18.150000 F200.000000
G1 Y14.889999 F200.000000
G1 X18.170533 Y14.800039 F200.000000
G1 X18.180864 Y14.708346 F200.000000
G0 Z0.500000
G0 X21.789998 Y18.405333
G1 Z-0.040000 F60.000000
G1 X21.994470 Y18.148933 F200.000000
G1 X22.077399 Y17.785599 F200.000000
G1 Y17.074399 F200.000000
G1 X21.994470 Y16.711065 F200.000000
G1 X21.762109 Y16.419693 F200.000000
G1 X21.426338 Y16.257994 F200.000000
G1 X21.053660 F200.000000
G1 X20.717889 Y16.419693 F200.000000
G1 X20.485528 Y16.711065 F200.000000
G1 X20.402599 Y17.074399 F200.000000
G1 Y17.785599 F200.000000
G1 X20.485528 Y18.148933 F200.000000
G1 X20.690000 Y18.405333 F200.000000
G0 Z0.500000
G0 X24.329998 Y18.405333
G1 Z-0.040000 F60.000000
G1 X24.534470 Y18.148933 F200.000000
G1 X24.617399 Y17.785599 F200.000000
G1 Y17.074399 F200.000000
G1 X24.534470 Y16.711065 F200.000000
G1 X24.302109 Y16.419693 F200.000000
G1 X23.966338 Y16.257994 F200.000000
G1 X23.593660 F200.000000
G1 X23.257889 Y16.419693 F200.000000
G1 X23.025528 Y16.711065 F200.000000
G1 X22.942599 Y17.074399 F200.000000
G1 Y17.785599 F200.000000
G1 X23.025528 Y18.148933 F200.000000
G1 X23.230000 Y18.405333 F200.000000
G0 Z0.500000
G0 X27.113029 Y16.880000
G1 Z-0.040000 F60.000000
G1 X27.074470 Y16.711065 F200.000000
G1 X26.842109 Y16.419693 F200.000000
G1 X26.506338 Y16.257994 F200.000000
G1 X26.133660 F200.000000
G1 X25.797889 Y16.419693 F200.000000
G1 X25.565528 Y16.711065 F200.000000
G1 X25.482599 Y17.074399 F200.000000
G1 Y17.785599 F200.000000
G1 X25.565528 Y18.148933 F200.000000
G1 X25.797889 Y18.440305 F200.000000
G1 X26.133660 Y18.602004 F200.000000
G1 X26.506338 F200.000000
G1 X26.842109 Y18.440305 F200.000000
G1 X27.074470 Y18.148933 F200.000000
G1 X27.113029 Y17.979998 F200.000000
G0 Z0.500000
G0 X25.482599 Y10.165599
G1 Z-0.040000 F60.000000
G1 X25.565528 Y10.528933 F200.000000
G1 X25.797889 Y10.820305 F200.000000
G1 X26.133660 Y10.982004 F200.000000
G1 X26.506338 F200.000000
G1 X26.842109 Y10.820305 F200.000000
G1 X27.074470 Y10.528933 F200.000000
G1 X27.157399 Y10.165599 F200.000000
G1 Y9.454399 F200.000000
G1 X27.074470 Y9.091065 F200.000000
G1 X26.842109 Y8.799693 F200.000000
G1 X26.506338 Y8.637994 F200.000000
G1 X26.133660 F200.000000
G1 X25.797889 Y8.799693 F200.000000
G1 X25.565528 Y9.091065 F200.000000
G1 X25.482599 Y9.454399 F200.000000
G1 Y10.165599 F200.000000
G0 Z0.500000
G0 X22.942599
G1 Z-0.040000 F60.000000
G1 X23.025528 Y10.528933 F200.000000
G1 X23.257889 Y10.820305 F200.000000
G1 X23.593660 Y10.982004 F200.000000
G1 X23.966338 F200.000000
G1 X24.302109 Y10.820305 F200.000000
G1 X24.534470 Y10.528933 F200.000000
G1 X24.617399 Y10.165599 F200.000000
G1 Y9.454399 F200.000000
G1 X24.534470 Y9.091065 F200.000000
G1 X24.302109 Y8.799693 F200.000000
G1 X23.966338 Y8.637994 F200.000000
G1 X23.593660 F200.000000
G1 X23.257889 Y8.799693 F200.000000
G1 X23.025528 Y9.091065 F200.000000
G1 X22.942599 Y9.454399 F200.000000
G1 Y10.165599 F200.000000
G0 Z0.500000
G0 X20.402599
G1 Z-0.040000 F60.000000
G1 X20.485528 Y10.528933 F200.000000
G1 X20.717889 Y10.820305 F200.000000
G1 X21.053660 Y10.982004 F200.000000
G1 X21.426338 F200.000000
G1 X21.762109 Y10.820305 F200.000000
G1 X21.994470 Y10.528933 F200.000000
G1 X22.077399 Y10.165599 F200.000000
G1 Y9.454399 F200.000000
G1 X21.994470 Y9.091065 F200.000000
G1 X21.762109 Y8.799693 F200.000000
G1 X21.426338 Y8.637994 F200.000000
G1 X21.053660 F200.000000
G1 X20.717889 Y8.799693 F200.000000
G1 X20.485528 Y9.091065 F200.000000
G1 X20.402599 Y9.454399 F200.000000
G1 Y10.165599 F200.000000
G0 Z0.500000
G0 X18.150000 Y8.834665
G1 Z-0.040000 F60.000000
G1 X17.945528 Y9.091065 F200.000000
G1 X17.862599 Y9.454399 F200.000000
G1 Y10.165599 F200.000000
G1 X17.945528 Y10.528933 F200.000000
G1 X18.150000 Y10.785333 F200.000000
G0 Z0.500000
G0 X19.249998 Y10.785333
G1 Z-0.040000 F60.000000
G1 X19.454470 Y10.528933 F200.000000
G1 X19.537399 Y10.165599 F200.000000
G1 Y9.454399 F200.000000
G1 X19.454470 Y9.091065 F200.000000
G1 X19.249998 Y8.834665 F200.000000
G0 Z0.500000
G0 X43.379998 Y17.135333
G1 Z-0.040000 F60.000000
G1 Y19.420000 F200.000000
G1 X45.898922 F200.000000
G1 X46.249924 Y19.115855 F200.000000
G1 X46.773633 Y19.040557 F200.000000
G1 X47.254913 Y19.260350 F200.000000
G1 X47.540963 Y19.705452 F200.000000
G1 Y20.234546 F200.000000
G1 X47.254913 Y20.679648 F200.000000
G1 X47.189998 Y20.709294 F200.000000
G1 Y21.012182 F200.000000
G1 X50.334231 Y24.156415 F200.000000
G1 X50.583633 Y24.120557 F200.000000
G1 X51.064913 Y24.340350 F200.000000
G1 X51.350963 Y24.785452 F200.000000
G1 Y25.314546 F200.000000
G1 X51.064913 Y25.759648 F200.000000
G1 X50.583633 Y25.979441 F200.000000
G1 X50.059924 Y25.904143 F200.000000
G1 X49.660062 Y25.557661 F200.000000
G1 X49.510999 Y25.049999 F200.000000
G1 X49.547584 Y24.925400 F200.000000
G1 X46.251091 Y21.628907 F200.000000
G1 X46.201999 Y21.550777 F200.000000
G1 X46.144467 Y21.478635 F200.000000
G0 Z0.500000
G0 X16.159999 Y33.219998
G1 Z-0.040000 F60.000000
G1 X16.070039 Y33.199465 F200.000000
G1 X15.978346 Y33.189134 F200.000000
G1 X15.951860 Y33.172492 F200.000000
G1 X15.921363 Y33.165531 F200.000000
G1 X15.849221 Y33.107999 F200.000000
G1 X15.771091 Y33.058907 F200.000000
G1 X14.501091 Y31.788907 F200.000000
G1 X14.451999 Y31.710777 F200.000000
G1 X14.394467 Y31.638635 F200.000000
G1 X14.387506 Y31.608138 F200.000000
G1 X14.370864 Y31.581652 F200.000000
G1 X14.360533 Y31.489959 F200.000000
G1 X14.340000 Y31.399999 F200.000000
G1 Y30.049548 F200.000000
G1 X13.956618 Y29.793380 F200.000000
G1 X13.670478 Y29.365141 F200.000000
G1 X13.569999 Y28.859999 F200.000000
G1 X13.659953 Y28.407769 F200.000000
G1 X9.582182 Y24.329998 F200.000000
G1 X9.351999 Y24.329998 F200.000000
G1 Y24.591999 F200.000000
G1 X7.727999 F200.000000
G1 Y22.967999 F200.000000
G1 X9.351999 F200.000000
G1 Y23.230000 F200.000000
G1 X9.809999 F200.000000
G1 X9.899959 Y23.250533 F200.000000
G1 X9.991652 Y23.260864 F200.000000
G1 X10.018138 Y23.277506 F200.000000
G1 X10.048635 Y23.284467 F200.000000
G1 X10.120777 Y23.341999 F200.000000
G1 X10.198907 Y23.391091 F200.000000
G1 X14.437769 Y27.629953 F200.000000
G1 X14.889999 Y27.539999 F200.000000
G1 X15.395141 Y27.640478 F200.000000
G1 X15.823380 Y27.926618 F200.000000
G1 X16.109520 Y28.354857 F200.000000
G1 X16.209999 Y28.859999 F200.000000
G1 X16.109520 Y29.365141 F200.000000
G1 X15.823380 Y29.793380 F200.000000
G1 X15.439998 Y30.049548 F200.000000
G1 Y31.172182 F200.000000
G1 X16.387816 Y32.120000 F200.000000
G1 X24.822182 Y32.120000 F200.000000
G1 X31.816671 Y25.125511 F200.000000
G1 X31.794499 Y25.049999 F200.000000
G1 X31.933482 Y24.576668 F200.000000
G1 X32.120000 Y24.415049 F200.000000
G1 Y17.979998 F200.000000
G1 X27.113029 F200.000000
G0 Z0.500000
G0 X53.783029 Y15.610000
G1 Z-0.040000 F60.000000
G1 X58.783164 F200.000000
G1 X59.089077 Y15.387741 F200.000000
G1 X59.590921 F200.000000
G1 X59.996921 Y15.682717 F200.000000
G1 X60.151999 Y16.159999 F200.000000
G1 X59.996921 Y16.637281 F200.000000
G1 X59.590921 Y16.932257 F200.000000
G1 X59.089077 F200.000000
G1 X58.783164 Y16.709998 F200.000000
G1 X53.783029 F200.000000
G0 Z0.500000
G0 X40.839998 Y9.515333
G1 Z-0.040000 F60.000000
G1 Y11.079999 F200.000000
G1 X40.819465 Y11.169959 F200.000000
G1 X40.809134 Y11.261652 F200.000000
G1 X40.792492 Y11.288138 F200.000000
G1 X40.785531 Y11.318635 F200.000000
G1 X40.727999 Y11.390777 F200.000000
G1 X40.678907 Y11.468907 F200.000000
G1 X39.408907 Y12.738907 F200.000000
G1 X39.330777 Y12.787999 F200.000000
G1 X39.258635 Y12.845531 F200.000000
G1 X39.228138 Y12.852492 F200.000000
G1 X39.201652 Y12.869134 F200.000000
G1 X39.109959 Y12.879465 F200.000000
G1 X39.019999 Y12.899998 F200.000000
G1 X35.209999 F200.000000
G1 X35.120039 Y12.879465 F200.000000
G1 X35.028346 Y12.869134 F200.000000
G1 X35.001860 Y12.852492 F200.000000
G1 X34.971363 Y12.845531 F200.000000
G1 X34.899221 Y12.787999 F200.000000
G1 X34.821091 Y12.738907 F200.000000
G1 X33.551091 Y11.468907 F200.000000
G1 X33.501999 Y11.390777 F200.000000
G1 X33.444467 Y11.318635 F200.000000
G1 X33.437506 Y11.288138 F200.000000
G1 X33.420864 Y11.261652 F200.000000
G1 X33.410533 Y11.169959 F200.000000
G1 X33.390000 Y11.079999 F200.000000
G1 Y10.359998 F200.000000
G1 X28.859999 F200.000000
G1 X28.799583 Y10.346208 F200.000000
G1 X28.737613 F200.000000
G1 X28.681780 Y10.319321 F200.000000
G1 X28.621363 Y10.305531 F200.000000
G1 X28.572913 Y10.266893 F200.000000
G1 X28.517080 Y10.240006 F200.000000
G1 X28.478443 Y10.191555 F200.000000
G1 X28.429992 Y10.152918 F200.000000
G1 X28.403105 Y10.097085 F200.000000
G1 X28.364467 Y10.048635 F200.000000
G1 X28.350677 Y9.988218 F200.000000
G1 X28.323790 Y9.932385 F200.000000
G1 Y9.870415 F200.000000
G1 X28.310000 Y9.809999 F200.000000
G1 Y8.767816 F200.000000
G1 X27.362182 Y7.819998 F200.000000
G1 X19.249998 Y7.819998 F200.000000
G1 Y8.834665 F200.000000
G0 Z0.500000
G0 Y10.785333
G1 Z-0.040000 F60.000000
G1 Y11.079999 F200.000000
G1 X19.229465 Y11.169959 F200.000000
G1 X19.219134 Y11.261652 F200.000000
G1 X19.202492 Y11.288138 F200.000000
G1 X19.195531 Y11.318635 F200.000000
G1 X19.137999 Y11.390777 F200.000000
G1 X19.088907 Y11.468907 F200.000000
G1 X12.899998 Y17.657816 F200.000000
G1 Y19.742182 F200.000000
G1 X15.117816 Y21.960000 F200.000000
G1 X15.511961 Y21.960000 F200.000000
G1 X15.796303 Y21.713616 F200.000000
G1 X16.284596 Y21.643410 F200.000000
G1 X16.733330 Y21.848340 F200.000000
G1 X17.000035 Y22.263342 F200.000000
G1 Y22.756656 F200.000000
G1 X16.733330 Y23.171658 F200.000000
G1 X16.709998 Y23.182313 F200.000000
G1 Y24.822182 F200.000000
G1 X19.427815 Y27.539999 F200.000000
G1 X21.289999 F200.000000
G1 Y30.179999 F200.000000
G1 X18.649999 F200.000000
G1 Y28.317815 F200.000000
G1 X15.771091 Y25.438907 F200.000000
G1 X15.721999 Y25.360777 F200.000000
G1 X15.664467 Y25.288635 F200.000000
G1 X15.657506 Y25.258138 F200.000000
G1 X15.640864 Y25.231652 F200.000000
G1 X15.630533 Y25.139959 F200.000000
G1 X15.610000 Y25.049999 F200.000000
G1 Y23.144949 F200.000000
G1 X15.511961 Y23.059998 F200.000000
G1 X14.889999 Y23.059998 F200.000000
G1 X14.800039 Y23.039465 F200.000000
G1 X14.708346 Y23.029134 F200.000000
G1 X14.681860 Y23.012492 F200.000000
G1 X14.651363 Y23.005531 F200.000000
G1 X14.579221 Y22.947999 F200.000000
G1 X14.501091 Y22.898907 F200.000000
G1 X11.961091 Y20.358907 F200.000000
G1 X11.911999 Y20.280777 F200.000000
G1 X11.854467 Y20.208635 F200.000000
G1 X11.847506 Y20.178138 F200.000000
G1 X11.830864 Y20.151652 F200.000000
G1 X11.820533 Y20.059959 F200.000000
G1 X11.800000 Y19.969999 F200.000000
G1 Y17.429999 F200.000000
G0 Z0.500000
G1 Z-0.040000 F60.000000
G1 X11.820533 Y17.340039 F200.000000
G1 X11.830864 Y17.248346 F200.000000
G1 X11.847506 Y17.221860 F200.000000
G1 X11.854467 Y17.191363 F200.000000
G1 X11.911999 Y17.119221 F200.000000
G1 X11.961091 Y17.041091 F200.000000
G1 X18.150000 Y10.852182 F200.000000
G1 Y10.785333 F200.000000
G0 Z0.500000
G0 X47.116969 Y9.089998
G1 Z-0.040000 F60.000000
G1 X46.163029 F200.000000
G0 Z0.500000
G0 X46.163029 Y7.990000
G1 Z-0.040000 F60.000000
G1 X47.116969 F200.000000
G0 Z0.500000
G0 X44.576969 Y9.089998
G1 Z-0.040000 F60.000000
G1 X43.623029 F200.000000
G0 Z0.500000
G0 Y7.990000
G1 Z-0.040000 F60.000000
G1 X44.576969 F200.000000
G0 Z0.500000
G0 X42.036969 Y9.089998
G1 Z-0.040000 F60.000000
G1 X41.083029 F200.000000
G0 Z0.500000
G0 Y7.990000
G1 Z-0.040000 F60.000000
G1 X42.036969 F200.000000
G0 Z0.500000
G0 X36.912599 Y16.100415
G1 Z-0.040000 F60.000000
G1 X36.252182 Y15.439998 F200.000000
G1 X34.489998 F200.000000
G1 Y17.429999 F200.000000
G1 X34.476208 Y17.490415 F200.000000
G1 Y17.552385 F200.000000
G1 X34.449321 Y17.608218 F200.000000
G1 X34.435531 Y17.668635 F200.000000
G1 X34.396893 Y17.717085 F200.000000
G1 X34.370006 Y17.772918 F200.000000
G1 X34.321555 Y17.811555 F200.000000
G1 X34.282918 Y17.860006 F200.000000
G0 Z0.500000
G0 X48.459998 Y17.135333
G1 Z-0.040000 F60.000000
G1 Y17.202182 F200.000000
G1 X51.947816 Y20.690000 F200.000000
G1 X58.783164 F200.000000
G1 X59.089077 Y20.467741 F200.000000
G1 X59.590921 F200.000000
G1 X59.996921 Y20.762717 F200.000000
G1 X60.151999 Y21.239999 F200.000000
G1 X59.996921 Y21.717281 F200.000000
G1 X59.590921 Y22.012257 F200.000000
G1 X59.089077 F200.000000
G1 X58.783164 Y21.789998 F200.000000
G1 X51.719999 F200.000000
G1 X51.630039 Y21.769465 F200.000000
G1 X51.538346 Y21.759134 F200.000000
G1 X51.511860 Y21.742492 F200.000000
G1 X51.481363 Y21.735531 F200.000000
G1 X51.409221 Y21.677999 F200.000000
G1 X51.331091 Y21.628907 F200.000000
G1 X47.521091 Y17.818907 F200.000000
G1 X47.471999 Y17.740777 F200.000000
G1 X47.414467 Y17.668635 F200.000000
G1 X47.407506 Y17.638138 F200.000000
G1 X47.390864 Y17.611652 F200.000000
G1 X47.380533 Y17.519959 F200.000000
G1 X47.360000 Y17.429999 F200.000000
G1 Y17.135333 F200.000000
G0 Z0.500000
G0 X5.611091 Y14.008907
G1 Z-0.040000 F60.000000
G1 X5.561999 Y13.930777 F200.000000
G1 X5.504467 Y13.858635 F200.000000
G1 X5.497506 Y13.828138 F200.000000
G1 X5.480864 Y13.801652 F200.000000
G1 X5.470533 Y13.709959 F200.000000
G1 X5.450000 Y13.619999 F200.000000
G1 Y8.539999 F200.000000
G1 X5.470533 Y8.450039 F200.000000
G1 X5.480864 Y8.358346 F200.000000
G1 X5.497506 Y8.331860 F200.000000
G1 X5.504467 Y8.301363 F200.000000
G1 X5.561999 Y8.229221 F200.000000
G1 X5.611091 Y8.151091 F200.000000
G1 X6.416671 Y7.345511 F200.000000
G1 X6.394499 Y7.269999 F200.000000
G1 X6.533482 Y6.796668 F200.000000
G1 X6.906303 Y6.473616 F200.000000
G1 X7.394596 Y6.403410 F200.000000
G1 X7.843330 Y6.608340 F200.000000
G1 X8.110035 Y7.023342 F200.000000
G1 Y7.516656 F200.000000
G1 X7.843330 Y7.931658 F200.000000
G1 X7.394596 Y8.136588 F200.000000
G1 X7.208048 Y8.109766 F200.000000
G1 X6.549998 Y8.767816 F200.000000
G1 Y13.392182 F200.000000
G1 X7.934315 Y14.776499 F200.000000
G1 X9.288499 F200.000000
G1 Y16.273499 F200.000000
G1 X9.089998 F200.000000
G1 Y20.685033 F200.000000
G1 X9.196921 Y20.762717 F200.000000
G1 X9.351999 Y21.239999 F200.000000
G1 X9.196921 Y21.717281 F200.000000
G1 X8.790921 Y22.012257 F200.000000
G1 X8.289077 F200.000000
G1 X7.883077 Y21.717281 F200.000000
G1 X7.727999 Y21.239999 F200.000000
G1 X7.883077 Y20.762717 F200.000000
G1 X7.990000 Y20.685033 F200.000000
G1 Y16.273499 F200.000000
G1 X7.791499 F200.000000
G1 Y16.051813 F200.000000
G1 X7.723346 Y16.044134 F200.000000
G1 X7.696860 Y16.027492 F200.000000
G1 X7.666363 Y16.020531 F200.000000
G1 X7.594221 Y15.962999 F200.000000
G1 X7.516091 Y15.913907 F200.000000
G1 X5.611091 Y14.008907 F200.000000
G0 Z0.500000
G0 X30.679998 Y13.619999
G1 Z-0.040000 F60.000000
G1 Y13.619999 F200.000000
G1 Y13.619999 F200.000000
G0 Z0.500000
G0 X21.789998 Y18.405333
G1 Z-0.040000 F60.000000
G1 Y19.969999 F200.000000
G1 X21.776208 Y20.030415 F200.000000
G1 Y20.092385 F200.000000
G1 X21.749321 Y20.148218 F200.000000
G1 X21.735531 Y20.208635 F200.000000
G1 X21.696893 Y20.257085 F200.000000
G1 X21.670006 Y20.312918 F200.000000
G1 X21.621555 Y20.351555 F200.000000
G1 X21.582918 Y20.400006 F200.000000
G1 X21.527085 Y20.426893 F200.000000
G1 X21.478635 Y20.465531 F200.000000
G1 X21.418218 Y20.479321 F200.000000
G1 X21.362385 Y20.506208 F200.000000
G1 X21.300415 Y20.506208 F200.000000
G1 X21.239999 Y20.519998 F200.000000
G1 X20.519998 F200.000000
G1 Y23.552182 F200.000000
G1 X24.007816 Y27.040000 F200.000000
G1 X26.092182 F200.000000
G1 X29.580000 Y23.552182 F200.000000
G1 Y23.144949 F200.000000
G1 X29.393482 Y22.983330 F200.000000
G1 X29.254499 Y22.509999 F200.000000
G1 X29.393482 Y22.036668 F200.000000
G1 X29.766303 Y21.713616 F200.000000
G1 X30.254596 Y21.643410 F200.000000
G1 X30.703330 Y21.848340 F200.000000
G1 X30.970035 Y22.263342 F200.000000
G1 Y22.756656 F200.000000
G1 X30.703330 Y23.171658 F200.000000
G1 X30.679998 Y23.182313 F200.000000
G1 Y23.779999 F200.000000
G1 X30.659465 Y23.869959 F200.000000
G1 X30.649134 Y23.961652 F200.000000
G1 X30.632492 Y23.988138 F200.000000
G1 X30.625531 Y24.018635 F200.000000
G1 X30.567999 Y24.090777 F200.000000
G1 X30.518907 Y24.168907 F200.000000
G1 X26.708907 Y27.978907 F200.000000
G1 X26.630777 Y28.027999 F200.000000
G1 X26.558635 Y28.085531 F200.000000
G1 X26.528138 Y28.092492 F200.000000
G1 X26.501652 Y28.109134 F200.000000
G1 X26.409959 Y28.119465 F200.000000
G1 X26.319999 Y28.139998 F200.000000
G1 X23.779999 F200.000000
G1 X23.690039 Y28.119465 F200.000000
G1 X23.598346 Y28.109134 F200.000000
G1 X23.571860 Y28.092492 F200.000000
G1 X23.541363 Y28.085531 F200.000000
G1 X23.469221 Y28.027999 F200.000000
G1 X23.391091 Y27.978907 F200.000000
G1 X19.581091 Y24.168907 F200.000000
G1 X19.531999 Y24.090777 F200.000000
G1 X19.474467 Y24.018635 F200.000000
G1 X19.467506 Y23.988138 F200.000000
G1 X19.450864 Y23.961652 F200.000000
G1 X19.440533 Y23.869959 F200.000000
G1 X19.420000 Y23.779999 F200.000000
G1 Y20.519998 F200.000000
G1 X17.429999 F200.000000
G1 X17.340039 Y20.499465 F200.000000
G1 X17.248346 Y20.489134 F200.000000
G0 Z0.500000
G0 X40.839998 Y17.135333
G1 Z-0.040000 F60.000000
G1 Y19.969999 F200.000000
G1 X40.826208 Y20.030415 F200.000000
G1 Y20.092385 F200.000000
G1 X40.799321 Y20.148218 F200.000000
G1 X40.785531 Y20.208635 F200.000000
G1 X40.746893 Y20.257085 F200.000000
G1 X40.720006 Y20.312918 F200.000000
G1 X40.671555 Y20.351555 F200.000000
G1 X40.632918 Y20.400006 F200.000000
G1 X40.577085 Y20.426893 F200.000000
G1 X40.528635 Y20.465531 F200.000000
G0 Z0.500000
G0 X50.999998 Y17.135333
G1 Z-0.040000 F60.000000
G1 Y17.202182 F200.000000
G1 X51.947816 Y18.150000 F200.000000
G1 X58.783164 Y18.150000 F200.000000
G1 X59.089077 Y17.927741 F200.000000
G1 X59.590921 F200.000000
G1 X59.996921 Y18.222717 F200.000000
G1 X60.151999 Y18.699999 F200.000000
G1 X59.996921 Y19.177281 F200.000000
G1 X59.590921 Y19.472257 F200.000000
G1 X59.089077 F200.000000
G1 X58.783164 Y19.249998 F200.000000
G1 X51.719999 F200.000000
G1 X51.630039 Y19.229465 F200.000000
G1 X51.538346 Y19.219134 F200.000000
G1 X51.511860 Y19.202492 F200.000000
G1 X51.481363 Y19.195531 F200.000000
G1 X51.409221 Y19.137999 F200.000000
G1 X51.331091 Y19.088907 F200.000000
G1 X50.061091 Y17.818907 F200.000000
G1 X50.011999 Y17.740777 F200.000000
G1 X49.954467 Y17.668635 F200.000000
G1 X49.947506 Y17.638138 F200.000000
G1 X49.930864 Y17.611652 F200.000000
G1 X49.920533 Y17.519959 F200.000000
G1 X49.900000 Y17.429999 F200.000000
G1 Y17.135333 F200.000000
G0 Z0.500000
G0 Y7.564665
G1 Z-0.040000 F60.000000
G1 Y5.999999 F200.000000
G1 X49.913790 Y5.939583 F200.000000
G1 Y5.877613 F200.000000
G1 X49.940677 Y5.821780 F200.000000
G1 X49.954467 Y5.761363 F200.000000
G1 X49.993105 Y5.712913 F200.000000
G1 X50.019992 Y5.657080 F200.000000
G1 X50.068443 Y5.618443 F200.000000
G1 X50.107080 Y5.569992 F200.000000
G1 X50.162913 Y5.543105 F200.000000
G1 X50.211363 Y5.504467 F200.000000
G1 X50.271780 Y5.490677 F200.000000
G1 X50.327613 Y5.463790 F200.000000
G1 X50.389583 F200.000000
G1 X50.449999 Y5.450000 F200.000000
G1 X55.529999 F200.000000
G1 X55.619959 Y5.470533 F200.000000
G1 X55.711652 Y5.480864 F200.000000
G1 X55.738138 Y5.497506 F200.000000
G1 X55.768635 Y5.504467 F200.000000
G1 X55.840777 Y5.561999 F200.000000
G1 X55.918907 Y5.611091 F200.000000
G1 X59.728907 Y9.421091 F200.000000
G1 X59.777999 Y9.499221 F200.000000
G1 X59.835531 Y9.571363 F200.000000
G1 X59.842492 Y9.601860 F200.000000
G1 X59.859134 Y9.628346 F200.000000
G1 X59.869465 Y9.720039 F200.000000
G1 X59.889998 Y9.809999 F200.000000
G1 Y10.267999 F200.000000
G1 X60.151999 F200.000000
G1 Y11.891999 F200.000000
G1 X58.527999 F200.000000
G1 Y10.267999 F200.000000
G1 X58.790000 F200.000000
G1 Y10.037816 F200.000000
G1 X55.302182 Y6.549998 F200.000000
G1 X50.999998 F200.000000
G1 Y7.564665 F200.000000

(Goto to Initial position)
G0 Z0.500000
G0 X0.000000 Y0.000000
G0 Z0.000000
