(Generated by ./pygerber2gcode_cui_MOD.py )
( 2013-06-06 17:09:39 )
(Initialize)

(Start form here)
G0 Z0.500000 F40.000000
G0 X52.989999 Y16.159999
G0 Z-2.000000 F40.000000
G0 Z0.500000
G0 X52.989999 Y8.539999
G0 Z-2.000000 F40.000000
G0 Z0.500000
G0 X50.449999 Y30.129999
G0 Z-2.000000 F40.000000
G0 Z0.500000
G0 X50.449999 Y25.049999
G0 Z-2.000000 F40.000000
G0 Z0.500000
G0 X50.449999 Y16.159999
G0 Z-2.000000 F40.000000
G0 Z0.500000
G0 X50.449999 Y8.539999
G0 Z-2.000000 F40.000000
G0 Z0.500000
G0 X47.909999 Y16.159999
G0 Z-2.000000 F40.000000
G0 Z0.500000
G0 X47.909999 Y8.539999
G0 Z-2.000000 F40.000000
G0 Z0.500000
G0 X46.639999 Y19.969999
G0 Z-2.000000 F40.000000
G0 Z0.500000
G0 X45.369999 Y16.159999
G0 Z-2.000000 F40.000000
G0 Z0.500000
G0 X45.369999 Y8.539999
G0 Z-2.000000 F40.000000
G0 Z0.500000
G0 X42.829999 Y16.159999
G0 Z-2.000000 F40.000000
G0 Z0.500000
G0 X42.829999 Y8.539999
G0 Z-2.000000 F40.000000
G0 Z0.500000
G0 X41.559999 Y26.319999
G0 Z-2.000000 F40.000000
G0 Z0.500000
G0 X41.559999 Y23.779999
G0 Z-2.000000 F40.000000
G0 Z0.500000
G0 X40.289999 Y16.159999
G0 Z-2.000000 F40.000000
G0 Z0.500000
G0 X40.289999 Y8.539999
G0 Z-2.000000 F40.000000
G0 Z0.500000
G0 X37.749999 Y16.159999
G0 Z-2.000000 F40.000000
G0 Z0.500000
G0 X37.749999 Y8.539999
G0 Z-2.000000 F40.000000
G0 Z0.500000
G0 X36.479999 Y26.319999
G0 Z-2.000000 F40.000000
G0 Z0.500000
G0 X36.479999 Y23.779999
G0 Z-2.000000 F40.000000
G0 Z0.500000
G0 X36.479999 Y19.969999
G0 Z-2.000000 F40.000000
G0 Z0.500000
G0 X33.939999 Y14.889999
G0 Z-2.000000 F40.000000
G0 Z0.500000
G0 X33.939999 Y9.809999
G0 Z-2.000000 F40.000000
G0 Z0.500000
G0 X32.669999 Y25.049999
G0 Z-2.000000 F40.000000
G0 Z0.500000
G0 X30.129999 Y22.509999
G0 Z-2.000000 F40.000000
G0 Z0.500000
G0 X30.129999 Y14.889999
G0 Z-2.000000 F40.000000
G0 Z0.500000
G0 X30.129999 Y12.349999
G0 Z-2.000000 F40.000000
G0 Z0.500000
G0 X30.129999 Y7.269999
G0 Z-2.000000 F40.000000
G0 Z0.500000
G0 X26.319999 Y17.429999
G0 Z-2.000000 F40.000000
G0 Z0.500000
G0 X26.319999 Y9.809999
G0 Z-2.000000 F40.000000
G0 Z0.500000
G0 X25.049999 Y25.049999
G0 Z-2.000000 F40.000000
G0 Z0.500000
G0 X23.779999 Y22.509999
G0 Z-2.000000 F40.000000
G0 Z0.500000
G0 X23.779999 Y17.429999
G0 Z-2.000000 F40.000000
G0 Z0.500000
G0 X23.779999 Y9.809999
G0 Z-2.000000 F40.000000
G0 Z0.500000
G0 X21.239999 Y17.429999
G0 Z-2.000000 F40.000000
G0 Z0.500000
G0 X21.239999 Y9.809999
G0 Z-2.000000 F40.000000
G0 Z0.500000
G0 X18.699999 Y17.429999
G0 Z-2.000000 F40.000000
G0 Z0.500000
G0 X18.699999 Y9.809999
G0 Z-2.000000 F40.000000
G0 Z0.500000
G0 X16.159999 Y22.509999
G0 Z-2.000000 F40.000000
G0 Z0.500000
G0 X14.889999 Y18.699999
G0 Z-2.000000 F40.000000
G0 Z0.500000
G0 X14.889999 Y11.079999
G0 Z-2.000000 F40.000000
G0 Z0.500000
G0 X14.889999 Y7.269999
G0 Z-2.000000 F40.000000
G0 Z0.500000
G0 X8.539999 Y15.524999
G0 Z-2.000000 F40.000000
G0 Z0.500000
G0 X8.539999 Y11.714999
G0 Z-2.000000 F40.000000
G0 Z0.500000
G0 X7.269999 Y7.269999
G0 Z-2.000000 F40.000000
G0 Z0.500000
G0 X59.339999 Y21.239999
G0 Z-2.000000 F40.000000
G0 Z0.500000
G0 X59.339999 Y18.699999
G0 Z-2.000000 F40.000000
G0 Z0.500000
G0 X59.339999 Y16.159999
G0 Z-2.000000 F40.000000
G0 Z0.500000
G0 X59.339999 Y13.619999
G0 Z-2.000000 F40.000000
G0 Z0.500000
G0 X59.339999 Y11.079999
G0 Z-2.000000 F40.000000
G0 Z0.500000
G0 X8.539999 Y23.779999
G0 Z-2.000000 F40.000000
G0 Z0.500000
G0 X8.539999 Y21.239999
G0 Z-2.000000 F40.000000
G0 Z0.500000
G0 X19.969999 Y28.859999
G0 Z-2.000000 F40.000000
G0 Z0.500000
G0 X14.889999 Y28.859999
G0 Z-2.000000 F40.000000
G0 Z0.500000

(Goto to Initial position)
G0 Z0.500000
G0 X0.000000 Y0.000000
G0 Z0.000000
