(Generated by ./pygerber2gcode_cui_MOD.py )
( 2013-06-17 21:41:04 )
(Initialize)

(Start form here)
G0 Z0.500000
G0 X92.862235 Y38.558377
G1 Z-0.040000 F60.000000
G1 X92.884999 Y38.672821 F200.000000
G1 X92.907763 Y38.558377 F200.000000
G1 X93.200406 Y38.120406 F200.000000
G1 X93.638377 Y37.827763 F200.000000
G1 X93.752821 Y37.804999 F200.000000
G1 X93.638377 Y37.782235 F200.000000
G1 X93.200406 Y37.489592 F200.000000
G1 X92.907763 Y37.051621 F200.000000
G1 X92.884999 Y36.937178 F200.000000
G1 X92.862235 Y37.051621 F200.000000
G1 X92.569592 Y37.489592 F200.000000
G1 X92.131621 Y37.782235 F200.000000
G1 X92.017178 Y37.804999 F200.000000
G1 X92.131621 Y37.827763 F200.000000
G1 X92.569592 Y38.120406 F200.000000
G1 X92.862235 Y38.558377 F200.000000
G0 Z0.500000
G0 X94.671621 Y37.782235
G1 Z-0.040000 F60.000000
G1 X94.557178 Y37.804999 F200.000000
G1 X94.671621 Y37.827763 F200.000000
G1 X95.109592 Y38.120406 F200.000000
G1 X95.160000 Y38.195847 F200.000000
G1 Y37.434998 F200.000000
G1 X95.146071 F200.000000
G1 X95.109592 Y37.489592 F200.000000
G1 X94.671621 Y37.782235 F200.000000
G0 Z0.500000
G0 X92.583641 Y40.008566
G1 Z-0.040000 F60.000000
G1 X92.944943 Y39.647264 F200.000000
G1 X92.907763 Y39.591621 F200.000000
G1 X92.884999 Y39.477178 F200.000000
G1 X92.862235 Y39.591621 F200.000000
G1 X92.583641 Y40.008566 F200.000000
G0 Z0.500000
G0 X95.160000 Y39.972207
G1 Z-0.040000 F60.000000
G1 Y39.954151 F200.000000
G1 X95.123641 Y40.008566 F200.000000
G1 X95.160000 Y39.972207 F200.000000
G0 Z0.500000
G0 X95.088566 Y40.043641
G1 Z-0.040000 F60.000000
G1 X94.922971 Y40.154288 F200.000000
G1 X94.871728 Y40.218545 F200.000000
G1 X94.800832 Y40.331375 F200.000000
G1 X95.088566 Y40.043641 F200.000000
G0 Z0.500000
G0 X89.369407 Y40.157738
G1 Z-0.040000 F60.000000
G1 X89.412748 Y40.130505 F200.000000
G1 X89.562792 Y40.113599 F200.000000
G1 X89.709999 Y40.080000 F200.000000
G1 X90.735847 F200.000000
G1 X90.660406 Y40.029592 F200.000000
G1 X90.623928 Y39.974998 F200.000000
G1 X89.447791 F200.000000
G1 X89.088623 Y40.334166 F200.000000
G1 X89.201453 Y40.263271 F200.000000
G1 X89.319504 Y40.169128 F200.000000
G1 X89.369407 Y40.157738 F200.000000
G0 Z0.500000
G0 X92.548566 Y40.043641
G1 Z-0.040000 F60.000000
G1 X92.494151 Y40.080000 F200.000000
G1 X92.512207 F200.000000
G1 X92.548566 Y40.043641 F200.000000
G0 Z0.500000
G0 X96.909493 Y40.642250
G1 Z-0.040000 F60.000000
G1 X96.882261 Y40.685591 F200.000000
G1 X96.870870 Y40.735494 F200.000000
G1 X96.776728 Y40.853545 F200.000000
G1 X96.696395 Y40.981395 F200.000000
G1 X96.324998 Y41.352791 F200.000000
G1 Y42.257999 F200.000000
G1 X96.686999 F200.000000
G1 Y43.281201 F200.000000
G1 X96.740397 Y43.012752 F200.000000
G1 X97.027729 Y42.582729 F200.000000
G1 X97.457752 Y42.295397 F200.000000
G1 X97.964999 Y42.194499 F200.000000
G1 X98.472246 Y42.295397 F200.000000
G1 X98.902269 Y42.582729 F200.000000
G1 X99.189602 Y43.012752 F200.000000
G1 X99.290499 Y43.519999 F200.000000
G1 X99.189602 Y44.027246 F200.000000
G1 X98.902269 Y44.457269 F200.000000
G1 X98.776885 Y44.541048 F200.000000
G1 X98.775870 Y44.545494 F200.000000
G1 X98.681728 Y44.663545 F200.000000
G1 X98.601395 Y44.791395 F200.000000
G1 X97.331395 Y46.061395 F200.000000
G0 Z0.500000
G0 X94.708271 Y40.471453
G1 Z-0.040000 F60.000000
G1 X94.779166 Y40.358623 F200.000000
G1 X93.784998 Y41.352791 F200.000000
G1 Y42.669283 F200.000000
G1 X93.905979 Y42.778214 F200.000000
G1 X94.119421 Y43.257615 F200.000000
G1 Y43.782384 F200.000000
G1 X93.905979 Y44.261784 F200.000000
G1 X93.613648 Y44.525000 F200.000000
G1 X94.162999 F200.000000
G1 Y42.257999 F200.000000
G1 X94.525000 F200.000000
G1 Y40.979999 F200.000000
G1 X94.558599 Y40.832792 F200.000000
G1 X94.575505 Y40.682748 F200.000000
G1 X94.602738 Y40.639407 F200.000000
G1 X94.614128 Y40.589504 F200.000000
G1 X94.708271 Y40.471453 F200.000000
G0 Z0.500000
G0 X96.772266 Y44.074941
G1 Z-0.040000 F60.000000
G1 X96.740397 Y44.027246 F200.000000
G1 X96.686999 Y43.758798 F200.000000
G1 Y44.160208 F200.000000
G1 X96.772266 Y44.074941 F200.000000
G0 Z0.500000
G0 X90.082791 Y41.879998
G1 Z-0.040000 F60.000000
G1 X88.997733 Y42.965057 F200.000000
G1 X89.029602 Y43.012752 F200.000000
G1 X89.107537 Y43.404559 F200.000000
G1 X89.192105 Y43.006698 F200.000000
G1 X89.500556 Y42.582150 F200.000000
G1 X89.955020 Y42.319766 F200.000000
G1 X90.476914 Y42.264913 F200.000000
G1 X90.975999 Y42.427075 F200.000000
G1 X91.365979 Y42.778214 F200.000000
G1 X91.579421 Y43.257615 F200.000000
G1 Y43.782384 F200.000000
G1 X91.365979 Y44.261784 F200.000000
G1 X91.244998 Y44.370715 F200.000000
G1 Y44.417207 F200.000000
G1 X91.352791 Y44.525000 F200.000000
G1 X92.156867 F200.000000
G1 X92.040556 Y44.457848 F200.000000
G1 X91.732105 Y44.033301 F200.000000
G1 X91.622999 Y43.519999 F200.000000
G1 X91.732105 Y43.006698 F200.000000
G1 X91.985000 Y42.658617 F200.000000
G1 Y41.879998 F200.000000
G1 X90.082791 F200.000000
G0 Z0.500000
G0 X89.445000 Y44.417207
G1 Z-0.040000 F60.000000
G1 Y44.381381 F200.000000
G1 X89.192105 Y44.033301 F200.000000
G1 X89.107537 Y43.635439 F200.000000
G1 X89.029602 Y44.027246 F200.000000
G1 X88.742269 Y44.457269 F200.000000
G1 X88.640903 Y44.525000 F200.000000
G1 X89.337207 Y44.525000 F200.000000
G1 X89.445000 Y44.417207 F200.000000
G0 Z0.500000
G0 X86.799998 Y42.622791
G1 Z-0.040000 F60.000000
G1 Y42.684095 F200.000000
G1 X86.867729 Y42.582729 F200.000000
G1 X86.993113 Y42.498950 F200.000000
G1 X86.994128 Y42.494504 F200.000000
G1 X87.088271 Y42.376453 F200.000000
G1 X87.159166 Y42.263623 F200.000000
G1 X86.799998 Y42.622791 F200.000000
G0 Z0.500000
G0 X97.331395 Y46.061395
G1 Z-0.040000 F60.000000
G1 X97.203545 Y46.141728 F200.000000
G1 X97.085494 Y46.235870 F200.000000
G1 X97.035591 Y46.247261 F200.000000
G1 X96.992250 Y46.274493 F200.000000
G1 X96.842206 Y46.291399 F200.000000
G1 X96.694999 Y46.324998 F200.000000
G1 X90.979999 F200.000000
G1 X90.832792 Y46.291399 F200.000000
G1 X90.682748 Y46.274493 F200.000000
G1 X90.639407 Y46.247261 F200.000000
G1 X90.589504 Y46.235870 F200.000000
G1 X90.471453 Y46.141728 F200.000000
G1 X90.344999 Y46.062272 F200.000000
G1 X90.218545 Y46.141728 F200.000000
G1 X90.100494 Y46.235870 F200.000000
G1 X90.050591 Y46.247261 F200.000000
G1 X90.007250 Y46.274493 F200.000000
G1 X89.857206 Y46.291399 F200.000000
G1 X89.709999 Y46.324998 F200.000000
G1 X87.169999 F200.000000
G1 X87.022792 Y46.291399 F200.000000
G1 X86.872748 Y46.274493 F200.000000
G1 X86.829407 Y46.247261 F200.000000
G1 X86.779504 Y46.235870 F200.000000
G1 X86.661453 Y46.141728 F200.000000
G1 X86.533604 Y46.061395 F200.000000
G1 X85.263604 Y44.791395 F200.000000
G1 X85.183271 Y44.663545 F200.000000
G1 X85.089128 Y44.545494 F200.000000
G1 X85.077738 Y44.495591 F200.000000
G1 X85.050505 Y44.452250 F200.000000
G1 X85.033599 Y44.302206 F200.000000
G1 X85.000000 Y44.154999 F200.000000
G1 Y42.249999 F200.000000
G1 X85.033599 Y42.102792 F200.000000
G1 X85.050505 Y41.952748 F200.000000
G1 X85.077738 Y41.909407 F200.000000
G1 X85.089128 Y41.859504 F200.000000
G1 X85.183271 Y41.741453 F200.000000
G1 X85.263604 Y41.613604 F200.000000
G1 X88.438604 Y38.438604 F200.000000
G1 X88.566453 Y38.358271 F200.000000
G1 X88.684504 Y38.264128 F200.000000
G1 X88.734407 Y38.252738 F200.000000
G1 X88.777748 Y38.225505 F200.000000
G1 X88.927792 Y38.208599 F200.000000
G1 X89.074999 Y38.175000 F200.000000
G1 X90.623928 F200.000000
G1 X90.660406 Y38.120406 F200.000000
G1 X91.098377 Y37.827763 F200.000000
G1 X91.212821 Y37.804999 F200.000000
G1 X91.098377 Y37.782235 F200.000000
G1 X90.660406 Y37.489592 F200.000000
G1 X90.623928 Y37.434998 F200.000000
G1 X89.709999 F200.000000
G1 X89.562792 Y37.401399 F200.000000
G1 X89.412748 Y37.384493 F200.000000
G1 X89.369407 Y37.357261 F200.000000
G1 X89.319504 Y37.345870 F200.000000
G1 X89.201453 Y37.251728 F200.000000
G1 X89.073604 Y37.171395 F200.000000
G1 X88.740596 Y36.838387 F200.000000
G1 X88.312246 Y37.124602 F200.000000
G1 X87.804999 Y37.225499 F200.000000
G1 X87.297752 Y37.124602 F200.000000
G1 X86.867729 Y36.837269 F200.000000
G1 X86.580397 Y36.407246 F200.000000
G1 X86.479499 Y35.899999 F200.000000
G1 X86.580397 Y35.392752 F200.000000
G1 X86.867729 Y34.962729 F200.000000
G1 X87.297752 Y34.675397 F200.000000
G1 X87.804999 Y34.574499 F200.000000
G1 X88.312246 Y34.675397 F200.000000
G1 X88.742269 Y34.962729 F200.000000
G1 X88.767173 Y35.000000 F200.000000
G1 X89.074999 Y35.000000 F200.000000
G1 X89.222206 Y35.033599 F200.000000
G1 X89.372250 Y35.050505 F200.000000
G1 X89.415591 Y35.077738 F200.000000
G1 X89.465494 Y35.089128 F200.000000
G1 X89.583545 Y35.183271 F200.000000
G1 X89.711395 Y35.263604 F200.000000
G1 X90.082791 Y35.635000 F200.000000
G1 X90.623928 F200.000000
G1 X90.660406 Y35.580406 F200.000000
G1 X91.098377 Y35.287763 F200.000000
G1 X91.614999 Y35.185001 F200.000000
G1 X92.131621 Y35.287763 F200.000000
G1 X92.569592 Y35.580406 F200.000000
G1 X92.862235 Y36.018377 F200.000000
G1 X92.884999 Y36.132821 F200.000000
G1 X92.907763 Y36.018377 F200.000000
G1 X93.200406 Y35.580406 F200.000000
G1 X93.638377 Y35.287763 F200.000000
G1 X94.154999 Y35.185001 F200.000000
G1 X94.671621 Y35.287763 F200.000000
G1 X95.109592 Y35.580406 F200.000000
G1 X95.146071 Y35.635000 F200.000000
G1 X95.687207 F200.000000
G1 X96.058604 Y35.263604 F200.000000
G1 X96.186453 Y35.183271 F200.000000
G1 X96.304504 Y35.089128 F200.000000
G1 X96.354407 Y35.077738 F200.000000
G1 X96.397748 Y35.050505 F200.000000
G1 X96.547792 Y35.033599 F200.000000
G1 X96.694999 Y35.000000 F200.000000
G1 X97.002826 F200.000000
G1 X97.027729 Y34.962729 F200.000000
G1 X97.457752 Y34.675397 F200.000000
G1 X97.964999 Y34.574499 F200.000000
G1 X98.472246 Y34.675397 F200.000000
G1 X98.902269 Y34.962729 F200.000000
G1 X99.189602 Y35.392752 F200.000000
G1 X99.290499 Y35.899999 F200.000000
G1 X99.189602 Y36.407246 F200.000000
G1 X98.902269 Y36.837269 F200.000000
G1 X98.472246 Y37.124602 F200.000000
G1 X97.964999 Y37.225499 F200.000000
G1 X97.457752 Y37.124602 F200.000000
G1 X97.029402 Y36.838387 F200.000000
G1 X96.959998 Y36.907791 F200.000000
G1 Y40.344999 F200.000000
G1 X96.926399 Y40.492206 F200.000000
G1 X96.909493 Y40.642250 F200.000000

(Goto to Initial position)
G0 Z0.500000
G0 X0.000000 Y0.000000
G0 Z0.000000
