(Generated by ./pygerber2gcode_cui_MOD.py )
( 2013-06-13 15:19:54 )
(Initialize)

(Start form here)
G0 Z0.500000
G0 X79.341060 Y49.961483
G1 Z-0.040000 F60.000000
G1 X79.150560 Y50.151983 F200.000000
G1 X79.082373 Y50.194828 F200.000000
G1 X79.020438 Y50.246297 F200.000000
G1 X78.999400 Y50.256956 F200.000000
G1 X79.061301 Y50.264767 F200.000000
G1 X79.251856 Y50.388075 F200.000000
G1 X79.345836 Y50.484595 F200.000000
G1 X79.404431 Y50.580669 F200.000000
G1 X79.463394 Y50.676518 F200.000000
G1 X79.559914 Y50.960998 F200.000000
G1 X79.568443 Y51.043752 F200.000000
G1 X79.586955 Y51.124859 F200.000000
G1 Y51.315359 F200.000000
G1 X79.568593 Y51.395810 F200.000000
G1 X79.560354 Y51.477918 F200.000000
G1 X79.463834 Y51.764938 F200.000000
G1 X79.462172 Y51.767656 F200.000000
G1 X79.461816 Y51.770821 F200.000000
G1 X79.403051 Y51.864345 F200.000000
G1 X79.345431 Y51.958578 F200.000000
G1 X79.342755 Y51.960306 F200.000000
G1 X79.341060 Y51.963003 F200.000000
G1 X79.150560 Y52.153503 F200.000000
G1 X79.080119 Y52.197764 F200.000000
G1 X79.015572 Y52.250250 F200.000000
G1 X78.825072 Y52.344230 F200.000000
G1 X78.772657 Y52.356718 F200.000000
G1 X78.724679 Y52.381241 F200.000000
G1 X78.343679 Y52.477761 F200.000000
G1 X78.280271 Y52.479265 F200.000000
G1 X78.218436 Y52.493379 F200.000000
G1 X77.933956 F200.000000
G1 X77.872120 Y52.479265 F200.000000
G1 X77.808712 Y52.477761 F200.000000
G1 X77.427712 Y52.381241 F200.000000
G1 X77.379734 Y52.356718 F200.000000
G1 X77.327320 Y52.344230 F200.000000
G1 X77.136820 Y52.250250 F200.000000
G1 X77.072273 Y52.197764 F200.000000
G1 X77.001832 Y52.153503 F200.000000
G1 X76.811332 Y51.963003 F200.000000
G1 X76.809637 Y51.960306 F200.000000
G1 X76.806960 Y51.958578 F200.000000
G1 X76.749341 Y51.864345 F200.000000
G1 X76.690576 Y51.770821 F200.000000
G1 X76.690219 Y51.767656 F200.000000
G1 X76.688557 Y51.764938 F200.000000
G1 X76.592037 Y51.477918 F200.000000
G1 X76.583799 Y51.395810 F200.000000
G1 X76.565436 Y51.315359 F200.000000
G1 Y51.124859 F200.000000
G1 X76.583948 Y51.043752 F200.000000
G1 X76.592477 Y50.960998 F200.000000
G1 X76.688997 Y50.676518 F200.000000
G1 X76.747960 Y50.580669 F200.000000
G1 X76.806556 Y50.484595 F200.000000
G1 X76.900536 Y50.388075 F200.000000
G1 X77.091091 Y50.264767 F200.000000
G1 X77.152991 Y50.256956 F200.000000
G1 X77.131954 Y50.246297 F200.000000
G1 X77.070018 Y50.194828 F200.000000
G1 X77.001832 Y50.151983 F200.000000
G1 X76.811332 Y49.961483 F200.000000
G1 X76.810011 Y49.959381 F200.000000
G1 X76.807922 Y49.958041 F200.000000
G1 X76.749697 Y49.863392 F200.000000
G1 X76.690576 Y49.769301 F200.000000
G1 X76.690298 Y49.766834 F200.000000
G1 X76.688997 Y49.764720 F200.000000
G1 X76.592477 Y49.480240 F200.000000
G1 X76.583948 Y49.397486 F200.000000
G1 X76.565436 Y49.316379 F200.000000
G1 Y49.125879 F200.000000
G1 X76.583799 Y49.045428 F200.000000
G1 X76.592037 Y48.963320 F200.000000
G1 X76.688557 Y48.676300 F200.000000
G1 X76.690219 Y48.673582 F200.000000
G1 X76.690576 Y48.670417 F200.000000
G1 X76.749341 Y48.576893 F200.000000
G1 X76.806960 Y48.482660 F200.000000
G1 X76.809637 Y48.480932 F200.000000
G1 X76.811332 Y48.478235 F200.000000
G1 X76.894186 Y48.395381 F200.000000
G1 X76.806960 Y48.339078 F200.000000
G1 X76.688557 Y48.145438 F200.000000
G1 X76.592037 Y47.858418 F200.000000
G1 X76.583799 Y47.776310 F200.000000
G1 X76.565436 Y47.695859 F200.000000
G1 Y47.220879 F200.000000
G1 X76.566607 Y47.215748 F200.000000
G1 X76.565540 Y47.210594 F200.000000
G1 X76.591805 Y47.105350 F200.000000
G1 X76.615942 Y46.999599 F200.000000
G1 X76.619224 Y46.995484 F200.000000
G1 X76.620498 Y46.990377 F200.000000
G1 X76.717018 Y46.799877 F200.000000
G1 X76.766358 Y46.740503 F200.000000
G1 X76.806556 Y46.674595 F200.000000
G1 X76.900536 Y46.578075 F200.000000
G1 X76.973173 Y46.531072 F200.000000
G1 X77.040300 Y46.476488 F200.000000
G1 X77.230800 Y46.382508 F200.000000
G1 X77.233214 Y46.381933 F200.000000
G1 X77.235155 Y46.380385 F200.000000
G1 X77.343493 Y46.355658 F200.000000
G1 X77.451590 Y46.329903 F200.000000
G1 X77.454016 Y46.330432 F200.000000
G1 X77.456436 Y46.329880 F200.000000
G1 X77.646936 F200.000000
G1 X77.649356 Y46.330432 F200.000000
G1 X77.651781 Y46.329903 F200.000000
G1 X77.759879 Y46.355658 F200.000000
G1 X77.868216 Y46.380385 F200.000000
G1 X77.870157 Y46.381933 F200.000000
G1 X77.872572 Y46.382508 F200.000000
G1 X78.063072 Y46.476488 F200.000000
G1 X78.127619 Y46.528974 F200.000000
G1 X78.198060 Y46.573235 F200.000000
G1 X78.294580 Y46.669755 F200.000000
G1 X78.338841 Y46.740196 F200.000000
G1 X78.391326 Y46.804743 F200.000000
G1 X78.485306 Y46.995243 F200.000000
G1 X78.497795 Y47.047658 F200.000000
G1 X78.522318 Y47.095636 F200.000000
G1 X78.566956 Y47.271840 F200.000000
G1 Y47.208521 F200.000000
G1 X78.497477 Y47.003740 F200.000000
G1 X78.474208 Y46.777965 F200.000000
G1 X78.551204 Y46.564452 F200.000000
G1 X78.713215 Y46.405492 F200.000000
G1 X78.928152 Y46.332567 F200.000000
G1 X79.153444 Y46.360121 F200.000000
G1 X79.344470 Y46.482697 F200.000000
G1 X79.463394 Y46.676018 F200.000000
G0 Z0.500000
G0 X77.873657 Y50.478096
G1 Z-0.040000 F60.000000
G1 X77.811817 Y50.477017 F200.000000
G1 X77.668240 Y50.441601 F200.000000
G1 X77.694109 Y50.466790 F200.000000
G1 X77.771922 Y50.680006 F200.000000
G1 X77.749519 Y50.905868 F200.000000
G1 X77.631336 Y51.099643 F200.000000
G1 X77.617844 Y51.113499 F200.000000
G1 X77.585435 Y51.209021 F200.000000
G1 Y51.231903 F200.000000
G1 X77.617207 Y51.326382 F200.000000
G1 X77.663569 Y51.372744 F200.000000
G1 X77.730348 Y51.405688 F200.000000
G1 X77.997551 Y51.473380 F200.000000
G1 X78.154840 F200.000000
G1 X78.422044 Y51.405688 F200.000000
G1 X78.488823 Y51.372744 F200.000000
G1 X78.535185 Y51.326382 F200.000000
G1 X78.566956 Y51.231903 F200.000000
G1 Y51.209021 F200.000000
G1 X78.534547 Y51.113499 F200.000000
G1 X78.521056 Y51.099643 F200.000000
G1 X78.402873 Y50.905868 F200.000000
G1 X78.380469 Y50.680006 F200.000000
G1 X78.458283 Y50.466790 F200.000000
G1 X78.484152 Y50.441601 F200.000000
G1 X78.340575 Y50.477017 F200.000000
G1 X78.278735 Y50.478096 F200.000000
G1 X78.218436 Y50.491859 F200.000000
G1 X77.933956 F200.000000
G1 X77.873657 Y50.478096 F200.000000
G0 Z0.500000
G0 X79.463394 Y46.676018
G1 Z-0.040000 F60.000000
G1 X79.559914 Y46.960498 F200.000000
G1 X79.568443 Y47.043252 F200.000000
G1 X79.586955 Y47.124359 F200.000000
G1 Y47.601879 F200.000000
G1 X79.585784 Y47.607010 F200.000000
G1 X79.586852 Y47.612164 F200.000000
G1 X79.560587 Y47.717408 F200.000000
G1 X79.536449 Y47.823160 F200.000000
G1 X79.533168 Y47.827274 F200.000000
G1 X79.531894 Y47.832381 F200.000000
G1 X79.435374 Y48.022881 F200.000000
G1 X79.383904 Y48.084816 F200.000000
G1 X79.341060 Y48.153003 F200.000000
G1 X79.247080 Y48.246983 F200.000000
G1 X79.178893 Y48.289828 F200.000000
G1 X79.116958 Y48.341297 F200.000000
G1 X79.103175 Y48.348280 F200.000000
G1 X79.290310 Y48.433794 F200.000000
G1 X79.435374 Y48.608357 F200.000000
G1 X79.531894 Y48.798857 F200.000000
G1 X79.533168 Y48.803964 F200.000000
G1 X79.536449 Y48.808079 F200.000000
G1 X79.560587 Y48.913830 F200.000000
G1 X79.586852 Y49.019074 F200.000000
G1 X79.585784 Y49.024228 F200.000000
G1 X79.586955 Y49.029359 F200.000000
G1 Y49.316379 F200.000000
G1 X79.568443 Y49.397486 F200.000000
G1 X79.559914 Y49.480240 F200.000000
G1 X79.463394 Y49.764720 F200.000000
G1 X79.462094 Y49.766834 F200.000000
G1 X79.461816 Y49.769301 F200.000000
G1 X79.402694 Y49.863392 F200.000000
G1 X79.344470 Y49.958041 F200.000000
G1 X79.342381 Y49.959381 F200.000000
G1 X79.341060 Y49.961483 F200.000000
G0 Z0.500000
G0 X77.678014 Y48.046157
G1 Z-0.040000 F60.000000
G1 X77.609383 Y48.234880 F200.000000
G1 X77.933956 F200.000000
G1 X77.944249 Y48.237229 F200.000000
G1 X77.862652 Y48.157779 F200.000000
G1 X77.815649 Y48.085142 F200.000000
G1 X77.761065 Y48.018015 F200.000000
G1 X77.667085 Y47.827515 F200.000000
G1 X77.654597 Y47.775100 F200.000000
G1 X77.630074 Y47.727122 F200.000000
G1 X77.585435 Y47.550918 F200.000000
G1 Y47.612403 F200.000000
G1 X77.655354 Y47.820320 F200.000000
G1 X77.678014 Y48.046157 F200.000000
G0 Z0.500000
G0 X78.357622 Y48.478672
G1 Z-0.040000 F60.000000
G1 X78.393449 Y48.523599 F200.000000
G1 X78.406236 Y48.579621 F200.000000
G1 X78.431168 Y48.631393 F200.000000
G1 Y48.688857 F200.000000
G1 X78.443955 Y48.744879 F200.000000
G1 Y49.125879 F200.000000
G1 X78.393449 Y49.347160 F200.000000
G1 X78.327685 Y49.429625 F200.000000
G1 X78.420822 Y49.406651 F200.000000
G1 X78.486849 Y49.373198 F200.000000
G1 X78.535697 Y49.324349 F200.000000
G1 X78.566956 Y49.232217 F200.000000
G1 Y49.151186 F200.000000
G1 X78.525498 Y49.069361 F200.000000
G1 X78.470540 Y48.849144 F200.000000
G1 X78.516573 Y48.626890 F200.000000
G1 X78.619091 Y48.492879 F200.000000
G1 X78.505456 Y48.492879 F200.000000
G1 X78.500325 Y48.491707 F200.000000
G1 X78.495171 Y48.492775 F200.000000
G1 X78.389927 Y48.466510 F200.000000
G1 X78.347052 Y48.456724 F200.000000
G1 X78.357622 Y48.478672 F200.000000
G0 Z0.500000
G0 X77.585435 Y43.410879
G1 Z-0.040000 F60.000000
G1 Y43.419151 F200.000000
G1 X77.845708 Y43.158879 F200.000000
G1 X77.837436 F200.000000
G1 X77.777137 Y43.145116 F200.000000
G1 X77.715297 Y43.144037 F200.000000
G1 X77.445529 Y43.077495 F200.000000
G1 X77.534929 Y43.189599 F200.000000
G1 X77.585435 Y43.410879 F200.000000
G0 Z0.500000
G0 X78.498164 Y42.078402
G1 Z-0.040000 F60.000000
G1 X78.251360 Y42.015879 F200.000000
G1 X77.901031 F200.000000
G1 X77.654228 Y42.078402 F200.000000
G1 X77.899407 Y42.138880 F200.000000
G1 X78.252985 F200.000000
G1 X78.498164 Y42.078402 F200.000000
G0 Z0.500000
G0 X77.995479 Y40.739034
G1 Z-0.040000 F60.000000
G1 X78.008978 Y40.682379 F200.000000
G1 X77.585435 F200.000000
G1 Y40.743879 F200.000000
G1 X77.534929 Y40.965160 F200.000000
G1 X77.443742 Y41.079504 F200.000000
G1 X77.712192 Y41.011497 F200.000000
G1 X77.775600 Y41.009993 F200.000000
G1 X77.837436 Y40.995880 F200.000000
G1 X78.071327 F200.000000
G1 X78.043880 Y40.960784 F200.000000
G1 X77.995479 Y40.739034 F200.000000
G0 Z0.500000
G0 X79.585016 Y40.216815
G1 Z-0.040000 F60.000000
G1 X79.574168 Y40.250488 F200.000000
G1 Y40.285865 F200.000000
G1 X79.539747 Y40.357342 F200.000000
G1 X79.515422 Y40.432854 F200.000000
G1 X79.491039 Y40.458485 F200.000000
G1 X79.475689 Y40.490359 F200.000000
G1 X79.413664 Y40.539822 F200.000000
G1 X79.358984 Y40.597302 F200.000000
G1 X79.114479 Y40.759584 F200.000000
G1 X79.019571 Y40.854492 F200.000000
G1 X78.962826 Y40.969515 F200.000000
G1 X78.841689 Y41.118490 F200.000000
G1 X78.869177 Y41.132540 F200.000000
G1 X78.921592 Y41.145028 F200.000000
G1 X79.112092 Y41.239008 F200.000000
G1 X79.179219 Y41.293592 F200.000000
G1 X79.251856 Y41.340595 F200.000000
G1 X79.345836 Y41.437115 F200.000000
G1 X79.386033 Y41.503023 F200.000000
G1 X79.435374 Y41.562397 F200.000000
G1 X79.531894 Y41.752897 F200.000000
G1 X79.533168 Y41.758004 F200.000000
G1 X79.536449 Y41.762119 F200.000000
G1 X79.560587 Y41.867870 F200.000000
G1 X79.586852 Y41.973114 F200.000000
G1 X79.585784 Y41.978268 F200.000000
G1 X79.586955 Y41.983399 F200.000000
G1 Y42.173899 F200.000000
G1 X79.585784 Y42.179030 F200.000000
G1 X79.586852 Y42.184184 F200.000000
G1 X79.560587 Y42.289428 F200.000000
G1 X79.536449 Y42.395180 F200.000000
G1 X79.533168 Y42.399294 F200.000000
G1 X79.531894 Y42.404401 F200.000000
G1 X79.435374 Y42.594901 F200.000000
G1 X79.383904 Y42.656836 F200.000000
G1 X79.341060 Y42.725023 F200.000000
G1 X79.247080 Y42.819003 F200.000000
G1 X79.178893 Y42.861848 F200.000000
G1 X79.116958 Y42.913317 F200.000000
G1 X78.979644 Y42.982889 F200.000000
G1 X79.116958 Y43.052461 F200.000000
G1 X79.178893 Y43.103930 F200.000000
G1 X79.247080 Y43.146775 F200.000000
G1 X79.341060 Y43.240755 F200.000000
G1 X79.383904 Y43.308942 F200.000000
G1 X79.435374 Y43.370877 F200.000000
G1 X79.531894 Y43.561377 F200.000000
G1 X79.533168 Y43.566484 F200.000000
G1 X79.536449 Y43.570599 F200.000000
G1 X79.560587 Y43.676350 F200.000000
G1 X79.586852 Y43.781594 F200.000000
G1 X79.585784 Y43.786748 F200.000000
G1 X79.586955 Y43.791879 F200.000000
G1 Y44.269399 F200.000000
G1 X79.585784 Y44.274530 F200.000000
G1 X79.586852 Y44.279684 F200.000000
G1 X79.560587 Y44.384928 F200.000000
G1 X79.536449 Y44.490680 F200.000000
G1 X79.533168 Y44.494794 F200.000000
G1 X79.531894 Y44.499901 F200.000000
G1 X79.435374 Y44.690401 F200.000000
G1 X79.383904 Y44.752336 F200.000000
G1 X79.341060 Y44.820523 F200.000000
G1 X79.247080 Y44.914503 F200.000000
G1 X79.054898 Y45.035259 F200.000000
G1 X78.829354 Y45.060672 F200.000000
G1 X78.615120 Y44.985708 F200.000000
G1 X78.454627 Y44.825215 F200.000000
G1 X78.379663 Y44.610981 F200.000000
G1 X78.405076 Y44.385437 F200.000000
G1 X78.525832 Y44.193255 F200.000000
G1 X78.562274 Y44.156812 F200.000000
G1 X78.566956 Y44.147572 F200.000000
G1 Y43.928262 F200.000000
G1 X78.494433 Y43.952650 F200.000000
G1 X77.436060 Y45.011023 F200.000000
G1 X77.411500 Y45.026455 F200.000000
G1 X77.393415 Y45.049133 F200.000000
G1 X77.316326 Y45.086257 F200.000000
G1 X77.243878 Y45.131779 F200.000000
G1 X77.215055 Y45.135027 F200.000000
G1 X77.188921 Y45.147612 F200.000000
G1 X77.103359 F200.000000
G1 X77.018334 Y45.157192 F200.000000
G1 X76.990956 Y45.147612 F200.000000
G1 X76.961950 F200.000000
G1 X76.884861 Y45.110488 F200.000000
G1 X76.804100 Y45.082228 F200.000000
G1 X76.783589 Y45.061718 F200.000000
G1 X76.757456 Y45.049133 F200.000000
G1 X76.704109 Y44.982237 F200.000000
G1 X76.643607 Y44.921735 F200.000000
G1 X76.634027 Y44.894357 F200.000000
G1 X76.615942 Y44.871680 F200.000000
G1 X76.596903 Y44.788262 F200.000000
G1 X76.568643 Y44.707501 F200.000000
G1 X76.571891 Y44.678678 F200.000000
G1 X76.565436 Y44.650399 F200.000000
G1 Y43.410879 F200.000000
G1 X76.615942 Y43.189599 F200.000000
G1 X76.757456 Y43.012145 F200.000000
G1 X76.961950 Y42.913666 F200.000000
G1 X77.036124 F200.000000
G1 X77.035434 Y42.913317 F200.000000
G1 X76.973498 Y42.861848 F200.000000
G1 X76.905312 Y42.819003 F200.000000
G1 X76.811332 Y42.725023 F200.000000
G1 X76.768487 Y42.656836 F200.000000
G1 X76.717018 Y42.594901 F200.000000
G1 X76.620498 Y42.404401 F200.000000
G1 X76.619224 Y42.399294 F200.000000
G1 X76.615942 Y42.395180 F200.000000
G1 X76.591805 Y42.289428 F200.000000
G1 X76.565540 Y42.184184 F200.000000
G1 X76.566607 Y42.179030 F200.000000
G1 X76.565436 Y42.173899 F200.000000
G1 Y41.983399 F200.000000
G1 X76.566607 Y41.978268 F200.000000
G1 X76.565540 Y41.973114 F200.000000
G1 X76.591805 Y41.867870 F200.000000
G1 X76.615942 Y41.762119 F200.000000
G1 X76.619224 Y41.758004 F200.000000
G1 X76.620498 Y41.752897 F200.000000
G1 X76.717018 Y41.562397 F200.000000
G1 X76.766358 Y41.503023 F200.000000
G1 X76.806556 Y41.437115 F200.000000
G1 X76.900536 Y41.340595 F200.000000
G1 X76.973173 Y41.293592 F200.000000
G1 X77.037738 Y41.241092 F200.000000
G1 X76.961950 F200.000000
G1 X76.757456 Y41.142613 F200.000000
G1 X76.615942 Y40.965160 F200.000000
G1 X76.565436 Y40.743879 F200.000000
G1 Y39.600879 F200.000000
G1 X76.615942 Y39.379599 F200.000000
G1 X76.757456 Y39.202145 F200.000000
G1 X76.798936 Y39.182170 F200.000000
G1 X76.766358 Y39.128755 F200.000000
G1 X76.717018 Y39.069381 F200.000000
G1 X76.620498 Y38.878881 F200.000000
G1 X76.619224 Y38.873774 F200.000000
G1 X76.615942 Y38.869660 F200.000000
G1 X76.591805 Y38.763908 F200.000000
G0 Z0.500000
G0 X77.631336 Y38.579615
G1 Z-0.040000 F60.000000
G1 X77.749519 Y38.773390 F200.000000
G1 X77.771922 Y38.999252 F200.000000
G1 X77.694109 Y39.212468 F200.000000
G1 X77.531490 Y39.370807 F200.000000
G1 X77.528672 Y39.371751 F200.000000
G1 X77.534929 Y39.379599 F200.000000
G1 X77.585435 Y39.600879 F200.000000
G1 Y39.662380 F200.000000
G1 X79.076956 F200.000000
G1 X79.154300 Y39.680033 F200.000000
G1 X79.233332 Y39.686945 F200.000000
G1 X79.263747 Y39.705013 F200.000000
G1 X79.298236 Y39.712885 F200.000000
G1 X79.360262 Y39.762349 F200.000000
G1 X79.428468 Y39.802867 F200.000000
G1 X79.448031 Y39.832343 F200.000000
G1 X79.475689 Y39.854400 F200.000000
G1 X79.510111 Y39.925877 F200.000000
G1 X79.553982 Y39.991976 F200.000000
G1 X79.558819 Y40.027020 F200.000000
G1 X79.574168 Y40.058893 F200.000000
G1 Y40.138227 F200.000000
G1 X79.585016 Y40.216815 F200.000000
G0 Z0.500000
G0 X79.525649 Y37.453445
G1 Z-0.040000 F60.000000
G1 X79.528893 Y37.465123 F200.000000
G1 X79.536449 Y37.474599 F200.000000
G1 X79.559125 Y37.573948 F200.000000
G1 X79.586402 Y37.672135 F200.000000
G1 X79.584258 Y37.684063 F200.000000
G1 X79.586955 Y37.695879 F200.000000
G1 Y38.935399 F200.000000
G1 X79.536449 Y39.156680 F200.000000
G1 X79.394935 Y39.334133 F200.000000
G1 X79.190441 Y39.432612 F200.000000
G1 X78.963470 F200.000000
G1 X78.758976 Y39.334133 F200.000000
G1 X78.617462 Y39.156680 F200.000000
G1 X78.566956 Y38.935399 F200.000000
G1 Y38.794406 F200.000000
G1 X78.541122 Y38.806847 F200.000000
G1 X78.451467 Y38.855289 F200.000000
G1 X78.439361 Y38.855853 F200.000000
G1 X78.428441 Y38.861112 F200.000000
G1 X78.326537 F200.000000
G1 X78.224742 Y38.865856 F200.000000
G1 X78.213590 Y38.861112 F200.000000
G1 X78.201470 Y38.861112 F200.000000
G1 X78.109657 Y38.816897 F200.000000
G1 X78.015885 Y38.777005 F200.000000
G1 X78.007896 Y38.767891 F200.000000
G1 X77.996976 Y38.762633 F200.000000
G1 X77.933440 Y38.682960 F200.000000
G1 X77.866263 Y38.606333 F200.000000
G1 X77.863019 Y38.594655 F200.000000
G1 X77.855462 Y38.585180 F200.000000
G1 X77.832786 Y38.485830 F200.000000
G1 X77.805509 Y38.387644 F200.000000
G1 X77.807653 Y38.375715 F200.000000
G1 X77.804956 Y38.363899 F200.000000
G1 Y38.205879 F200.000000
G1 X77.585435 F200.000000
G1 Y38.526552 F200.000000
G1 X77.591691 Y38.538899 F200.000000
G1 X77.631336 Y38.579615 F200.000000
G0 Z0.500000
G0 X76.591805 Y38.763908
G1 Z-0.040000 F60.000000
G1 X76.565540 Y38.658664 F200.000000
G1 X76.566607 Y38.653510 F200.000000
G1 X76.565436 Y38.648379 F200.000000
G1 Y38.076879 F200.000000
G1 X76.566607 Y38.071748 F200.000000
G1 X76.565540 Y38.066594 F200.000000
G1 X76.591805 Y37.961350 F200.000000
G1 X76.615942 Y37.855599 F200.000000
G1 X76.619224 Y37.851484 F200.000000
G1 X76.620498 Y37.846377 F200.000000
G1 X76.717018 Y37.655877 F200.000000
G1 X76.768487 Y37.593942 F200.000000
G1 X76.811332 Y37.525755 F200.000000
G1 X76.905312 Y37.431775 F200.000000
G1 X76.973498 Y37.388930 F200.000000
G1 X77.035434 Y37.337461 F200.000000
G1 X77.225934 Y37.240941 F200.000000
G1 X77.231040 Y37.239667 F200.000000
G1 X77.235155 Y37.236385 F200.000000
G1 X77.340907 Y37.212248 F200.000000
G1 X77.446151 Y37.185983 F200.000000
G1 X77.451305 Y37.187051 F200.000000
G1 X77.456436 Y37.185880 F200.000000
G1 X77.933956 F200.000000
G1 X77.939087 Y37.187051 F200.000000
G1 X77.944241 Y37.185983 F200.000000
G1 X78.049484 Y37.212248 F200.000000
G1 X78.155236 Y37.236385 F200.000000
G1 X78.159351 Y37.239667 F200.000000
G1 X78.164458 Y37.240941 F200.000000
G1 X78.354958 Y37.337461 F200.000000
G1 X78.416893 Y37.388930 F200.000000
G1 X78.485080 Y37.431775 F200.000000
G1 X78.540897 Y37.487592 F200.000000
G1 X78.740757 Y37.312382 F200.000000
G1 X78.751420 Y37.306621 F200.000000
G1 X78.758976 Y37.297145 F200.000000
G1 X78.850789 Y37.252931 F200.000000
G1 X78.940444 Y37.204489 F200.000000
G1 X78.952551 Y37.203925 F200.000000
G1 X78.963470 Y37.198666 F200.000000
G1 X79.065375 F200.000000
G1 X79.167169 Y37.193922 F200.000000
G1 X79.178322 Y37.198666 F200.000000
G1 X79.190441 F200.000000
G1 X79.282254 Y37.242881 F200.000000
G1 X79.376026 Y37.282773 F200.000000
G1 X79.384016 Y37.291887 F200.000000
G1 X79.394935 Y37.297145 F200.000000
G1 X79.458472 Y37.376818 F200.000000
G1 X79.525649 Y37.453445 F200.000000
G0 Z0.500000
G0 X13.552697 Y22.425776
G1 Z-0.040000 F60.000000
G1 X13.569930 Y22.350273 F200.000000
G1 X13.586069 Y22.330035 F200.000000
G1 X13.594589 Y22.305593 F200.000000
G1 X13.713969 Y22.115093 F200.000000
G1 X13.769664 Y22.059264 F200.000000
G1 X13.819219 Y21.997920 F200.000000
G1 X13.938599 Y21.903940 F200.000000
G1 X13.997372 Y21.876090 F200.000000
G1 X14.050733 Y21.838909 F200.000000
G1 X14.289493 Y21.742389 F200.000000
G1 X14.332671 Y21.735431 F200.000000
G1 X14.372611 Y21.717608 F200.000000
G1 X14.847591 Y21.623628 F200.000000
G1 X14.892791 Y21.624942 F200.000000
G1 X14.936876 Y21.614879 F200.000000
G1 X15.533776 F200.000000
G1 X15.577861 Y21.624942 F200.000000
G1 X15.623061 Y21.623628 F200.000000
G1 X16.098041 Y21.717608 F200.000000
G1 X16.137980 Y21.735431 F200.000000
G1 X16.181159 Y21.742389 F200.000000
G1 X16.419919 Y21.838909 F200.000000
G1 X16.473280 Y21.876090 F200.000000
G1 X16.532053 Y21.903940 F200.000000
G1 X16.651433 Y21.997920 F200.000000
G1 X16.702348 Y22.060948 F200.000000
G1 X16.759017 Y22.118858 F200.000000
G1 X16.875857 Y22.309358 F200.000000
G1 X16.883429 Y22.331774 F200.000000
G1 X16.898181 Y22.350273 F200.000000
G1 X16.915896 Y22.427887 F200.000000
G1 X16.941374 Y22.503310 F200.000000
G1 X16.938470 Y22.526792 F200.000000
G1 X16.943735 Y22.549859 F200.000000
G1 Y22.740359 F200.000000
G1 X16.938470 Y22.763426 F200.000000
G1 X16.941374 Y22.786908 F200.000000
G1 X16.915896 Y22.862331 F200.000000
G1 X16.898181 Y22.939945 F200.000000
G1 X16.883429 Y22.958444 F200.000000
G1 X16.875857 Y22.980860 F200.000000
G1 X16.759017 Y23.171360 F200.000000
G1 X16.704392 Y23.227181 F200.000000
G1 X16.656108 Y23.288569 F200.000000
G1 X16.536728 Y23.385089 F200.000000
G1 X16.473829 Y23.415901 F200.000000
G1 X16.415997 Y23.455414 F200.000000
G1 X16.177237 Y23.549394 F200.000000
G1 X16.137228 Y23.555465 F200.000000
G1 X16.100359 Y23.572145 F200.000000
G1 X15.993357 Y23.593889 F200.000000
G1 X16.053528 Y23.661410 F200.000000
G1 X16.109927 Y23.858207 F200.000000
G1 X16.075354 Y24.059986 F200.000000
G1 X15.956656 Y24.226781 F200.000000
G1 X15.777343 Y24.325558 F200.000000
G1 X15.658210 Y24.359700 F200.000000
G1 X15.776720 Y24.393482 F200.000000
G1 X15.956172 Y24.492006 F200.000000
G1 X16.075105 Y24.658634 F200.000000
G1 X16.109962 Y24.860364 F200.000000
G1 X16.053840 Y25.057240 F200.000000
G1 X15.917855 Y25.210269 F200.000000
G1 X15.728940 Y25.289141 F200.000000
G1 X15.524511 Y25.278236 F200.000000
G1 X13.858271 Y24.803256 F200.000000
G1 X13.789795 Y24.765660 F200.000000
G1 X13.717664 Y24.735665 F200.000000
G1 X13.700903 Y24.716857 F200.000000
G1 X13.678819 Y24.704732 F200.000000
G1 X13.633436 Y24.641149 F200.000000
G1 X13.581463 Y24.582828 F200.000000
G1 X13.574523 Y24.558610 F200.000000
G1 X13.559887 Y24.538104 F200.000000
G1 X13.546586 Y24.461126 F200.000000
G1 X13.525064 Y24.386031 F200.000000
G1 X13.529319 Y24.361200 F200.000000
G1 X13.525029 Y24.336374 F200.000000
G1 X13.546445 Y24.261249 F200.000000
G1 X13.559637 Y24.184252 F200.000000
G1 X13.574245 Y24.163726 F200.000000
G1 X13.581151 Y24.139498 F200.000000
G1 X13.633041 Y24.081104 F200.000000
G1 X13.678335 Y24.017457 F200.000000
G1 X13.700402 Y24.005301 F200.000000
G1 X13.717136 Y23.986469 F200.000000
G1 X13.789224 Y23.956372 F200.000000
G1 X13.857648 Y23.918680 F200.000000
G1 X14.777848 Y23.654964 F200.000000
G1 X14.370292 Y23.572145 F200.000000
G1 X14.333423 Y23.555465 F200.000000
G1 X14.293414 Y23.549394 F200.000000
G1 X14.054654 Y23.455414 F200.000000
G1 X13.996823 Y23.415901 F200.000000
G1 X13.933924 Y23.385089 F200.000000
G1 X13.814544 Y23.288569 F200.000000
G1 X13.767599 Y23.228884 F200.000000
G1 X13.713969 Y23.175125 F200.000000
G1 X13.594589 Y22.984625 F200.000000
G1 X13.586069 Y22.960183 F200.000000
G1 X13.569930 Y22.939945 F200.000000
G1 X13.552697 Y22.864443 F200.000000
G1 X13.527207 Y22.791313 F200.000000
G1 X13.530136 Y22.765595 F200.000000
G1 X13.524376 Y22.740359 F200.000000
G1 Y22.549859 F200.000000
G1 X13.530136 Y22.524623 F200.000000
G1 X13.527207 Y22.498905 F200.000000
G1 X13.552697 Y22.425776 F200.000000
G0 Z0.500000
G0 X15.961108 Y22.645762
G1 Z-0.040000 F60.000000
G1 X15.876738 Y22.611655 F200.000000
G1 X15.488705 Y22.534879 F200.000000
G1 X14.981947 F200.000000
G1 X14.593913 Y22.611655 F200.000000
G1 X14.509543 Y22.645762 F200.000000
G1 X14.592934 Y22.678586 F200.000000
G1 X14.983141 Y22.757879 F200.000000
G1 X15.487511 F200.000000
G1 X15.877718 Y22.678586 F200.000000
G1 X15.961108 Y22.645762 F200.000000
G0 Z0.500000
G0 X16.159782 Y20.604645
G1 Z-0.040000 F60.000000
G1 X16.015198 Y20.749577 F200.000000
G1 X15.822049 Y20.817424 F200.000000
G1 X15.618589 Y20.794747 F200.000000
G1 X15.445118 Y20.686039 F200.000000
G1 X15.335993 Y20.512829 F200.000000
G1 X15.312827 Y20.309425 F200.000000
G1 X15.333931 Y20.248879 F200.000000
G1 X14.444375 F200.000000
G1 Y20.360379 F200.000000
G1 X14.398821 Y20.559965 F200.000000
G1 X14.279789 Y20.709227 F200.000000
G1 X14.298342 Y20.718316 F200.000000
G1 X14.388141 Y20.760820 F200.000000
G1 X14.390129 Y20.763279 F200.000000
G1 X14.392968 Y20.764670 F200.000000
G1 X14.512197 Y20.861068 F200.000000
G1 X14.512348 Y20.861190 F200.000000
G1 X14.543448 Y20.900729 F200.000000
G1 X14.582778 Y20.932094 F200.000000
G1 X14.605885 Y20.980077 F200.000000
G1 X14.638828 Y21.021924 F200.000000
G1 X14.638850 Y21.022020 F200.000000
G1 X14.638911 Y21.022098 F200.000000
G1 X14.649776 Y21.071216 F200.000000
G1 X14.671602 Y21.116539 F200.000000
G1 Y21.169797 F200.000000
G1 X14.683126 Y21.221793 F200.000000
G1 X14.683104 Y21.221889 F200.000000
G1 X14.683125 Y21.221986 F200.000000
G1 X14.671602 Y21.270953 F200.000000
G1 Y21.321259 F200.000000
G1 X14.648495 Y21.369242 F200.000000
G1 X14.636317 Y21.421088 F200.000000
G1 X14.636255 Y21.421165 F200.000000
G1 X14.636232 Y21.421262 F200.000000
G1 X14.604604 Y21.460381 F200.000000
G1 X14.582778 Y21.505704 F200.000000
G1 X14.541140 Y21.538910 F200.000000
G1 X14.507673 Y21.580338 F200.000000
G1 X14.507521 Y21.580458 F200.000000
G0 Z0.500000
G0 X14.507521 Y21.580458
G1 Z-0.040000 F60.000000
G1 X14.388293 Y21.674318 F200.000000
G1 X14.298342 Y21.716941 F200.000000
G1 X14.208934 Y21.760693 F200.000000
G1 X14.205971 Y21.760711 F200.000000
G1 X14.203292 Y21.761980 F200.000000
G1 X14.103756 Y21.761354 F200.000000
G1 X14.004219 Y21.761980 F200.000000
G1 X14.001541 Y21.760711 F200.000000
G1 X13.998577 Y21.760693 F200.000000
G1 X13.909170 Y21.716941 F200.000000
G1 X13.819219 Y21.674318 F200.000000
G1 X13.699990 Y21.580458 F200.000000
G1 X13.699839 Y21.580338 F200.000000
G1 X13.666372 Y21.538910 F200.000000
G1 X13.624734 Y21.505704 F200.000000
G1 X13.602907 Y21.460381 F200.000000
G1 X13.571279 Y21.421262 F200.000000
G1 X13.571256 Y21.421165 F200.000000
G1 X13.571194 Y21.421088 F200.000000
G1 X13.559017 Y21.369242 F200.000000
G1 X13.535909 Y21.321259 F200.000000
G1 Y21.270953 F200.000000
G1 X13.524386 Y21.221986 F200.000000
G1 X13.524408 Y21.221889 F200.000000
G1 X13.524385 Y21.221793 F200.000000
G1 X13.535909 Y21.169797 F200.000000
G1 Y21.116539 F200.000000
G1 X13.557736 Y21.071216 F200.000000
G1 X13.568600 Y21.022098 F200.000000
G1 X13.568662 Y21.022020 F200.000000
G1 X13.568683 Y21.021924 F200.000000
G1 X13.601626 Y20.980077 F200.000000
G1 X13.624734 Y20.932094 F200.000000
G1 X13.664064 Y20.900729 F200.000000
G1 X13.695164 Y20.861190 F200.000000
G1 X13.695314 Y20.861068 F200.000000
G1 X13.805488 Y20.771991 F200.000000
G1 X13.697571 Y20.720021 F200.000000
G1 X13.569930 Y20.559965 F200.000000
G1 X13.524376 Y20.360379 F200.000000
G1 Y19.217379 F200.000000
G1 X13.569930 Y19.017793 F200.000000
G1 X13.697571 Y18.857737 F200.000000
G1 X13.882016 Y18.768913 F200.000000
G1 X14.086735 F200.000000
G1 X14.271181 Y18.857737 F200.000000
G1 X14.398821 Y19.017793 F200.000000
G1 X14.444375 Y19.217379 F200.000000
G1 Y19.328879 F200.000000
G1 X16.483736 F200.000000
G1 X16.574125 Y19.349510 F200.000000
G1 X16.665318 Y19.366235 F200.000000
G1 X16.673477 Y19.372187 F200.000000
G1 X16.683322 Y19.374434 F200.000000
G1 X16.755809 Y19.432240 F200.000000
G1 X16.830714 Y19.486876 F200.000000
G1 X16.835482 Y19.495778 F200.000000
G1 X16.843378 Y19.502074 F200.000000
G1 X16.883605 Y19.585606 F200.000000
G1 X16.927386 Y19.667331 F200.000000
G1 X16.927821 Y19.677421 F200.000000
G1 X16.932202 Y19.686519 F200.000000
G1 Y19.779233 F200.000000
G1 X16.936189 Y19.871861 F200.000000
G1 X16.932202 Y19.881140 F200.000000
G1 Y19.891239 F200.000000
G1 X16.891975 Y19.974771 F200.000000
G1 X16.855377 Y20.059955 F200.000000
G1 X16.847760 Y20.066585 F200.000000
G1 X16.843378 Y20.075684 F200.000000
G1 X16.770891 Y20.133490 F200.000000
G1 X16.700957 Y20.194359 F200.000000
G1 X16.382283 Y20.365078 F200.000000
G1 X16.237539 Y20.480565 F200.000000
G1 X16.159782 Y20.604645 F200.000000
G0 Z0.500000
G0 X18.451810 Y28.591445
G1 Z-0.040000 F60.000000
G1 X18.424287 Y28.470859 F200.000000
G1 X18.260085 Y28.470859 F200.000000
G1 X18.254375 Y28.484465 F200.000000
G1 Y28.490509 F200.000000
G1 X18.293074 Y28.583550 F200.000000
G1 X18.385349 Y28.657175 F200.000000
G1 X18.522314 Y28.711086 F200.000000
G1 X18.552037 Y28.717126 F200.000000
G1 X18.451810 Y28.591445 F200.000000
G0 Z0.500000
G0 X20.501520 Y27.565276
G1 Z-0.040000 F60.000000
G1 X20.496980 Y27.566407 F200.000000
G1 X20.493322 Y27.569324 F200.000000
G1 X20.397874 Y27.591110 F200.000000
G1 X20.302878 Y27.614788 F200.000000
G1 X20.298297 Y27.613837 F200.000000
G1 X20.293736 Y27.614879 F200.000000
G1 X19.088996 Y27.614879 F200.000000
G1 X19.106364 Y27.628729 F200.000000
G1 X19.153061 Y27.651217 F200.000000
G1 X19.185376 Y27.691739 F200.000000
G1 X19.225898 Y27.724054 F200.000000
G1 X19.248386 Y27.770751 F200.000000
G1 X19.280701 Y27.811273 F200.000000
G1 X19.292234 Y27.861803 F200.000000
G1 X19.314722 Y27.908499 F200.000000
G1 Y27.960329 F200.000000
G1 X19.326255 Y28.010859 F200.000000
G1 Y28.391859 F200.000000
G1 X19.280701 Y28.591445 F200.000000
G1 X19.153061 Y28.751501 F200.000000
G1 X19.072329 Y28.790379 F200.000000
G1 X19.178131 F200.000000
G1 X19.568338 Y28.711086 F200.000000
G1 X19.705302 Y28.657175 F200.000000
G1 X19.796126 Y28.584709 F200.000000
G1 X19.833736 Y28.492318 F200.000000
G1 Y28.427708 F200.000000
G1 X19.784775 Y28.347880 F200.000000
G1 X19.719257 Y28.153928 F200.000000
G1 X19.744381 Y27.950756 F200.000000
G1 X19.855170 Y27.778606 F200.000000
G1 X20.029680 Y27.671573 F200.000000
G1 X20.233348 Y27.650857 F200.000000
G1 X20.425835 Y27.720560 F200.000000
G1 X20.569017 Y27.866878 F200.000000
G1 X20.685857 Y28.057378 F200.000000
G1 X20.693429 Y28.079794 F200.000000
G1 X20.708181 Y28.098293 F200.000000
G1 X20.725896 Y28.175907 F200.000000
G1 X20.751374 Y28.251330 F200.000000
G1 X20.748470 Y28.274812 F200.000000
G1 X20.753735 Y28.297879 F200.000000
G1 Y28.582359 F200.000000
G1 X20.734063 Y28.668549 F200.000000
G1 X20.719787 Y28.755796 F200.000000
G1 X20.602947 Y29.042816 F200.000000
G1 X20.594617 Y29.054708 F200.000000
G1 X20.591390 Y29.068864 F200.000000
G1 X20.536252 Y29.138040 F200.000000
G1 X20.485503 Y29.210497 F200.000000
G1 X20.472838 Y29.217597 F200.000000
G1 X20.463788 Y29.228951 F200.000000
G1 X20.225028 Y29.419451 F200.000000
G1 X20.163245 Y29.449223 F200.000000
G1 X20.106617 Y29.487914 F200.000000
G1 X19.867857 Y29.581894 F200.000000
G1 X19.827848 Y29.587965 F200.000000
G1 X19.790979 Y29.604645 F200.000000
G1 X19.315999 Y29.701165 F200.000000
G1 X19.269623 Y29.700056 F200.000000
G1 X19.224396 Y29.710379 F200.000000
G1 X18.866256 F200.000000
G1 X18.821029 Y29.700056 F200.000000
G1 X18.774652 Y29.701165 F200.000000
G1 X18.299672 Y29.604645 F200.000000
G1 X18.262803 Y29.587965 F200.000000
G1 X18.222794 Y29.581894 F200.000000
G1 X17.984034 Y29.487914 F200.000000
G1 X17.927407 Y29.449223 F200.000000
G1 X17.865623 Y29.419451 F200.000000
G1 X17.626863 Y29.228951 F200.000000
G1 X17.618912 Y29.218976 F200.000000
G1 X17.607739 Y29.212822 F200.000000
G1 X17.555458 Y29.139368 F200.000000
G1 X17.499262 Y29.068864 F200.000000
G1 X17.496426 Y29.056427 F200.000000
G1 X17.489030 Y29.046035 F200.000000
G1 X17.369650 Y28.759015 F200.000000
G1 X17.354426 Y28.670205 F200.000000
G1 X17.334376 Y28.582359 F200.000000
G1 Y28.391859 F200.000000
G1 X17.354584 Y28.303321 F200.000000
G1 X17.370210 Y28.213861 F200.000000
G1 X17.489590 Y27.929381 F200.000000
G1 X17.495711 Y27.920839 F200.000000
G1 X17.497980 Y27.910578 F200.000000
G1 X17.555056 Y27.838015 F200.000000
G1 X17.608826 Y27.762970 F200.000000
G1 X17.618047 Y27.757929 F200.000000
G1 X17.624544 Y27.749670 F200.000000
G1 X17.743924 Y27.653150 F200.000000
G1 X17.791837 Y27.629679 F200.000000
G1 X17.810395 Y27.614879 F200.000000
G1 X17.794376 Y27.614879 F200.000000
G1 X17.594789 Y27.569324 F200.000000
G1 X17.434734 Y27.441684 F200.000000
G1 X17.345909 Y27.257239 F200.000000
G1 Y27.052519 F200.000000
G1 X17.434734 Y26.868074 F200.000000
G1 X17.594789 Y26.740434 F200.000000
G1 X17.794376 Y26.694879 F200.000000
G1 X18.181811 F200.000000
G1 X17.603066 Y26.430209 F200.000000
G1 X17.599351 Y26.427365 F200.000000
G1 X17.594789 Y26.426324 F200.000000
G1 X17.518246 Y26.365283 F200.000000
G1 X17.440505 Y26.305776 F200.000000
G1 X17.438392 Y26.301601 F200.000000
G1 X17.434734 Y26.298684 F200.000000
G1 X17.392255 Y26.210477 F200.000000
G1 X17.348032 Y26.123132 F200.000000
G1 X17.347939 Y26.118454 F200.000000
G1 X17.345909 Y26.114239 F200.000000
G1 Y26.016336 F200.000000
G1 X17.343963 Y25.918453 F200.000000
G1 X17.345909 Y25.914198 F200.000000
G1 Y25.909519 F200.000000
G1 X17.388388 Y25.821313 F200.000000
G1 X17.429104 Y25.732279 F200.000000
G1 X17.432704 Y25.729289 F200.000000
G1 X17.434734 Y25.725074 F200.000000
G1 X17.511277 Y25.664033 F200.000000
G1 X17.586591 Y25.601482 F200.000000
G1 X17.591131 Y25.600351 F200.000000
G1 X17.594789 Y25.597434 F200.000000
G1 X17.690237 Y25.575648 F200.000000
G1 X17.785233 Y25.551970 F200.000000
G1 X17.789814 Y25.552921 F200.000000
G1 X17.794376 Y25.551879 F200.000000
G1 X20.293736 F200.000000
G1 X20.493322 Y25.597434 F200.000000
G1 X20.653378 Y25.725074 F200.000000
G1 X20.742202 Y25.909519 F200.000000
G1 Y26.114239 F200.000000
G1 X20.653378 Y26.298684 F200.000000
G1 X20.493322 Y26.426324 F200.000000
G1 X20.293736 Y26.471879 F200.000000
G1 X19.906300 F200.000000
G1 X20.485045 Y26.736549 F200.000000
G1 X20.488761 Y26.739393 F200.000000
G1 X20.493322 Y26.740434 F200.000000
G1 X20.569865 Y26.801475 F200.000000
G1 X20.647606 Y26.860983 F200.000000
G1 X20.649720 Y26.865157 F200.000000
G1 X20.653378 Y26.868074 F200.000000
G1 X20.695856 Y26.956281 F200.000000
G1 X20.740079 Y27.043626 F200.000000
G1 X20.740172 Y27.048304 F200.000000
G1 X20.742202 Y27.052519 F200.000000
G1 Y27.150422 F200.000000
G1 X20.744148 Y27.248305 F200.000000
G1 X20.742202 Y27.252560 F200.000000
G1 Y27.257239 F200.000000
G1 X20.699724 Y27.345446 F200.000000
G1 X20.659007 Y27.434479 F200.000000
G1 X20.655408 Y27.437469 F200.000000
G1 X20.653378 Y27.441684 F200.000000
G1 X20.576835 Y27.502725 F200.000000
G1 X20.501520 Y27.565276 F200.000000
G0 Z0.500000
G0 X18.645016 Y24.483965
G1 Z-0.040000 F60.000000
G1 X18.611670 Y24.404501 F200.000000
G1 X18.540223 Y24.376379 F200.000000
G1 X18.359169 F200.000000
G1 X18.267385 Y24.412506 F200.000000
G1 X18.262732 Y24.416269 F200.000000
G1 X18.254375 Y24.429603 F200.000000
G1 Y24.599379 F200.000000
G1 X18.645016 F200.000000
G1 Y24.483965 F200.000000
G0 Z0.500000
G0 X19.565015 Y24.599379
G1 Z-0.040000 F60.000000
G1 X19.833736 F200.000000
G1 Y24.521188 F200.000000
G1 X19.827759 Y24.511443 F200.000000
G1 X19.824418 Y24.508813 F200.000000
G1 X19.729294 Y24.470359 F200.000000
G1 X19.670348 F200.000000
G1 X19.577561 Y24.508272 F200.000000
G1 X19.571738 Y24.512856 F200.000000
G1 X19.565015 Y24.523583 F200.000000
G1 Y24.599379 F200.000000
G0 Z0.500000
G0 X18.254375 Y22.641155
G1 Z-0.040000 F60.000000
G1 X18.262732 Y22.654489 F200.000000
G1 X18.267385 Y22.658252 F200.000000
G1 X18.359169 Y22.694379 F200.000000
G1 X18.898363 F200.000000
G1 X18.990146 Y22.658252 F200.000000
G1 X18.993028 Y22.655922 F200.000000
G1 X19.000616 Y22.643550 F200.000000
G1 Y22.618728 F200.000000
G1 X18.993028 Y22.606356 F200.000000
G1 X18.990146 Y22.604026 F200.000000
G1 X18.898363 Y22.567899 F200.000000
G1 X18.359169 F200.000000
G1 X18.267385 Y22.604026 F200.000000
G1 X18.262732 Y22.607789 F200.000000
G1 X18.254375 Y22.621123 F200.000000
G1 Y22.641155 F200.000000
G0 Z0.500000
G0 X19.918254 Y21.105428
G1 Z-0.040000 F60.000000
G1 X19.892776 Y21.180851 F200.000000
G1 X19.875061 Y21.258465 F200.000000
G1 X19.860309 Y21.276964 F200.000000
G1 X19.852737 Y21.299380 F200.000000
G1 X19.735897 Y21.489880 F200.000000
G1 X19.592715 Y21.636198 F200.000000
G1 X19.400228 Y21.705902 F200.000000
G1 X19.196560 Y21.685185 F200.000000
G1 X19.022050 Y21.578152 F200.000000
G1 X18.987502 Y21.524469 F200.000000
G1 X18.969016 Y21.557541 F200.000000
G1 X18.917317 Y21.593851 F200.000000
G1 X18.872698 Y21.638577 F200.000000
G1 X18.846160 Y21.647899 F200.000000
G1 X18.985636 F200.000000
G1 X19.069286 Y21.666992 F200.000000
G1 X19.154117 Y21.679864 F200.000000
G1 X19.392877 Y21.773844 F200.000000
G1 X19.450709 Y21.813357 F200.000000
G1 X19.513608 Y21.844170 F200.000000
G1 X19.632988 Y21.940690 F200.000000
G1 X19.681272 Y22.002077 F200.000000
G1 X19.735897 Y22.057898 F200.000000
G1 X19.852737 Y22.248398 F200.000000
G1 X19.860309 Y22.270814 F200.000000
G1 X19.875061 Y22.289313 F200.000000
G1 X19.892776 Y22.366927 F200.000000
G1 X19.918254 Y22.442350 F200.000000
G1 X19.915350 Y22.465832 F200.000000
G1 X19.920615 Y22.488899 F200.000000
G1 Y22.773379 F200.000000
G1 X19.915350 Y22.796446 F200.000000
G1 X19.918254 Y22.819928 F200.000000
G1 X19.892776 Y22.895351 F200.000000
G1 X19.875061 Y22.972965 F200.000000
G1 X19.860309 Y22.991464 F200.000000
G1 X19.852737 Y23.013880 F200.000000
G1 X19.735897 Y23.204380 F200.000000
G1 X19.681272 Y23.260201 F200.000000
G1 X19.632988 Y23.321589 F200.000000
G1 X19.513608 Y23.418109 F200.000000
G1 X19.450709 Y23.448921 F200.000000
G1 X19.392877 Y23.488434 F200.000000
G1 X19.154117 Y23.582414 F200.000000
G1 X19.069286 Y23.595286 F200.000000
G1 X19.057609 Y23.597951 F200.000000
G1 X19.092569 Y23.621837 F200.000000
G1 X19.155468 Y23.652650 F200.000000
G1 X19.183612 Y23.675404 F200.000000
G1 X19.406003 Y23.584535 F200.000000
G1 X19.493520 Y23.570097 F200.000000
G1 X19.579996 Y23.550359 F200.000000
G1 X19.818756 F200.000000
G1 X19.904415 Y23.569911 F200.000000
G1 X19.991159 Y23.583889 F200.000000
G1 X20.229919 Y23.680409 F200.000000
G1 X20.283280 Y23.717590 F200.000000
G1 X20.342053 Y23.745440 F200.000000
G1 X20.461433 Y23.839420 F200.000000
G1 X20.512348 Y23.902448 F200.000000
G1 X20.569017 Y23.960358 F200.000000
G1 X20.685857 Y24.150858 F200.000000
G1 X20.693429 Y24.173274 F200.000000
G1 X20.708181 Y24.191773 F200.000000
G1 X20.725896 Y24.269387 F200.000000
G1 X20.751374 Y24.344810 F200.000000
G1 X20.748470 Y24.368292 F200.000000
G1 X20.753735 Y24.391359 F200.000000
G1 Y25.059379 F200.000000
G1 X20.742202 Y25.109909 F200.000000
G1 Y25.161739 F200.000000
G1 X20.719714 Y25.208435 F200.000000
G1 X20.708181 Y25.258965 F200.000000
G1 X20.675866 Y25.299487 F200.000000
G1 X20.653378 Y25.346184 F200.000000
G1 X20.612856 Y25.378499 F200.000000
G1 X20.580541 Y25.419021 F200.000000
G1 X20.533844 Y25.441509 F200.000000
G1 X20.493322 Y25.473824 F200.000000
G1 X20.442792 Y25.485357 F200.000000
G1 X20.396095 Y25.507845 F200.000000
G1 X20.344266 F200.000000
G1 X20.293736 Y25.519379 F200.000000
G1 X17.794376 F200.000000
G1 X17.743846 Y25.507845 F200.000000
G1 X17.692016 F200.000000
G1 X17.645319 Y25.485357 F200.000000
G1 X17.594789 Y25.473824 F200.000000
G1 X17.554267 Y25.441509 F200.000000
G1 X17.507571 Y25.419021 F200.000000
G1 X17.475256 Y25.378499 F200.000000
G1 X17.434734 Y25.346184 F200.000000
G1 X17.412246 Y25.299487 F200.000000
G1 X17.379930 Y25.258965 F200.000000
G1 X17.368397 Y25.208435 F200.000000
G1 X17.345909 Y25.161739 F200.000000
G1 Y25.109909 F200.000000
G1 X17.334376 Y25.059379 F200.000000
G1 Y24.297379 F200.000000
G1 X17.340136 Y24.272143 F200.000000
G1 X17.337207 Y24.246425 F200.000000
G1 X17.362697 Y24.173296 F200.000000
G1 X17.379930 Y24.097793 F200.000000
G1 X17.396069 Y24.077555 F200.000000
G1 X17.404589 Y24.053113 F200.000000
G1 X17.523969 Y23.862613 F200.000000
G1 X17.577599 Y23.808854 F200.000000
G1 X17.624544 Y23.749170 F200.000000
G1 X17.743924 Y23.652650 F200.000000
G1 X17.806823 Y23.621837 F200.000000
G1 X17.864654 Y23.582324 F200.000000
G1 X17.983921 Y23.535379 F200.000000
G1 X17.864654 Y23.488434 F200.000000
G1 X17.806823 Y23.448921 F200.000000
G1 X17.743924 Y23.418109 F200.000000
G1 X17.624544 Y23.321589 F200.000000
G1 X17.577599 Y23.261904 F200.000000
G1 X17.523969 Y23.208145 F200.000000
G1 X17.404589 Y23.017645 F200.000000
G1 X17.396069 Y22.993203 F200.000000
G1 X17.379930 Y22.972965 F200.000000
G1 X17.362697 Y22.897463 F200.000000
G1 X17.337207 Y22.824333 F200.000000
G1 X17.340136 Y22.798615 F200.000000
G1 X17.334376 Y22.773379 F200.000000
G1 Y22.488899 F200.000000
G1 X17.340136 Y22.463663 F200.000000
G1 X17.337207 Y22.437945 F200.000000
G1 X17.362697 Y22.364816 F200.000000
G1 X17.379930 Y22.289313 F200.000000
G1 X17.396069 Y22.269075 F200.000000
G1 X17.404589 Y22.244633 F200.000000
G1 X17.523969 Y22.054133 F200.000000
G1 X17.577599 Y22.000374 F200.000000
G1 X17.624544 Y21.940690 F200.000000
G1 X17.743924 Y21.844170 F200.000000
G1 X17.806823 Y21.813357 F200.000000
G1 X17.864654 Y21.773844 F200.000000
G1 X17.925002 Y21.750090 F200.000000
G1 X17.741353 Y21.675849 F200.000000
G1 X17.707492 Y21.652255 F200.000000
G1 X17.668553 Y21.638577 F200.000000
G1 X17.624530 Y21.594448 F200.000000
G0 Z0.500000
G1 Z-0.040000 F60.000000
G1 X17.573388 Y21.558813 F200.000000
G1 X17.553117 Y21.522863 F200.000000
G1 X17.523969 Y21.493645 F200.000000
G1 X17.404589 Y21.303145 F200.000000
G1 X17.396069 Y21.278703 F200.000000
G1 X17.379930 Y21.258465 F200.000000
G1 X17.362697 Y21.182963 F200.000000
G1 X17.337207 Y21.109833 F200.000000
G1 X17.340136 Y21.084115 F200.000000
G1 X17.334376 Y21.058879 F200.000000
G1 Y20.583899 F200.000000
G1 X17.340136 Y20.558663 F200.000000
G1 X17.337207 Y20.532945 F200.000000
G1 X17.348380 Y20.500890 F200.000000
G1 X17.345909 Y20.495759 F200.000000
G1 Y20.291039 F200.000000
G1 X17.434734 Y20.106594 F200.000000
G1 X17.594789 Y19.978954 F200.000000
G1 X17.794376 Y19.933399 F200.000000
G1 X19.105016 F200.000000
G1 X19.188666 Y19.952492 F200.000000
G1 X19.273497 Y19.965364 F200.000000
G1 X19.512257 Y20.059344 F200.000000
G1 X19.549876 Y20.085047 F200.000000
G1 X19.592715 Y20.100560 F200.000000
G1 X19.633336 Y20.142070 F200.000000
G1 X19.681290 Y20.174835 F200.000000
G1 X19.704031 Y20.214314 F200.000000
G1 X19.735897 Y20.246878 F200.000000
G1 X19.852737 Y20.437378 F200.000000
G1 X19.860309 Y20.459794 F200.000000
G1 X19.875061 Y20.478293 F200.000000
G1 X19.892776 Y20.555907 F200.000000
G1 X19.918254 Y20.631330 F200.000000
G1 X19.915350 Y20.654812 F200.000000
G1 X19.920615 Y20.677879 F200.000000
G1 Y21.058879 F200.000000
G1 X19.915350 Y21.081946 F200.000000
G1 X19.918254 Y21.105428 F200.000000
G0 Z0.500000
G0 X18.286876 Y20.853399
G1 Z-0.040000 F60.000000
G1 X18.254375 F200.000000
G1 Y20.885899 F200.000000
G1 X18.286876 F200.000000
G1 Y20.853399 F200.000000
G0 Z0.500000
G0 X17.362697 Y18.040983
G1 Z-0.040000 F60.000000
G1 X17.337207 Y17.967853 F200.000000
G1 X17.340136 Y17.942135 F200.000000
G1 X17.334376 Y17.916899 F200.000000
G1 Y17.535899 F200.000000
G1 X17.340136 Y17.510663 F200.000000
G1 X17.337207 Y17.484945 F200.000000
G1 X17.348380 Y17.452890 F200.000000
G1 X17.345909 Y17.447759 F200.000000
G1 Y17.243039 F200.000000
G1 X17.434734 Y17.058594 F200.000000
G1 X17.594789 Y16.930954 F200.000000
G1 X17.794376 Y16.885399 F200.000000
G1 X20.293736 F200.000000
G1 X20.493322 Y16.930954 F200.000000
G1 X20.653378 Y17.058594 F200.000000
G1 X20.742202 Y17.243039 F200.000000
G1 Y17.447759 F200.000000
G1 X20.653378 Y17.632204 F200.000000
G1 X20.493322 Y17.759844 F200.000000
G1 X20.293736 Y17.805399 F200.000000
G1 X19.920615 F200.000000
G1 Y17.916899 F200.000000
G1 X19.915350 Y17.939966 F200.000000
G1 X19.918254 Y17.963448 F200.000000
G1 X19.892776 Y18.038871 F200.000000
G1 X19.875061 Y18.116485 F200.000000
G1 X19.860309 Y18.134984 F200.000000
G1 X19.852737 Y18.157400 F200.000000
G1 X19.735897 Y18.347900 F200.000000
G1 X19.679228 Y18.405810 F200.000000
G1 X19.637874 Y18.457002 F200.000000
G1 X19.747421 Y18.509757 F200.000000
G1 X19.875061 Y18.669813 F200.000000
G1 X19.920615 Y18.869399 F200.000000
G1 Y19.059899 F200.000000
G1 X19.915350 Y19.082966 F200.000000
G1 X19.918254 Y19.106448 F200.000000
G1 X19.892776 Y19.181871 F200.000000
G1 X19.875061 Y19.259485 F200.000000
G1 X19.872536 Y19.262651 F200.000000
G1 X19.909082 Y19.338539 F200.000000
G1 Y19.543259 F200.000000
G1 X19.820258 Y19.727704 F200.000000
G1 X19.660202 Y19.855344 F200.000000
G1 X19.460616 Y19.900899 F200.000000
G1 X17.794376 F200.000000
G1 X17.594789 Y19.855344 F200.000000
G1 X17.434734 Y19.727704 F200.000000
G1 X17.345909 Y19.543259 F200.000000
G1 Y19.338539 F200.000000
G1 X17.434734 Y19.154094 F200.000000
G1 X17.594789 Y19.026454 F200.000000
G1 X17.794376 Y18.980899 F200.000000
G1 X18.896174 F200.000000
G1 X18.991298 Y18.942445 F200.000000
G1 X18.994639 Y18.939815 F200.000000
G1 X19.000616 Y18.930070 F200.000000
G1 Y18.869399 F200.000000
G1 X19.028287 Y18.748164 F200.000000
G1 X18.985636 Y18.757899 F200.000000
G1 X18.271896 F200.000000
G1 X18.186236 Y18.738347 F200.000000
G1 X18.099493 Y18.724369 F200.000000
G1 X17.860733 Y18.627849 F200.000000
G1 X17.807372 Y18.590668 F200.000000
G1 X17.748599 Y18.562818 F200.000000
G1 X17.629219 Y18.468838 F200.000000
G1 X17.579664 Y18.407494 F200.000000
G1 X17.523969 Y18.351665 F200.000000
G1 X17.404589 Y18.161165 F200.000000
G1 X17.396069 Y18.136723 F200.000000
G1 X17.379930 Y18.116485 F200.000000
G1 X17.362697 Y18.040983 F200.000000
G0 Z0.500000
G0 X18.976571 Y17.805399
G1 Z-0.040000 F60.000000
G1 X18.280961 F200.000000
G1 X18.361358 Y17.837899 F200.000000
G1 X18.896174 F200.000000
G1 X18.976571 Y17.805399 F200.000000
G0 Z0.500000
G0 X32.083994 Y53.605661
G1 Z-0.040000 F60.000000
G1 X31.852092 Y53.493983 F200.000000
G1 X31.397259 F200.000000
G1 X30.987469 Y53.691327 F200.000000
G1 X30.703886 Y54.046930 F200.000000
G1 X30.602676 Y54.490359 F200.000000
G1 X30.602676 Y55.506359 F200.000000
G1 X30.602676 F200.000000
G1 X30.703886 Y55.949788 F200.000000
G1 X30.987469 Y56.305391 F200.000000
G1 X31.397259 Y56.502735 F200.000000
G1 X31.852092 F200.000000
G1 X32.261882 Y56.305391 F200.000000
G1 X32.545466 Y55.949788 F200.000000
G1 X32.646676 Y55.506359 F200.000000
G1 Y54.909739 F200.000000
G0 Z0.500000
G0 X28.427379 Y53.716520
G1 Z-0.040000 F60.000000
G1 X28.163886 Y54.046930 F200.000000
G1 X28.062676 Y54.490359 F200.000000
G1 X28.062676 Y55.506359 F200.000000
G1 X28.062676 F200.000000
G1 X28.163886 Y55.949788 F200.000000
G1 X28.447469 Y56.305391 F200.000000
G1 X28.857259 Y56.502735 F200.000000
G1 X29.312092 F200.000000
G1 X29.721882 Y56.305391 F200.000000
G1 X30.005466 Y55.949788 F200.000000
G1 X30.106676 Y55.506359 F200.000000
G1 Y54.490359 F200.000000
G1 X30.005466 Y54.046930 F200.000000
G1 X29.869713 Y53.876701 F200.000000
G0 Z0.500000
G0 X25.887379 Y53.716520
G1 Z-0.040000 F60.000000
G1 X25.623886 Y54.046930 F200.000000
G1 X25.522676 Y54.490359 F200.000000
G1 X25.522676 Y55.506359 F200.000000
G1 X25.522676 F200.000000
G1 X25.623886 Y55.949788 F200.000000
G1 X25.907469 Y56.305391 F200.000000
G1 X26.317259 Y56.502735 F200.000000
G1 X26.772092 F200.000000
G1 X27.181882 Y56.305391 F200.000000
G1 X27.465466 Y55.949788 F200.000000
G1 X27.566676 Y55.506359 F200.000000
G1 Y54.490359 F200.000000
G1 X27.465466 Y54.046930 F200.000000
G1 X27.329713 Y53.876701 F200.000000
G0 Z0.500000
G0 X23.347379 Y53.716520
G1 Z-0.040000 F60.000000
G1 X23.083886 Y54.046930 F200.000000
G1 X22.982676 Y54.490359 F200.000000
G1 X22.982676 Y55.506359 F200.000000
G1 X22.982676 F200.000000
G1 X23.083886 Y55.949788 F200.000000
G1 X23.367469 Y56.305391 F200.000000
G1 X23.777259 Y56.502735 F200.000000
G1 X24.232092 F200.000000
G1 X24.641882 Y56.305391 F200.000000
G1 X24.925466 Y55.949788 F200.000000
G1 X25.026676 Y55.506359 F200.000000
G1 Y54.490359 F200.000000
G1 X24.925466 Y54.046930 F200.000000
G1 X24.789713 Y53.876701 F200.000000
G0 Z0.500000
G0 X20.807379 Y53.716520
G1 Z-0.040000 F60.000000
G1 X20.543886 Y54.046930 F200.000000
G1 X20.442676 Y54.490359 F200.000000
G1 X20.442676 Y55.506359 F200.000000
G1 X20.442676 F200.000000
G1 X20.543886 Y55.949788 F200.000000
G1 X20.827469 Y56.305391 F200.000000
G1 X21.237259 Y56.502735 F200.000000
G1 X21.692092 F200.000000
G1 X22.101882 Y56.305391 F200.000000
G1 X22.385466 Y55.949788 F200.000000
G1 X22.486676 Y55.506359 F200.000000
G1 Y54.490359 F200.000000
G1 X22.385466 Y54.046930 F200.000000
G1 X22.249713 Y53.876701 F200.000000
G0 Z0.500000
G0 X18.267379 Y53.716520
G1 Z-0.040000 F60.000000
G1 X18.003886 Y54.046930 F200.000000
G1 X17.902676 Y54.490359 F200.000000
G1 X17.902676 Y55.506359 F200.000000
G1 X17.902676 F200.000000
G1 X18.003886 Y55.949788 F200.000000
G1 X18.287469 Y56.305391 F200.000000
G1 X18.697259 Y56.502735 F200.000000
G1 X19.152092 F200.000000
G1 X19.561882 Y56.305391 F200.000000
G1 X19.845466 Y55.949788 F200.000000
G1 X19.946676 Y55.506359 F200.000000
G1 Y54.490359 F200.000000
G1 X19.845466 Y54.046930 F200.000000
G1 X19.709713 Y53.876701 F200.000000
G0 Z0.500000
G0 X15.724677 Y53.719908
G1 Z-0.040000 F60.000000
G1 X15.463886 Y54.046930 F200.000000
G1 X15.362676 Y54.490359 F200.000000
G1 X15.362676 Y55.506359 F200.000000
G1 X15.362676 F200.000000
G1 X15.463886 Y55.949788 F200.000000
G1 X15.747469 Y56.305391 F200.000000
G1 X16.157259 Y56.502735 F200.000000
G1 X16.612092 F200.000000
G1 X17.021882 Y56.305391 F200.000000
G1 X17.305466 Y55.949788 F200.000000
G1 X17.406676 Y55.506359 F200.000000
G1 Y54.490359 F200.000000
G1 X17.305466 Y54.046930 F200.000000
G1 X17.044675 Y53.719908 F200.000000
G0 Z0.500000
G0 X13.184677 Y53.719908
G1 Z-0.040000 F60.000000
G1 X12.923886 Y54.046930 F200.000000
G1 X12.822676 Y54.490359 F200.000000
G1 X12.822676 Y55.506359 F200.000000
G1 X12.822676 F200.000000
G1 X12.923886 Y55.949788 F200.000000
G1 X13.207469 Y56.305391 F200.000000
G1 X13.617259 Y56.502735 F200.000000
G1 X14.072092 F200.000000
G1 X14.481882 Y56.305391 F200.000000
G1 X14.765466 Y55.949788 F200.000000
G1 X14.866676 Y55.506359 F200.000000
G1 Y54.490359 F200.000000
G1 X14.765466 Y54.046930 F200.000000
G1 X14.504675 Y53.719908 F200.000000
G0 Z0.500000
G0 X7.742676 Y7.246359
G1 Z-0.040000 F60.000000
G1 X7.742676 F200.000000
G1 X7.843886 Y7.689788 F200.000000
G1 X8.127469 Y8.045391 F200.000000
G1 X8.537259 Y8.242735 F200.000000
G1 X8.992092 F200.000000
G1 X9.401882 Y8.045391 F200.000000
G1 X9.685466 Y7.689788 F200.000000
G1 X9.786676 Y7.246359 F200.000000
G1 Y6.230359 F200.000000
G1 X9.685466 Y5.786930 F200.000000
G1 X9.401882 Y5.431327 F200.000000
G1 X8.992092 Y5.233983 F200.000000
G1 X8.537259 F200.000000
G1 X8.127469 Y5.431327 F200.000000
G1 X7.843886 Y5.786930 F200.000000
G1 X7.742676 Y6.230359 F200.000000
G1 X7.742676 Y7.246359 F200.000000
G0 Z0.500000
G0 X10.282676
G1 Z-0.040000 F60.000000
G1 X10.282676 F200.000000
G1 X10.383886 Y7.689788 F200.000000
G1 X10.667469 Y8.045391 F200.000000
G1 X11.077259 Y8.242735 F200.000000
G1 X11.532092 F200.000000
G1 X11.941882 Y8.045391 F200.000000
G1 X12.225466 Y7.689788 F200.000000
G1 X12.326676 Y7.246359 F200.000000
G1 Y6.230359 F200.000000
G1 X12.225466 Y5.786930 F200.000000
G1 X11.941882 Y5.431327 F200.000000
G1 X11.532092 Y5.233983 F200.000000
G1 X11.077259 F200.000000
G1 X10.667469 Y5.431327 F200.000000
G1 X10.383886 Y5.786930 F200.000000
G1 X10.282676 Y6.230359 F200.000000
G1 X10.282676 Y7.246359 F200.000000
G0 Z0.500000
G0 X12.822676
G1 Z-0.040000 F60.000000
G1 X12.822676 F200.000000
G1 X12.923886 Y7.689788 F200.000000
G1 X13.207469 Y8.045391 F200.000000
G1 X13.617259 Y8.242735 F200.000000
G1 X14.072092 F200.000000
G1 X14.481882 Y8.045391 F200.000000
G1 X14.765466 Y7.689788 F200.000000
G1 X14.866676 Y7.246359 F200.000000
G1 Y6.230359 F200.000000
G1 X14.765466 Y5.786930 F200.000000
G1 X14.481882 Y5.431327 F200.000000
G1 X14.072092 Y5.233983 F200.000000
G1 X13.617259 F200.000000
G1 X13.207469 Y5.431327 F200.000000
G1 X12.923886 Y5.786930 F200.000000
G1 X12.822676 Y6.230359 F200.000000
G1 X12.822676 Y7.246359 F200.000000
G0 Z0.500000
G0 X15.362676
G1 Z-0.040000 F60.000000
G1 X15.362676 F200.000000
G1 X15.463886 Y7.689788 F200.000000
G1 X15.747469 Y8.045391 F200.000000
G1 X16.157259 Y8.242735 F200.000000
G1 X16.612092 F200.000000
G1 X17.021882 Y8.045391 F200.000000
G1 X17.305466 Y7.689788 F200.000000
G1 X17.406676 Y7.246359 F200.000000
G1 Y6.230359 F200.000000
G1 X17.305466 Y5.786930 F200.000000
G1 X17.021882 Y5.431327 F200.000000
G1 X16.612092 Y5.233983 F200.000000
G1 X16.157259 F200.000000
G1 X15.747469 Y5.431327 F200.000000
G1 X15.463886 Y5.786930 F200.000000
G1 X15.362676 Y6.230359 F200.000000
G1 X15.362676 Y7.246359 F200.000000
G0 Z0.500000
G0 X27.566676 Y6.826979
G1 Z-0.040000 F60.000000
G1 Y6.230359 F200.000000
G1 X27.465466 Y5.786930 F200.000000
G1 X27.181882 Y5.431327 F200.000000
G1 X26.772092 Y5.233983 F200.000000
G1 X26.317259 F200.000000
G1 X25.907469 Y5.431327 F200.000000
G1 X25.623886 Y5.786930 F200.000000
G1 X25.522676 Y6.230359 F200.000000
G1 X25.522676 Y7.246359 F200.000000
G1 X25.522676 F200.000000
G1 X25.623886 Y7.689788 F200.000000
G1 X25.907469 Y8.045391 F200.000000
G1 X26.317259 Y8.242735 F200.000000
G1 X26.519677 F200.000000
G0 Z0.500000
G0 X31.165357 Y8.131057
G1 Z-0.040000 F60.000000
G1 X31.397259 Y8.242735 F200.000000
G1 X31.852092 F200.000000
G1 X32.261882 Y8.045391 F200.000000
G1 X32.545466 Y7.689788 F200.000000
G1 X32.646676 Y7.246359 F200.000000
G1 Y6.230359 F200.000000
G1 X32.545466 Y5.786930 F200.000000
G1 X32.261882 Y5.431327 F200.000000
G1 X31.852092 Y5.233983 F200.000000
G1 X31.397259 F200.000000
G1 X30.987469 Y5.431327 F200.000000
G1 X30.703886 Y5.786930 F200.000000
G1 X30.602676 Y6.230359 F200.000000
G1 X30.602676 Y7.246359 F200.000000
G0 Z0.500000
G0 X34.821973 Y8.020198
G1 Z-0.040000 F60.000000
G1 X35.085466 Y7.689788 F200.000000
G1 X35.186676 Y7.246359 F200.000000
G1 Y6.230359 F200.000000
G1 X35.085466 Y5.786930 F200.000000
G1 X34.801882 Y5.431327 F200.000000
G1 X34.392092 Y5.233983 F200.000000
G1 X33.937259 F200.000000
G1 X33.527469 Y5.431327 F200.000000
G1 X33.243886 Y5.786930 F200.000000
G1 X33.142676 Y6.230359 F200.000000
G1 X33.142676 Y7.246359 F200.000000
G1 X33.142676 F200.000000
G1 X33.243886 Y7.689788 F200.000000
G1 X33.379638 Y7.860017 F200.000000
G0 Z0.500000
G0 X24.664675 Y8.016810
G1 Z-0.040000 F60.000000
G1 X24.925466 Y7.689788 F200.000000
G1 X25.026676 Y7.246359 F200.000000
G1 Y6.230359 F200.000000
G1 X24.925466 Y5.786930 F200.000000
G1 X24.641882 Y5.431327 F200.000000
G1 X24.232092 Y5.233983 F200.000000
G1 X23.777259 F200.000000
G1 X23.367469 Y5.431327 F200.000000
G1 X23.083886 Y5.786930 F200.000000
G1 X22.982676 Y6.230359 F200.000000
G1 X22.982676 Y7.246359 F200.000000
G1 X22.982676 F200.000000
G1 X23.083886 Y7.689788 F200.000000
G1 X23.344677 Y8.016810 F200.000000
G0 Z0.500000
G0 X20.442676 Y7.246359
G1 Z-0.040000 F60.000000
G1 X20.442676 F200.000000
G1 X20.543886 Y7.689788 F200.000000
G1 X20.827469 Y8.045391 F200.000000
G1 X21.237259 Y8.242735 F200.000000
G1 X21.692092 F200.000000
G1 X22.101882 Y8.045391 F200.000000
G1 X22.385466 Y7.689788 F200.000000
G1 X22.486676 Y7.246359 F200.000000
G1 Y6.230359 F200.000000
G1 X22.385466 Y5.786930 F200.000000
G1 X22.101882 Y5.431327 F200.000000
G1 X21.692092 Y5.233983 F200.000000
G1 X21.237259 F200.000000
G1 X20.827469 Y5.431327 F200.000000
G1 X20.543886 Y5.786930 F200.000000
G1 X20.442676 Y6.230359 F200.000000
G1 X20.442676 Y7.246359 F200.000000
G0 Z0.500000
G0 X17.902676
G1 Z-0.040000 F60.000000
G1 X17.902676 F200.000000
G1 X18.003886 Y7.689788 F200.000000
G1 X18.287469 Y8.045391 F200.000000
G1 X18.697259 Y8.242735 F200.000000
G1 X19.152092 F200.000000
G1 X19.561882 Y8.045391 F200.000000
G1 X19.845466 Y7.689788 F200.000000
G1 X19.946676 Y7.246359 F200.000000
G1 Y6.230359 F200.000000
G1 X19.845466 Y5.786930 F200.000000
G1 X19.561882 Y5.431327 F200.000000
G1 X19.152092 Y5.233983 F200.000000
G1 X18.697259 F200.000000
G1 X18.287469 Y5.431327 F200.000000
G1 X18.003886 Y5.786930 F200.000000
G1 X17.902676 Y6.230359 F200.000000
G1 X17.902676 Y7.246359 F200.000000
G0 Z0.500000
G0 X37.364675 Y8.016810
G1 Z-0.040000 F60.000000
G1 X37.625466 Y7.689788 F200.000000
G1 X37.726676 Y7.246359 F200.000000
G1 Y6.230359 F200.000000
G1 X37.625466 Y5.786930 F200.000000
G1 X37.341882 Y5.431327 F200.000000
G1 X36.932092 Y5.233983 F200.000000
G1 X36.477259 F200.000000
G1 X36.067469 Y5.431327 F200.000000
G1 X35.783886 Y5.786930 F200.000000
G1 X35.682676 Y6.230359 F200.000000
G1 X35.682676 Y7.246359 F200.000000
G1 X35.682676 F200.000000
G1 X35.783886 Y7.689788 F200.000000
G1 X36.044677 Y8.016810 F200.000000
G0 Z0.500000
G0 X39.904675 Y8.016810
G1 Z-0.040000 F60.000000
G1 X40.165466 Y7.689788 F200.000000
G1 X40.266676 Y7.246359 F200.000000
G1 Y6.230359 F200.000000
G1 X40.165466 Y5.786930 F200.000000
G1 X39.881882 Y5.431327 F200.000000
G1 X39.472092 Y5.233983 F200.000000
G1 X39.017259 F200.000000
G1 X38.607469 Y5.431327 F200.000000
G1 X38.323886 Y5.786930 F200.000000
G1 X38.222676 Y6.230359 F200.000000
G1 X38.222676 Y7.246359 F200.000000
G1 X38.222676 F200.000000
G1 X38.323886 Y7.689788 F200.000000
G1 X38.584677 Y8.016810 F200.000000
G0 Z0.500000
G0 X42.444675 Y8.016810
G1 Z-0.040000 F60.000000
G1 X42.705466 Y7.689788 F200.000000
G1 X42.806676 Y7.246359 F200.000000
G1 Y6.230359 F200.000000
G1 X42.705466 Y5.786930 F200.000000
G1 X42.421882 Y5.431327 F200.000000
G1 X42.012092 Y5.233983 F200.000000
G1 X41.557259 F200.000000
G1 X41.147469 Y5.431327 F200.000000
G1 X40.863886 Y5.786930 F200.000000
G1 X40.762676 Y6.230359 F200.000000
G1 X40.762676 Y7.246359 F200.000000
G1 X40.762676 F200.000000
G1 X40.863886 Y7.689788 F200.000000
G1 X41.124677 Y8.016810 F200.000000
G0 Z0.500000
G0 X50.064675 Y8.016810
G1 Z-0.040000 F60.000000
G1 X50.325466 Y7.689788 F200.000000
G1 X50.426676 Y7.246359 F200.000000
G1 Y6.230359 F200.000000
G1 X50.325466 Y5.786930 F200.000000
G1 X50.041882 Y5.431327 F200.000000
G1 X49.632092 Y5.233983 F200.000000
G1 X49.177259 F200.000000
G1 X48.767469 Y5.431327 F200.000000
G1 X48.483886 Y5.786930 F200.000000
G1 X48.382676 Y6.230359 F200.000000
G1 X48.382676 Y7.246359 F200.000000
G1 X48.382676 F200.000000
G1 X48.483886 Y7.689788 F200.000000
G1 X48.744677 Y8.016810 F200.000000
G0 Z0.500000
G0 X47.524675 Y8.016810
G1 Z-0.040000 F60.000000
G1 X47.785466 Y7.689788 F200.000000
G1 X47.886676 Y7.246359 F200.000000
G1 Y6.230359 F200.000000
G1 X47.785466 Y5.786930 F200.000000
G1 X47.501882 Y5.431327 F200.000000
G1 X47.092092 Y5.233983 F200.000000
G1 X46.637259 F200.000000
G1 X46.227469 Y5.431327 F200.000000
G1 X45.943886 Y5.786930 F200.000000
G1 X45.842676 Y6.230359 F200.000000
G1 X45.842676 Y7.246359 F200.000000
G1 X45.842676 F200.000000
G1 X45.943886 Y7.689788 F200.000000
G1 X46.204677 Y8.016810 F200.000000
G0 Z0.500000
G0 X44.984675 Y8.016810
G1 Z-0.040000 F60.000000
G1 X45.245466 Y7.689788 F200.000000
G1 X45.346676 Y7.246359 F200.000000
G1 Y6.230359 F200.000000
G1 X45.245466 Y5.786930 F200.000000
G1 X44.961882 Y5.431327 F200.000000
G1 X44.552092 Y5.233983 F200.000000
G1 X44.097259 F200.000000
G1 X43.687469 Y5.431327 F200.000000
G1 X43.403886 Y5.786930 F200.000000
G1 X43.302676 Y6.230359 F200.000000
G1 X43.302676 Y7.246359 F200.000000
G1 X43.302676 F200.000000
G1 X43.403886 Y7.689788 F200.000000
G1 X43.664677 Y8.016810 F200.000000
G0 Z0.500000
G0 X53.462676 Y7.246359
G1 Z-0.040000 F60.000000
G1 X53.462676 F200.000000
G1 X53.563886 Y7.689788 F200.000000
G1 X53.847469 Y8.045391 F200.000000
G1 X54.257259 Y8.242735 F200.000000
G1 X54.712092 F200.000000
G1 X55.121882 Y8.045391 F200.000000
G1 X55.405466 Y7.689788 F200.000000
G1 X55.506676 Y7.246359 F200.000000
G1 Y6.230359 F200.000000
G1 X55.405466 Y5.786930 F200.000000
G1 X55.121882 Y5.431327 F200.000000
G1 X54.712092 Y5.233983 F200.000000
G1 X54.257259 F200.000000
G1 X53.847469 Y5.431327 F200.000000
G1 X53.563886 Y5.786930 F200.000000
G1 X53.462676 Y6.230359 F200.000000
G1 X53.462676 Y7.246359 F200.000000
G0 Z0.500000
G0 X57.898758 Y5.728361
G1 Z-0.040000 F60.000000
G1 X57.661882 Y5.431327 F200.000000
G1 X57.252092 Y5.233983 F200.000000
G1 X56.797259 F200.000000
G1 X56.387469 Y5.431327 F200.000000
G1 X56.103886 Y5.786930 F200.000000
G1 X56.002676 Y6.230359 F200.000000
G1 X56.002676 Y7.246359 F200.000000
G1 X56.002676 F200.000000
G1 X56.103886 Y7.689788 F200.000000
G1 X56.387469 Y8.045391 F200.000000
G1 X56.797259 Y8.242735 F200.000000
G1 X57.252092 F200.000000
G1 X57.284677 Y8.227043 F200.000000
G0 Z0.500000
G0 X59.304674 Y8.227043
G1 Z-0.040000 F60.000000
G1 X59.337259 Y8.242735 F200.000000
G1 X59.792092 F200.000000
G1 X60.201882 Y8.045391 F200.000000
G1 X60.485466 Y7.689788 F200.000000
G1 X60.586676 Y7.246359 F200.000000
G1 Y6.230359 F200.000000
G1 X60.485466 Y5.786930 F200.000000
G1 X60.201882 Y5.431327 F200.000000
G1 X59.792092 Y5.233983 F200.000000
G1 X59.337259 F200.000000
G1 X58.927469 Y5.431327 F200.000000
G1 X58.690593 Y5.728361 F200.000000
G0 Z0.500000
G0 X63.622676 Y7.246359
G1 Z-0.040000 F60.000000
G1 X63.622676 F200.000000
G1 X63.723886 Y7.689788 F200.000000
G1 X64.007469 Y8.045391 F200.000000
G1 X64.417259 Y8.242735 F200.000000
G1 X64.872092 F200.000000
G1 X65.281882 Y8.045391 F200.000000
G1 X65.565466 Y7.689788 F200.000000
G1 X65.666676 Y7.246359 F200.000000
G1 Y6.230359 F200.000000
G1 X65.565466 Y5.786930 F200.000000
G1 X65.281882 Y5.431327 F200.000000
G1 X64.872092 Y5.233983 F200.000000
G1 X64.417259 F200.000000
G1 X64.007469 Y5.431327 F200.000000
G1 X63.723886 Y5.786930 F200.000000
G1 X63.622676 Y6.230359 F200.000000
G1 X63.622676 Y7.246359 F200.000000
G0 Z0.500000
G0 X68.206676 Y6.826979
G1 Z-0.040000 F60.000000
G1 Y6.230359 F200.000000
G1 X68.105466 Y5.786930 F200.000000
G1 X67.821882 Y5.431327 F200.000000
G1 X67.412092 Y5.233983 F200.000000
G1 X66.957259 F200.000000
G1 X66.547469 Y5.431327 F200.000000
G1 X66.263886 Y5.786930 F200.000000
G1 X66.162676 Y6.230359 F200.000000
G1 X66.162676 Y7.246359 F200.000000
G1 X66.162676 F200.000000
G1 X66.263886 Y7.689788 F200.000000
G1 X66.547469 Y8.045391 F200.000000
G1 X66.957259 Y8.242735 F200.000000
G1 X67.412092 F200.000000
G1 X67.643994 Y8.131057 F200.000000
G0 Z0.500000
G0 X40.999638 Y53.876701
G1 Z-0.040000 F60.000000
G1 X40.863886 Y54.046930 F200.000000
G1 X40.762676 Y54.490359 F200.000000
G1 X40.762676 Y55.506359 F200.000000
G1 X40.762676 F200.000000
G1 X40.863886 Y55.949788 F200.000000
G1 X41.147469 Y56.305391 F200.000000
G1 X41.557259 Y56.502735 F200.000000
G1 X42.012092 F200.000000
G1 X42.421882 Y56.305391 F200.000000
G1 X42.705466 Y55.949788 F200.000000
G1 X42.806676 Y55.506359 F200.000000
G1 Y54.490359 F200.000000
G1 X42.705466 Y54.046930 F200.000000
G1 X42.441973 Y53.716520 F200.000000
G0 Z0.500000
G0 X43.539638 Y53.876701
G1 Z-0.040000 F60.000000
G1 X43.403886 Y54.046930 F200.000000
G1 X43.302676 Y54.490359 F200.000000
G1 X43.302676 Y55.506359 F200.000000
G1 X43.302676 F200.000000
G1 X43.403886 Y55.949788 F200.000000
G1 X43.687469 Y56.305391 F200.000000
G1 X44.097259 Y56.502735 F200.000000
G1 X44.552092 F200.000000
G1 X44.961882 Y56.305391 F200.000000
G1 X45.245466 Y55.949788 F200.000000
G1 X45.346676 Y55.506359 F200.000000
G1 Y54.490359 F200.000000
G1 X45.245466 Y54.046930 F200.000000
G1 X44.981973 Y53.716520 F200.000000
G0 Z0.500000
G0 X46.079638 Y53.876701
G1 Z-0.040000 F60.000000
G1 X45.943886 Y54.046930 F200.000000
G1 X45.842676 Y54.490359 F200.000000
G1 X45.842676 Y55.506359 F200.000000
G1 X45.842676 F200.000000
G1 X45.943886 Y55.949788 F200.000000
G1 X46.227469 Y56.305391 F200.000000
G1 X46.637259 Y56.502735 F200.000000
G1 X47.092092 F200.000000
G1 X47.501882 Y56.305391 F200.000000
G1 X47.785466 Y55.949788 F200.000000
G1 X47.886676 Y55.506359 F200.000000
G1 Y54.490359 F200.000000
G1 X47.785466 Y54.046930 F200.000000
G1 X47.521973 Y53.716520 F200.000000
G0 Z0.500000
G0 X48.619638 Y53.876701
G1 Z-0.040000 F60.000000
G1 X48.483886 Y54.046930 F200.000000
G1 X48.382676 Y54.490359 F200.000000
G1 X48.382676 Y55.506359 F200.000000
G1 X48.382676 F200.000000
G1 X48.483886 Y55.949788 F200.000000
G1 X48.767469 Y56.305391 F200.000000
G1 X49.177259 Y56.502735 F200.000000
G1 X49.632092 F200.000000
G1 X50.041882 Y56.305391 F200.000000
G1 X50.325466 Y55.949788 F200.000000
G1 X50.426676 Y55.506359 F200.000000
G1 Y54.490359 F200.000000
G1 X50.325466 Y54.046930 F200.000000
G1 X50.061973 Y53.716520 F200.000000
G0 Z0.500000
G0 X51.159638 Y53.876701
G1 Z-0.040000 F60.000000
G1 X51.023886 Y54.046930 F200.000000
G1 X50.922676 Y54.490359 F200.000000
G1 X50.922676 Y55.506359 F200.000000
G1 X50.922676 F200.000000
G1 X51.023886 Y55.949788 F200.000000
G1 X51.307469 Y56.305391 F200.000000
G1 X51.717259 Y56.502735 F200.000000
G1 X52.172092 F200.000000
G1 X52.581882 Y56.305391 F200.000000
G1 X52.865466 Y55.949788 F200.000000
G1 X52.966676 Y55.506359 F200.000000
G1 Y54.490359 F200.000000
G1 X52.865466 Y54.046930 F200.000000
G1 X52.601973 Y53.716520 F200.000000
G0 Z0.500000
G0 X53.824677 Y53.719908
G1 Z-0.040000 F60.000000
G1 X53.563886 Y54.046930 F200.000000
G1 X53.462676 Y54.490359 F200.000000
G1 X53.462676 Y55.506359 F200.000000
G1 X53.462676 F200.000000
G1 X53.563886 Y55.949788 F200.000000
G1 X53.847469 Y56.305391 F200.000000
G1 X54.257259 Y56.502735 F200.000000
G1 X54.712092 F200.000000
G1 X55.121882 Y56.305391 F200.000000
G1 X55.405466 Y55.949788 F200.000000
G1 X55.506676 Y55.506359 F200.000000
G1 Y54.490359 F200.000000
G1 X55.405466 Y54.046930 F200.000000
G1 X55.144675 Y53.719908 F200.000000
G0 Z0.500000
G0 X57.788677 Y53.845304
G1 Z-0.040000 F60.000000
G1 X57.627886 Y54.046930 F200.000000
G1 X57.526676 Y54.490359 F200.000000
G1 X57.526676 Y55.506359 F200.000000
G1 X57.526676 F200.000000
G1 X57.627886 Y55.949788 F200.000000
G1 X57.911469 Y56.305391 F200.000000
G1 X58.321259 Y56.502735 F200.000000
G1 X58.776092 F200.000000
G1 X59.185882 Y56.305391 F200.000000
G1 X59.469466 Y55.949788 F200.000000
G1 X59.570676 Y55.506359 F200.000000
G1 Y54.490359 F200.000000
G1 X59.469466 Y54.046930 F200.000000
G1 X59.308675 Y53.845304 F200.000000
G0 Z0.500000
G0 X60.428677 Y53.719908
G1 Z-0.040000 F60.000000
G1 X60.167886 Y54.046930 F200.000000
G1 X60.066676 Y54.490359 F200.000000
G1 X60.066676 Y55.506359 F200.000000
G1 X60.066676 F200.000000
G1 X60.167886 Y55.949788 F200.000000
G1 X60.451469 Y56.305391 F200.000000
G1 X60.861259 Y56.502735 F200.000000
G1 X61.316092 F200.000000
G1 X61.725882 Y56.305391 F200.000000
G1 X62.009466 Y55.949788 F200.000000
G1 X62.110676 Y55.506359 F200.000000
G1 Y54.490359 F200.000000
G1 X62.009466 Y54.046930 F200.000000
G1 X61.748675 Y53.719908 F200.000000
G0 Z0.500000
G0 X62.968677
G1 Z-0.040000 F60.000000
G1 X62.707886 Y54.046930 F200.000000
G1 X62.606676 Y54.490359 F200.000000
G1 X62.606676 Y55.506359 F200.000000
G1 X62.606676 F200.000000
G1 X62.707886 Y55.949788 F200.000000
G1 X62.991469 Y56.305391 F200.000000
G1 X63.401259 Y56.502735 F200.000000
G1 X63.856092 F200.000000
G1 X64.265882 Y56.305391 F200.000000
G1 X64.549466 Y55.949788 F200.000000
G1 X64.650676 Y55.506359 F200.000000
G1 Y54.490359 F200.000000
G1 X64.549466 Y54.046930 F200.000000
G1 X64.288675 Y53.719908 F200.000000
G0 Z0.500000
G0 X65.508677
G1 Z-0.040000 F60.000000
G1 X65.247886 Y54.046930 F200.000000
G1 X65.146676 Y54.490359 F200.000000
G1 X65.146676 Y55.506359 F200.000000
G1 X65.146676 F200.000000
G1 X65.247886 Y55.949788 F200.000000
G1 X65.531469 Y56.305391 F200.000000
G1 X65.941259 Y56.502735 F200.000000
G1 X66.396092 F200.000000
G1 X66.805882 Y56.305391 F200.000000
G1 X67.089466 Y55.949788 F200.000000
G1 X67.190676 Y55.506359 F200.000000
G1 Y54.490359 F200.000000
G1 X67.089466 Y54.046930 F200.000000
G1 X66.828675 Y53.719908 F200.000000
G0 Z0.500000
G0 X68.048677
G1 Z-0.040000 F60.000000
G1 X67.787886 Y54.046930 F200.000000
G1 X67.686676 Y54.490359 F200.000000
G1 X67.686676 Y55.506359 F200.000000
G1 X67.686676 F200.000000
G1 X67.787886 Y55.949788 F200.000000
G1 X68.071469 Y56.305391 F200.000000
G1 X68.481259 Y56.502735 F200.000000
G1 X68.936092 F200.000000
G1 X69.345882 Y56.305391 F200.000000
G1 X69.629466 Y55.949788 F200.000000
G1 X69.730676 Y55.506359 F200.000000
G1 Y54.490359 F200.000000
G1 X69.629466 Y54.046930 F200.000000
G1 X69.368675 Y53.719908 F200.000000
G0 Z0.500000
G0 X70.226676 Y55.506359
G1 Z-0.040000 F60.000000
G1 X70.226676 F200.000000
G1 X70.327886 Y55.949788 F200.000000
G1 X70.611469 Y56.305391 F200.000000
G1 X71.021259 Y56.502735 F200.000000
G1 X71.476092 F200.000000
G1 X71.885882 Y56.305391 F200.000000
G1 X72.169466 Y55.949788 F200.000000
G1 X72.270676 Y55.506359 F200.000000
G1 Y54.490359 F200.000000
G1 X72.169466 Y54.046930 F200.000000
G1 X71.885882 Y53.691327 F200.000000
G1 X71.476092 Y53.493983 F200.000000
G1 X71.021259 F200.000000
G1 X70.611469 Y53.691327 F200.000000
G1 X70.327886 Y54.046930 F200.000000
G1 X70.226676 Y54.490359 F200.000000
G1 X70.226676 Y55.506359 F200.000000
G0 Z0.500000
G0 X72.778677 Y54.437777
G1 Z-0.040000 F60.000000
G1 X72.766676 Y54.490359 F200.000000
G1 X72.766676 Y55.506359 F200.000000
G1 X72.766676 F200.000000
G1 X72.867886 Y55.949788 F200.000000
G1 X73.151469 Y56.305391 F200.000000
G1 X73.561259 Y56.502735 F200.000000
G1 X74.016092 F200.000000
G1 X74.425882 Y56.305391 F200.000000
G1 X74.709466 Y55.949788 F200.000000
G1 X74.810676 Y55.506359 F200.000000
G1 Y54.490359 F200.000000
G1 X74.798674 Y54.437777 F200.000000
G0 Z0.500000
G0 X75.306676 Y55.506359
G1 Z-0.040000 F60.000000
G1 X75.306676 F200.000000
G1 X75.407886 Y55.949788 F200.000000
G1 X75.691469 Y56.305391 F200.000000
G1 X76.101259 Y56.502735 F200.000000
G1 X76.556092 F200.000000
G1 X76.965882 Y56.305391 F200.000000
G1 X77.249466 Y55.949788 F200.000000
G1 X77.350676 Y55.506359 F200.000000
G1 Y54.490359 F200.000000
G1 X77.249466 Y54.046930 F200.000000
G1 X76.965882 Y53.691327 F200.000000
G1 X76.556092 Y53.493983 F200.000000
G1 X76.101259 F200.000000
G1 X75.691469 Y53.691327 F200.000000
G1 X75.407886 Y54.046930 F200.000000
G1 X75.306676 Y54.490359 F200.000000
G1 X75.306676 Y55.506359 F200.000000
G0 Z0.500000
G0 X63.114674 Y7.298941
G1 Z-0.040000 F60.000000
G1 X63.126676 Y7.246359 F200.000000
G1 Y6.230359 F200.000000
G1 X63.025466 Y5.786930 F200.000000
G1 X62.741882 Y5.431327 F200.000000
G1 X62.332092 Y5.233983 F200.000000
G1 X61.877259 F200.000000
G1 X61.467469 Y5.431327 F200.000000
G1 X61.183886 Y5.786930 F200.000000
G1 X61.082676 Y6.230359 F200.000000
G1 X61.082676 Y7.246359 F200.000000
G1 X61.082676 F200.000000
G1 X61.094677 Y7.298941 F200.000000
G0 Z0.500000
G0 X5.202676 Y52.458359
G1 Z-0.040000 F60.000000
G1 X5.339598 Y51.947359 F200.000000
G1 X5.713676 Y51.573281 F200.000000
G1 X6.224676 Y51.436359 F200.000000
G1 X6.735676 Y51.573281 F200.000000
G1 X7.109754 Y51.947359 F200.000000
G1 X7.246676 Y52.458359 F200.000000
G1 X7.109754 Y52.969359 F200.000000
G1 X6.735676 Y53.343437 F200.000000
G1 X6.224676 Y53.480359 F200.000000
G1 X5.713676 Y53.343437 F200.000000
G1 X5.339598 Y52.969359 F200.000000
G1 X5.202676 Y52.458359 F200.000000
G0 Z0.500000
G0 Y49.918359
G1 Z-0.040000 F60.000000
G1 X5.339598 Y49.407359 F200.000000
G1 X5.713676 Y49.033281 F200.000000
G1 X6.224676 Y48.896359 F200.000000
G1 X6.735676 Y49.033281 F200.000000
G1 X7.109754 Y49.407359 F200.000000
G1 X7.246676 Y49.918359 F200.000000
G1 X7.109754 Y50.429359 F200.000000
G1 X6.735676 Y50.803437 F200.000000
G1 X6.224676 Y50.940359 F200.000000
G1 X5.713676 Y50.803437 F200.000000
G1 X5.339598 Y50.429359 F200.000000
G1 X5.202676 Y49.918359 F200.000000
G0 Z0.500000
G0 Y47.378359
G1 Z-0.040000 F60.000000
G1 X5.339598 Y46.867359 F200.000000
G1 X5.713676 Y46.493281 F200.000000
G1 X6.224676 Y46.356359 F200.000000
G1 X6.735676 Y46.493281 F200.000000
G1 X7.109754 Y46.867359 F200.000000
G1 X7.246676 Y47.378359 F200.000000
G1 X7.109754 Y47.889359 F200.000000
G1 X6.735676 Y48.263437 F200.000000
G1 X6.224676 Y48.400359 F200.000000
G1 X5.713676 Y48.263437 F200.000000
G1 X5.339598 Y47.889359 F200.000000
G1 X5.202676 Y47.378359 F200.000000
G0 Z0.500000
G0 Y44.838359
G1 Z-0.040000 F60.000000
G1 X5.339598 Y44.327359 F200.000000
G1 X5.713676 Y43.953281 F200.000000
G1 X6.224676 Y43.816359 F200.000000
G1 X6.735676 Y43.953281 F200.000000
G1 X7.109754 Y44.327359 F200.000000
G1 X7.246676 Y44.838359 F200.000000
G1 X7.109754 Y45.349359 F200.000000
G1 X6.735676 Y45.723437 F200.000000
G1 X6.224676 Y45.860359 F200.000000
G1 X5.713676 Y45.723437 F200.000000
G1 X5.339598 Y45.349359 F200.000000
G1 X5.202676 Y44.838359 F200.000000
G0 Z0.500000
G0 Y42.298359
G1 Z-0.040000 F60.000000
G1 X5.339598 Y41.787359 F200.000000
G1 X5.713676 Y41.413281 F200.000000
G1 X6.224676 Y41.276359 F200.000000
G1 X6.735676 Y41.413281 F200.000000
G1 X7.109754 Y41.787359 F200.000000
G1 X7.246676 Y42.298359 F200.000000
G1 X7.109754 Y42.809359 F200.000000
G1 X6.735676 Y43.183437 F200.000000
G1 X6.224676 Y43.320359 F200.000000
G1 X5.713676 Y43.183437 F200.000000
G1 X5.339598 Y42.809359 F200.000000
G1 X5.202676 Y42.298359 F200.000000
G0 Z0.500000
G0 Y39.758359
G1 Z-0.040000 F60.000000
G1 X5.339598 Y39.247359 F200.000000
G1 X5.713676 Y38.873281 F200.000000
G1 X6.224676 Y38.736359 F200.000000
G1 X6.735676 Y38.873281 F200.000000
G1 X7.109754 Y39.247359 F200.000000
G1 X7.246676 Y39.758359 F200.000000
G1 X7.109754 Y40.269359 F200.000000
G1 X6.735676 Y40.643437 F200.000000
G1 X6.224676 Y40.780359 F200.000000
G1 X5.713676 Y40.643437 F200.000000
G1 X5.339598 Y40.269359 F200.000000
G1 X5.202676 Y39.758359 F200.000000
G0 Z0.500000
G0 Y27.058359
G1 Z-0.040000 F60.000000
G1 X5.339598 Y26.547359 F200.000000
G1 X5.713676 Y26.173281 F200.000000
G1 X6.224676 Y26.036359 F200.000000
G1 X6.735676 Y26.173281 F200.000000
G1 X7.109754 Y26.547359 F200.000000
G1 X7.246676 Y27.058359 F200.000000
G1 X7.109754 Y27.569359 F200.000000
G1 X6.735676 Y27.943437 F200.000000
G1 X6.224676 Y28.080359 F200.000000
G1 X5.713676 Y27.943437 F200.000000
G1 X5.339598 Y27.569359 F200.000000
G1 X5.202676 Y27.058359 F200.000000
G0 Z0.500000
G0 Y24.518359
G1 Z-0.040000 F60.000000
G1 X5.339598 Y24.007359 F200.000000
G1 X5.713676 Y23.633281 F200.000000
G1 X6.224676 Y23.496359 F200.000000
G1 X6.735676 Y23.633281 F200.000000
G1 X7.109754 Y24.007359 F200.000000
G1 X7.246676 Y24.518359 F200.000000
G1 X7.109754 Y25.029359 F200.000000
G1 X6.735676 Y25.403437 F200.000000
G1 X6.224676 Y25.540359 F200.000000
G1 X5.713676 Y25.403437 F200.000000
G1 X5.339598 Y25.029359 F200.000000
G1 X5.202676 Y24.518359 F200.000000
G0 Z0.500000
G0 Y21.978359
G1 Z-0.040000 F60.000000
G1 X5.339598 Y21.467359 F200.000000
G1 X5.713676 Y21.093281 F200.000000
G1 X6.224676 Y20.956359 F200.000000
G1 X6.735676 Y21.093281 F200.000000
G1 X7.109754 Y21.467359 F200.000000
G1 X7.246676 Y21.978359 F200.000000
G1 X7.109754 Y22.489359 F200.000000
G1 X6.735676 Y22.863437 F200.000000
G1 X6.224676 Y23.000359 F200.000000
G1 X5.713676 Y22.863437 F200.000000
G1 X5.339598 Y22.489359 F200.000000
G1 X5.202676 Y21.978359 F200.000000
G0 Z0.500000
G0 Y19.438359
G1 Z-0.040000 F60.000000
G1 X5.339598 Y18.927359 F200.000000
G1 X5.713676 Y18.553281 F200.000000
G1 X6.224676 Y18.416359 F200.000000
G1 X6.735676 Y18.553281 F200.000000
G1 X7.109754 Y18.927359 F200.000000
G1 X7.246676 Y19.438359 F200.000000
G1 X7.109754 Y19.949359 F200.000000
G1 X6.735676 Y20.323437 F200.000000
G1 X6.224676 Y20.460359 F200.000000
G1 X5.713676 Y20.323437 F200.000000
G1 X5.339598 Y19.949359 F200.000000
G1 X5.202676 Y19.438359 F200.000000
G0 Z0.500000
G0 Y16.898359
G1 Z-0.040000 F60.000000
G1 X5.339598 Y16.387359 F200.000000
G1 X5.713676 Y16.013281 F200.000000
G1 X6.224676 Y15.876359 F200.000000
G1 X6.735676 Y16.013281 F200.000000
G1 X7.109754 Y16.387359 F200.000000
G1 X7.246676 Y16.898359 F200.000000
G1 X7.109754 Y17.409359 F200.000000
G1 X6.735676 Y17.783437 F200.000000
G1 X6.224676 Y17.920359 F200.000000
G1 X5.713676 Y17.783437 F200.000000
G1 X5.339598 Y17.409359 F200.000000
G1 X5.202676 Y16.898359 F200.000000
G0 Z0.500000
G0 Y14.358359
G1 Z-0.040000 F60.000000
G1 X5.339598 Y13.847359 F200.000000
G1 X5.713676 Y13.473281 F200.000000
G1 X6.224676 Y13.336359 F200.000000
G1 X6.735676 Y13.473281 F200.000000
G1 X7.109754 Y13.847359 F200.000000
G1 X7.246676 Y14.358359 F200.000000
G1 X7.109754 Y14.869359 F200.000000
G1 X6.735676 Y15.243437 F200.000000
G1 X6.224676 Y15.380359 F200.000000
G1 X5.713676 Y15.243437 F200.000000
G1 X5.339598 Y14.869359 F200.000000
G1 X5.202676 Y14.358359 F200.000000
G0 Z0.500000
G0 X5.435027 Y12.448083
G1 Z-0.040000 F60.000000
G1 X5.413388 Y12.403150 F200.000000
G1 X5.339598 Y12.329359 F200.000000
G1 X5.291615 Y12.150284 F200.000000
G1 X5.240000 Y12.043105 F200.000000
G1 Y11.957655 F200.000000
G1 X5.202676 Y11.818359 F200.000000
G1 X5.240000 Y11.679063 F200.000000
G1 Y11.593613 F200.000000
G1 X5.291615 Y11.486434 F200.000000
G1 X5.339598 Y11.307359 F200.000000
G1 X5.413388 Y11.233568 F200.000000
G1 X5.435027 Y11.188635 F200.000000
G1 X5.550046 Y11.096911 F200.000000
G1 X5.713676 Y10.933281 F200.000000
G1 X5.776259 Y10.916512 F200.000000
G1 X5.786454 Y10.908382 F200.000000
G1 X5.922414 Y10.877350 F200.000000
G1 X6.224676 Y10.796359 F200.000000
G1 X6.269466 Y10.808361 F200.000000
G1 X8.129676 Y10.808361 F200.000000
G1 X8.294875 Y10.846066 F200.000000
G1 X8.463257 Y10.865038 F200.000000
G1 X8.511895 Y10.895600 F200.000000
G1 X8.567898 Y10.908382 F200.000000
G1 X8.700377 Y11.014031 F200.000000
G1 X8.843853 Y11.104182 F200.000000
G1 X9.478853 Y11.739182 F200.000000
G1 X9.569004 Y11.882658 F200.000000
G1 X9.674653 Y12.015137 F200.000000
G1 X9.687435 Y12.071140 F200.000000
G1 X9.717996 Y12.119778 F200.000000
G1 X9.736969 Y12.288160 F200.000000
G1 X9.774674 Y12.453359 F200.000000
G1 Y13.940004 F200.000000
G1 X10.748853 Y14.914182 F200.000000
G1 X10.839004 Y15.057658 F200.000000
G1 X10.944653 Y15.190137 F200.000000
G1 X10.957435 Y15.246140 F200.000000
G1 X10.987996 Y15.294778 F200.000000
G1 X11.006969 Y15.463160 F200.000000
G1 X11.044674 Y15.628359 F200.000000
G1 Y29.815004 F200.000000
G0 Z0.500000
G0 X9.320499 Y30.947536
G1 Z-0.040000 F60.000000
G1 X9.230347 Y30.804060 F200.000000
G1 X9.124699 Y30.671581 F200.000000
G1 X9.111916 Y30.615578 F200.000000
G1 X9.081355 Y30.566940 F200.000000
G1 X9.062383 Y30.398558 F200.000000
G1 X9.024677 Y30.233359 F200.000000
G1 Y16.046714 F200.000000
G1 X8.050499 Y15.072536 F200.000000
G1 X7.960347 Y14.929060 F200.000000
G1 X7.854699 Y14.796581 F200.000000
G1 X7.841916 Y14.740578 F200.000000
G1 X7.811355 Y14.691940 F200.000000
G1 X7.792383 Y14.523558 F200.000000
G1 X7.754677 Y14.358359 F200.000000
G1 Y12.871714 F200.000000
G1 X7.711321 Y12.828358 F200.000000
G1 X6.269466 F200.000000
G1 X6.224676 Y12.840359 F200.000000
G1 X5.922414 Y12.759368 F200.000000
G1 X5.786454 Y12.728336 F200.000000
G1 X5.776259 Y12.720206 F200.000000
G1 X5.713676 Y12.703437 F200.000000
G1 X5.550046 Y12.539807 F200.000000
G1 X5.435027 Y12.448083 F200.000000
G0 Z0.500000
G0 X73.024675 Y24.885924
G1 Z-0.040000 F60.000000
G1 X73.074675 Y24.666860 F200.000000
G1 Y24.369858 F200.000000
G1 X72.994460 Y24.018413 F200.000000
G1 X72.769702 Y23.736575 F200.000000
G1 X72.444917 Y23.580167 F200.000000
G1 X72.084434 F200.000000
G1 X71.759650 Y23.736575 F200.000000
G1 X71.534892 Y24.018413 F200.000000
G1 X71.454677 Y24.369858 F200.000000
G1 X71.454677 Y24.666860 F200.000000
G1 X71.454677 F200.000000
G1 X71.485906 Y24.803683 F200.000000
G0 Z0.500000
G0 X70.999952 Y24.998710
G1 Z-0.040000 F60.000000
G1 X71.075695 Y24.666860 F200.000000
G1 Y24.369858 F200.000000
G1 X70.995480 Y24.018413 F200.000000
G1 X70.770722 Y23.736575 F200.000000
G1 X70.445937 Y23.580167 F200.000000
G1 X70.085454 F200.000000
G1 X69.760670 Y23.736575 F200.000000
G1 X69.535912 Y24.018413 F200.000000
G1 X69.455697 Y24.369858 F200.000000
G1 X69.455697 Y24.666860 F200.000000
G1 X69.455697 F200.000000
G1 X69.535912 Y25.018305 F200.000000
G1 X69.760670 Y25.300143 F200.000000
G1 X70.085454 Y25.456551 F200.000000
G1 X70.445937 F200.000000
G1 X70.752613 Y25.308863 F200.000000
G0 Z0.500000
G0 X67.456717 Y24.818358
G1 Z-0.040000 F60.000000
G1 X67.456717 F200.000000
G1 X67.536932 Y25.169804 F200.000000
G1 X67.761690 Y25.451641 F200.000000
G1 X68.086474 Y25.608049 F200.000000
G1 X68.446957 F200.000000
G1 X68.771742 Y25.451641 F200.000000
G1 X68.996500 Y25.169804 F200.000000
G1 X69.076715 Y24.818358 F200.000000
G1 Y24.218360 F200.000000
G1 X68.996500 Y23.866914 F200.000000
G1 X68.771742 Y23.585077 F200.000000
G1 X68.446957 Y23.428669 F200.000000
G1 X68.086474 F200.000000
G1 X67.761690 Y23.585077 F200.000000
G1 X67.536932 Y23.866914 F200.000000
G1 X67.456717 Y24.218360 F200.000000
G1 X67.456717 Y24.818358 F200.000000
G0 Z0.500000
G0 X75.455177
G1 Z-0.040000 F60.000000
G1 X75.455177 F200.000000
G1 X75.535392 Y25.169804 F200.000000
G1 X75.760150 Y25.451641 F200.000000
G1 X76.084934 Y25.608049 F200.000000
G1 X76.445417 F200.000000
G1 X76.770202 Y25.451641 F200.000000
G1 X76.994960 Y25.169804 F200.000000
G1 X77.075175 Y24.818358 F200.000000
G1 Y24.218360 F200.000000
G1 X76.994960 Y23.866914 F200.000000
G1 X76.770202 Y23.585077 F200.000000
G1 X76.445417 Y23.428669 F200.000000
G1 X76.084934 F200.000000
G1 X75.760150 Y23.585077 F200.000000
G1 X75.535392 Y23.866914 F200.000000
G1 X75.455177 Y24.218360 F200.000000
G1 X75.455177 Y24.818358 F200.000000
G0 Z0.500000
G0 X61.844674 Y26.842789
G1 Z-0.040000 F60.000000
G1 Y28.328359 F200.000000
G1 Y28.328359 F200.000000
G1 Y28.328359 F200.000000
G1 Y28.338361 F200.000000
G1 X62.094674 F200.000000
G1 Y28.588361 F200.000000
G1 X65.914676 F200.000000
G1 X66.352898 Y28.688382 F200.000000
G1 X66.704324 Y28.968635 F200.000000
G1 X66.899351 Y29.373613 F200.000000
G1 Y29.823105 F200.000000
G1 X66.704324 Y30.228083 F200.000000
G1 X66.352898 Y30.508336 F200.000000
G1 X65.914676 Y30.608358 F200.000000
G1 X62.094674 F200.000000
G1 Y30.858357 F200.000000
G1 X59.574678 F200.000000
G1 Y28.338361 F200.000000
G1 X59.824677 F200.000000
G1 Y28.328359 F200.000000
G1 Y28.328359 F200.000000
G1 Y28.328359 F200.000000
G1 Y26.842789 F200.000000
G0 Z0.500000
G0 X48.451355 Y22.914778
G1 Z-0.040000 F60.000000
G1 X48.481916 Y22.866140 F200.000000
G1 X48.494699 Y22.810137 F200.000000
G1 X48.600347 Y22.677658 F200.000000
G1 X48.690499 Y22.534182 F200.000000
G1 X49.716176 Y21.508505 F200.000000
G1 Y20.987459 F200.000000
G1 X49.690000 Y20.933105 F200.000000
G1 Y20.483613 F200.000000
G1 X49.716176 Y20.429259 F200.000000
G1 Y19.749859 F200.000000
G1 X50.449046 F200.000000
G1 X50.674676 Y19.698361 F200.000000
G1 X51.526321 F200.000000
G1 X57.580499 Y13.644182 F200.000000
G1 X57.723974 Y13.554031 F200.000000
G1 X57.856454 Y13.448382 F200.000000
G1 X57.912456 Y13.435600 F200.000000
G1 X57.961094 Y13.405038 F200.000000
G1 X58.129477 Y13.386066 F200.000000
G1 X58.294676 Y13.348361 F200.000000
G1 X59.731131 F200.000000
G1 X59.670699 Y13.272581 F200.000000
G1 X59.657916 Y13.216578 F200.000000
G1 X59.627355 Y13.167940 F200.000000
G1 X59.619652 Y13.099570 F200.000000
G1 X59.430074 Y12.838640 F200.000000
G1 X59.321186 Y12.326359 F200.000000
G1 X59.430074 Y11.814078 F200.000000
G1 X59.737912 Y11.390376 F200.000000
G1 X60.191472 Y11.128513 F200.000000
G1 X60.368807 Y11.109874 F200.000000
G1 X61.094677 Y10.384004 F200.000000
G1 Y7.298941 F200.000000
G0 Z0.500000
G0 X58.415674 Y26.842789
G1 Z-0.040000 F60.000000
G1 X58.446610 Y26.803997 F200.000000
G1 X58.561026 Y26.302709 F200.000000
G1 Y24.512009 F200.000000
G1 X58.446610 Y24.010721 F200.000000
G1 X58.126025 Y23.608720 F200.000000
G1 X57.662765 Y23.385626 F200.000000
G1 X57.148586 F200.000000
G1 X56.685327 Y23.608720 F200.000000
G1 X56.364741 Y24.010721 F200.000000
G1 X56.250326 Y24.512009 F200.000000
G1 Y26.302709 F200.000000
G1 X56.364741 Y26.803997 F200.000000
G1 X56.395677 Y26.842789 F200.000000
G0 Z0.500000
G0 X57.927494 Y22.480358
G1 Z-0.040000 F60.000000
G1 X58.015741 Y22.866997 F200.000000
G1 X58.336327 Y23.268998 F200.000000
G1 X58.799586 Y23.492092 F200.000000
G1 X59.313765 F200.000000
G1 X59.777025 Y23.268998 F200.000000
G1 X60.097610 Y22.866997 F200.000000
G1 X60.212026 Y22.365709 F200.000000
G1 Y20.575009 F200.000000
G1 X60.097610 Y20.073721 F200.000000
G1 X60.066674 Y20.034929 F200.000000
G0 Z0.500000
G0 X58.046677 Y20.034929
G1 Z-0.040000 F60.000000
G1 X58.015741 Y20.073721 F200.000000
G1 X57.927494 Y20.460361 F200.000000
G0 Z0.500000
G0 X61.963858 Y24.397361
G1 Z-0.040000 F60.000000
G1 X61.875610 Y24.010721 F200.000000
G1 X61.555025 Y23.608720 F200.000000
G1 X61.091765 Y23.385626 F200.000000
G1 X60.577586 F200.000000
G1 X60.114327 Y23.608720 F200.000000
G1 X59.793741 Y24.010721 F200.000000
G1 X59.679326 Y24.512009 F200.000000
G1 Y26.302709 F200.000000
G1 X59.793741 Y26.803997 F200.000000
G1 X59.824677 Y26.842789 F200.000000
G0 Z0.500000
G0 X61.844674 Y26.842789
G1 Z-0.040000 F60.000000
G1 X61.875610 Y26.803997 F200.000000
G1 X61.963858 Y26.417358 F200.000000
G0 Z0.500000
G0 X63.096747 Y19.557935
G1 Z-0.040000 F60.000000
G1 X62.869765 Y19.448626 F200.000000
G1 X62.355586 F200.000000
G1 X61.892327 Y19.671720 F200.000000
G1 X61.571741 Y20.073721 F200.000000
G1 X61.457326 Y20.575009 F200.000000
G1 Y22.365709 F200.000000
G1 X61.571741 Y22.866997 F200.000000
G1 X61.892327 Y23.268998 F200.000000
G1 X62.355586 Y23.492092 F200.000000
G1 X62.869765 F200.000000
G1 X63.333025 Y23.268998 F200.000000
G1 X63.653610 Y22.866997 F200.000000
G1 X63.768026 Y22.365709 F200.000000
G1 Y21.743363 F200.000000
G0 Z0.500000
G0 X63.134494 Y26.417358
G1 Z-0.040000 F60.000000
G1 X63.222741 Y26.803997 F200.000000
G1 X63.543327 Y27.205998 F200.000000
G1 X64.006586 Y27.429092 F200.000000
G1 X64.520765 F200.000000
G1 X64.984025 Y27.205998 F200.000000
G1 X65.304610 Y26.803997 F200.000000
G1 X65.419026 Y26.302709 F200.000000
G1 Y25.680363 F200.000000
G0 Z0.500000
G0 X64.747747 Y23.494935
G1 Z-0.040000 F60.000000
G1 X64.520765 Y23.385626 F200.000000
G1 X64.006586 F200.000000
G1 X63.543327 Y23.608720 F200.000000
G1 X63.222741 Y24.010721 F200.000000
G1 X63.134494 Y24.397361 F200.000000
G0 Z0.500000
G0 X59.873513 Y44.072816
G1 Z-0.040000 F60.000000
G1 X59.749176 Y43.568359 F200.000000
G1 X59.873513 Y43.063902 F200.000000
G1 X60.074677 Y42.836835 F200.000000
G1 Y39.124438 F200.000000
G1 X59.949598 Y38.999359 F200.000000
G1 X59.812676 Y38.488359 F200.000000
G1 X59.949598 Y37.977359 F200.000000
G1 X60.323676 Y37.603281 F200.000000
G1 X60.834676 Y37.466359 F200.000000
G1 X61.345676 Y37.603281 F200.000000
G1 X61.719754 Y37.977359 F200.000000
G1 X61.856676 Y38.488359 F200.000000
G1 X61.719754 Y38.999359 F200.000000
G1 X61.594675 Y39.124438 F200.000000
G1 Y42.812295 F200.000000
G1 X61.647184 Y42.848539 F200.000000
G1 X61.888633 Y43.308582 F200.000000
G1 Y43.828136 F200.000000
G1 X61.647184 Y44.288179 F200.000000
G1 X61.219599 Y44.583319 F200.000000
G1 X60.703833 Y44.645945 F200.000000
G1 X60.218041 Y44.461708 F200.000000
G1 X59.873513 Y44.072816 F200.000000
G0 Z0.500000
G0 X62.657325 Y42.047347
G1 Z-0.040000 F60.000000
G1 X62.680322 Y42.010748 F200.000000
G1 X62.689940 Y41.968608 F200.000000
G1 X62.769438 Y41.868920 F200.000000
G1 X62.837275 Y41.760959 F200.000000
G1 X65.154677 Y39.443557 F200.000000
G1 Y39.124438 F200.000000
G1 X65.029598 Y38.999359 F200.000000
G1 X64.892676 Y38.488359 F200.000000
G1 X65.029598 Y37.977359 F200.000000
G1 X65.403676 Y37.603281 F200.000000
G1 X65.914676 Y37.466359 F200.000000
G1 X66.425676 Y37.603281 F200.000000
G1 X66.799754 Y37.977359 F200.000000
G1 X66.936676 Y38.488359 F200.000000
G1 X66.799754 Y38.999359 F200.000000
G1 X66.674675 Y39.124438 F200.000000
G1 Y39.758359 F200.000000
G1 X66.646302 Y39.882667 F200.000000
G1 X66.632026 Y40.009371 F200.000000
G1 X66.609029 Y40.045970 F200.000000
G1 X66.599411 Y40.088110 F200.000000
G1 X66.519913 Y40.187798 F200.000000
G0 Z0.500000
G0 X65.197325 Y42.047347
G1 Z-0.040000 F60.000000
G1 X65.220322 Y42.010748 F200.000000
G1 X65.229940 Y41.968608 F200.000000
G1 X65.309438 Y41.868920 F200.000000
G1 X65.377275 Y41.760959 F200.000000
G1 X67.694677 Y39.443557 F200.000000
G1 Y39.124438 F200.000000
G1 X67.569598 Y38.999359 F200.000000
G1 X67.432676 Y38.488359 F200.000000
G1 X67.569598 Y37.977359 F200.000000
G1 X67.943676 Y37.603281 F200.000000
G1 X68.454676 Y37.466359 F200.000000
G1 X68.965676 Y37.603281 F200.000000
G1 X69.339754 Y37.977359 F200.000000
G1 X69.476676 Y38.488359 F200.000000
G1 X69.339754 Y38.999359 F200.000000
G1 X69.214675 Y39.124438 F200.000000
G1 Y39.758359 F200.000000
G1 X69.186302 Y39.882667 F200.000000
G1 X69.172026 Y40.009371 F200.000000
G1 X69.149029 Y40.045970 F200.000000
G1 X69.139411 Y40.088110 F200.000000
G1 X69.059913 Y40.187798 F200.000000
G0 Z0.500000
G0 X75.069989 Y30.710752
G1 Z-0.040000 F60.000000
G1 X75.064676 Y30.719175 F200.000000
G1 Y32.398359 F200.000000
G1 X72.004676 F200.000000
G1 Y29.338359 F200.000000
G1 X73.256197 F200.000000
G1 Y24.518359 F200.000000
G1 X73.356219 Y24.080137 F200.000000
G1 X73.636472 Y23.728710 F200.000000
G1 X74.041450 Y23.533683 F200.000000
G1 X74.490942 F200.000000
G1 X74.895919 Y23.728710 F200.000000
G1 X75.176173 Y24.080137 F200.000000
G1 X75.276194 Y24.518359 F200.000000
G1 Y30.139379 F200.000000
G1 X75.238297 Y30.305416 F200.000000
G1 X75.218935 Y30.474618 F200.000000
G1 X75.188759 Y30.522457 F200.000000
G1 X75.176173 Y30.577601 F200.000000
G1 X75.069989 Y30.710752 F200.000000
G0 Z0.500000
G0 X60.428677 Y53.719908
G1 Z-0.040000 F60.000000
G1 Y52.161591 F200.000000
G1 X60.218041 Y52.081708 F200.000000
G1 X59.873513 Y51.692816 F200.000000
G1 X59.749176 Y51.188359 F200.000000
G1 X59.873513 Y50.683902 F200.000000
G1 X60.218041 Y50.295010 F200.000000
G1 X60.703833 Y50.110774 F200.000000
G1 X61.219599 Y50.173399 F200.000000
G1 X61.647184 Y50.468539 F200.000000
G1 X61.888633 Y50.928582 F200.000000
G1 Y51.448136 F200.000000
G1 X61.748675 Y51.714804 F200.000000
G1 Y53.719908 F200.000000
G0 Z0.500000
G0 X62.968677
G1 Z-0.040000 F60.000000
G1 Y52.161591 F200.000000
G1 X62.758041 Y52.081708 F200.000000
G1 X62.413513 Y51.692816 F200.000000
G1 X62.289176 Y51.188359 F200.000000
G1 X62.413513 Y50.683902 F200.000000
G1 X62.758041 Y50.295010 F200.000000
G1 X63.243833 Y50.110774 F200.000000
G1 X63.759599 Y50.173399 F200.000000
G1 X64.187184 Y50.468539 F200.000000
G1 X64.428633 Y50.928582 F200.000000
G1 Y51.448136 F200.000000
G1 X64.288675 Y51.714804 F200.000000
G1 Y53.719908 F200.000000
G0 Z0.500000
G0 X66.519913 Y40.187798
G1 Z-0.040000 F60.000000
G1 X66.452076 Y40.295759 F200.000000
G1 X64.134675 Y42.613161 F200.000000
G1 Y42.812295 F200.000000
G1 X64.187184 Y42.848539 F200.000000
G1 X64.428633 Y43.308582 F200.000000
G1 Y43.828136 F200.000000
G1 X64.187184 Y44.288179 F200.000000
G1 X63.759599 Y44.583319 F200.000000
G1 X63.243833 Y44.645945 F200.000000
G1 X62.758041 Y44.461708 F200.000000
G1 X62.413513 Y44.072816 F200.000000
G1 X62.289176 Y43.568359 F200.000000
G1 X62.413513 Y43.063902 F200.000000
G1 X62.614677 Y42.836835 F200.000000
G1 Y42.298359 F200.000000
G1 X62.643049 Y42.174051 F200.000000
G1 X62.657325 Y42.047347 F200.000000
G0 Z0.500000
G0 X65.508677 Y53.719908
G1 Z-0.040000 F60.000000
G1 Y52.161591 F200.000000
G1 X65.298041 Y52.081708 F200.000000
G1 X64.953513 Y51.692816 F200.000000
G1 X64.829176 Y51.188359 F200.000000
G1 X64.953513 Y50.683902 F200.000000
G1 X65.298041 Y50.295010 F200.000000
G1 X65.783833 Y50.110774 F200.000000
G1 X66.299599 Y50.173399 F200.000000
G1 X66.727184 Y50.468539 F200.000000
G1 X66.968633 Y50.928582 F200.000000
G1 Y51.448136 F200.000000
G1 X66.828675 Y51.714804 F200.000000
G1 Y53.719908 F200.000000
G0 Z0.500000
G0 X69.059913 Y40.187798
G1 Z-0.040000 F60.000000
G1 X68.992076 Y40.295759 F200.000000
G1 X66.674675 Y42.613161 F200.000000
G1 Y42.812295 F200.000000
G1 X66.727184 Y42.848539 F200.000000
G1 X66.968633 Y43.308582 F200.000000
G1 Y43.828136 F200.000000
G1 X66.727184 Y44.288179 F200.000000
G1 X66.299599 Y44.583319 F200.000000
G1 X65.783833 Y44.645945 F200.000000
G1 X65.298041 Y44.461708 F200.000000
G1 X64.953513 Y44.072816 F200.000000
G1 X64.829176 Y43.568359 F200.000000
G1 X64.953513 Y43.063902 F200.000000
G1 X65.154677 Y42.836835 F200.000000
G1 Y42.298359 F200.000000
G1 X65.183049 Y42.174051 F200.000000
G1 X65.197325 Y42.047347 F200.000000
G0 Z0.500000
G0 X39.725027 Y45.478635
G1 Z-0.040000 F60.000000
G1 X39.840046 Y45.386911 F200.000000
G1 X40.003676 Y45.223281 F200.000000
G1 X40.066259 Y45.206512 F200.000000
G1 X40.076454 Y45.198382 F200.000000
G1 X40.212414 Y45.167350 F200.000000
G1 X40.514676 Y45.086359 F200.000000
G1 X40.559466 Y45.098361 F200.000000
G1 X43.009886 F200.000000
G1 X43.054676 Y45.086359 F200.000000
G1 X43.099466 Y45.098361 F200.000000
G1 X45.549886 F200.000000
G1 X45.594676 Y45.086359 F200.000000
G1 X45.639466 Y45.098361 F200.000000
G1 X48.089886 F200.000000
G1 X48.134676 Y45.086359 F200.000000
G1 X48.179466 Y45.098361 F200.000000
G1 X50.629886 F200.000000
G1 X50.674676 Y45.086359 F200.000000
G1 X50.719466 Y45.098361 F200.000000
G1 X53.169886 F200.000000
G1 X53.214676 Y45.086359 F200.000000
G1 X53.259466 Y45.098361 F200.000000
G1 X72.524677 F200.000000
G1 Y42.298359 F200.000000
G1 Y42.298359 F200.000000
G1 Y42.298359 F200.000000
G1 Y37.069812 F200.000000
G1 X72.403606 Y36.958358 F200.000000
G1 X64.384674 F200.000000
G1 Y38.443569 F200.000000
G1 X64.396676 Y38.488359 F200.000000
G1 X64.315685 Y38.790620 F200.000000
G1 X64.284653 Y38.926581 F200.000000
G1 X64.276523 Y38.936776 F200.000000
G1 X64.259754 Y38.999359 F200.000000
G1 X64.096124 Y39.162989 F200.000000
G1 X64.004399 Y39.278008 F200.000000
G1 X63.959466 Y39.299646 F200.000000
G1 X63.885676 Y39.373437 F200.000000
G1 X63.706601 Y39.421420 F200.000000
G1 X63.599422 Y39.473035 F200.000000
G1 X63.513972 F200.000000
G1 X63.374676 Y39.510359 F200.000000
G1 X63.235380 Y39.473035 F200.000000
G1 X63.149930 Y39.473035 F200.000000
G1 X63.042751 Y39.421420 F200.000000
G1 X62.863676 Y39.373437 F200.000000
G1 X62.789885 Y39.299646 F200.000000
G1 X62.744952 Y39.278008 F200.000000
G1 X62.653227 Y39.162989 F200.000000
G1 X62.489598 Y38.999359 F200.000000
G1 X62.472829 Y38.936776 F200.000000
G1 X62.464699 Y38.926581 F200.000000
G1 X62.433666 Y38.790620 F200.000000
G1 X62.352676 Y38.488359 F200.000000
G1 X62.364677 Y38.443569 F200.000000
G1 Y36.455958 F200.000000
G1 X60.563520 Y36.455958 F200.000000
G1 X60.532124 Y36.515779 F200.000000
G1 X60.104539 Y36.810919 F200.000000
G1 X59.588773 Y36.873545 F200.000000
G1 X59.102981 Y36.689308 F200.000000
G1 X58.758453 Y36.300416 F200.000000
G1 X58.634116 Y35.795959 F200.000000
G1 X58.758453 Y35.291502 F200.000000
G1 X59.102981 Y34.902610 F200.000000
G1 X59.588773 Y34.718374 F200.000000
G1 X60.104539 Y34.780999 F200.000000
G1 X60.532124 Y35.076139 F200.000000
G1 X60.563520 Y35.135960 F200.000000
G1 X62.792194 Y35.135960 F200.000000
G1 X62.847482 Y35.109335 F200.000000
G1 X62.936454 Y35.038382 F200.000000
G1 X63.047400 Y35.013059 F200.000000
G1 X63.149930 Y34.963683 F200.000000
G1 X63.263729 F200.000000
G1 X63.374676 Y34.938361 F200.000000
G1 X72.403606 Y34.938361 F200.000000
G1 X72.697845 Y34.667494 F200.000000
G1 X73.159083 Y34.465177 F200.000000
G1 X73.661022 Y34.423585 F200.000000
G1 X74.149270 Y34.547226 F200.000000
G1 X74.570917 Y34.822701 F200.000000
G1 X74.660938 Y34.938361 F200.000000
G1 X75.656321 Y34.938361 F200.000000
G1 X77.604677 Y32.990004 F200.000000
G1 Y23.666714 F200.000000
G1 X75.656321 Y21.718358 F200.000000
G1 X69.381031 F200.000000
G1 X65.419026 Y25.680363 F200.000000
G0 Z0.500000
G0 X42.636321 Y38.748361
G1 Z-0.040000 F60.000000
G1 X43.314677 Y38.070004 F200.000000
G1 Y28.746714 F200.000000
G1 X41.366321 Y26.798358 F200.000000
G1 X40.933031 F200.000000
G1 X40.266676 Y27.464713 F200.000000
G1 Y28.080359 F200.000000
G1 X38.222676 F200.000000
G1 Y26.036359 F200.000000
G1 X38.838322 F200.000000
G1 X39.800499 Y25.074182 F200.000000
G1 X39.943974 Y24.984031 F200.000000
G1 X40.076454 Y24.878382 F200.000000
G1 X40.132456 Y24.865600 F200.000000
G0 Z0.500000
G0 X47.524675 Y8.016810
G1 Z-0.040000 F60.000000
G1 Y14.993359 F200.000000
G1 X47.500036 Y15.101311 F200.000000
G1 X47.487638 Y15.211343 F200.000000
G1 X47.467667 Y15.243126 F200.000000
G1 X47.459314 Y15.279722 F200.000000
G1 X47.390277 Y15.366293 F200.000000
G1 X47.331366 Y15.460049 F200.000000
G1 X37.364675 Y25.426740 F200.000000
G1 Y28.054978 F200.000000
G1 X38.248056 Y28.938360 F200.000000
G1 X38.492991 F200.000000
G1 X38.570046 Y28.876911 F200.000000
G1 X38.733676 Y28.713281 F200.000000
G1 X38.796259 Y28.696512 F200.000000
G1 X38.806454 Y28.688382 F200.000000
G1 X38.942414 Y28.657350 F200.000000
G1 X39.244676 Y28.576359 F200.000000
G1 X39.289466 Y28.588361 F200.000000
G1 X41.475621 F200.000000
G1 X41.653833 Y28.520774 F200.000000
G1 X42.169599 Y28.583399 F200.000000
G1 X42.597184 Y28.878539 F200.000000
G1 X42.838633 Y29.338582 F200.000000
G1 Y29.858136 F200.000000
G1 X42.597184 Y30.318179 F200.000000
G1 X42.169599 Y30.613319 F200.000000
G1 X41.653833 Y30.675945 F200.000000
G1 X41.475621 Y30.608358 F200.000000
G1 X39.289466 F200.000000
G1 X39.244676 Y30.620359 F200.000000
G1 X38.942414 Y30.539368 F200.000000
G1 X38.806454 Y30.508336 F200.000000
G1 X38.796259 Y30.500206 F200.000000
G1 X38.733676 Y30.483437 F200.000000
G1 X38.570046 Y30.319807 F200.000000
G1 X38.492991 Y30.258358 F200.000000
G1 X37.974676 Y30.258358 F200.000000
G1 X37.866724 Y30.233719 F200.000000
G1 X37.756692 Y30.221321 F200.000000
G1 X37.724908 Y30.201350 F200.000000
G1 X37.688313 Y30.192998 F200.000000
G1 X37.601742 Y30.123960 F200.000000
G1 X37.507986 Y30.065049 F200.000000
G1 X36.237986 Y28.795049 F200.000000
G1 X36.179075 Y28.701293 F200.000000
G1 X36.110037 Y28.614722 F200.000000
G1 X36.101684 Y28.578126 F200.000000
G1 X36.094675 Y28.566971 F200.000000
G1 Y29.324978 F200.000000
G1 X38.248056 Y31.478360 F200.000000
G1 X38.492991 Y31.478360 F200.000000
G1 X38.570046 Y31.416911 F200.000000
G1 X38.733676 Y31.253281 F200.000000
G1 X38.796259 Y31.236512 F200.000000
G1 X38.806454 Y31.228382 F200.000000
G1 X38.942414 Y31.197350 F200.000000
G1 X39.244676 Y31.116359 F200.000000
G1 X39.289466 Y31.128361 F200.000000
G1 X41.475621 F200.000000
G1 X41.653833 Y31.060774 F200.000000
G1 X42.169599 Y31.123399 F200.000000
G1 X42.597184 Y31.418539 F200.000000
G1 X42.838633 Y31.878582 F200.000000
G1 Y32.398136 F200.000000
G1 X42.597184 Y32.858179 F200.000000
G1 X42.169599 Y33.153319 F200.000000
G1 X41.653833 Y33.215945 F200.000000
G1 X41.475621 Y33.148358 F200.000000
G1 X39.289466 F200.000000
G1 X39.244676 Y33.160359 F200.000000
G1 X38.942414 Y33.079368 F200.000000
G1 X38.806454 Y33.048336 F200.000000
G1 X38.796259 Y33.040206 F200.000000
G1 X38.733676 Y33.023437 F200.000000
G1 X38.570046 Y32.859807 F200.000000
G1 X38.492991 Y32.798358 F200.000000
G1 X37.974676 Y32.798358 F200.000000
G1 X37.866724 Y32.773719 F200.000000
G1 X37.756692 Y32.761321 F200.000000
G1 X37.724908 Y32.741350 F200.000000
G1 X37.688313 Y32.732998 F200.000000
G1 X37.601742 Y32.663960 F200.000000
G1 X37.507986 Y32.605049 F200.000000
G1 X34.967986 Y30.065049 F200.000000
G0 Z0.500000
G0 X31.958257 Y19.755038
G1 Z-0.040000 F60.000000
G1 X32.015704 Y19.791135 F200.000000
G1 X32.135676 Y19.823281 F200.000000
G1 X32.243538 Y19.931143 F200.000000
G1 X36.329677 Y15.845004 F200.000000
G1 Y14.776714 F200.000000
G1 X35.651321 Y14.098358 F200.000000
G1 X34.844466 F200.000000
G1 X34.799676 Y14.110359 F200.000000
G1 X34.754886 Y14.098358 F200.000000
G1 X32.304466 F200.000000
G1 X32.259676 Y14.110359 F200.000000
G1 X32.214886 Y14.098358 F200.000000
G1 X29.764466 F200.000000
G1 X29.719676 Y14.110359 F200.000000
G1 X29.674886 Y14.098358 F200.000000
G1 X27.224466 F200.000000
G1 X27.179676 Y14.110359 F200.000000
G1 X26.877414 Y14.029368 F200.000000
G1 X26.741454 Y13.998336 F200.000000
G1 X26.731259 Y13.990206 F200.000000
G1 X26.668676 Y13.973437 F200.000000
G1 X26.505046 Y13.809807 F200.000000
G1 X26.427991 Y13.748358 F200.000000
G1 X24.004676 Y13.748358 F200.000000
G1 X23.896724 Y13.723719 F200.000000
G1 X23.786692 Y13.711321 F200.000000
G1 X23.754908 Y13.691350 F200.000000
G1 X23.718313 Y13.682998 F200.000000
G1 X23.631742 Y13.613960 F200.000000
G0 Z0.500000
G0 X34.821973 Y8.020198
G1 Z-0.040000 F60.000000
G1 X34.800036 Y8.116311 F200.000000
G1 X34.787638 Y8.226343 F200.000000
G1 X34.767667 Y8.258126 F200.000000
G1 X34.759314 Y8.294722 F200.000000
G1 X34.690277 Y8.381293 F200.000000
G1 X34.631366 Y8.475049 F200.000000
G1 X33.281676 Y9.824739 F200.000000
G1 Y11.570359 F200.000000
G1 X31.237676 F200.000000
G1 Y9.526359 F200.000000
G1 X31.742913 F200.000000
G1 X31.792986 Y9.446669 F200.000000
G1 X33.379638 Y7.860017 F200.000000
G0 Z0.500000
G0 X57.788677 Y53.845304
G1 Z-0.040000 F60.000000
G1 Y53.027161 F200.000000
G1 X56.971875 Y52.210359 F200.000000
G1 X56.002676 F200.000000
G1 Y50.166359 F200.000000
G1 X58.046676 F200.000000
G1 Y51.135558 F200.000000
G1 X59.086076 Y52.174959 F200.000000
G1 X59.153913 Y52.282920 F200.000000
G1 X59.233411 Y52.382608 F200.000000
G1 X59.243029 Y52.424748 F200.000000
