(Generated by ./pygerber2gcode_cui_MOD.py )
( 2013-06-13 15:19:54 )
(Initialize)

(Start form here)
G0 Z0.500000
G0 X79.113576 Y50.527598
G1 Z-0.040000 F60.000000
G1 X79.207556 Y50.624118 F200.000000
G1 X79.243173 Y50.682516 F200.000000
G1 X79.279013 Y50.740777 F200.000000
G1 X79.375533 Y51.025257 F200.000000
G1 X79.380717 Y51.075559 F200.000000
G1 X79.391970 Y51.124859 F200.000000
G1 Y51.315359 F200.000000
G1 X79.380808 Y51.364261 F200.000000
G1 X79.375800 Y51.414169 F200.000000
G1 X79.279280 Y51.701189 F200.000000
G1 X79.278270 Y51.702841 F200.000000
G1 X79.278054 Y51.704765 F200.000000
G1 X79.242334 Y51.761613 F200.000000
G1 X79.207310 Y51.818892 F200.000000
G1 X79.205683 Y51.819942 F200.000000
G1 X79.204653 Y51.821582 F200.000000
G1 X79.014153 Y52.012082 F200.000000
G1 X78.971336 Y52.038986 F200.000000
G1 X78.932101 Y52.070888 F200.000000
G1 X78.741601 Y52.164868 F200.000000
G1 X78.709742 Y52.172459 F200.000000
G1 X78.680578 Y52.187366 F200.000000
G1 X78.299578 Y52.283886 F200.000000
G1 X78.261036 Y52.284800 F200.000000
G1 X78.223450 Y52.293379 F200.000000
G1 X77.938970 F200.000000
G1 X77.901384 Y52.284800 F200.000000
G1 X77.862842 Y52.283886 F200.000000
G1 X77.481842 Y52.187366 F200.000000
G1 X77.452679 Y52.172459 F200.000000
G1 X77.420819 Y52.164868 F200.000000
G1 X77.230319 Y52.070888 F200.000000
G1 X77.191085 Y52.038986 F200.000000
G1 X77.148267 Y52.012082 F200.000000
G1 X76.957767 Y51.821582 F200.000000
G1 X76.956737 Y51.819942 F200.000000
G1 X76.955110 Y51.818892 F200.000000
G1 X76.920087 Y51.761613 F200.000000
G1 X76.884367 Y51.704765 F200.000000
G1 X76.884150 Y51.702841 F200.000000
G1 X76.883140 Y51.701189 F200.000000
G1 X76.786620 Y51.414169 F200.000000
G1 X76.781612 Y51.364261 F200.000000
G1 X76.770451 Y51.315359 F200.000000
G1 Y51.124859 F200.000000
G1 X76.781703 Y51.075559 F200.000000
G1 X76.786887 Y51.025257 F200.000000
G1 X76.883407 Y50.740777 F200.000000
G1 X76.919248 Y50.682516 F200.000000
G1 X76.954864 Y50.624118 F200.000000
G1 X77.048844 Y50.527598 F200.000000
G1 X77.164672 Y50.452647 F200.000000
G1 X77.301549 Y50.435373 F200.000000
G1 X77.432366 Y50.479199 F200.000000
G1 X77.531212 Y50.575445 F200.000000
G1 X77.578510 Y50.705046 F200.000000
G1 X77.564893 Y50.842335 F200.000000
G1 X77.493056 Y50.960120 F200.000000
G1 X77.448000 Y51.006393 F200.000000
G1 X77.390450 Y51.176016 F200.000000
G1 Y51.264631 F200.000000
G1 X77.447613 Y51.434616 F200.000000
G1 X77.550499 Y51.537503 F200.000000
G1 X77.665796 Y51.594383 F200.000000
G1 X77.977626 Y51.673380 F200.000000
G1 X78.184794 F200.000000
G1 X78.496624 Y51.594383 F200.000000
G1 X78.611921 Y51.537503 F200.000000
G1 X78.714807 Y51.434616 F200.000000
G1 X78.771971 Y51.264631 F200.000000
G1 Y51.176016 F200.000000
G1 X78.714420 Y51.006393 F200.000000
G1 X78.669364 Y50.960120 F200.000000
G1 X78.597528 Y50.842335 F200.000000
G1 X78.583910 Y50.705046 F200.000000
G1 X78.631208 Y50.575445 F200.000000
G1 X78.730055 Y50.479199 F200.000000
G1 X78.860871 Y50.435373 F200.000000
G1 X78.997748 Y50.452647 F200.000000
G1 X79.113576 Y50.527598 F200.000000
G0 Z0.500000
G0 X77.628971 Y49.125879
G1 Z-0.040000 F60.000000
G1 Y49.054879 F200.000000
G1 X77.431385 Y49.054879 F200.000000
G1 X77.390450 Y49.176607 F200.000000
G1 Y49.265222 F200.000000
G1 X77.447301 Y49.432785 F200.000000
G1 X77.551699 Y49.537183 F200.000000
G1 X77.666539 Y49.595368 F200.000000
G1 X77.976639 Y49.671860 F200.000000
G1 X78.185781 F200.000000
G1 X78.495881 Y49.595368 F200.000000
G1 X78.610721 Y49.537183 F200.000000
G1 X78.715119 Y49.432785 F200.000000
G1 X78.771971 Y49.265222 F200.000000
G1 Y49.103411 F200.000000
G1 X78.708920 Y48.978968 F200.000000
G1 X78.675514 Y48.845111 F200.000000
G1 X78.703495 Y48.710015 F200.000000
G1 X78.787320 Y48.600439 F200.000000
G1 X78.910388 Y48.538084 F200.000000
G1 X79.048323 Y48.535302 F200.000000
G1 X79.173805 Y48.592643 F200.000000
G1 X79.261981 Y48.698750 F200.000000
G1 X79.358501 Y48.889250 F200.000000
G1 X79.359275 Y48.892354 F200.000000
G1 X79.361270 Y48.894855 F200.000000
G1 X79.375942 Y48.959136 F200.000000
G1 X79.391907 Y49.023107 F200.000000
G1 X79.391258 Y49.026240 F200.000000
G1 X79.391970 Y49.029359 F200.000000
G1 Y49.316379 F200.000000
G1 X79.380717 Y49.365679 F200.000000
G1 X79.375533 Y49.415981 F200.000000
G1 X79.279013 Y49.700461 F200.000000
G1 X79.278222 Y49.701746 F200.000000
G1 X79.278054 Y49.703245 F200.000000
G1 X79.242117 Y49.760438 F200.000000
G1 X79.206726 Y49.817969 F200.000000
G1 X79.205456 Y49.818784 F200.000000
G1 X79.204653 Y49.820062 F200.000000
G1 X79.014153 Y50.010562 F200.000000
G1 X78.972706 Y50.036605 F200.000000
G1 X78.935059 Y50.067890 F200.000000
G1 X78.744559 Y50.164410 F200.000000
G1 X78.710265 Y50.172968 F200.000000
G1 X78.678691 Y50.188857 F200.000000
G1 X78.297691 Y50.282837 F200.000000
G1 X78.260102 Y50.283493 F200.000000
G1 X78.223450 Y50.291859 F200.000000
G1 X77.938970 F200.000000
G1 X77.902318 Y50.283493 F200.000000
G1 X77.864729 Y50.282837 F200.000000
G1 X77.483729 Y50.188857 F200.000000
G1 X77.452155 Y50.172968 F200.000000
G1 X77.417861 Y50.164410 F200.000000
G1 X77.227361 Y50.067890 F200.000000
G1 X77.189714 Y50.036605 F200.000000
G1 X77.148267 Y50.010562 F200.000000
G1 X76.957767 Y49.820062 F200.000000
G1 X76.956965 Y49.818784 F200.000000
G1 X76.955695 Y49.817969 F200.000000
G1 X76.920303 Y49.760438 F200.000000
G1 X76.884367 Y49.703245 F200.000000
G1 X76.884198 Y49.701746 F200.000000
G1 X76.883407 Y49.700461 F200.000000
G1 X76.786887 Y49.415981 F200.000000
G1 X76.781703 Y49.365679 F200.000000
G1 X76.770451 Y49.316379 F200.000000
G1 Y49.125879 F200.000000
G1 X76.781612 Y49.076977 F200.000000
G1 X76.786620 Y49.027069 F200.000000
G1 X76.883140 Y48.740049 F200.000000
G1 X76.884150 Y48.738397 F200.000000
G1 X76.884367 Y48.736473 F200.000000
G1 X76.920087 Y48.679625 F200.000000
G1 X76.955110 Y48.622346 F200.000000
G1 X76.956737 Y48.621296 F200.000000
G1 X76.957767 Y48.619656 F200.000000
G1 X77.051747 Y48.525676 F200.000000
G1 X77.095784 Y48.498006 F200.000000
G1 X77.136446 Y48.465579 F200.000000
G1 X77.153635 Y48.461656 F200.000000
G1 X77.168564 Y48.452276 F200.000000
G1 X77.220245 Y48.446453 F200.000000
G1 X77.270950 Y48.434880 F200.000000
G1 X77.938970 F200.000000
G1 X77.973023 Y48.442652 F200.000000
G1 X78.007952 F200.000000
G1 X78.039421 Y48.457807 F200.000000
G1 X78.073474 Y48.465579 F200.000000
G1 X78.100782 Y48.487357 F200.000000
G1 X78.132252 Y48.502512 F200.000000
G1 X78.154029 Y48.529820 F200.000000
G1 X78.181338 Y48.551597 F200.000000
G1 X78.196492 Y48.583067 F200.000000
G1 X78.218270 Y48.610375 F200.000000
G1 X78.226042 Y48.644428 F200.000000
G1 X78.241197 Y48.675898 F200.000000
G1 Y48.710826 F200.000000
G1 X78.248970 Y48.744879 F200.000000
G1 Y49.125879 F200.000000
G1 X78.218270 Y49.260383 F200.000000
G1 X78.132252 Y49.368246 F200.000000
G1 X78.007952 Y49.428106 F200.000000
G1 X77.869989 F200.000000
G1 X77.745689 Y49.368246 F200.000000
G1 X77.659670 Y49.260383 F200.000000
G1 X77.628971 Y49.125879 F200.000000
G0 Z0.500000
G0 X79.279013 Y46.740277
G1 Z-0.040000 F60.000000
G1 X79.375533 Y47.024757 F200.000000
G1 X79.380717 Y47.075059 F200.000000
G1 X79.391970 Y47.124359 F200.000000
G1 Y47.601879 F200.000000
G1 X79.391258 Y47.604998 F200.000000
G1 X79.391907 Y47.608131 F200.000000
G1 X79.375942 Y47.672102 F200.000000
G1 X79.361270 Y47.736383 F200.000000
G1 X79.359275 Y47.738884 F200.000000
G1 X79.358501 Y47.741988 F200.000000
G1 X79.261981 Y47.932488 F200.000000
G1 X79.230696 Y47.970135 F200.000000
G1 X79.204653 Y48.011582 F200.000000
G1 X79.110673 Y48.105562 F200.000000
G1 X79.069226 Y48.131605 F200.000000
G1 X79.031579 Y48.162890 F200.000000
G1 X78.841079 Y48.259410 F200.000000
G1 X78.837975 Y48.260184 F200.000000
G1 X78.835474 Y48.262179 F200.000000
G1 X78.771193 Y48.276851 F200.000000
G1 X78.707222 Y48.292815 F200.000000
G1 X78.704089 Y48.292167 F200.000000
G1 X78.700970 Y48.292879 F200.000000
G1 X78.510470 F200.000000
G1 X78.507351 Y48.292167 F200.000000
G1 X78.504219 Y48.292815 F200.000000
G1 X78.440247 Y48.276851 F200.000000
G1 X78.375966 Y48.262179 F200.000000
G1 X78.373465 Y48.260184 F200.000000
G1 X78.370361 Y48.259410 F200.000000
G1 X78.179861 Y48.162890 F200.000000
G1 X78.143771 Y48.132898 F200.000000
G1 X78.103709 Y48.108465 F200.000000
G1 X78.007189 Y48.014485 F200.000000
G1 X77.978619 Y47.970333 F200.000000
G1 X77.945441 Y47.929530 F200.000000
G1 X77.851461 Y47.739030 F200.000000
G1 X77.843870 Y47.707170 F200.000000
G1 X77.828964 Y47.678007 F200.000000
G1 X77.740474 Y47.328705 F200.000000
G1 X77.683594 Y47.213408 F200.000000
G1 X77.659421 Y47.189235 F200.000000
G1 X77.579644 Y47.149879 F200.000000
G1 X77.533757 F200.000000
G1 X77.455885 Y47.188295 F200.000000
G1 X77.432103 Y47.212720 F200.000000
G1 X77.390450 Y47.294931 F200.000000
G1 Y47.645131 F200.000000
G1 X77.470800 Y47.884069 F200.000000
G1 X77.484574 Y48.021342 F200.000000
G1 X77.437423 Y48.150998 F200.000000
G1 X77.338686 Y48.247355 F200.000000
G1 X77.207920 Y48.291330 F200.000000
G1 X77.071023 Y48.274212 F200.000000
G1 X76.955110 Y48.199392 F200.000000
G1 X76.883140 Y48.081689 F200.000000
G1 X76.786620 Y47.794669 F200.000000
G1 X76.781612 Y47.744761 F200.000000
G1 X76.770451 Y47.695859 F200.000000
G1 Y47.220879 F200.000000
G1 X76.771163 Y47.217760 F200.000000
G1 X76.770514 Y47.214627 F200.000000
G1 X76.786479 Y47.150656 F200.000000
G1 X76.801150 Y47.086375 F200.000000
G1 X76.803145 Y47.083874 F200.000000
G1 X76.803920 Y47.080770 F200.000000
G1 X76.900440 Y46.890270 F200.000000
G1 X76.930431 Y46.854180 F200.000000
G1 X76.954864 Y46.814118 F200.000000
G1 X77.048844 Y46.717598 F200.000000
G1 X77.092996 Y46.689028 F200.000000
G1 X77.133799 Y46.655850 F200.000000
G1 X77.324299 Y46.561870 F200.000000
G1 X77.325767 Y46.561520 F200.000000
G1 X77.326946 Y46.560579 F200.000000
G1 X77.392799 Y46.545549 F200.000000
G1 X77.458505 Y46.529894 F200.000000
G1 X77.459979 Y46.530215 F200.000000
G1 X77.461450 Y46.529880 F200.000000
G1 X77.651950 F200.000000
G1 X77.653421 Y46.530215 F200.000000
G1 X77.654895 Y46.529894 F200.000000
G1 X77.720602 Y46.545549 F200.000000
G1 X77.786454 Y46.560579 F200.000000
G1 X77.787634 Y46.561520 F200.000000
G1 X77.789101 Y46.561870 F200.000000
G1 X77.979601 Y46.655850 F200.000000
G1 X78.018836 Y46.687752 F200.000000
G1 X78.061653 Y46.714656 F200.000000
G1 X78.158173 Y46.811176 F200.000000
G1 X78.185077 Y46.853993 F200.000000
G1 X78.216980 Y46.893228 F200.000000
G1 X78.310960 Y47.083728 F200.000000
G1 X78.318551 Y47.115588 F200.000000
G1 X78.333457 Y47.144751 F200.000000
G1 X78.421947 Y47.494053 F200.000000
G1 X78.477886 Y47.607444 F200.000000
G1 X78.502311 Y47.631226 F200.000000
G1 X78.584522 Y47.672880 F200.000000
G1 X78.626918 F200.000000
G1 X78.707241 Y47.632183 F200.000000
G1 X78.731274 Y47.608150 F200.000000
G1 X78.771971 Y47.527827 F200.000000
G1 Y47.175516 F200.000000
G1 X78.691887 Y46.939481 F200.000000
G1 X78.677744 Y46.802245 F200.000000
G1 X78.724545 Y46.672463 F200.000000
G1 X78.823022 Y46.575840 F200.000000
G1 X78.953670 Y46.531513 F200.000000
G1 X79.090612 Y46.548262 F200.000000
G1 X79.206726 Y46.622769 F200.000000
G1 X79.279013 Y46.740277 F200.000000
G0 Z0.500000
G0 X77.390450 Y43.410879
G1 Z-0.040000 F60.000000
G1 Y43.901994 F200.000000
G1 X78.004247 Y43.288196 F200.000000
G1 X78.005887 Y43.287166 F200.000000
G1 X78.006937 Y43.285539 F200.000000
G1 X78.064216 Y43.250515 F200.000000
G1 X78.121064 Y43.214796 F200.000000
G1 X78.122988 Y43.214579 F200.000000
G1 X78.124640 Y43.213569 F200.000000
G1 X78.411660 Y43.117049 F200.000000
G1 X78.461569 Y43.112041 F200.000000
G1 X78.510470 Y43.100880 F200.000000
G1 X78.700970 F200.000000
G1 X78.704089 Y43.101591 F200.000000
G1 X78.707222 Y43.100943 F200.000000
G1 X78.771193 Y43.116908 F200.000000
G1 X78.835474 Y43.131579 F200.000000
G1 X78.837975 Y43.133574 F200.000000
G1 X78.841079 Y43.134348 F200.000000
G1 X79.031579 Y43.230868 F200.000000
G1 X79.069226 Y43.262154 F200.000000
G1 X79.110673 Y43.288196 F200.000000
G1 X79.204653 Y43.382176 F200.000000
G1 X79.230696 Y43.423623 F200.000000
G1 X79.261981 Y43.461270 F200.000000
G1 X79.358501 Y43.651770 F200.000000
G1 X79.359275 Y43.654874 F200.000000
G1 X79.361270 Y43.657375 F200.000000
G1 X79.375942 Y43.721656 F200.000000
G1 X79.391907 Y43.785627 F200.000000
G1 X79.391258 Y43.788760 F200.000000
G1 X79.391970 Y43.791879 F200.000000
G1 Y44.269399 F200.000000
G1 X79.391258 Y44.272518 F200.000000
G1 X79.391907 Y44.275651 F200.000000
G1 X79.375942 Y44.339622 F200.000000
G1 X79.361270 Y44.403903 F200.000000
G1 X79.359275 Y44.406404 F200.000000
G1 X79.358501 Y44.409508 F200.000000
G1 X79.261981 Y44.600008 F200.000000
G1 X79.230696 Y44.637655 F200.000000
G1 X79.204653 Y44.679102 F200.000000
G1 X79.110673 Y44.773082 F200.000000
G1 X78.993856 Y44.846482 F200.000000
G1 X78.856761 Y44.861929 F200.000000
G1 X78.726540 Y44.816363 F200.000000
G1 X78.628986 Y44.718809 F200.000000
G1 X78.583420 Y44.588588 F200.000000
G1 X78.598867 Y44.451493 F200.000000
G1 X78.672267 Y44.334676 F200.000000
G1 X78.731274 Y44.275670 F200.000000
G1 X78.771971 Y44.195347 F200.000000
G1 Y43.865931 F200.000000
G1 X78.731274 Y43.785608 F200.000000
G1 X78.707241 Y43.761575 F200.000000
G1 X78.626918 Y43.720879 F200.000000
G1 X78.561198 F200.000000
G1 X78.391213 Y43.778042 F200.000000
G1 X77.299653 Y44.869602 F200.000000
G1 X77.284724 Y44.878982 F200.000000
G1 X77.273732 Y44.892766 F200.000000
G1 X77.226873 Y44.915332 F200.000000
G1 X77.182836 Y44.943002 F200.000000
G1 X77.165316 Y44.944976 F200.000000
G1 X77.149432 Y44.952626 F200.000000
G1 X77.097423 F200.000000
G1 X77.045741 Y44.958449 F200.000000
G1 X77.029100 Y44.952626 F200.000000
G1 X77.011469 F200.000000
G1 X76.964611 Y44.930060 F200.000000
G1 X76.915520 Y44.912883 F200.000000
G1 X76.903054 Y44.900416 F200.000000
G1 X76.887169 Y44.892766 F200.000000
G1 X76.854742 Y44.852104 F200.000000
G1 X76.817966 Y44.815329 F200.000000
G1 X76.812143 Y44.798687 F200.000000
G1 X76.801150 Y44.784903 F200.000000
G1 X76.789577 Y44.734198 F200.000000
G1 X76.772400 Y44.685108 F200.000000
G1 X76.774374 Y44.667588 F200.000000
G1 X76.770451 Y44.650399 F200.000000
G1 Y43.410879 F200.000000
G1 X76.801150 Y43.276375 F200.000000
G1 X76.887169 Y43.168512 F200.000000
G1 X77.011469 Y43.108652 F200.000000
G1 X77.149432 F200.000000
G1 X77.273732 Y43.168512 F200.000000
G1 X77.359750 Y43.276375 F200.000000
G1 X77.390450 Y43.410879 F200.000000
G0 Z0.500000
G0 X76.786479 Y42.244122
G1 Z-0.040000 F60.000000
G1 X76.770514 Y42.180151 F200.000000
G1 X76.771163 Y42.177018 F200.000000
G1 X76.770451 Y42.173899 F200.000000
G1 Y41.983399 F200.000000
G1 X76.771163 Y41.980280 F200.000000
G1 X76.770514 Y41.977147 F200.000000
G1 X76.786479 Y41.913176 F200.000000
G1 X76.801150 Y41.848895 F200.000000
G1 X76.803145 Y41.846394 F200.000000
G1 X76.803920 Y41.843290 F200.000000
G1 X76.900440 Y41.652790 F200.000000
G1 X76.930431 Y41.616700 F200.000000
G1 X76.954864 Y41.576638 F200.000000
G1 X77.048844 Y41.480118 F200.000000
G1 X77.092996 Y41.451548 F200.000000
G1 X77.133799 Y41.418370 F200.000000
G1 X77.324299 Y41.324390 F200.000000
G1 X77.356159 Y41.316799 F200.000000
G1 X77.385322 Y41.301893 F200.000000
G1 X77.766322 Y41.205373 F200.000000
G1 X77.804864 Y41.204458 F200.000000
G1 X77.842450 Y41.195880 F200.000000
G1 X78.319970 F200.000000
G1 X78.357556 Y41.204458 F200.000000
G1 X78.396098 Y41.205373 F200.000000
G1 X78.777098 Y41.301893 F200.000000
G1 X78.806262 Y41.316799 F200.000000
G1 X78.838121 Y41.324390 F200.000000
G1 X79.028621 Y41.418370 F200.000000
G1 X79.069424 Y41.451548 F200.000000
G1 X79.113576 Y41.480118 F200.000000
G1 X79.207556 Y41.576638 F200.000000
G1 X79.231990 Y41.616700 F200.000000
G1 X79.261981 Y41.652790 F200.000000
G1 X79.358501 Y41.843290 F200.000000
G1 X79.359275 Y41.846394 F200.000000
G1 X79.361270 Y41.848895 F200.000000
G1 X79.375942 Y41.913176 F200.000000
G1 X79.391907 Y41.977147 F200.000000
G1 X79.391258 Y41.980280 F200.000000
G1 X79.391970 Y41.983399 F200.000000
G1 Y42.173899 F200.000000
G1 X79.391258 Y42.177018 F200.000000
G1 X79.391907 Y42.180151 F200.000000
G1 X79.375942 Y42.244122 F200.000000
G1 X79.361270 Y42.308403 F200.000000
G1 X79.359275 Y42.310904 F200.000000
G1 X79.358501 Y42.314008 F200.000000
G1 X79.261981 Y42.504508 F200.000000
G1 X79.230696 Y42.542155 F200.000000
G1 X79.204653 Y42.583602 F200.000000
G1 X79.110673 Y42.677582 F200.000000
G1 X79.069226 Y42.703625 F200.000000
G1 X79.031579 Y42.734910 F200.000000
G1 X78.841079 Y42.831430 F200.000000
G1 X78.806785 Y42.839988 F200.000000
G1 X78.775211 Y42.855877 F200.000000
G1 X78.394211 Y42.949857 F200.000000
G1 X78.356622 Y42.950513 F200.000000
G1 X78.319970 Y42.958879 F200.000000
G1 X77.842450 F200.000000
G1 X77.805798 Y42.950513 F200.000000
G1 X77.768209 Y42.949857 F200.000000
G1 X77.387209 Y42.855877 F200.000000
G1 X77.355635 Y42.839988 F200.000000
G1 X77.321341 Y42.831430 F200.000000
G1 X77.130841 Y42.734910 F200.000000
G1 X77.093194 Y42.703625 F200.000000
G1 X77.051747 Y42.677582 F200.000000
G1 X76.957767 Y42.583602 F200.000000
G1 X76.931725 Y42.542155 F200.000000
G1 X76.900440 Y42.504508 F200.000000
G1 X76.803920 Y42.314008 F200.000000
G1 X76.803145 Y42.310904 F200.000000
G1 X76.801150 Y42.308403 F200.000000
G1 X76.786479 Y42.244122 F200.000000
G0 Z0.500000
G0 X78.771971 Y42.099847
G1 Z-0.040000 F60.000000
G1 Y42.057451 F200.000000
G1 X78.730317 Y41.975240 F200.000000
G1 X78.706535 Y41.950815 F200.000000
G1 X78.593144 Y41.894875 F200.000000
G1 X78.281314 Y41.815879 F200.000000
G1 X77.881106 F200.000000
G1 X77.569276 Y41.894875 F200.000000
G1 X77.455885 Y41.950815 F200.000000
G1 X77.432103 Y41.975240 F200.000000
G1 X77.390450 Y42.057451 F200.000000
G1 Y42.099847 F200.000000
G1 X77.431147 Y42.180170 F200.000000
G1 X77.455179 Y42.204203 F200.000000
G1 X77.570019 Y42.262388 F200.000000
G1 X77.880119 Y42.338880 F200.000000
G1 X78.282301 F200.000000
G1 X78.592401 Y42.262388 F200.000000
G1 X78.707241 Y42.204203 F200.000000
G1 X78.731274 Y42.180170 F200.000000
G1 X78.771971 Y42.099847 F200.000000
G0 Z0.500000
G0 X78.232461 Y40.606728
G1 Z-0.040000 F60.000000
G1 X78.293806 Y40.482379 F200.000000
G1 X77.390450 F200.000000
G1 Y40.743879 F200.000000
G1 X77.359750 Y40.878383 F200.000000
G1 X77.273732 Y40.986246 F200.000000
G1 X77.149432 Y41.046106 F200.000000
G1 X77.011469 F200.000000
G1 X76.887169 Y40.986246 F200.000000
G1 X76.801150 Y40.878383 F200.000000
G1 X76.770451 Y40.743879 F200.000000
G1 Y39.600879 F200.000000
G1 X76.801150 Y39.466375 F200.000000
G1 X76.887169 Y39.358512 F200.000000
G1 X77.011469 Y39.298652 F200.000000
G1 X77.149432 F200.000000
G1 X77.273732 Y39.358512 F200.000000
G1 X77.359750 Y39.466375 F200.000000
G1 X77.390450 Y39.600879 F200.000000
G1 Y39.862380 F200.000000
G1 X79.081970 F200.000000
G1 X79.128983 Y39.873110 F200.000000
G1 X79.177022 Y39.877312 F200.000000
G1 X79.195510 Y39.888294 F200.000000
G1 X79.216474 Y39.893079 F200.000000
G1 X79.254176 Y39.923145 F200.000000
G1 X79.295634 Y39.947774 F200.000000
G1 X79.307525 Y39.965690 F200.000000
G1 X79.324338 Y39.979097 F200.000000
G1 X79.345260 Y40.022544 F200.000000
G1 X79.371927 Y40.062722 F200.000000
G1 X79.374867 Y40.084024 F200.000000
G1 X79.384197 Y40.103398 F200.000000
G1 Y40.151620 F200.000000
G1 X79.390791 Y40.199389 F200.000000
G1 X79.384197 Y40.219857 F200.000000
G1 Y40.241360 F200.000000
G1 X79.363274 Y40.284807 F200.000000
G1 X79.348489 Y40.330707 F200.000000
G1 X79.333667 Y40.346287 F200.000000
G1 X79.324338 Y40.365661 F200.000000
G1 X79.286636 Y40.395727 F200.000000
G1 X79.253399 Y40.430665 F200.000000
G1 X78.992221 Y40.604013 F200.000000
G1 X78.859826 Y40.736408 F200.000000
G1 X78.788480 Y40.881030 F200.000000
G1 X78.701440 Y40.988072 F200.000000
G1 X78.576577 Y41.046748 F200.000000
G1 X78.438620 Y41.045437 F200.000000
G1 X78.314895 Y40.984399 F200.000000
G1 X78.229905 Y40.875723 F200.000000
G1 X78.200485 Y40.740934 F200.000000
G1 X78.232461 Y40.606728 F200.000000
G0 Z0.500000
G0 X79.354705 Y37.548518
G1 Z-0.040000 F60.000000
G1 X79.356677 Y37.555616 F200.000000
G1 X79.361270 Y37.561375 F200.000000
G1 X79.375053 Y37.621764 F200.000000
G1 X79.391633 Y37.681446 F200.000000
G1 X79.390330 Y37.688697 F200.000000
G1 X79.391970 Y37.695879 F200.000000
G1 Y38.935399 F200.000000
G1 X79.361270 Y39.069903 F200.000000
G1 X79.275252 Y39.177766 F200.000000
G1 X79.150952 Y39.237626 F200.000000
G1 X79.012989 F200.000000
G1 X78.888689 Y39.177766 F200.000000
G1 X78.802670 Y39.069903 F200.000000
G1 X78.771971 Y38.935399 F200.000000
G1 Y38.379903 F200.000000
G1 X78.524326 Y38.597005 F200.000000
G1 X78.517845 Y38.600507 F200.000000
G1 X78.513252 Y38.606266 F200.000000
G1 X78.457444 Y38.633142 F200.000000
G1 X78.402948 Y38.662587 F200.000000
G1 X78.395589 Y38.662930 F200.000000
G1 X78.388952 Y38.666126 F200.000000
G1 X78.327009 F200.000000
G1 X78.265135 Y38.669010 F200.000000
G1 X78.258356 Y38.666126 F200.000000
G1 X78.250989 F200.000000
G1 X78.195181 Y38.639251 F200.000000
G1 X78.138182 Y38.615002 F200.000000
G1 X78.133326 Y38.609463 F200.000000
G1 X78.126689 Y38.606266 F200.000000
G1 X78.088068 Y38.557838 F200.000000
G1 X78.047235 Y38.511261 F200.000000
G1 X78.045263 Y38.504162 F200.000000
G1 X78.040670 Y38.498403 F200.000000
G1 X78.026887 Y38.438014 F200.000000
G1 X78.010307 Y38.378332 F200.000000
G1 X78.011610 Y38.371081 F200.000000
G1 X78.009971 Y38.363899 F200.000000
G1 Y38.150931 F200.000000
G1 X77.969274 Y38.070608 F200.000000
G1 X77.945241 Y38.046575 F200.000000
G1 X77.864918 Y38.005879 F200.000000
G1 X77.535502 F200.000000
G1 X77.455179 Y38.046575 F200.000000
G1 X77.431147 Y38.070608 F200.000000
G1 X77.390450 Y38.150931 F200.000000
G1 Y38.574327 F200.000000
G1 X77.432103 Y38.656538 F200.000000
G1 X77.493056 Y38.719138 F200.000000
G1 X77.564893 Y38.836923 F200.000000
G1 X77.578510 Y38.974212 F200.000000
G1 X77.531212 Y39.103814 F200.000000
G1 X77.432366 Y39.200059 F200.000000
G1 X77.301549 Y39.243885 F200.000000
G1 X77.164672 Y39.226611 F200.000000
G1 X77.048844 Y39.151660 F200.000000
G0 Z0.500000
G1 Z-0.040000 F60.000000
G1 X76.954864 Y39.055140 F200.000000
G1 X76.930431 Y39.015078 F200.000000
G1 X76.900440 Y38.978988 F200.000000
G1 X76.803920 Y38.788488 F200.000000
G1 X76.803145 Y38.785384 F200.000000
G1 X76.801150 Y38.782883 F200.000000
G1 X76.786479 Y38.718602 F200.000000
G1 X76.770514 Y38.654631 F200.000000
G1 X76.771163 Y38.651498 F200.000000
G1 X76.770451 Y38.648379 F200.000000
G1 Y38.076879 F200.000000
G1 X76.771163 Y38.073760 F200.000000
G1 X76.770514 Y38.070627 F200.000000
G1 X76.786479 Y38.006656 F200.000000
G1 X76.801150 Y37.942375 F200.000000
G1 X76.803145 Y37.939874 F200.000000
G1 X76.803920 Y37.936770 F200.000000
G1 X76.900440 Y37.746270 F200.000000
G1 X76.931725 Y37.708623 F200.000000
G1 X76.957767 Y37.667176 F200.000000
G1 X77.051747 Y37.573196 F200.000000
G1 X77.093194 Y37.547154 F200.000000
G1 X77.130841 Y37.515868 F200.000000
G1 X77.321341 Y37.419348 F200.000000
G1 X77.324445 Y37.418574 F200.000000
G1 X77.326946 Y37.416579 F200.000000
G1 X77.391227 Y37.401908 F200.000000
G1 X77.455199 Y37.385943 F200.000000
G1 X77.458331 Y37.386591 F200.000000
G1 X77.461450 Y37.385880 F200.000000
G1 X77.938970 F200.000000
G1 X77.942089 Y37.386591 F200.000000
G1 X77.945222 Y37.385943 F200.000000
G1 X78.009193 Y37.401908 F200.000000
G1 X78.073474 Y37.416579 F200.000000
G1 X78.075975 Y37.418574 F200.000000
G1 X78.079079 Y37.419348 F200.000000
G1 X78.269579 Y37.515868 F200.000000
G1 X78.307226 Y37.547154 F200.000000
G1 X78.348673 Y37.573196 F200.000000
G1 X78.442653 Y37.667176 F200.000000
G1 X78.468696 Y37.708623 F200.000000
G1 X78.499981 Y37.746270 F200.000000
G1 X78.516667 Y37.779204 F200.000000
G1 X78.877614 Y37.462773 F200.000000
G1 X78.884095 Y37.459271 F200.000000
G1 X78.888689 Y37.453512 F200.000000
G1 X78.944496 Y37.426636 F200.000000
G1 X78.998993 Y37.397191 F200.000000
G1 X79.006351 Y37.396848 F200.000000
G1 X79.012989 Y37.393652 F200.000000
G1 X79.074931 F200.000000
G1 X79.136806 Y37.390768 F200.000000
G1 X79.143585 Y37.393652 F200.000000
G1 X79.150952 F200.000000
G1 X79.206759 Y37.420527 F200.000000
G1 X79.263758 Y37.444776 F200.000000
G1 X79.268614 Y37.450315 F200.000000
G1 X79.275252 Y37.453512 F200.000000
G1 X79.313872 Y37.501940 F200.000000
G1 X79.354705 Y37.548518 F200.000000
G0 Z0.500000
G0 X15.727259 Y24.133297
G1 Z-0.040000 F60.000000
G1 X14.935470 Y24.360212 F200.000000
G1 X15.726906 Y24.585820 F200.000000
G1 X15.828336 Y24.641507 F200.000000
G1 X15.895559 Y24.735688 F200.000000
G1 X15.915261 Y24.849709 F200.000000
G1 X15.883540 Y24.960987 F200.000000
G1 X15.806678 Y25.047482 F200.000000
G1 X15.699900 Y25.092062 F200.000000
G1 X15.584354 Y25.085898 F200.000000
G1 X13.918114 Y24.610918 F200.000000
G1 X13.879410 Y24.589668 F200.000000
G1 X13.838640 Y24.572715 F200.000000
G1 X13.829167 Y24.562084 F200.000000
G1 X13.816685 Y24.555231 F200.000000
G1 X13.791033 Y24.519292 F200.000000
G1 X13.761657 Y24.486328 F200.000000
G1 X13.757734 Y24.472640 F200.000000
G1 X13.749462 Y24.461050 F200.000000
G1 X13.741944 Y24.417541 F200.000000
G1 X13.729779 Y24.375095 F200.000000
G1 X13.732184 Y24.361060 F200.000000
G1 X13.729760 Y24.347029 F200.000000
G1 X13.741864 Y24.304566 F200.000000
G1 X13.749321 Y24.261047 F200.000000
G1 X13.757577 Y24.249445 F200.000000
G1 X13.761481 Y24.235751 F200.000000
G1 X13.790810 Y24.202745 F200.000000
G1 X13.816411 Y24.166771 F200.000000
G1 X13.828883 Y24.159900 F200.000000
G1 X13.838342 Y24.149256 F200.000000
G1 X13.879087 Y24.132245 F200.000000
G1 X13.917762 Y24.110941 F200.000000
G1 X15.584002 Y23.633421 F200.000000
G1 X15.699539 Y23.627094 F200.000000
G1 X15.806380 Y23.671524 F200.000000
G1 X15.883363 Y23.757910 F200.000000
G1 X15.915241 Y23.869143 F200.000000
G1 X15.895699 Y23.983191 F200.000000
G1 X15.828609 Y24.077467 F200.000000
G1 X15.727259 Y24.133297 F200.000000
G0 Z0.500000
G0 X13.745398 Y22.810493
G1 Z-0.040000 F60.000000
G1 X13.730991 Y22.769159 F200.000000
G1 X13.732646 Y22.754623 F200.000000
G1 X13.729391 Y22.740359 F200.000000
G1 Y22.549859 F200.000000
G1 X13.732646 Y22.535595 F200.000000
G1 X13.730991 Y22.521059 F200.000000
G1 X13.745398 Y22.479725 F200.000000
G1 X13.755139 Y22.437049 F200.000000
G1 X13.764261 Y22.425611 F200.000000
G1 X13.769076 Y22.411796 F200.000000
G1 X13.888456 Y22.221296 F200.000000
G1 X13.919936 Y22.189740 F200.000000
G1 X13.947945 Y22.155067 F200.000000
G1 X14.067325 Y22.061087 F200.000000
G1 X14.100544 Y22.045346 F200.000000
G1 X14.130705 Y22.024331 F200.000000
G1 X14.369465 Y21.927811 F200.000000
G1 X14.393870 Y21.923878 F200.000000
G1 X14.416445 Y21.913804 F200.000000
G1 X14.891425 Y21.819824 F200.000000
G1 X14.916972 Y21.820567 F200.000000
G1 X14.941890 Y21.814879 F200.000000
G1 X15.538790 F200.000000
G1 X15.563708 Y21.820567 F200.000000
G1 X15.589256 Y21.819824 F200.000000
G1 X16.064236 Y21.913804 F200.000000
G1 X16.086810 Y21.923878 F200.000000
G1 X16.111215 Y21.927811 F200.000000
G1 X16.349975 Y22.024331 F200.000000
G1 X16.380136 Y22.045346 F200.000000
G1 X16.413355 Y22.061087 F200.000000
G1 X16.532735 Y22.155067 F200.000000
G1 X16.561514 Y22.190692 F200.000000
G1 X16.593544 Y22.223424 F200.000000
G1 X16.710384 Y22.413924 F200.000000
G1 X16.714664 Y22.426594 F200.000000
G1 X16.723002 Y22.437049 F200.000000
G1 X16.733014 Y22.480918 F200.000000
G1 X16.747415 Y22.523549 F200.000000
G1 X16.745774 Y22.536821 F200.000000
G1 X16.748750 Y22.549859 F200.000000
G1 Y22.740359 F200.000000
G1 X16.745774 Y22.753397 F200.000000
G1 X16.747415 Y22.766669 F200.000000
G1 X16.733014 Y22.809300 F200.000000
G1 X16.723002 Y22.853169 F200.000000
G1 X16.714664 Y22.863624 F200.000000
G1 X16.710384 Y22.876294 F200.000000
G1 X16.593544 Y23.066794 F200.000000
G1 X16.562669 Y23.098345 F200.000000
G1 X16.535378 Y23.133043 F200.000000
G1 X16.415998 Y23.229563 F200.000000
G1 X16.380446 Y23.246978 F200.000000
G1 X16.347759 Y23.269311 F200.000000
G1 X16.108999 Y23.363291 F200.000000
G1 X16.086385 Y23.366723 F200.000000
G1 X16.065546 Y23.376151 F200.000000
G1 X15.590566 Y23.472671 F200.000000
G1 X15.564353 Y23.472044 F200.000000
G1 X15.538790 Y23.477879 F200.000000
G1 X14.941890 F200.000000
G1 X14.916327 Y23.472044 F200.000000
G1 X14.890114 Y23.472671 F200.000000
G1 X14.415134 Y23.376151 F200.000000
G1 X14.394295 Y23.366723 F200.000000
G1 X14.371681 Y23.363291 F200.000000
G1 X14.132921 Y23.269311 F200.000000
G1 X14.100234 Y23.246978 F200.000000
G1 X14.064683 Y23.229563 F200.000000
G1 X13.945303 Y23.133043 F200.000000
G1 X13.918768 Y23.099308 F200.000000
G1 X13.888456 Y23.068922 F200.000000
G1 X13.769076 Y22.878422 F200.000000
G1 X13.764261 Y22.864607 F200.000000
G1 X13.755139 Y22.853169 F200.000000
G1 X13.745398 Y22.810493 F200.000000
G0 Z0.500000
G0 X16.228751 Y22.666977
G1 Z-0.040000 F60.000000
G1 Y22.623241 F200.000000
G1 X16.174572 Y22.534906 F200.000000
G1 X16.120779 Y22.492559 F200.000000
G1 X15.939152 Y22.419135 F200.000000
G1 X15.513315 Y22.334879 F200.000000
G1 X14.967365 F200.000000
G1 X14.541529 Y22.419135 F200.000000
G1 X14.359901 Y22.492559 F200.000000
G1 X14.305094 Y22.535705 F200.000000
G1 X14.249390 Y22.624594 F200.000000
G1 Y22.665624 F200.000000
G1 X14.306017 Y22.755987 F200.000000
G1 X14.360552 Y22.800079 F200.000000
G1 X14.540975 Y22.871096 F200.000000
G1 X14.968040 Y22.957879 F200.000000
G1 X15.512640 F200.000000
G1 X15.939705 Y22.871096 F200.000000
G1 X16.120128 Y22.800079 F200.000000
G1 X16.173661 Y22.756797 F200.000000
G1 X16.228751 Y22.666977 F200.000000
G0 Z0.500000
G0 X14.269510 Y20.918020
G1 Z-0.040000 F60.000000
G1 X14.270633 Y20.919409 F200.000000
G1 X14.272238 Y20.920196 F200.000000
G1 X14.391533 Y21.016647 F200.000000
G1 X14.391618 Y21.016716 F200.000000
G1 X14.409196 Y21.039064 F200.000000
G1 X14.431426 Y21.056792 F200.000000
G1 X14.444487 Y21.083913 F200.000000
G1 X14.463107 Y21.107565 F200.000000
G1 X14.463119 Y21.107620 F200.000000
G1 X14.463153 Y21.107664 F200.000000
G1 X14.469294 Y21.135426 F200.000000
G1 X14.481631 Y21.161044 F200.000000
G1 Y21.191146 F200.000000
G1 X14.488145 Y21.220534 F200.000000
G1 X14.488132 Y21.220589 F200.000000
G1 X14.488144 Y21.220644 F200.000000
G1 X14.481631 Y21.248321 F200.000000
G1 Y21.276754 F200.000000
G1 X14.468570 Y21.303875 F200.000000
G1 X14.461687 Y21.333180 F200.000000
G1 X14.461652 Y21.333223 F200.000000
G1 X14.461639 Y21.333278 F200.000000
G1 X14.443763 Y21.355389 F200.000000
G1 X14.431426 Y21.381006 F200.000000
G1 X14.407891 Y21.399774 F200.000000
G1 X14.388975 Y21.423191 F200.000000
G1 X14.388890 Y21.423258 F200.000000
G0 Z0.500000
G0 X14.388889 Y21.423258
G1 Z-0.040000 F60.000000
G1 X14.269595 Y21.517171 F200.000000
G1 X14.218754 Y21.541262 F200.000000
G1 X14.168219 Y21.565991 F200.000000
G1 X14.166544 Y21.566001 F200.000000
G1 X14.165030 Y21.566719 F200.000000
G1 X14.108770 Y21.566365 F200.000000
G1 X14.052510 Y21.566719 F200.000000
G1 X14.050997 Y21.566001 F200.000000
G1 X14.049321 Y21.565991 F200.000000
G1 X13.998787 Y21.541262 F200.000000
G1 X13.947945 Y21.517171 F200.000000
G1 X13.828651 Y21.423258 F200.000000
G1 X13.828565 Y21.423191 F200.000000
G1 X13.809649 Y21.399774 F200.000000
G1 X13.786114 Y21.381006 F200.000000
G1 X13.773778 Y21.355389 F200.000000
G1 X13.755901 Y21.333278 F200.000000
G1 X13.755888 Y21.333223 F200.000000
G1 X13.755853 Y21.333180 F200.000000
G1 X13.748970 Y21.303875 F200.000000
G1 X13.735909 Y21.276754 F200.000000
G1 Y21.248321 F200.000000
G1 X13.729396 Y21.220644 F200.000000
G1 X13.729409 Y21.220589 F200.000000
G1 X13.729396 Y21.220534 F200.000000
G1 X13.735909 Y21.191146 F200.000000
G1 Y21.161044 F200.000000
G1 X13.748246 Y21.135426 F200.000000
G1 X13.754387 Y21.107664 F200.000000
G1 X13.754422 Y21.107620 F200.000000
G1 X13.754434 Y21.107565 F200.000000
G1 X13.773054 Y21.083913 F200.000000
G1 X13.786114 Y21.056792 F200.000000
G1 X13.808344 Y21.039064 F200.000000
G1 X13.825923 Y21.016716 F200.000000
G1 X13.826008 Y21.016647 F200.000000
G1 X13.945303 Y20.920196 F200.000000
G1 X13.946907 Y20.919409 F200.000000
G1 X13.948031 Y20.918020 F200.000000
G1 X13.998786 Y20.893996 F200.000000
G1 X14.049215 Y20.869292 F200.000000
G1 X14.051002 Y20.869280 F200.000000
G1 X14.052617 Y20.868516 F200.000000
G1 X14.108770 Y20.868892 F200.000000
G1 X14.164923 Y20.868516 F200.000000
G1 X14.166538 Y20.869280 F200.000000
G1 X14.168325 Y20.869292 F200.000000
G1 X14.218754 Y20.893996 F200.000000
G1 X14.269510 Y20.918020 F200.000000
G0 Z0.500000
G0 X15.554696 Y20.222316
G1 Z-0.040000 F60.000000
G1 X15.663383 Y20.048879 F200.000000
G1 X14.249390 F200.000000
G1 Y20.360379 F200.000000
G1 X14.223642 Y20.473189 F200.000000
G1 X14.151497 Y20.563655 F200.000000
G1 X14.047246 Y20.613860 F200.000000
G1 X13.931535 F200.000000
G1 X13.827283 Y20.563655 F200.000000
G1 X13.755139 Y20.473189 F200.000000
G1 X13.729391 Y20.360379 F200.000000
G1 Y19.217379 F200.000000
G1 X13.755139 Y19.104569 F200.000000
G1 X13.827283 Y19.014103 F200.000000
G1 X13.931535 Y18.963898 F200.000000
G1 X14.047246 F200.000000
G1 X14.151497 Y19.014103 F200.000000
G1 X14.223642 Y19.104569 F200.000000
G1 X14.249390 Y19.217379 F200.000000
G1 Y19.528879 F200.000000
G1 X16.488750 F200.000000
G1 X16.539840 Y19.540540 F200.000000
G1 X16.591383 Y19.549994 F200.000000
G1 X16.595995 Y19.553357 F200.000000
G1 X16.601560 Y19.554627 F200.000000
G1 X16.642530 Y19.587300 F200.000000
G1 X16.684868 Y19.618182 F200.000000
G1 X16.687563 Y19.623213 F200.000000
G1 X16.692026 Y19.626772 F200.000000
G1 X16.714763 Y19.673986 F200.000000
G1 X16.739509 Y19.720178 F200.000000
G1 X16.739754 Y19.725881 F200.000000
G1 X16.742231 Y19.731024 F200.000000
G1 Y19.783427 F200.000000
G1 X16.744484 Y19.835782 F200.000000
G1 X16.742231 Y19.841026 F200.000000
G1 Y19.846734 F200.000000
G1 X16.719494 Y19.893948 F200.000000
G1 X16.698808 Y19.942096 F200.000000
G1 X16.694503 Y19.945843 F200.000000
G1 X16.692026 Y19.950986 F200.000000
G1 X16.651055 Y19.983659 F200.000000
G1 X16.611528 Y20.018063 F200.000000
G1 X16.276799 Y20.197382 F200.000000
G1 X16.091178 Y20.345484 F200.000000
G1 X15.995324 Y20.498442 F200.000000
G1 X15.913603 Y20.580361 F200.000000
G1 X15.804431 Y20.618709 F200.000000
G1 X15.689433 Y20.605891 F200.000000
G1 X15.591384 Y20.544447 F200.000000
G1 X15.529704 Y20.446546 F200.000000
G1 X15.516611 Y20.331579 F200.000000
G1 X15.554696 Y20.222316 F200.000000
G0 Z0.500000
G0 X18.611271 Y28.391859
G1 Z-0.040000 F60.000000
G1 Y28.270859 F200.000000
G1 X18.132132 Y28.270859 F200.000000
G1 X18.059390 Y28.444202 F200.000000
G1 Y28.530444 F200.000000
G1 X18.133167 Y28.707824 F200.000000
G1 X18.289132 Y28.832264 F200.000000
G1 X18.470355 Y28.903596 F200.000000
G1 X18.897420 Y28.990379 F200.000000
G1 X19.203260 F200.000000
G1 X19.630325 Y28.903596 F200.000000
G1 X19.811549 Y28.832264 F200.000000
G1 X19.966692 Y28.708479 F200.000000
G1 X20.038751 Y28.531466 F200.000000
G1 Y28.371261 F200.000000
G1 X19.960277 Y28.243314 F200.000000
G1 X19.923245 Y28.133689 F200.000000
G1 X19.937445 Y28.018853 F200.000000
G1 X20.000065 Y27.921551 F200.000000
G1 X20.098701 Y27.861054 F200.000000
G1 X20.213818 Y27.849345 F200.000000
G1 X20.322615 Y27.888742 F200.000000
G1 X20.403544 Y27.971444 F200.000000
G1 X20.520384 Y28.161944 F200.000000
G1 X20.524664 Y28.174614 F200.000000
G1 X20.533002 Y28.185069 F200.000000
G1 X20.543014 Y28.228938 F200.000000
G1 X20.557415 Y28.271569 F200.000000
G1 X20.555774 Y28.284841 F200.000000
G1 X20.558750 Y28.297879 F200.000000
G1 Y28.582359 F200.000000
G1 X20.547631 Y28.631075 F200.000000
G1 X20.539561 Y28.680388 F200.000000
G1 X20.422721 Y28.967408 F200.000000
G1 X20.418013 Y28.974130 F200.000000
G1 X20.416189 Y28.982132 F200.000000
G1 X20.385024 Y29.021231 F200.000000
G1 X20.356340 Y29.062184 F200.000000
G1 X20.349182 Y29.066198 F200.000000
G1 X20.344067 Y29.072615 F200.000000
G1 X20.105307 Y29.263115 F200.000000
G1 X20.070386 Y29.279943 F200.000000
G1 X20.038379 Y29.301811 F200.000000
G1 X19.799619 Y29.395791 F200.000000
G1 X19.777005 Y29.399223 F200.000000
G1 X19.756166 Y29.408651 F200.000000
G1 X19.281186 Y29.505171 F200.000000
G1 X19.254973 Y29.504544 F200.000000
G1 X19.229410 Y29.510379 F200.000000
G1 X18.871270 F200.000000
G1 X18.845707 Y29.504544 F200.000000
G1 X18.819494 Y29.505171 F200.000000
G1 X18.344514 Y29.408651 F200.000000
G1 X18.323675 Y29.399223 F200.000000
G1 X18.301061 Y29.395791 F200.000000
G1 X18.062301 Y29.301811 F200.000000
G1 X18.030295 Y29.279943 F200.000000
G1 X17.995373 Y29.263115 F200.000000
G1 X17.756613 Y29.072615 F200.000000
G1 X17.752120 Y29.066977 F200.000000
G1 X17.745804 Y29.063499 F200.000000
G1 X17.716254 Y29.021981 F200.000000
G1 X17.684491 Y28.982132 F200.000000
G1 X17.682888 Y28.975102 F200.000000
G1 X17.678708 Y28.969228 F200.000000
G1 X17.559328 Y28.682208 F200.000000
G1 X17.550723 Y28.632011 F200.000000
G1 X17.539391 Y28.582359 F200.000000
G1 Y28.391859 F200.000000
G1 X17.550813 Y28.341816 F200.000000
G1 X17.559645 Y28.291252 F200.000000
G1 X17.679025 Y28.006772 F200.000000
G1 X17.682484 Y28.001943 F200.000000
G1 X17.683767 Y27.996144 F200.000000
G1 X17.716027 Y27.955130 F200.000000
G1 X17.746419 Y27.912713 F200.000000
G1 X17.751631 Y27.909864 F200.000000
G1 X17.755303 Y27.905196 F200.000000
G1 X17.874683 Y27.808676 F200.000000
G1 X17.901764 Y27.795409 F200.000000
G1 X17.925341 Y27.776607 F200.000000
G1 X17.953061 Y27.770280 F200.000000
G1 X17.978595 Y27.757772 F200.000000
G1 X18.008750 Y27.757570 F200.000000
G1 X18.038150 Y27.750859 F200.000000
G1 X18.871270 F200.000000
G1 X18.899831 Y27.757378 F200.000000
G1 X18.929126 F200.000000
G1 X18.955519 Y27.770089 F200.000000
G1 X18.984080 Y27.776607 F200.000000
G1 X19.006983 Y27.794873 F200.000000
G1 X19.033377 Y27.807583 F200.000000
G1 X19.051642 Y27.830487 F200.000000
G1 X19.074546 Y27.848752 F200.000000
G1 X19.087257 Y27.875146 F200.000000
G1 X19.105522 Y27.898049 F200.000000
G1 X19.112040 Y27.926610 F200.000000
G1 X19.124751 Y27.953004 F200.000000
G1 Y27.982299 F200.000000
G1 X19.131270 Y28.010859 F200.000000
G1 Y28.391859 F200.000000
G1 X19.105522 Y28.504669 F200.000000
G1 X19.033377 Y28.595135 F200.000000
G1 X18.929126 Y28.645340 F200.000000
G1 X18.813415 F200.000000
G1 X18.709163 Y28.595135 F200.000000
G1 X18.637019 Y28.504669 F200.000000
G1 X18.611271 Y28.391859 F200.000000
G0 Z0.500000
G0 X20.416193 Y27.386842
G1 Z-0.040000 F60.000000
G1 X20.413627 Y27.387482 F200.000000
G1 X20.411560 Y27.389131 F200.000000
G1 X20.357611 Y27.401444 F200.000000
G1 X20.303918 Y27.414827 F200.000000
G1 X20.301328 Y27.414290 F200.000000
G1 X20.298750 Y27.414879 F200.000000
G1 X17.799390 F200.000000
G1 X17.686581 Y27.389131 F200.000000
G1 X17.596114 Y27.316986 F200.000000
G1 X17.545909 Y27.212734 F200.000000
G1 Y27.097024 F200.000000
G1 X17.596114 Y26.992772 F200.000000
G1 X17.686581 Y26.920627 F200.000000
G1 X17.799390 Y26.894879 F200.000000
G1 X19.105055 F200.000000
G1 X17.691259 Y26.248326 F200.000000
G1 X17.689159 Y26.246719 F200.000000
G1 X17.686581 Y26.246131 F200.000000
G1 X17.643317 Y26.211629 F200.000000
G1 X17.599376 Y26.177994 F200.000000
G1 X17.598182 Y26.175635 F200.000000
G1 X17.596114 Y26.173986 F200.000000
G1 X17.572105 Y26.124130 F200.000000
G1 X17.547109 Y26.074761 F200.000000
G1 X17.547057 Y26.072117 F200.000000
G1 X17.545909 Y26.069734 F200.000000
G1 Y26.014398 F200.000000
G1 X17.544809 Y25.959073 F200.000000
G1 X17.545909 Y25.956668 F200.000000
G1 Y25.954024 F200.000000
G1 X17.569919 Y25.904168 F200.000000
G1 X17.592932 Y25.853844 F200.000000
G1 X17.594967 Y25.852155 F200.000000
G1 X17.596114 Y25.849772 F200.000000
G1 X17.639378 Y25.815270 F200.000000
G1 X17.681947 Y25.779916 F200.000000
G1 X17.684513 Y25.779276 F200.000000
G1 X17.686581 Y25.777627 F200.000000
G1 X17.740529 Y25.765314 F200.000000
G1 X17.794223 Y25.751931 F200.000000
G1 X17.796812 Y25.752468 F200.000000
G1 X17.799390 Y25.751879 F200.000000
G1 X20.298750 F200.000000
G1 X20.411560 Y25.777627 F200.000000
G1 X20.502026 Y25.849772 F200.000000
G1 X20.552231 Y25.954024 F200.000000
G1 Y26.069734 F200.000000
G1 X20.502026 Y26.173986 F200.000000
G1 X20.411560 Y26.246131 F200.000000
G1 X20.298750 Y26.271879 F200.000000
G1 X18.993086 F200.000000
G1 X20.406882 Y26.918432 F200.000000
G1 X20.408982 Y26.920039 F200.000000
G1 X20.411560 Y26.920627 F200.000000
G1 X20.454823 Y26.955129 F200.000000
G1 X20.498764 Y26.988764 F200.000000
G1 X20.499958 Y26.991123 F200.000000
G1 X20.502026 Y26.992772 F200.000000
G1 X20.526035 Y27.042628 F200.000000
G1 X20.551031 Y27.091997 F200.000000
G1 X20.551084 Y27.094641 F200.000000
G1 X20.552231 Y27.097024 F200.000000
G1 Y27.152360 F200.000000
G1 X20.553331 Y27.207685 F200.000000
G1 X20.552231 Y27.210090 F200.000000
G1 Y27.212734 F200.000000
G1 X20.528222 Y27.262590 F200.000000
G1 X20.505208 Y27.312914 F200.000000
G1 X20.503173 Y27.314603 F200.000000
G1 X20.502026 Y27.316986 F200.000000
G1 X20.458763 Y27.351488 F200.000000
G1 X20.416193 Y27.386842 F200.000000
G0 Z0.500000
G0 X18.850031 Y24.443702
G1 Z-0.040000 F60.000000
G1 X18.776249 Y24.267882 F200.000000
G1 X18.738868 Y24.237659 F200.000000
G1 X18.583182 Y24.176379 F200.000000
G1 X18.326238 F200.000000
G1 X18.170552 Y24.237659 F200.000000
G1 X18.116017 Y24.281751 F200.000000
G1 X18.059390 Y24.372114 F200.000000
G1 Y24.799379 F200.000000
G1 X18.850031 F200.000000
G1 Y24.443702 F200.000000
G0 Z0.500000
G0 X20.460857 Y25.262655
G1 Z-0.040000 F60.000000
G1 X20.434463 Y25.275365 F200.000000
G1 X20.411560 Y25.293631 F200.000000
G1 X20.382999 Y25.300149 F200.000000
G1 X20.356606 Y25.312860 F200.000000
G1 X20.327311 F200.000000
G1 X20.298750 Y25.319379 F200.000000
G1 X17.799390 F200.000000
G1 X17.770830 Y25.312860 F200.000000
G1 X17.741535 F200.000000
G1 X17.715141 Y25.300149 F200.000000
G1 X17.686581 Y25.293631 F200.000000
G1 X17.663677 Y25.275365 F200.000000
G1 X17.637283 Y25.262655 F200.000000
G1 X17.619018 Y25.239751 F200.000000
G1 X17.596114 Y25.221486 F200.000000
G1 X17.583404 Y25.195092 F200.000000
G1 X17.565139 Y25.172189 F200.000000
G1 X17.558620 Y25.143628 F200.000000
G1 X17.545909 Y25.117234 F200.000000
G1 Y25.087939 F200.000000
G1 X17.539391 Y25.059379 F200.000000
G1 Y24.297379 F200.000000
G1 X17.542646 Y24.283115 F200.000000
G1 X17.540991 Y24.268579 F200.000000
G1 X17.555398 Y24.227245 F200.000000
G1 X17.565139 Y24.184569 F200.000000
G1 X17.574261 Y24.173131 F200.000000
G1 X17.579076 Y24.159316 F200.000000
G1 X17.698456 Y23.968816 F200.000000
G1 X17.728768 Y23.938430 F200.000000
G1 X17.755303 Y23.904696 F200.000000
G1 X17.874683 Y23.808176 F200.000000
G1 X17.910234 Y23.790760 F200.000000
G1 X17.942921 Y23.768427 F200.000000
G1 X18.181681 Y23.674447 F200.000000
G1 X18.229629 Y23.667171 F200.000000
G1 X18.276910 Y23.656379 F200.000000
G1 X18.632510 F200.000000
G1 X18.679791 Y23.667171 F200.000000
G1 X18.727739 Y23.674447 F200.000000
G1 X18.966499 Y23.768427 F200.000000
G1 X18.999186 Y23.790760 F200.000000
G1 X19.034738 Y23.808176 F200.000000
G1 X19.154118 Y23.904696 F200.000000
G1 X19.157790 Y23.909364 F200.000000
G1 X19.163001 Y23.912213 F200.000000
G1 X19.167595 Y23.918624 F200.000000
G1 X19.187965 Y23.902587 F200.000000
G1 X19.220754 Y23.887050 F200.000000
G1 X19.250447 Y23.866196 F200.000000
G1 X19.486667 Y23.769676 F200.000000
G1 X19.536133 Y23.761515 F200.000000
G1 X19.585010 Y23.750359 F200.000000
G1 X19.823770 F200.000000
G1 X19.872186 Y23.761410 F200.000000
G1 X19.921215 Y23.769311 F200.000000
G1 X20.159975 Y23.865831 F200.000000
G1 X20.190136 Y23.886846 F200.000000
G1 X20.223355 Y23.902587 F200.000000
G1 X20.342735 Y23.996567 F200.000000
G1 X20.371514 Y24.032192 F200.000000
G1 X20.403544 Y24.064924 F200.000000
G1 X20.520384 Y24.255424 F200.000000
G1 X20.524664 Y24.268094 F200.000000
G1 X20.533002 Y24.278549 F200.000000
G1 X20.543014 Y24.322418 F200.000000
G1 X20.557415 Y24.365049 F200.000000
G1 X20.555774 Y24.378321 F200.000000
G1 X20.558750 Y24.391359 F200.000000
G1 Y25.059379 F200.000000
G1 X20.552231 Y25.087939 F200.000000
G1 Y25.117234 F200.000000
G1 X20.539520 Y25.143628 F200.000000
G1 X20.533002 Y25.172189 F200.000000
G1 X20.514737 Y25.195092 F200.000000
G1 X20.502026 Y25.221486 F200.000000
G1 X20.479122 Y25.239751 F200.000000
G1 X20.460857 Y25.262655 F200.000000
G0 Z0.500000
G0 X19.370030 Y24.799379
G1 Z-0.040000 F60.000000
G1 X20.038751 F200.000000
G1 Y24.464741 F200.000000
G1 X19.984572 Y24.376406 F200.000000
G1 X19.930779 Y24.334059 F200.000000
G1 X19.773205 Y24.270359 F200.000000
G1 X19.636079 F200.000000
G1 X19.480930 Y24.333753 F200.000000
G1 X19.425734 Y24.377205 F200.000000
G1 X19.370030 Y24.466094 F200.000000
G1 Y24.799379 F200.000000
G0 Z0.500000
G0 X17.555398 Y22.418765
G1 Z-0.040000 F60.000000
G1 X17.565139 Y22.376089 F200.000000
G1 X17.574261 Y22.364651 F200.000000
G1 X17.579076 Y22.350836 F200.000000
G1 X17.698456 Y22.160336 F200.000000
G1 X17.728768 Y22.129950 F200.000000
G1 X17.755303 Y22.096216 F200.000000
G1 X17.874683 Y21.999696 F200.000000
G1 X17.910234 Y21.982280 F200.000000
G1 X17.942921 Y21.959947 F200.000000
G1 X18.181681 Y21.865967 F200.000000
G1 X18.229629 Y21.858691 F200.000000
G1 X18.276910 Y21.847899 F200.000000
G1 X18.990650 F200.000000
G1 X19.037931 Y21.858691 F200.000000
G1 X19.085879 Y21.865967 F200.000000
G1 X19.324639 Y21.959947 F200.000000
G1 X19.357326 Y21.982280 F200.000000
G1 X19.392878 Y21.999696 F200.000000
G1 X19.512258 Y22.096216 F200.000000
G1 X19.539549 Y22.130913 F200.000000
G1 X19.570424 Y22.162464 F200.000000
G1 X19.687264 Y22.352964 F200.000000
G1 X19.691544 Y22.365634 F200.000000
G1 X19.699882 Y22.376089 F200.000000
G1 X19.709894 Y22.419958 F200.000000
G1 X19.724295 Y22.462589 F200.000000
G1 X19.722654 Y22.475861 F200.000000
G1 X19.725630 Y22.488899 F200.000000
G1 Y22.773379 F200.000000
G1 X19.722654 Y22.786417 F200.000000
G1 X19.724295 Y22.799689 F200.000000
G1 X19.709894 Y22.842320 F200.000000
G1 X19.699882 Y22.886189 F200.000000
G1 X19.691544 Y22.896644 F200.000000
G1 X19.687264 Y22.909314 F200.000000
G1 X19.570424 Y23.099814 F200.000000
G1 X19.539549 Y23.131365 F200.000000
G1 X19.512258 Y23.166063 F200.000000
G1 X19.392878 Y23.262583 F200.000000
G1 X19.357326 Y23.279998 F200.000000
G1 X19.324639 Y23.302331 F200.000000
G1 X19.085879 Y23.396311 F200.000000
G1 X19.037931 Y23.403587 F200.000000
G1 X18.990650 Y23.414379 F200.000000
G1 X18.276910 F200.000000
G1 X18.229629 Y23.403587 F200.000000
G1 X18.181681 Y23.396311 F200.000000
G1 X17.942921 Y23.302331 F200.000000
G1 X17.910234 Y23.279998 F200.000000
G1 X17.874683 Y23.262583 F200.000000
G1 X17.755303 Y23.166063 F200.000000
G1 X17.728768 Y23.132328 F200.000000
G1 X17.698456 Y23.101942 F200.000000
G1 X17.579076 Y22.911442 F200.000000
G1 X17.574261 Y22.897627 F200.000000
G1 X17.565139 Y22.886189 F200.000000
G1 X17.555398 Y22.843513 F200.000000
G1 X17.540991 Y22.802179 F200.000000
G1 X17.542646 Y22.787643 F200.000000
G1 X17.539391 Y22.773379 F200.000000
G1 Y22.488899 F200.000000
G1 X17.542646 Y22.474635 F200.000000
G1 X17.540991 Y22.460099 F200.000000
G1 X17.555398 Y22.418765 F200.000000
G0 Z0.500000
G0 X18.059390 Y22.698644
G1 Z-0.040000 F60.000000
G1 X18.116017 Y22.789007 F200.000000
G1 X18.170552 Y22.833099 F200.000000
G1 X18.326238 Y22.894379 F200.000000
G1 X18.941322 F200.000000
G1 X19.097008 Y22.833099 F200.000000
G1 X19.150541 Y22.789817 F200.000000
G1 X19.205631 Y22.699997 F200.000000
G1 Y22.562281 F200.000000
G1 X19.150541 Y22.472461 F200.000000
G1 X19.097008 Y22.429179 F200.000000
G1 X18.941322 Y22.367899 F200.000000
G1 X18.326238 F200.000000
G1 X18.170552 Y22.429179 F200.000000
G1 X18.116017 Y22.473271 F200.000000
G1 X18.059390 Y22.563634 F200.000000
G1 Y22.698644 F200.000000
G0 Z0.500000
G0 X19.127157 Y21.113444
G1 Z-0.040000 F60.000000
G1 X19.205631 Y20.985497 F200.000000
G1 Y20.751261 F200.000000
G1 X19.172630 Y20.697455 F200.000000
G1 X19.060702 Y20.653399 F200.000000
G1 X19.015171 F200.000000
G1 X19.011890 Y20.658634 F200.000000
G1 Y21.058879 F200.000000
G1 X19.008634 Y21.073143 F200.000000
G1 X19.010290 Y21.087679 F200.000000
G1 X18.995882 Y21.129013 F200.000000
G1 X18.986142 Y21.171689 F200.000000
G1 X18.977020 Y21.183127 F200.000000
G1 X18.972204 Y21.196942 F200.000000
G1 X18.852824 Y21.387442 F200.000000
G1 X18.836690 Y21.403616 F200.000000
G1 X18.825543 Y21.423557 F200.000000
G1 X18.796322 Y21.444081 F200.000000
G1 X18.771103 Y21.469361 F200.000000
G1 X18.749549 Y21.476932 F200.000000
G1 X18.730854 Y21.490062 F200.000000
G1 X18.494634 Y21.586582 F200.000000
G1 X18.445168 Y21.594743 F200.000000
G1 X18.396290 Y21.605899 F200.000000
G1 X18.157530 F200.000000
G1 X18.109114 Y21.594848 F200.000000
G1 X18.060085 Y21.586947 F200.000000
G1 X17.821325 Y21.490427 F200.000000
G1 X17.802186 Y21.477091 F200.000000
G1 X17.780178 Y21.469361 F200.000000
G1 X17.755295 Y21.444418 F200.000000
G1 X17.726388 Y21.424276 F200.000000
G1 X17.714931 Y21.403957 F200.000000
G1 X17.698456 Y21.387442 F200.000000
G1 X17.579076 Y21.196942 F200.000000
G1 X17.574261 Y21.183127 F200.000000
G1 X17.565139 Y21.171689 F200.000000
G1 X17.555398 Y21.129013 F200.000000
G1 X17.540991 Y21.087679 F200.000000
G1 X17.542646 Y21.073143 F200.000000
G1 X17.539391 Y21.058879 F200.000000
G1 Y20.583899 F200.000000
G1 X17.542646 Y20.569635 F200.000000
G1 X17.540991 Y20.555099 F200.000000
G1 X17.555398 Y20.513765 F200.000000
G1 X17.562027 Y20.484723 F200.000000
G1 X17.545909 Y20.451254 F200.000000
G1 Y20.335544 F200.000000
G1 X17.596114 Y20.231292 F200.000000
G1 X17.686581 Y20.159147 F200.000000
G1 X17.799390 Y20.133399 F200.000000
G1 X19.110030 F200.000000
G1 X19.157311 Y20.144191 F200.000000
G1 X19.205259 Y20.151467 F200.000000
G1 X19.444019 Y20.245447 F200.000000
G1 X19.465282 Y20.259974 F200.000000
G1 X19.489495 Y20.268742 F200.000000
G1 X19.512454 Y20.292205 F200.000000
G1 X19.539559 Y20.310724 F200.000000
G1 X19.552413 Y20.333038 F200.000000
G1 X19.570424 Y20.351444 F200.000000
G1 X19.687264 Y20.541944 F200.000000
G1 X19.691544 Y20.554614 F200.000000
G1 X19.699882 Y20.565069 F200.000000
G1 X19.709894 Y20.608938 F200.000000
G1 X19.724295 Y20.651569 F200.000000
G1 X19.722654 Y20.664841 F200.000000
G1 X19.725630 Y20.677879 F200.000000
G1 Y21.058879 F200.000000
G1 X19.722654 Y21.071917 F200.000000
G1 X19.724295 Y21.085189 F200.000000
G1 X19.709894 Y21.127820 F200.000000
G1 X19.699882 Y21.171689 F200.000000
G1 X19.691544 Y21.182144 F200.000000
G1 X19.687264 Y21.194814 F200.000000
G1 X19.570424 Y21.385314 F200.000000
G1 X19.489495 Y21.468016 F200.000000
G1 X19.380698 Y21.507413 F200.000000
G1 X19.265581 Y21.495704 F200.000000
G1 X19.166945 Y21.435207 F200.000000
G1 X19.104325 Y21.337905 F200.000000
G1 X19.090125 Y21.223069 F200.000000
G1 X19.127157 Y21.113444 F200.000000
G0 Z0.500000
G0 X18.491891 Y20.653399
G1 Z-0.040000 F60.000000
G1 X18.062671 F200.000000
G1 X18.059390 Y20.658634 F200.000000
G1 Y20.984144 F200.000000
G1 X18.094338 Y21.039912 F200.000000
G1 X18.208096 Y21.085899 F200.000000
G1 X18.345221 F200.000000
G1 X18.456658 Y21.040366 F200.000000
G1 X18.491891 Y20.984144 F200.000000
G1 Y20.653399 F200.000000
G0 Z0.500000
G0 X19.725630 Y18.869399
G1 Z-0.040000 F60.000000
G1 Y19.059899 F200.000000
G1 X19.722654 Y19.072937 F200.000000
G1 X19.724295 Y19.086209 F200.000000
G1 X19.709894 Y19.128840 F200.000000
G1 X19.699882 Y19.172709 F200.000000
G1 X19.691544 Y19.183164 F200.000000
G1 X19.687264 Y19.195834 F200.000000
G1 X19.647066 Y19.261375 F200.000000
G1 X19.668906 Y19.278792 F200.000000
G1 X19.719111 Y19.383044 F200.000000
G1 Y19.498754 F200.000000
G1 X19.668906 Y19.603006 F200.000000
G1 X19.578440 Y19.675151 F200.000000
G1 X19.465630 Y19.700899 F200.000000
G1 X17.799390 F200.000000
G1 X17.686581 Y19.675151 F200.000000
G1 X17.596114 Y19.603006 F200.000000
G1 X17.545909 Y19.498754 F200.000000
G1 Y19.383044 F200.000000
G1 X17.596114 Y19.278792 F200.000000
G1 X17.686581 Y19.206647 F200.000000
G1 X17.799390 Y19.180899 F200.000000
G1 X18.940085 F200.000000
G1 X19.097659 Y19.117199 F200.000000
G1 X19.151452 Y19.074852 F200.000000
G1 X19.205631 Y18.986517 F200.000000
G1 Y18.869399 F200.000000
G1 X19.231379 Y18.756589 F200.000000
G1 X19.303523 Y18.666123 F200.000000
G1 X19.407775 Y18.615918 F200.000000
G1 X19.523486 F200.000000
G1 X19.627737 Y18.666123 F200.000000
G1 X19.699882 Y18.756589 F200.000000
G1 X19.725630 Y18.869399 F200.000000
G0 Z0.500000
G0 X19.709894 Y17.985840
G1 Z-0.040000 F60.000000
G1 X19.699882 Y18.029709 F200.000000
G1 X19.691544 Y18.040164 F200.000000
G1 X19.687264 Y18.052834 F200.000000
G1 X19.570424 Y18.243334 F200.000000
G1 X19.538394 Y18.276066 F200.000000
G1 X19.509615 Y18.311691 F200.000000
G1 X19.390235 Y18.405671 F200.000000
G1 X19.357016 Y18.421412 F200.000000
G1 X19.326855 Y18.442427 F200.000000
G1 X19.088095 Y18.538947 F200.000000
G1 X19.039066 Y18.546848 F200.000000
G1 X18.990650 Y18.557899 F200.000000
G1 X18.276910 F200.000000
G1 X18.228494 Y18.546848 F200.000000
G1 X18.179465 Y18.538947 F200.000000
G1 X17.940705 Y18.442427 F200.000000
G1 X17.910544 Y18.421412 F200.000000
G1 X17.877325 Y18.405671 F200.000000
G1 X17.757945 Y18.311691 F200.000000
G1 X17.729936 Y18.277018 F200.000000
G1 X17.698456 Y18.245462 F200.000000
G1 X17.579076 Y18.054962 F200.000000
G1 X17.574261 Y18.041147 F200.000000
G1 X17.565139 Y18.029709 F200.000000
G1 X17.555398 Y17.987033 F200.000000
G1 X17.540991 Y17.945699 F200.000000
G1 X17.542646 Y17.931163 F200.000000
G1 X17.539391 Y17.916899 F200.000000
G1 Y17.535899 F200.000000
G1 X17.542646 Y17.521635 F200.000000
G1 X17.540991 Y17.507099 F200.000000
G1 X17.555398 Y17.465765 F200.000000
G1 X17.562027 Y17.436723 F200.000000
G1 X17.545909 Y17.403254 F200.000000
G1 Y17.287544 F200.000000
G1 X17.596114 Y17.183292 F200.000000
G1 X17.686581 Y17.111147 F200.000000
G1 X17.799390 Y17.085399 F200.000000
G1 X20.298750 F200.000000
G1 X20.411560 Y17.111147 F200.000000
G1 X20.502026 Y17.183292 F200.000000
G1 X20.552231 Y17.287544 F200.000000
G1 Y17.403254 F200.000000
G1 X20.502026 Y17.507506 F200.000000
G1 X20.411560 Y17.579651 F200.000000
G1 X20.298750 Y17.605399 F200.000000
G1 X19.725630 F200.000000
G1 Y17.916899 F200.000000
G1 X19.722654 Y17.929937 F200.000000
G1 X19.724295 Y17.943209 F200.000000
G1 X19.709894 Y17.985840 F200.000000
G0 Z0.500000
G0 X19.203249 Y17.605399
G1 Z-0.040000 F60.000000
G1 X18.062671 F200.000000
G1 X18.059390 Y17.610634 F200.000000
G1 Y17.842164 F200.000000
G1 X18.115094 Y17.931053 F200.000000
G1 X18.169901 Y17.974199 F200.000000
G1 X18.327476 Y18.037899 F200.000000
G1 X18.940085 F200.000000
G1 X19.097659 Y17.974199 F200.000000
G1 X19.151452 Y17.931852 F200.000000
G1 X19.205631 Y17.843517 F200.000000
G1 Y17.609281 F200.000000
G1 X19.203249 Y17.605399 F200.000000
G0 Z0.500000
G0 X32.133843 Y53.843669
G1 Z-0.040000 F60.000000
G1 X31.812602 Y53.688968 F200.000000
G1 X31.446778 F200.000000
G1 X31.117182 Y53.847694 F200.000000
G1 X30.889094 Y54.133707 F200.000000
G1 X30.807690 Y54.490359 F200.000000
G1 Y55.506359 F200.000000
G1 X30.889094 Y55.863011 F200.000000
G1 X31.117182 Y56.149025 F200.000000
G1 X31.446778 Y56.307750 F200.000000
G1 X31.812602 F200.000000
G1 X32.142199 Y56.149025 F200.000000
G1 X32.370287 Y55.863011 F200.000000
G1 X32.451690 Y55.506359 F200.000000
G1 Y54.826896 F200.000000
G0 Z0.500000
G0 X28.629691 Y53.822406
G1 Z-0.040000 F60.000000
G1 X28.577182 Y53.847694 F200.000000
G1 X28.349094 Y54.133707 F200.000000
G1 X28.267690 Y54.490359 F200.000000
G1 Y55.506359 F200.000000
G1 X28.349094 Y55.863011 F200.000000
G1 X28.577182 Y56.149025 F200.000000
G1 X28.906778 Y56.307750 F200.000000
G1 X29.272602 F200.000000
G1 X29.602199 Y56.149025 F200.000000
G1 X29.830287 Y55.863011 F200.000000
G1 X29.911690 Y55.506359 F200.000000
G1 Y54.490359 F200.000000
G1 X29.830287 Y54.133707 F200.000000
G1 X29.610493 Y53.858094 F200.000000
G0 Z0.500000
G0 X26.089691 Y53.822406
G1 Z-0.040000 F60.000000
G1 X26.037182 Y53.847694 F200.000000
G1 X25.809094 Y54.133707 F200.000000
G1 X25.727690 Y54.490359 F200.000000
G1 Y55.506359 F200.000000
G1 X25.809094 Y55.863011 F200.000000
G1 X26.037182 Y56.149025 F200.000000
G1 X26.366778 Y56.307750 F200.000000
G1 X26.732602 F200.000000
G1 X27.062199 Y56.149025 F200.000000
G1 X27.290287 Y55.863011 F200.000000
G1 X27.371690 Y55.506359 F200.000000
G1 Y54.490359 F200.000000
G1 X27.290287 Y54.133707 F200.000000
G1 X27.070493 Y53.858094 F200.000000
G0 Z0.500000
G0 X23.549691 Y53.822406
G1 Z-0.040000 F60.000000
G1 X23.497182 Y53.847694 F200.000000
G1 X23.269094 Y54.133707 F200.000000
G1 X23.187690 Y54.490359 F200.000000
G1 Y55.506359 F200.000000
G1 X23.269094 Y55.863011 F200.000000
G1 X23.497182 Y56.149025 F200.000000
G1 X23.826778 Y56.307750 F200.000000
G1 X24.192602 F200.000000
G1 X24.522199 Y56.149025 F200.000000
G1 X24.750287 Y55.863011 F200.000000
G1 X24.831690 Y55.506359 F200.000000
G1 Y54.490359 F200.000000
G1 X24.750287 Y54.133707 F200.000000
G1 X24.530493 Y53.858094 F200.000000
G0 Z0.500000
G0 X21.009691 Y53.822406
G1 Z-0.040000 F60.000000
G1 X20.957182 Y53.847694 F200.000000
G1 X20.729094 Y54.133707 F200.000000
G1 X20.647690 Y54.490359 F200.000000
G1 Y55.506359 F200.000000
G1 X20.729094 Y55.863011 F200.000000
G1 X20.957182 Y56.149025 F200.000000
G1 X21.286778 Y56.307750 F200.000000
G1 X21.652602 F200.000000
G1 X21.982199 Y56.149025 F200.000000
G1 X22.210287 Y55.863011 F200.000000
G1 X22.291690 Y55.506359 F200.000000
G1 Y54.490359 F200.000000
G1 X22.210287 Y54.133707 F200.000000
G1 X21.990493 Y53.858094 F200.000000
G0 Z0.500000
G0 X18.469691 Y53.822406
G1 Z-0.040000 F60.000000
G1 X18.417182 Y53.847694 F200.000000
G1 X18.189094 Y54.133707 F200.000000
G1 X18.107690 Y54.490359 F200.000000
G1 Y55.506359 F200.000000
G1 X18.189094 Y55.863011 F200.000000
G1 X18.417182 Y56.149025 F200.000000
G1 X18.746778 Y56.307750 F200.000000
G1 X19.112602 F200.000000
G1 X19.442199 Y56.149025 F200.000000
G1 X19.670287 Y55.863011 F200.000000
G1 X19.751690 Y55.506359 F200.000000
G1 Y54.490359 F200.000000
G1 X19.670287 Y54.133707 F200.000000
G1 X19.450493 Y53.858094 F200.000000
G0 Z0.500000
G0 X15.929691 Y53.822406
G1 Z-0.040000 F60.000000
G1 X15.877182 Y53.847694 F200.000000
G1 X15.649094 Y54.133707 F200.000000
G1 X15.567690 Y54.490359 F200.000000
G1 Y55.506359 F200.000000
G1 X15.649094 Y55.863011 F200.000000
G1 X15.877182 Y56.149025 F200.000000
G1 X16.206778 Y56.307750 F200.000000
G1 X16.572602 F200.000000
G1 X16.902199 Y56.149025 F200.000000
G1 X17.130287 Y55.863011 F200.000000
G1 X17.211690 Y55.506359 F200.000000
G1 Y54.490359 F200.000000
G1 X17.130287 Y54.133707 F200.000000
G1 X16.902199 Y53.847694 F200.000000
G1 X16.849689 Y53.822406 F200.000000
G0 Z0.500000
G0 X13.389691 Y53.822406
G1 Z-0.040000 F60.000000
G1 X13.337182 Y53.847694 F200.000000
G1 X13.109094 Y54.133707 F200.000000
G1 X13.027690 Y54.490359 F200.000000
G1 Y55.506359 F200.000000
G1 X13.109094 Y55.863011 F200.000000
G1 X13.337182 Y56.149025 F200.000000
G1 X13.666778 Y56.307750 F200.000000
G1 X14.032602 F200.000000
G1 X14.362199 Y56.149025 F200.000000
G1 X14.590287 Y55.863011 F200.000000
G1 X14.671690 Y55.506359 F200.000000
G1 Y54.490359 F200.000000
G1 X14.590287 Y54.133707 F200.000000
G1 X14.362199 Y53.847694 F200.000000
G1 X14.309689 Y53.822406 F200.000000
G0 Z0.500000
G0 X7.947690 Y7.246359
G1 Z-0.040000 F60.000000
G1 X8.029094 Y7.603011 F200.000000
G1 X8.257182 Y7.889025 F200.000000
G1 X8.586778 Y8.047750 F200.000000
G1 X8.952602 F200.000000
G1 X9.282199 Y7.889025 F200.000000
G1 X9.510287 Y7.603011 F200.000000
G1 X9.591690 Y7.246359 F200.000000
G1 Y6.230359 F200.000000
G1 X9.510287 Y5.873707 F200.000000
G1 X9.282199 Y5.587694 F200.000000
G1 X8.952602 Y5.428968 F200.000000
G1 X8.586778 F200.000000
G1 X8.257182 Y5.587694 F200.000000
G1 X8.029094 Y5.873707 F200.000000
G1 X7.947690 Y6.230359 F200.000000
G1 Y7.246359 F200.000000
G0 Z0.500000
G0 X10.487690
G1 Z-0.040000 F60.000000
G1 X10.569094 Y7.603011 F200.000000
G1 X10.797182 Y7.889025 F200.000000
G1 X11.126778 Y8.047750 F200.000000
G1 X11.492602 F200.000000
G1 X11.822199 Y7.889025 F200.000000
G1 X12.050287 Y7.603011 F200.000000
G1 X12.131690 Y7.246359 F200.000000
G1 Y6.230359 F200.000000
G1 X12.050287 Y5.873707 F200.000000
G1 X11.822199 Y5.587694 F200.000000
G1 X11.492602 Y5.428968 F200.000000
G1 X11.126778 F200.000000
G1 X10.797182 Y5.587694 F200.000000
G1 X10.569094 Y5.873707 F200.000000
G1 X10.487690 Y6.230359 F200.000000
G1 Y7.246359 F200.000000
G0 Z0.500000
G0 X13.027690
G1 Z-0.040000 F60.000000
G1 X13.109094 Y7.603011 F200.000000
G1 X13.337182 Y7.889025 F200.000000
G1 X13.666778 Y8.047750 F200.000000
G1 X14.032602 F200.000000
G1 X14.362199 Y7.889025 F200.000000
G1 X14.590287 Y7.603011 F200.000000
G1 X14.671690 Y7.246359 F200.000000
G1 Y6.230359 F200.000000
G1 X14.590287 Y5.873707 F200.000000
G1 X14.362199 Y5.587694 F200.000000
G1 X14.032602 Y5.428968 F200.000000
G1 X13.666778 F200.000000
G1 X13.337182 Y5.587694 F200.000000
G1 X13.109094 Y5.873707 F200.000000
G1 X13.027690 Y6.230359 F200.000000
G1 Y7.246359 F200.000000
G0 Z0.500000
G0 X15.567690
G1 Z-0.040000 F60.000000
G1 X15.649094 Y7.603011 F200.000000
G1 X15.877182 Y7.889025 F200.000000
G1 X16.206778 Y8.047750 F200.000000
G1 X16.572602 F200.000000
G1 X16.902199 Y7.889025 F200.000000
G1 X17.130287 Y7.603011 F200.000000
G1 X17.211690 Y7.246359 F200.000000
G1 Y6.230359 F200.000000
G1 X17.130287 Y5.873707 F200.000000
G1 X16.902199 Y5.587694 F200.000000
G1 X16.572602 Y5.428968 F200.000000
G1 X16.206778 F200.000000
G1 X15.877182 Y5.587694 F200.000000
G1 X15.649094 Y5.873707 F200.000000
G1 X15.567690 Y6.230359 F200.000000
G1 Y7.246359 F200.000000
G0 Z0.500000
G0 X27.371690 Y6.909822
G1 Z-0.040000 F60.000000
G1 Y6.230359 F200.000000
G1 X27.290287 Y5.873707 F200.000000
G1 X27.062199 Y5.587694 F200.000000
G1 X26.732602 Y5.428968 F200.000000
G1 X26.366778 F200.000000
G1 X26.037182 Y5.587694 F200.000000
G1 X25.809094 Y5.873707 F200.000000
G1 X25.727690 Y6.230359 F200.000000
G1 Y7.246359 F200.000000
G1 X25.809094 Y7.603011 F200.000000
G1 X26.037182 Y7.889025 F200.000000
G1 X26.366778 Y8.047750 F200.000000
G1 X26.724691 F200.000000
G0 Z0.500000
G0 X31.125538 Y7.893049
G1 Z-0.040000 F60.000000
G1 X31.446778 Y8.047750 F200.000000
G1 X31.812602 F200.000000
G1 X32.142199 Y7.889025 F200.000000
G1 X32.370287 Y7.603011 F200.000000
G1 X32.451690 Y7.246359 F200.000000
G1 Y6.230359 F200.000000
G1 X32.370287 Y5.873707 F200.000000
G1 X32.142199 Y5.587694 F200.000000
G1 X31.812602 Y5.428968 F200.000000
G1 X31.446778 F200.000000
G1 X31.117182 Y5.587694 F200.000000
G1 X30.889094 Y5.873707 F200.000000
G1 X30.807690 Y6.230359 F200.000000
G1 Y6.909822 F200.000000
G0 Z0.500000
G0 X34.629689 Y7.914312
G1 Z-0.040000 F60.000000
G1 X34.682199 Y7.889025 F200.000000
G1 X34.910287 Y7.603011 F200.000000
G1 X34.991690 Y7.246359 F200.000000
G1 Y6.230359 F200.000000
G1 X34.910287 Y5.873707 F200.000000
G1 X34.682199 Y5.587694 F200.000000
G1 X34.352602 Y5.428968 F200.000000
G1 X33.986778 F200.000000
G1 X33.657182 Y5.587694 F200.000000
G1 X33.429094 Y5.873707 F200.000000
G1 X33.347690 Y6.230359 F200.000000
G1 Y7.246359 F200.000000
G1 X33.429094 Y7.603011 F200.000000
G1 X33.648888 Y7.878624 F200.000000
G0 Z0.500000
G0 X24.469689 Y7.914312
G1 Z-0.040000 F60.000000
G1 X24.522199 Y7.889025 F200.000000
G1 X24.750287 Y7.603011 F200.000000
G1 X24.831690 Y7.246359 F200.000000
G1 Y6.230359 F200.000000
G1 X24.750287 Y5.873707 F200.000000
G1 X24.522199 Y5.587694 F200.000000
G1 X24.192602 Y5.428968 F200.000000
G1 X23.826778 F200.000000
G1 X23.497182 Y5.587694 F200.000000
G1 X23.269094 Y5.873707 F200.000000
G1 X23.187690 Y6.230359 F200.000000
G1 Y7.246359 F200.000000
G1 X23.269094 Y7.603011 F200.000000
G1 X23.497182 Y7.889025 F200.000000
G1 X23.549691 Y7.914312 F200.000000
G0 Z0.500000
G0 X20.647690 Y7.246359
G1 Z-0.040000 F60.000000
G1 X20.729094 Y7.603011 F200.000000
G1 X20.957182 Y7.889025 F200.000000
G1 X21.286778 Y8.047750 F200.000000
G1 X21.652602 F200.000000
G1 X21.982199 Y7.889025 F200.000000
G1 X22.210287 Y7.603011 F200.000000
G1 X22.291690 Y7.246359 F200.000000
G1 Y6.230359 F200.000000
G1 X22.210287 Y5.873707 F200.000000
G1 X21.982199 Y5.587694 F200.000000
G1 X21.652602 Y5.428968 F200.000000
G1 X21.286778 F200.000000
G1 X20.957182 Y5.587694 F200.000000
G1 X20.729094 Y5.873707 F200.000000
G1 X20.647690 Y6.230359 F200.000000
G1 Y7.246359 F200.000000
G0 Z0.500000
G0 X18.107690
G1 Z-0.040000 F60.000000
G1 X18.189094 Y7.603011 F200.000000
G1 X18.417182 Y7.889025 F200.000000
G1 X18.746778 Y8.047750 F200.000000
G1 X19.112602 F200.000000
G1 X19.442199 Y7.889025 F200.000000
G1 X19.670287 Y7.603011 F200.000000
G1 X19.751690 Y7.246359 F200.000000
G1 Y6.230359 F200.000000
G1 X19.670287 Y5.873707 F200.000000
G1 X19.442199 Y5.587694 F200.000000
G1 X19.112602 Y5.428968 F200.000000
G1 X18.746778 F200.000000
G1 X18.417182 Y5.587694 F200.000000
G1 X18.189094 Y5.873707 F200.000000
G1 X18.107690 Y6.230359 F200.000000
G1 Y7.246359 F200.000000
G0 Z0.500000
G0 X37.169689 Y7.914312
G1 Z-0.040000 F60.000000
G1 X37.222199 Y7.889025 F200.000000
G1 X37.450287 Y7.603011 F200.000000
G1 X37.531690 Y7.246359 F200.000000
G1 Y6.230359 F200.000000
G1 X37.450287 Y5.873707 F200.000000
G1 X37.222199 Y5.587694 F200.000000
G1 X36.892602 Y5.428968 F200.000000
G1 X36.526778 F200.000000
G1 X36.197182 Y5.587694 F200.000000
G1 X35.969094 Y5.873707 F200.000000
G1 X35.887690 Y6.230359 F200.000000
G1 Y7.246359 F200.000000
G1 X35.969094 Y7.603011 F200.000000
G1 X36.197182 Y7.889025 F200.000000
G1 X36.249691 Y7.914312 F200.000000
G0 Z0.500000
G0 X39.709689
G1 Z-0.040000 F60.000000
G1 X39.762199 Y7.889025 F200.000000
G1 X39.990287 Y7.603011 F200.000000
G1 X40.071690 Y7.246359 F200.000000
G1 Y6.230359 F200.000000
G1 X39.990287 Y5.873707 F200.000000
G1 X39.762199 Y5.587694 F200.000000
G1 X39.432602 Y5.428968 F200.000000
G1 X39.066778 F200.000000
G1 X38.737182 Y5.587694 F200.000000
G1 X38.509094 Y5.873707 F200.000000
G1 X38.427690 Y6.230359 F200.000000
G1 Y7.246359 F200.000000
G1 X38.509094 Y7.603011 F200.000000
G1 X38.737182 Y7.889025 F200.000000
G1 X38.789691 Y7.914312 F200.000000
G0 Z0.500000
G0 X42.249689 Y7.914312
G1 Z-0.040000 F60.000000
G1 X42.302199 Y7.889025 F200.000000
G1 X42.530287 Y7.603011 F200.000000
G1 X42.611690 Y7.246359 F200.000000
G1 Y6.230359 F200.000000
G1 X42.530287 Y5.873707 F200.000000
G1 X42.302199 Y5.587694 F200.000000
G1 X41.972602 Y5.428968 F200.000000
G1 X41.606778 F200.000000
G1 X41.277182 Y5.587694 F200.000000
G1 X41.049094 Y5.873707 F200.000000
G1 X40.967690 Y6.230359 F200.000000
G1 Y7.246359 F200.000000
G1 X41.049094 Y7.603011 F200.000000
G1 X41.277182 Y7.889025 F200.000000
G1 X41.329691 Y7.914312 F200.000000
G0 Z0.500000
G0 X49.869689 Y7.914312
G1 Z-0.040000 F60.000000
G1 X49.922199 Y7.889025 F200.000000
G1 X50.150287 Y7.603011 F200.000000
G1 X50.231690 Y7.246359 F200.000000
G1 Y6.230359 F200.000000
G1 X50.150287 Y5.873707 F200.000000
G1 X49.922199 Y5.587694 F200.000000
G1 X49.592602 Y5.428968 F200.000000
G1 X49.226778 F200.000000
G1 X48.897182 Y5.587694 F200.000000
G1 X48.669094 Y5.873707 F200.000000
G1 X48.587690 Y6.230359 F200.000000
G1 Y7.246359 F200.000000
G1 X48.669094 Y7.603011 F200.000000
G1 X48.897182 Y7.889025 F200.000000
G1 X48.949691 Y7.914312 F200.000000
G0 Z0.500000
G0 X47.329689
G1 Z-0.040000 F60.000000
G1 X47.382199 Y7.889025 F200.000000
G1 X47.610287 Y7.603011 F200.000000
G1 X47.691690 Y7.246359 F200.000000
G1 Y6.230359 F200.000000
G1 X47.610287 Y5.873707 F200.000000
G1 X47.382199 Y5.587694 F200.000000
G1 X47.052602 Y5.428968 F200.000000
G1 X46.686778 F200.000000
G1 X46.357182 Y5.587694 F200.000000
G1 X46.129094 Y5.873707 F200.000000
G1 X46.047690 Y6.230359 F200.000000
G1 Y7.246359 F200.000000
G1 X46.129094 Y7.603011 F200.000000
G1 X46.357182 Y7.889025 F200.000000
G1 X46.409691 Y7.914312 F200.000000
G0 Z0.500000
G0 X44.789689 Y7.914312
G1 Z-0.040000 F60.000000
G1 X44.842199 Y7.889025 F200.000000
G1 X45.070287 Y7.603011 F200.000000
G1 X45.151690 Y7.246359 F200.000000
G1 Y6.230359 F200.000000
G1 X45.070287 Y5.873707 F200.000000
G1 X44.842199 Y5.587694 F200.000000
G1 X44.512602 Y5.428968 F200.000000
G1 X44.146778 F200.000000
G1 X43.817182 Y5.587694 F200.000000
G1 X43.589094 Y5.873707 F200.000000
G1 X43.507690 Y6.230359 F200.000000
G1 Y7.246359 F200.000000
G1 X43.589094 Y7.603011 F200.000000
G1 X43.817182 Y7.889025 F200.000000
G1 X43.869691 Y7.914312 F200.000000
G0 Z0.500000
G0 X53.667690 Y7.246359
G1 Z-0.040000 F60.000000
G1 X53.749094 Y7.603011 F200.000000
G1 X53.977182 Y7.889025 F200.000000
G1 X54.306778 Y8.047750 F200.000000
G1 X54.672602 F200.000000
G1 X55.002199 Y7.889025 F200.000000
G1 X55.230287 Y7.603011 F200.000000
G1 X55.311690 Y7.246359 F200.000000
G1 Y6.230359 F200.000000
G1 X55.230287 Y5.873707 F200.000000
G1 X55.002199 Y5.587694 F200.000000
G1 X54.672602 Y5.428968 F200.000000
G1 X54.306778 F200.000000
G1 X53.977182 Y5.587694 F200.000000
G1 X53.749094 Y5.873707 F200.000000
G1 X53.667690 Y6.230359 F200.000000
G1 Y7.246359 F200.000000
G0 Z0.500000
G0 X57.782761 Y5.928361
G1 Z-0.040000 F60.000000
G1 X57.770287 Y5.873707 F200.000000
G1 X57.542199 Y5.587694 F200.000000
G1 X57.212602 Y5.428968 F200.000000
G1 X56.846778 F200.000000
G1 X56.517182 Y5.587694 F200.000000
G1 X56.289094 Y5.873707 F200.000000
G1 X56.207690 Y6.230359 F200.000000
G1 Y7.246359 F200.000000
G1 X56.289094 Y7.603011 F200.000000
G1 X56.517182 Y7.889025 F200.000000
G1 X56.846778 Y8.047750 F200.000000
G1 X57.212602 F200.000000
G1 X57.489692 Y7.914311 F200.000000
G0 Z0.500000
G0 X59.109689 Y7.914311
G1 Z-0.040000 F60.000000
G1 X59.386778 Y8.047750 F200.000000
G1 X59.752602 F200.000000
G1 X60.082199 Y7.889025 F200.000000
G1 X60.310287 Y7.603011 F200.000000
G1 X60.391690 Y7.246359 F200.000000
G1 Y6.230359 F200.000000
G1 X60.310287 Y5.873707 F200.000000
G1 X60.082199 Y5.587694 F200.000000
G1 X59.752602 Y5.428968 F200.000000
G1 X59.386778 F200.000000
G1 X59.057182 Y5.587694 F200.000000
G1 X58.829094 Y5.873707 F200.000000
G1 X58.816619 Y5.928361 F200.000000
G0 Z0.500000
G0 X63.827690 Y7.246359
G1 Z-0.040000 F60.000000
G1 X63.909094 Y7.603011 F200.000000
G1 X64.137182 Y7.889025 F200.000000
G1 X64.466778 Y8.047750 F200.000000
G1 X64.832602 F200.000000
G1 X65.162199 Y7.889025 F200.000000
G1 X65.390287 Y7.603011 F200.000000
G1 X65.471690 Y7.246359 F200.000000
G1 Y6.230359 F200.000000
G1 X65.390287 Y5.873707 F200.000000
G1 X65.162199 Y5.587694 F200.000000
G1 X64.832602 Y5.428968 F200.000000
G1 X64.466778 F200.000000
G1 X64.137182 Y5.587694 F200.000000
G1 X63.909094 Y5.873707 F200.000000
G1 X63.827690 Y6.230359 F200.000000
G1 Y7.246359 F200.000000
G0 Z0.500000
G0 X68.011690 Y6.909822
G1 Z-0.040000 F60.000000
G1 Y6.230359 F200.000000
G1 X67.930287 Y5.873707 F200.000000
G1 X67.702199 Y5.587694 F200.000000
G1 X67.372602 Y5.428968 F200.000000
G1 X67.006778 F200.000000
G1 X66.677182 Y5.587694 F200.000000
G1 X66.449094 Y5.873707 F200.000000
G1 X66.367690 Y6.230359 F200.000000
G1 Y7.246359 F200.000000
G1 X66.449094 Y7.603011 F200.000000
G1 X66.677182 Y7.889025 F200.000000
G1 X67.006778 Y8.047750 F200.000000
G1 X67.372602 F200.000000
G1 X67.693843 Y7.893049 F200.000000
G0 Z0.500000
G0 X41.268888 Y53.858094
G1 Z-0.040000 F60.000000
G1 X41.049094 Y54.133707 F200.000000
G1 X40.967690 Y54.490359 F200.000000
G1 Y55.506359 F200.000000
G1 X41.049094 Y55.863011 F200.000000
G1 X41.277182 Y56.149025 F200.000000
G1 X41.606778 Y56.307750 F200.000000
G1 X41.972602 F200.000000
G1 X42.302199 Y56.149025 F200.000000
G1 X42.530287 Y55.863011 F200.000000
G1 X42.611690 Y55.506359 F200.000000
G1 Y54.490359 F200.000000
G1 X42.530287 Y54.133707 F200.000000
G1 X42.302199 Y53.847694 F200.000000
G1 X42.249689 Y53.822406 F200.000000
G0 Z0.500000
G0 X43.808888 Y53.858094
G1 Z-0.040000 F60.000000
G1 X43.589094 Y54.133707 F200.000000
G1 X43.507690 Y54.490359 F200.000000
G1 Y55.506359 F200.000000
G1 X43.589094 Y55.863011 F200.000000
G1 X43.817182 Y56.149025 F200.000000
G1 X44.146778 Y56.307750 F200.000000
G1 X44.512602 F200.000000
G1 X44.842199 Y56.149025 F200.000000
G1 X45.070287 Y55.863011 F200.000000
G1 X45.151690 Y55.506359 F200.000000
G1 Y54.490359 F200.000000
G1 X45.070287 Y54.133707 F200.000000
G1 X44.842199 Y53.847694 F200.000000
G1 X44.789689 Y53.822406 F200.000000
G0 Z0.500000
G0 X46.348888 Y53.858094
G1 Z-0.040000 F60.000000
G1 X46.129094 Y54.133707 F200.000000
G1 X46.047690 Y54.490359 F200.000000
G1 Y55.506359 F200.000000
G1 X46.129094 Y55.863011 F200.000000
G1 X46.357182 Y56.149025 F200.000000
G1 X46.686778 Y56.307750 F200.000000
G1 X47.052602 F200.000000
G1 X47.382199 Y56.149025 F200.000000
G1 X47.610287 Y55.863011 F200.000000
G1 X47.691690 Y55.506359 F200.000000
G1 Y54.490359 F200.000000
G1 X47.610287 Y54.133707 F200.000000
G1 X47.382199 Y53.847694 F200.000000
G1 X47.329689 Y53.822406 F200.000000
G0 Z0.500000
G0 X48.888888 Y53.858094
G1 Z-0.040000 F60.000000
G1 X48.669094 Y54.133707 F200.000000
G1 X48.587690 Y54.490359 F200.000000
G1 Y55.506359 F200.000000
G1 X48.669094 Y55.863011 F200.000000
G1 X48.897182 Y56.149025 F200.000000
G1 X49.226778 Y56.307750 F200.000000
G1 X49.592602 F200.000000
G1 X49.922199 Y56.149025 F200.000000
G1 X50.150287 Y55.863011 F200.000000
G1 X50.231690 Y55.506359 F200.000000
G1 Y54.490359 F200.000000
G1 X50.150287 Y54.133707 F200.000000
G1 X49.922199 Y53.847694 F200.000000
G1 X49.869689 Y53.822406 F200.000000
G0 Z0.500000
G0 X51.428888 Y53.858094
G1 Z-0.040000 F60.000000
G1 X51.209094 Y54.133707 F200.000000
G1 X51.127690 Y54.490359 F200.000000
G1 Y55.506359 F200.000000
G1 X51.209094 Y55.863011 F200.000000
G1 X51.437182 Y56.149025 F200.000000
G1 X51.766778 Y56.307750 F200.000000
G1 X52.132602 F200.000000
G1 X52.462199 Y56.149025 F200.000000
G1 X52.690287 Y55.863011 F200.000000
G1 X52.771690 Y55.506359 F200.000000
G1 Y54.490359 F200.000000
G1 X52.690287 Y54.133707 F200.000000
G1 X52.462199 Y53.847694 F200.000000
G1 X52.409689 Y53.822406 F200.000000
G0 Z0.500000
G0 X54.029691
G1 Z-0.040000 F60.000000
G1 X53.977182 Y53.847694 F200.000000
G1 X53.749094 Y54.133707 F200.000000
G1 X53.667690 Y54.490359 F200.000000
G1 Y55.506359 F200.000000
G1 X53.749094 Y55.863011 F200.000000
G1 X53.977182 Y56.149025 F200.000000
G1 X54.306778 Y56.307750 F200.000000
G1 X54.672602 F200.000000
G1 X55.002199 Y56.149025 F200.000000
G1 X55.230287 Y55.863011 F200.000000
G1 X55.311690 Y55.506359 F200.000000
G1 Y54.490359 F200.000000
G1 X55.230287 Y54.133707 F200.000000
G1 X55.002199 Y53.847694 F200.000000
G1 X54.949689 Y53.822406 F200.000000
G0 Z0.500000
G0 X57.993691 Y53.907245
G1 Z-0.040000 F60.000000
G1 X57.813094 Y54.133707 F200.000000
G1 X57.731690 Y54.490359 F200.000000
G1 Y55.506359 F200.000000
G1 X57.813094 Y55.863011 F200.000000
G1 X58.041182 Y56.149025 F200.000000
G1 X58.370778 Y56.307750 F200.000000
G1 X58.736602 F200.000000
G1 X59.066199 Y56.149025 F200.000000
G1 X59.294287 Y55.863011 F200.000000
G1 X59.375690 Y55.506359 F200.000000
G1 Y54.490359 F200.000000
G1 X59.294287 Y54.133707 F200.000000
G1 X59.113689 Y53.907245 F200.000000
G0 Z0.500000
G0 X60.633691 Y53.822406
G1 Z-0.040000 F60.000000
G1 X60.581182 Y53.847694 F200.000000
G1 X60.353094 Y54.133707 F200.000000
G1 X60.271690 Y54.490359 F200.000000
G1 Y55.506359 F200.000000
G1 X60.353094 Y55.863011 F200.000000
G1 X60.581182 Y56.149025 F200.000000
G1 X60.910778 Y56.307750 F200.000000
G1 X61.276602 F200.000000
G1 X61.606199 Y56.149025 F200.000000
G1 X61.834287 Y55.863011 F200.000000
G1 X61.915690 Y55.506359 F200.000000
G1 Y54.490359 F200.000000
G1 X61.834287 Y54.133707 F200.000000
G1 X61.606199 Y53.847694 F200.000000
G1 X61.553689 Y53.822406 F200.000000
G0 Z0.500000
G0 X63.173691 Y53.822406
G1 Z-0.040000 F60.000000
G1 X63.121182 Y53.847694 F200.000000
G1 X62.893094 Y54.133707 F200.000000
G1 X62.811690 Y54.490359 F200.000000
G1 Y55.506359 F200.000000
G1 X62.893094 Y55.863011 F200.000000
G1 X63.121182 Y56.149025 F200.000000
G1 X63.450778 Y56.307750 F200.000000
G1 X63.816602 F200.000000
G1 X64.146199 Y56.149025 F200.000000
G1 X64.374287 Y55.863011 F200.000000
G1 X64.455690 Y55.506359 F200.000000
G1 Y54.490359 F200.000000
G1 X64.374287 Y54.133707 F200.000000
G1 X64.146199 Y53.847694 F200.000000
G1 X64.093689 Y53.822406 F200.000000
G0 Z0.500000
G0 X65.713691
G1 Z-0.040000 F60.000000
G1 X65.661182 Y53.847694 F200.000000
G1 X65.433094 Y54.133707 F200.000000
G1 X65.351690 Y54.490359 F200.000000
G1 Y55.506359 F200.000000
G1 X65.433094 Y55.863011 F200.000000
G1 X65.661182 Y56.149025 F200.000000
G1 X65.990778 Y56.307750 F200.000000
G1 X66.356602 F200.000000
G1 X66.686199 Y56.149025 F200.000000
G1 X66.914287 Y55.863011 F200.000000
G1 X66.995690 Y55.506359 F200.000000
G1 Y54.490359 F200.000000
G1 X66.914287 Y54.133707 F200.000000
G1 X66.686199 Y53.847694 F200.000000
G1 X66.633689 Y53.822406 F200.000000
G0 Z0.500000
G0 X68.253691 Y53.822406
G1 Z-0.040000 F60.000000
G1 X68.201182 Y53.847694 F200.000000
G1 X67.973094 Y54.133707 F200.000000
G1 X67.891690 Y54.490359 F200.000000
G1 Y55.506359 F200.000000
G1 X67.973094 Y55.863011 F200.000000
G1 X68.201182 Y56.149025 F200.000000
G1 X68.530778 Y56.307750 F200.000000
G1 X68.896602 F200.000000
G1 X69.226199 Y56.149025 F200.000000
G1 X69.454287 Y55.863011 F200.000000
G1 X69.535690 Y55.506359 F200.000000
G1 Y54.490359 F200.000000
G1 X69.454287 Y54.133707 F200.000000
G1 X69.226199 Y53.847694 F200.000000
G1 X69.173689 Y53.822406 F200.000000
G0 Z0.500000
G0 X70.431690 Y55.506359
G1 Z-0.040000 F60.000000
G1 X70.513094 Y55.863011 F200.000000
G1 X70.741182 Y56.149025 F200.000000
G1 X71.070778 Y56.307750 F200.000000
G1 X71.436602 F200.000000
G1 X71.766199 Y56.149025 F200.000000
G1 X71.994287 Y55.863011 F200.000000
G1 X72.075690 Y55.506359 F200.000000
G1 Y54.490359 F200.000000
G1 X71.994287 Y54.133707 F200.000000
G1 X71.766199 Y53.847694 F200.000000
G1 X71.436602 Y53.688968 F200.000000
G1 X71.070778 F200.000000
G1 X70.741182 Y53.847694 F200.000000
G1 X70.513094 Y54.133707 F200.000000
G1 X70.431690 Y54.490359 F200.000000
G1 Y55.506359 F200.000000
G0 Z0.500000
G0 X72.983692 Y54.437777
G1 Z-0.040000 F60.000000
G1 X72.971690 Y54.490359 F200.000000
G1 Y55.506359 F200.000000
G1 X73.053094 Y55.863011 F200.000000
G1 X73.281182 Y56.149025 F200.000000
G1 X73.610778 Y56.307750 F200.000000
G1 X73.976602 F200.000000
G1 X74.306199 Y56.149025 F200.000000
G1 X74.534287 Y55.863011 F200.000000
G1 X74.615690 Y55.506359 F200.000000
G1 Y54.490359 F200.000000
G1 X74.603689 Y54.437777 F200.000000
G0 Z0.500000
G0 X75.511690 Y55.506359
G1 Z-0.040000 F60.000000
G1 X75.593094 Y55.863011 F200.000000
G1 X75.821182 Y56.149025 F200.000000
G1 X76.150778 Y56.307750 F200.000000
G1 X76.516602 F200.000000
G1 X76.846199 Y56.149025 F200.000000
G1 X77.074287 Y55.863011 F200.000000
G1 X77.155690 Y55.506359 F200.000000
G1 Y54.490359 F200.000000
G1 X77.074287 Y54.133707 F200.000000
G1 X76.846199 Y53.847694 F200.000000
G1 X76.516602 Y53.688968 F200.000000
G1 X76.150778 F200.000000
G1 X75.821182 Y53.847694 F200.000000
G1 X75.593094 Y54.133707 F200.000000
G1 X75.511690 Y54.490359 F200.000000
G1 Y55.506359 F200.000000
G0 Z0.500000
G0 X62.919689 Y7.298941
G1 Z-0.040000 F60.000000
G1 X62.931690 Y7.246359 F200.000000
G1 Y6.230359 F200.000000
G1 X62.850287 Y5.873707 F200.000000
G1 X62.622199 Y5.587694 F200.000000
G1 X62.292602 Y5.428968 F200.000000
G1 X61.926778 F200.000000
G1 X61.597182 Y5.587694 F200.000000
G1 X61.369094 Y5.873707 F200.000000
G1 X61.287690 Y6.230359 F200.000000
G1 Y7.246359 F200.000000
G1 X61.299692 Y7.298941 F200.000000
G0 Z0.500000
G0 X5.407690 Y52.458359
G1 Z-0.040000 F60.000000
G1 X5.564678 Y51.975200 F200.000000
G1 X5.975678 Y51.676591 F200.000000
G1 X6.483702 F200.000000
G1 X6.894702 Y51.975200 F200.000000
G1 X7.051690 Y52.458359 F200.000000
G1 X6.894702 Y52.941519 F200.000000
G1 X6.483702 Y53.240127 F200.000000
G1 X5.975678 F200.000000
G1 X5.564678 Y52.941519 F200.000000
G1 X5.407690 Y52.458359 F200.000000
G0 Z0.500000
G0 Y49.918359
G1 Z-0.040000 F60.000000
G1 X5.564678 Y49.435200 F200.000000
G1 X5.975678 Y49.136591 F200.000000
G1 X6.483702 F200.000000
G1 X6.894702 Y49.435200 F200.000000
G1 X7.051690 Y49.918359 F200.000000
G1 X6.894702 Y50.401519 F200.000000
G1 X6.483702 Y50.700127 F200.000000
G1 X5.975678 F200.000000
G1 X5.564678 Y50.401519 F200.000000
G1 X5.407690 Y49.918359 F200.000000
G0 Z0.500000
G0 Y47.378359
G1 Z-0.040000 F60.000000
G1 X5.564678 Y46.895200 F200.000000
G1 X5.975678 Y46.596591 F200.000000
G1 X6.483702 F200.000000
G1 X6.894702 Y46.895200 F200.000000
G1 X7.051690 Y47.378359 F200.000000
G1 X6.894702 Y47.861519 F200.000000
G1 X6.483702 Y48.160127 F200.000000
G1 X5.975678 F200.000000
G1 X5.564678 Y47.861519 F200.000000
G1 X5.407690 Y47.378359 F200.000000
G0 Z0.500000
G0 Y44.838359
G1 Z-0.040000 F60.000000
G1 X5.564678 Y44.355200 F200.000000
G1 X5.975678 Y44.056591 F200.000000
G1 X6.483702 F200.000000
G1 X6.894702 Y44.355200 F200.000000
G1 X7.051690 Y44.838359 F200.000000
G1 X6.894702 Y45.321519 F200.000000
G1 X6.483702 Y45.620127 F200.000000
G1 X5.975678 F200.000000
G1 X5.564678 Y45.321519 F200.000000
G1 X5.407690 Y44.838359 F200.000000
G0 Z0.500000
G0 Y42.298359
G1 Z-0.040000 F60.000000
G1 X5.564678 Y41.815200 F200.000000
G1 X5.975678 Y41.516591 F200.000000
G1 X6.483702 F200.000000
G1 X6.894702 Y41.815200 F200.000000
G1 X7.051690 Y42.298359 F200.000000
G1 X6.894702 Y42.781519 F200.000000
G1 X6.483702 Y43.080127 F200.000000
G1 X5.975678 F200.000000
G1 X5.564678 Y42.781519 F200.000000
G1 X5.407690 Y42.298359 F200.000000
G0 Z0.500000
G0 Y39.758359
G1 Z-0.040000 F60.000000
G1 X5.564678 Y39.275200 F200.000000
G1 X5.975678 Y38.976591 F200.000000
G1 X6.483702 F200.000000
G1 X6.894702 Y39.275200 F200.000000
G1 X7.051690 Y39.758359 F200.000000
G1 X6.894702 Y40.241519 F200.000000
G1 X6.483702 Y40.540127 F200.000000
G1 X5.975678 F200.000000
G1 X5.564678 Y40.241519 F200.000000
G1 X5.407690 Y39.758359 F200.000000
G0 Z0.500000
G0 Y27.058359
G1 Z-0.040000 F60.000000
G1 X5.564678 Y26.575200 F200.000000
G1 X5.975678 Y26.276591 F200.000000
G1 X6.483702 F200.000000
G1 X6.894702 Y26.575200 F200.000000
G1 X7.051690 Y27.058359 F200.000000
G1 X6.894702 Y27.541519 F200.000000
G1 X6.483702 Y27.840127 F200.000000
G1 X5.975678 F200.000000
G1 X5.564678 Y27.541519 F200.000000
G1 X5.407690 Y27.058359 F200.000000
G0 Z0.500000
G0 Y24.518359
G1 Z-0.040000 F60.000000
G1 X5.564678 Y24.035200 F200.000000
G1 X5.975678 Y23.736591 F200.000000
G1 X6.483702 F200.000000
G1 X6.894702 Y24.035200 F200.000000
G1 X7.051690 Y24.518359 F200.000000
G1 X6.894702 Y25.001519 F200.000000
G1 X6.483702 Y25.300127 F200.000000
G1 X5.975678 F200.000000
G1 X5.564678 Y25.001519 F200.000000
G1 X5.407690 Y24.518359 F200.000000
G0 Z0.500000
G0 Y21.978359
G1 Z-0.040000 F60.000000
G1 X5.564678 Y21.495200 F200.000000
G1 X5.975678 Y21.196591 F200.000000
G1 X6.483702 F200.000000
G1 X6.894702 Y21.495200 F200.000000
G1 X7.051690 Y21.978359 F200.000000
G1 X6.894702 Y22.461519 F200.000000
G1 X6.483702 Y22.760127 F200.000000
G1 X5.975678 F200.000000
G1 X5.564678 Y22.461519 F200.000000
G1 X5.407690 Y21.978359 F200.000000
G0 Z0.500000
G0 Y19.438359
G1 Z-0.040000 F60.000000
G1 X5.564678 Y18.955200 F200.000000
G1 X5.975678 Y18.656591 F200.000000
G1 X6.483702 F200.000000
G1 X6.894702 Y18.955200 F200.000000
G1 X7.051690 Y19.438359 F200.000000
G1 X6.894702 Y19.921519 F200.000000
G1 X6.483702 Y20.220127 F200.000000
G1 X5.975678 F200.000000
G1 X5.564678 Y19.921519 F200.000000
G1 X5.407690 Y19.438359 F200.000000
G0 Z0.500000
G0 Y16.898359
G1 Z-0.040000 F60.000000
G1 X5.564678 Y16.415200 F200.000000
G1 X5.975678 Y16.116591 F200.000000
G1 X6.483702 F200.000000
G1 X6.894702 Y16.415200 F200.000000
G1 X7.051690 Y16.898359 F200.000000
G1 X6.894702 Y17.381519 F200.000000
G1 X6.483702 Y17.680127 F200.000000
G1 X5.975678 F200.000000
G1 X5.564678 Y17.381519 F200.000000
G1 X5.407690 Y16.898359 F200.000000
G0 Z0.500000
G0 Y14.358359
G1 Z-0.040000 F60.000000
G1 X5.564678 Y13.875200 F200.000000
G1 X5.975678 Y13.576591 F200.000000
G1 X6.483702 F200.000000
G1 X6.894702 Y13.875200 F200.000000
G1 X7.051690 Y14.358359 F200.000000
G1 X6.894702 Y14.841519 F200.000000
G1 X6.483702 Y15.140127 F200.000000
G1 X5.975678 F200.000000
G1 X5.564678 Y14.841519 F200.000000
G1 X5.407690 Y14.358359 F200.000000
G0 Z0.500000
G0 X72.829689 Y24.885924
G1 Z-0.040000 F60.000000
G1 X72.879689 Y24.666860 F200.000000
G1 Y24.369858 F200.000000
G1 X72.819280 Y24.105189 F200.000000
G1 X72.650018 Y23.892942 F200.000000
G1 X72.405428 Y23.775153 F200.000000
G1 X72.133953 F200.000000
G1 X71.889362 Y23.892942 F200.000000
G1 X71.720100 Y24.105189 F200.000000
G1 X71.659691 Y24.369858 F200.000000
G1 Y24.666860 F200.000000
G1 X71.709691 Y24.885924 F200.000000
G0 Z0.500000
G0 X69.660711 Y24.666860
G1 Z-0.040000 F60.000000
G1 X69.721120 Y24.931529 F200.000000
G1 X69.890382 Y25.143776 F200.000000
G1 X70.134973 Y25.261565 F200.000000
G1 X70.406448 F200.000000
G1 X70.651038 Y25.143776 F200.000000
G1 X70.820300 Y24.931529 F200.000000
G1 X70.880709 Y24.666860 F200.000000
G1 Y24.369858 F200.000000
G1 X70.820300 Y24.105189 F200.000000
G1 X70.651038 Y23.892942 F200.000000
G1 X70.406448 Y23.775153 F200.000000
G1 X70.134973 F200.000000
G1 X69.890382 Y23.892942 F200.000000
G1 X69.721120 Y24.105189 F200.000000
G1 X69.660711 Y24.369858 F200.000000
G1 Y24.666860 F200.000000
G0 Z0.500000
G0 X67.661731 Y24.818358
G1 Z-0.040000 F60.000000
G1 X67.722140 Y25.083027 F200.000000
G1 X67.891402 Y25.295275 F200.000000
G1 X68.135993 Y25.413063 F200.000000
G1 X68.407468 F200.000000
G1 X68.652058 Y25.295275 F200.000000
G1 X68.821320 Y25.083027 F200.000000
G1 X68.881729 Y24.818358 F200.000000
G1 Y24.218360 F200.000000
G1 X68.821320 Y23.953691 F200.000000
G1 X68.652058 Y23.741443 F200.000000
G1 X68.407468 Y23.623655 F200.000000
G1 X68.135993 F200.000000
G1 X67.891402 Y23.741443 F200.000000
G1 X67.722140 Y23.953691 F200.000000
G1 X67.661731 Y24.218360 F200.000000
G1 Y24.818358 F200.000000
G0 Z0.500000
G0 X75.660191
G1 Z-0.040000 F60.000000
G1 X75.720600 Y25.083027 F200.000000
G1 X75.889862 Y25.295275 F200.000000
G1 X76.134453 Y25.413063 F200.000000
G1 X76.405928 F200.000000
G1 X76.650518 Y25.295275 F200.000000
G1 X76.819780 Y25.083027 F200.000000
G1 X76.880189 Y24.818358 F200.000000
G1 Y24.218360 F200.000000
G1 X76.819780 Y23.953691 F200.000000
G1 X76.650518 Y23.741443 F200.000000
G1 X76.405928 Y23.623655 F200.000000
G1 X76.134453 F200.000000
G1 X75.889862 Y23.741443 F200.000000
G1 X75.720600 Y23.953691 F200.000000
G1 X75.660191 Y24.218360 F200.000000
G1 Y24.818358 F200.000000
G0 Z0.500000
G0 X61.649689 Y26.780848
G1 Z-0.040000 F60.000000
G1 Y28.328359 F200.000000
G1 Y28.328359 F200.000000
G1 Y28.328359 F200.000000
G1 Y28.538361 F200.000000
G1 X61.899688 F200.000000
G1 Y28.788361 F200.000000
G1 X65.919690 F200.000000
G1 X66.271135 Y28.868576 F200.000000
G1 X66.552972 Y29.093333 F200.000000
G1 X66.709380 Y29.418117 F200.000000
G1 Y29.778601 F200.000000
G1 X66.552972 Y30.103385 F200.000000
G1 X66.271135 Y30.328142 F200.000000
G1 X65.919690 Y30.408358 F200.000000
G1 X61.899688 F200.000000
G1 Y30.658357 F200.000000
G1 X59.779692 F200.000000
G1 Y28.538361 F200.000000
G1 X60.029692 F200.000000
G1 Y28.328359 F200.000000
G1 Y28.328359 F200.000000
G1 Y28.328359 F200.000000
G1 Y26.780848 F200.000000
G0 Z0.500000
G0 X48.599692 Y29.855494
G1 Z-0.040000 F60.000000
G1 X48.524190 Y29.598359 F200.000000
G1 X48.599692 Y29.341225 F200.000000
G1 Y28.328359 F200.000000
G1 Y28.328359 F200.000000
G1 Y28.328359 F200.000000
G1 Y23.248359 F200.000000
G1 X48.629931 Y23.115873 F200.000000
G1 X48.645146 Y22.980833 F200.000000
G1 X48.669656 Y22.941827 F200.000000
G1 X48.679907 Y22.896914 F200.000000
G1 X48.764635 Y22.790668 F200.000000
G1 X48.836935 Y22.675604 F200.000000
G1 X50.045679 Y21.466859 F200.000000
G1 X49.921190 F200.000000
G1 Y20.953368 F200.000000
G1 X49.890000 Y20.888601 F200.000000
G1 Y20.528117 F200.000000
G1 X49.921190 Y20.463350 F200.000000
G1 Y19.949859 F200.000000
G1 X50.454060 F200.000000
G1 X50.679690 Y19.898361 F200.000000
G1 X51.614178 F200.000000
G1 X57.726935 Y13.785604 F200.000000
G1 X57.841999 Y13.713304 F200.000000
G1 X57.948245 Y13.628576 F200.000000
G1 X57.993158 Y13.618325 F200.000000
G1 X58.032165 Y13.593815 F200.000000
G1 X58.167204 Y13.578600 F200.000000
G1 X58.299690 Y13.548361 F200.000000
G1 X60.154181 F200.000000
G1 X60.012935 Y13.407114 F200.000000
G1 X59.940635 Y13.292050 F200.000000
G1 X59.855907 Y13.185804 F200.000000
G1 X59.845656 Y13.140891 F200.000000
G1 X59.821146 Y13.101885 F200.000000
G1 X59.809887 Y13.001960 F200.000000
G1 X59.647558 Y12.818729 F200.000000
G1 X59.526200 Y12.326359 F200.000000
G1 X59.647558 Y11.833989 F200.000000
G1 X59.983831 Y11.454416 F200.000000
G1 X60.457983 Y11.274594 F200.000000
G1 X60.488267 Y11.278271 F200.000000
G1 X61.299692 Y10.466847 F200.000000
G1 Y7.298941 F200.000000
G0 Z0.500000
G0 X58.220689 Y26.780848
G1 Z-0.040000 F60.000000
G1 X58.271431 Y26.717220 F200.000000
G1 X58.366040 Y26.302709 F200.000000
G1 Y24.512009 F200.000000
G1 X58.271431 Y24.097498 F200.000000
G1 X58.006341 Y23.765086 F200.000000
G1 X57.623276 Y23.580612 F200.000000
G1 X57.198105 F200.000000
G1 X56.815039 Y23.765086 F200.000000
G1 X56.549950 Y24.097498 F200.000000
G1 X56.455340 Y24.512009 F200.000000
G1 X56.455340 Y26.302709 F200.000000
G1 X56.455340 F200.000000
G1 X56.549950 Y26.717220 F200.000000
G1 X56.600692 Y26.780848 F200.000000
G0 Z0.500000
G0 X58.251692 Y20.096870
G1 Z-0.040000 F60.000000
G1 X58.200950 Y20.160498 F200.000000
G1 X58.106340 Y20.575009 F200.000000
G1 X58.106340 Y22.365709 F200.000000
G1 X58.106340 F200.000000
G1 X58.200950 Y22.780220 F200.000000
G1 X58.466039 Y23.112632 F200.000000
G1 X58.849105 Y23.297106 F200.000000
G1 X59.274276 F200.000000
G1 X59.657341 Y23.112632 F200.000000
G1 X59.922431 Y22.780220 F200.000000
G1 X60.017040 Y22.365709 F200.000000
G1 Y20.575009 F200.000000
G1 X59.922431 Y20.160498 F200.000000
G1 X59.871689 Y20.096870 F200.000000
G0 Z0.500000
G0 X61.795040 Y24.597361
G1 Z-0.040000 F60.000000
G1 Y24.512009 F200.000000
G1 X61.700431 Y24.097498 F200.000000
G1 X61.435341 Y23.765086 F200.000000
G1 X61.052276 Y23.580612 F200.000000
G1 X60.627105 F200.000000
G1 X60.244039 Y23.765086 F200.000000
G1 X59.978950 Y24.097498 F200.000000
G1 X59.884340 Y24.512009 F200.000000
G1 X59.884340 Y26.302709 F200.000000
G1 X59.884340 F200.000000
G1 X59.978950 Y26.717220 F200.000000
G1 X60.029692 Y26.780848 F200.000000
G0 Z0.500000
G0 X61.649689 Y26.780848
G1 Z-0.040000 F60.000000
G1 X61.700431 Y26.717220 F200.000000
G1 X61.795040 Y26.302709 F200.000000
G1 Y26.217358 F200.000000
G0 Z0.500000
G0 X63.146595 Y19.795943
G1 Z-0.040000 F60.000000
G1 X62.830276 Y19.643612 F200.000000
G1 X62.405105 F200.000000
G1 X62.022039 Y19.828086 F200.000000
G1 X61.756950 Y20.160498 F200.000000
G1 X61.662340 Y20.575009 F200.000000
G1 X61.662340 Y22.365709 F200.000000
G1 X61.662340 F200.000000
G1 X61.756950 Y22.780220 F200.000000
G1 X62.022039 Y23.112632 F200.000000
G1 X62.405105 Y23.297106 F200.000000
G1 X62.830276 F200.000000
G1 X63.213341 Y23.112632 F200.000000
G1 X63.478431 Y22.780220 F200.000000
G1 X63.573040 Y22.365709 F200.000000
G1 Y21.660520 F200.000000
G0 Z0.500000
G0 X64.797595 Y23.732943
G1 Z-0.040000 F60.000000
G1 X64.481276 Y23.580612 F200.000000
G1 X64.056105 F200.000000
G1 X63.673039 Y23.765086 F200.000000
G1 X63.407950 Y24.097498 F200.000000
G1 X63.313340 Y24.512009 F200.000000
G1 X63.313340 Y26.302709 F200.000000
G1 X63.313340 F200.000000
G1 X63.407950 Y26.717220 F200.000000
G1 X63.673039 Y27.049632 F200.000000
G1 X64.056105 Y27.234106 F200.000000
G1 X64.481276 F200.000000
G1 X64.864341 Y27.049632 F200.000000
G1 X65.129431 Y26.717220 F200.000000
G1 X65.224040 Y26.302709 F200.000000
G1 Y25.597520 F200.000000
G0 Z0.500000
G0 X60.094760 Y44.047096
G1 Z-0.040000 F60.000000
G1 X59.954190 Y43.568359 F200.000000
G1 X60.094760 Y43.089622 F200.000000
G1 X60.279691 Y42.929378 F200.000000
G1 Y39.047815 F200.000000
G1 X60.174678 Y38.971519 F200.000000
G1 X60.017690 Y38.488359 F200.000000
G1 X60.174678 Y38.005200 F200.000000
G1 X60.585678 Y37.706591 F200.000000
G1 X61.093702 F200.000000
G1 X61.504702 Y38.005200 F200.000000
G1 X61.661690 Y38.488359 F200.000000
G1 X61.504702 Y38.971519 F200.000000
G1 X61.399689 Y39.047815 F200.000000
G1 Y42.890064 F200.000000
G1 X61.419569 Y42.899143 F200.000000
G1 X61.689321 Y43.318885 F200.000000
G1 Y43.817833 F200.000000
G1 X61.419569 Y44.237575 F200.000000
G1 X60.965710 Y44.444846 F200.000000
G1 X60.471840 Y44.373838 F200.000000
G1 X60.094760 Y44.047096 F200.000000
G0 Z0.500000
G0 X62.851116 Y42.113403
G1 Z-0.040000 F60.000000
G1 X62.868061 Y42.086435 F200.000000
G1 X62.875148 Y42.055385 F200.000000
G1 X62.933726 Y41.981931 F200.000000
G1 X62.983711 Y41.902380 F200.000000
G1 X65.359691 Y39.526400 F200.000000
G1 Y39.047815 F200.000000
G1 X65.254678 Y38.971519 F200.000000
G1 X65.097690 Y38.488359 F200.000000
G1 X65.254678 Y38.005200 F200.000000
G1 X65.665678 Y37.706591 F200.000000
G1 X66.173702 F200.000000
G1 X66.584702 Y38.005200 F200.000000
G1 X66.741690 Y38.488359 F200.000000
G1 X66.584702 Y38.971519 F200.000000
G1 X66.479689 Y39.047815 F200.000000
G1 Y39.758359 F200.000000
G1 X66.458783 Y39.849955 F200.000000
G1 X66.448264 Y39.943315 F200.000000
G1 X66.431319 Y39.970283 F200.000000
G1 X66.424232 Y40.001333 F200.000000
G1 X66.365654 Y40.074787 F200.000000
G0 Z0.500000
G0 X65.391116 Y42.113403
G1 Z-0.040000 F60.000000
G1 X65.408061 Y42.086435 F200.000000
G1 X65.415148 Y42.055385 F200.000000
G1 X65.473726 Y41.981931 F200.000000
G1 X65.523711 Y41.902380 F200.000000
G1 X67.899691 Y39.526400 F200.000000
G1 Y39.047815 F200.000000
G1 X67.794678 Y38.971519 F200.000000
G1 X67.637690 Y38.488359 F200.000000
G1 X67.794678 Y38.005200 F200.000000
G1 X68.205678 Y37.706591 F200.000000
G1 X68.713702 F200.000000
G1 X69.124702 Y38.005200 F200.000000
G1 X69.281690 Y38.488359 F200.000000
G1 X69.124702 Y38.971519 F200.000000
G1 X69.019689 Y39.047815 F200.000000
G1 Y39.758359 F200.000000
G1 X68.998783 Y39.849955 F200.000000
G1 X68.988264 Y39.943315 F200.000000
G1 X68.971319 Y39.970283 F200.000000
G1 X68.964232 Y40.001333 F200.000000
G1 X68.905654 Y40.074787 F200.000000
G0 Z0.500000
G0 X74.915836 Y30.597609
G1 Z-0.040000 F60.000000
G1 X74.869690 Y30.670766 F200.000000
G1 Y32.198359 F200.000000
G1 X72.209690 F200.000000
G1 Y29.538359 F200.000000
G1 X73.461212 F200.000000
G1 Y24.518359 F200.000000
G1 X73.541427 Y24.166914 F200.000000
G1 X73.766184 Y23.885077 F200.000000
G1 X74.090969 Y23.728669 F200.000000
G1 X74.451452 F200.000000
G1 X74.776236 Y23.885077 F200.000000
G1 X75.000994 Y24.166914 F200.000000
G1 X75.081209 Y24.518359 F200.000000
G1 Y30.139379 F200.000000
G1 X75.050816 Y30.272537 F200.000000
G1 X75.035288 Y30.408234 F200.000000
G1 X75.011087 Y30.446600 F200.000000
G1 X75.000994 Y30.490824 F200.000000
G1 X74.915836 Y30.597609 F200.000000
G0 Z0.500000
G0 X60.633691 Y53.822406
G1 Z-0.040000 F60.000000
G1 Y52.017109 F200.000000
G1 X60.471840 Y51.993838 F200.000000
G1 X60.094760 Y51.667096 F200.000000
G1 X59.954190 Y51.188359 F200.000000
G1 X60.094760 Y50.709622 F200.000000
G1 X60.471840 Y50.382880 F200.000000
G1 X60.965710 Y50.311872 F200.000000
G1 X61.419569 Y50.519143 F200.000000
G1 X61.689321 Y50.938885 F200.000000
G1 Y51.437833 F200.000000
G1 X61.553689 Y51.648880 F200.000000
G1 Y53.822406 F200.000000
G0 Z0.500000
G0 X63.173691 Y53.822406
G1 Z-0.040000 F60.000000
G1 Y52.017109 F200.000000
G1 X63.011840 Y51.993838 F200.000000
G1 X62.634760 Y51.667096 F200.000000
G1 X62.494190 Y51.188359 F200.000000
G1 X62.634760 Y50.709622 F200.000000
G1 X63.011840 Y50.382880 F200.000000
G1 X63.505710 Y50.311872 F200.000000
G1 X63.959569 Y50.519143 F200.000000
G1 X64.229321 Y50.938885 F200.000000
G1 Y51.437833 F200.000000
G1 X64.093689 Y51.648880 F200.000000
G1 Y53.822406 F200.000000
G0 Z0.500000
G0 X66.365654 Y40.074787
G1 Z-0.040000 F60.000000
G1 X66.315669 Y40.154338 F200.000000
G1 X63.939689 Y42.530318 F200.000000
G1 Y42.890064 F200.000000
G1 X63.959569 Y42.899143 F200.000000
G1 X64.229321 Y43.318885 F200.000000
G1 Y43.817833 F200.000000
G1 X63.959569 Y44.237575 F200.000000
G1 X63.505710 Y44.444846 F200.000000
G1 X63.011840 Y44.373838 F200.000000
G1 X62.634760 Y44.047096 F200.000000
G1 X62.494190 Y43.568359 F200.000000
G1 X62.634760 Y43.089622 F200.000000
G1 X62.819691 Y42.929378 F200.000000
G1 Y42.298359 F200.000000
G1 X62.840597 Y42.206763 F200.000000
G1 X62.851116 Y42.113403 F200.000000
G0 Z0.500000
G0 X65.713691 Y53.822406
G1 Z-0.040000 F60.000000
G1 Y52.017109 F200.000000
G1 X65.551840 Y51.993838 F200.000000
G1 X65.174760 Y51.667096 F200.000000
G1 X65.034190 Y51.188359 F200.000000
G1 X65.174760 Y50.709622 F200.000000
G1 X65.551840 Y50.382880 F200.000000
G1 X66.045710 Y50.311872 F200.000000
G1 X66.499569 Y50.519143 F200.000000
G1 X66.769321 Y50.938885 F200.000000
G1 Y51.437833 F200.000000
G1 X66.633689 Y51.648880 F200.000000
G1 Y53.822406 F200.000000
G0 Z0.500000
G0 X68.905654 Y40.074787
G1 Z-0.040000 F60.000000
G1 X68.855669 Y40.154338 F200.000000
G1 X66.479689 Y42.530318 F200.000000
G1 Y42.890064 F200.000000
G1 X66.499569 Y42.899143 F200.000000
G1 X66.769321 Y43.318885 F200.000000
G1 Y43.817833 F200.000000
G1 X66.499569 Y44.237575 F200.000000
G1 X66.045710 Y44.444846 F200.000000
G1 X65.551840 Y44.373838 F200.000000
G1 X65.174760 Y44.047096 F200.000000
G1 X65.034190 Y43.568359 F200.000000
G1 X65.174760 Y43.089622 F200.000000
G1 X65.359691 Y42.929378 F200.000000
G1 Y42.298359 F200.000000
G1 X65.380597 Y42.206763 F200.000000
G1 X65.391116 Y42.113403 F200.000000
G0 Z0.500000
G0 X57.993691 Y53.907245
G1 Z-0.040000 F60.000000
G1 Y52.944318 F200.000000
G1 X57.059732 Y52.010359 F200.000000
G1 X56.207690 F200.000000
G1 Y50.366359 F200.000000
G1 X57.851690 F200.000000
G1 Y51.218401 F200.000000
G1 X58.949669 Y52.316380 F200.000000
G1 X58.999654 Y52.395931 F200.000000
G1 X59.058232 Y52.469385 F200.000000
G1 X59.065319 Y52.500435 F200.000000
G1 X59.082264 Y52.527403 F200.000000
G1 X59.092783 Y52.620763 F200.000000
G1 X59.113689 Y52.712359 F200.000000
G1 Y53.907245 F200.000000
G0 Z0.500000
G0 X68.971190 Y42.298359
G1 Z-0.040000 F60.000000
G1 X69.148645 Y41.810805 F200.000000
G1 X69.597978 Y41.551382 F200.000000
G1 X70.108940 Y41.641479 F200.000000
G1 X70.442447 Y42.038937 F200.000000
G1 Y42.557781 F200.000000
G1 X70.108940 Y42.955239 F200.000000
G1 X69.597978 Y43.045336 F200.000000
G1 X69.148645 Y42.785913 F200.000000
G1 X68.971190 Y42.298359 F200.000000
G0 Z0.500000
G0 X54.029691 Y53.822406
G1 Z-0.040000 F60.000000
G1 Y52.648897 F200.000000
G1 X53.391153 Y52.010359 F200.000000
G1 X52.397690 F200.000000
G1 Y50.366359 F200.000000
G1 X54.041690 F200.000000
G1 Y51.359822 F200.000000
G1 X54.814959 Y52.133090 F200.000000
G1 X54.856018 Y52.198436 F200.000000
G1 X54.904135 Y52.258773 F200.000000
G1 X54.909957 Y52.284279 F200.000000
G1 X54.923876 Y52.306431 F200.000000
G1 X54.932516 Y52.383120 F200.000000
G1 X54.949689 Y52.458359 F200.000000
G1 Y53.822406 F200.000000
G0 Z0.500000
G0 X51.428888 Y53.858094
G1 Z-0.040000 F60.000000
G1 X50.354422 Y52.783628 F200.000000
G1 X50.313362 Y52.718282 F200.000000
G1 X50.265245 Y52.657945 F200.000000
G1 X50.259424 Y52.632439 F200.000000
G1 X50.245505 Y52.610287 F200.000000
G1 X50.236864 Y52.533598 F200.000000
G1 X50.219691 Y52.458359 F200.000000
G1 Y52.010359 F200.000000
G1 X49.857690 F200.000000
G1 Y50.366359 F200.000000
G1 X51.501690 F200.000000
G1 Y52.010359 F200.000000
G1 X51.139689 F200.000000
G1 Y52.267821 F200.000000
G1 X52.274959 Y53.403090 F200.000000
G1 X52.316018 Y53.468436 F200.000000
G1 X52.364135 Y53.528773 F200.000000
G1 X52.369957 Y53.554279 F200.000000
G1 X52.383876 Y53.576431 F200.000000
G1 X52.392516 Y53.653120 F200.000000
G1 X52.409689 Y53.728359 F200.000000
G1 Y53.822406 F200.000000
G0 Z0.500000
G0 X48.888888 Y53.858094
G1 Z-0.040000 F60.000000
G1 X47.814422 Y52.783628 F200.000000
G1 X47.773362 Y52.718282 F200.000000
G1 X47.725245 Y52.657945 F200.000000
G1 X47.719424 Y52.632439 F200.000000
G1 X47.705505 Y52.610287 F200.000000
G1 X47.696864 Y52.533598 F200.000000
G1 X47.679691 Y52.458359 F200.000000
G1 Y52.010359 F200.000000
G1 X47.317690 F200.000000
G1 Y50.366359 F200.000000
G1 X48.961690 F200.000000
G1 Y52.010359 F200.000000
G1 X48.599689 F200.000000
G1 Y52.267821 F200.000000
G1 X49.734959 Y53.403090 F200.000000
G1 X49.776018 Y53.468436 F200.000000
G1 X49.824135 Y53.528773 F200.000000
G1 X49.829957 Y53.554279 F200.000000
G1 X49.843876 Y53.576431 F200.000000
G1 X49.852516 Y53.653120 F200.000000
G1 X49.869689 Y53.728359 F200.000000
G1 Y53.822406 F200.000000
G0 Z0.500000
G0 X46.348888 Y53.858094
G1 Z-0.040000 F60.000000
G1 X45.274422 Y52.783628 F200.000000
G1 X45.233362 Y52.718282 F200.000000
G1 X45.185245 Y52.657945 F200.000000
G1 X45.179424 Y52.632439 F200.000000
G1 X45.165505 Y52.610287 F200.000000
G1 X45.156864 Y52.533598 F200.000000
G1 X45.139691 Y52.458359 F200.000000
G1 Y52.010359 F200.000000
G1 X44.777690 F200.000000
G1 Y50.366359 F200.000000
G1 X46.421690 F200.000000
G1 Y52.010359 F200.000000
G1 X46.059689 F200.000000
G1 Y52.267821 F200.000000
G1 X47.194959 Y53.403090 F200.000000
G1 X47.236018 Y53.468436 F200.000000
G1 X47.284135 Y53.528773 F200.000000
