(Generated by ./pygerber2gcode_cui_MOD.py )
( 2013-06-18 10:33:27 )
(Initialize)

(Start form here)
G0 Z0.500000
G0 X79.385392 Y50.007445
G1 Z-0.040000 F60.000000
G1 X79.194892 Y50.197945 F200.000000
G1 X79.133076 Y50.236787 F200.000000
G1 X79.296797 Y50.342730 F200.000000
G1 X79.390777 Y50.439250 F200.000000
G1 X79.456840 Y50.547569 F200.000000
G1 X79.523318 Y50.655634 F200.000000
G1 X79.619838 Y50.940114 F200.000000
G1 X79.629454 Y51.033415 F200.000000
G1 X79.650326 Y51.124859 F200.000000
G1 Y51.315359 F200.000000
G1 X79.629623 Y51.406064 F200.000000
G1 X79.620334 Y51.498636 F200.000000
G1 X79.523814 Y51.785656 F200.000000
G1 X79.521941 Y51.788720 F200.000000
G1 X79.521538 Y51.792289 F200.000000
G1 X79.455284 Y51.897733 F200.000000
G1 X79.390321 Y52.003976 F200.000000
G1 X79.387303 Y52.005924 F200.000000
G1 X79.385392 Y52.008965 F200.000000
G1 X79.194892 Y52.199465 F200.000000
G1 X79.115473 Y52.249367 F200.000000
G1 X79.042700 Y52.308542 F200.000000
G1 X78.852200 Y52.402522 F200.000000
G1 X78.793105 Y52.416602 F200.000000
G1 X78.739012 Y52.444251 F200.000000
G1 X78.358012 Y52.540771 F200.000000
G1 X78.286523 Y52.542466 F200.000000
G1 X78.216806 Y52.558379 F200.000000
G1 X77.932326 F200.000000
G1 X77.862610 Y52.542466 F200.000000
G1 X77.791120 Y52.540771 F200.000000
G1 X77.410120 Y52.444251 F200.000000
G1 X77.356027 Y52.416602 F200.000000
G1 X77.296932 Y52.402522 F200.000000
G1 X77.106432 Y52.308542 F200.000000
G1 X77.033659 Y52.249367 F200.000000
G1 X76.954240 Y52.199465 F200.000000
G1 X76.763740 Y52.008965 F200.000000
G1 X76.761829 Y52.005924 F200.000000
G1 X76.758812 Y52.003976 F200.000000
G1 X76.693848 Y51.897733 F200.000000
G1 X76.627594 Y51.792289 F200.000000
G1 X76.627191 Y51.788720 F200.000000
G1 X76.625318 Y51.785656 F200.000000
G1 X76.528798 Y51.498636 F200.000000
G1 X76.519509 Y51.406064 F200.000000
G1 X76.498807 Y51.315359 F200.000000
G1 Y51.124859 F200.000000
G1 X76.519678 Y51.033415 F200.000000
G1 X76.529294 Y50.940114 F200.000000
G1 X76.625814 Y50.655634 F200.000000
G1 X76.692292 Y50.547569 F200.000000
G1 X76.758355 Y50.439250 F200.000000
G1 X76.852335 Y50.342730 F200.000000
G1 X77.016056 Y50.236787 F200.000000
G1 X76.954240 Y50.197945 F200.000000
G1 X76.763740 Y50.007445 F200.000000
G1 X76.762251 Y50.005075 F200.000000
G1 X76.759895 Y50.003564 F200.000000
G1 X76.694250 Y49.896852 F200.000000
G1 X76.627594 Y49.790769 F200.000000
G1 X76.627280 Y49.787988 F200.000000
G1 X76.625814 Y49.785604 F200.000000
G1 X76.529294 Y49.501124 F200.000000
G1 X76.519678 Y49.407823 F200.000000
G1 X76.498807 Y49.316379 F200.000000
G1 Y49.125879 F200.000000
G1 X76.519509 Y49.035174 F200.000000
G1 X76.528798 Y48.942602 F200.000000
G1 X76.625318 Y48.655582 F200.000000
G1 X76.627191 Y48.652518 F200.000000
G1 X76.627594 Y48.648949 F200.000000
G1 X76.693848 Y48.543505 F200.000000
G1 X76.758812 Y48.437262 F200.000000
G1 X76.761829 Y48.435314 F200.000000
G1 X76.763740 Y48.432273 F200.000000
G1 X76.790854 Y48.405159 F200.000000
G1 X76.758812 Y48.384476 F200.000000
G1 X76.625318 Y48.166156 F200.000000
G1 X76.528798 Y47.879136 F200.000000
G1 X76.519509 Y47.786564 F200.000000
G1 X76.498807 Y47.695859 F200.000000
G1 Y47.220879 F200.000000
G1 X76.500127 Y47.215094 F200.000000
G1 X76.498923 Y47.209283 F200.000000
G1 X76.528536 Y47.090626 F200.000000
G1 X76.555749 Y46.971396 F200.000000
G1 X76.559449 Y46.966757 F200.000000
G1 X76.560886 Y46.960999 F200.000000
G1 X76.657406 Y46.770499 F200.000000
G1 X76.713035 Y46.703558 F200.000000
G1 X76.758355 Y46.629250 F200.000000
G1 X76.852335 Y46.532730 F200.000000
G1 X76.934230 Y46.479736 F200.000000
G1 X77.009912 Y46.418196 F200.000000
G1 X77.200412 Y46.324216 F200.000000
G1 X77.203135 Y46.323567 F200.000000
G1 X77.205323 Y46.321822 F200.000000
G1 X77.327468 Y46.293944 F200.000000
G1 X77.449343 Y46.264905 F200.000000
G1 X77.452077 Y46.265502 F200.000000
G1 X77.454806 Y46.264880 F200.000000
G1 X77.645306 F200.000000
G1 X77.648035 Y46.265502 F200.000000
G1 X77.650769 Y46.264905 F200.000000
G1 X77.772644 Y46.293944 F200.000000
G1 X77.894789 Y46.321822 F200.000000
G1 X77.896977 Y46.323567 F200.000000
G1 X77.899700 Y46.324216 F200.000000
G1 X78.090200 Y46.418196 F200.000000
G1 X78.162973 Y46.477371 F200.000000
G1 X78.242392 Y46.527273 F200.000000
G1 X78.338912 Y46.623793 F200.000000
G1 X78.388814 Y46.703212 F200.000000
G1 X78.418850 Y46.740150 F200.000000
G1 X78.494869 Y46.529349 F200.000000
G1 X78.677527 Y46.350128 F200.000000
G1 X78.919858 Y46.267909 F200.000000
G1 X79.173864 Y46.298975 F200.000000
G1 X79.389237 Y46.437174 F200.000000
G1 X79.523318 Y46.655134 F200.000000
G0 Z0.500000
G0 X77.864342 Y50.541342
G1 Z-0.040000 F60.000000
G1 X77.794620 Y50.540126 F200.000000
G1 X77.785918 Y50.537979 F200.000000
G1 X77.834781 Y50.671867 F200.000000
G1 X77.809522 Y50.926517 F200.000000
G1 X77.676277 Y51.144988 F200.000000
G1 X77.673044 Y51.148309 F200.000000
G1 X77.648806 Y51.219747 F200.000000
G1 Y51.221267 F200.000000
G1 X77.672325 Y51.291206 F200.000000
G1 X77.700316 Y51.319197 F200.000000
G1 X77.751327 Y51.344362 F200.000000
G1 X78.004027 Y51.408380 F200.000000
G1 X78.145105 F200.000000
G1 X78.397805 Y51.344362 F200.000000
G1 X78.448816 Y51.319197 F200.000000
G1 X78.476807 Y51.291206 F200.000000
G1 X78.500327 Y51.221267 F200.000000
G1 Y51.219747 F200.000000
G1 X78.476088 Y51.148309 F200.000000
G1 X78.472855 Y51.144988 F200.000000
G1 X78.339610 Y50.926517 F200.000000
G1 X78.314351 Y50.671867 F200.000000
G1 X78.363214 Y50.537979 F200.000000
G1 X78.354512 Y50.540126 F200.000000
G1 X78.284790 Y50.541342 F200.000000
G1 X78.216806 Y50.556859 F200.000000
G1 X77.932326 F200.000000
G1 X77.864342 Y50.541342 F200.000000
G0 Z0.500000
G0 X79.523318 Y46.655134
G1 Z-0.040000 F60.000000
G1 X79.619838 Y46.939614 F200.000000
G1 X79.629454 Y47.032915 F200.000000
G1 X79.650326 Y47.124359 F200.000000
G1 Y47.601879 F200.000000
G1 X79.649005 Y47.607664 F200.000000
G1 X79.650209 Y47.613475 F200.000000
G1 X79.620596 Y47.732132 F200.000000
G1 X79.593383 Y47.851362 F200.000000
G1 X79.589683 Y47.856001 F200.000000
G1 X79.588246 Y47.861759 F200.000000
G1 X79.491726 Y48.052259 F200.000000
G1 X79.433697 Y48.122088 F200.000000
G1 X79.385392 Y48.198965 F200.000000
G1 X79.291412 Y48.292945 F200.000000
G1 X79.224681 Y48.334875 F200.000000
G1 X79.328174 Y48.382168 F200.000000
G1 X79.491726 Y48.578979 F200.000000
G1 X79.588246 Y48.769479 F200.000000
G1 X79.589683 Y48.775237 F200.000000
G1 X79.593383 Y48.779876 F200.000000
G1 X79.620596 Y48.899106 F200.000000
G1 X79.650209 Y49.017763 F200.000000
G1 X79.649005 Y49.023574 F200.000000
G1 X79.650326 Y49.029359 F200.000000
G1 Y49.316379 F200.000000
G1 X79.629454 Y49.407823 F200.000000
G1 X79.619838 Y49.501124 F200.000000
G1 X79.523318 Y49.785604 F200.000000
G1 X79.521852 Y49.787988 F200.000000
G1 X79.521538 Y49.790769 F200.000000
G1 X79.454882 Y49.896852 F200.000000
G1 X79.389237 Y50.003564 F200.000000
G1 X79.386881 Y50.005075 F200.000000
G1 X79.385392 Y50.007445 F200.000000
G0 Z0.500000
G0 X78.467906 Y49.298587
G1 Z-0.040000 F60.000000
G1 X78.477385 Y49.289108 F200.000000
G1 X78.500327 Y49.221491 F200.000000
G1 Y49.166713 F200.000000
G1 X78.498726 Y49.163555 F200.000000
G1 X78.467906 Y49.298587 F200.000000
G0 Z0.500000
G0 X78.462949 Y48.550454
G1 Z-0.040000 F60.000000
G1 X78.464799 Y48.558559 F200.000000
G1 X78.473542 Y48.576713 F200.000000
G1 X78.488711 Y48.556883 F200.000000
G1 X78.462949 Y48.550454 F200.000000
G0 Z0.500000
G0 X77.762683 Y48.122455
G1 Z-0.040000 F60.000000
G1 X77.730474 Y48.082844 F200.000000
G1 X77.698822 Y48.169880 F200.000000
G1 X77.793371 F200.000000
G1 X77.762683 Y48.122455 F200.000000
G0 Z0.500000
G0 X77.698100 Y43.207146
G1 Z-0.040000 F60.000000
G1 X77.596590 Y43.182106 F200.000000
G1 X77.621182 Y43.289851 F200.000000
G1 X77.703788 Y43.207245 F200.000000
G1 X77.698100 Y43.207146 F200.000000
G0 Z0.500000
G0 X77.930809 Y40.747379
G1 Z-0.040000 F60.000000
G1 X77.648007 Y40.747379 F200.000000
G1 X77.596429 Y40.973358 F200.000000
G1 X77.694600 Y40.948487 F200.000000
G1 X77.766090 Y40.946792 F200.000000
G1 X77.835806 Y40.930880 F200.000000
G1 X77.970861 F200.000000
G1 X77.930809 Y40.747379 F200.000000
G0 Z0.500000
G0 X79.648139 Y40.222479
G1 Z-0.040000 F60.000000
G1 X79.635909 Y40.260443 F200.000000
G1 Y40.300328 F200.000000
G1 X79.597101 Y40.380915 F200.000000
G1 X79.569675 Y40.466052 F200.000000
G1 X79.542184 Y40.494950 F200.000000
G1 X79.524879 Y40.530885 F200.000000
G1 X79.454948 Y40.586653 F200.000000
G1 X79.393299 Y40.651459 F200.000000
G1 X79.154212 Y40.810145 F200.000000
G1 X79.071488 Y40.892869 F200.000000
G1 X79.019489 Y40.998273 F200.000000
G1 X78.947745 Y41.086504 F200.000000
G1 X78.948720 Y41.086736 F200.000000
G1 X79.139220 Y41.180716 F200.000000
G1 X79.214902 Y41.242256 F200.000000
G1 X79.296797 Y41.295250 F200.000000
G1 X79.390777 Y41.391770 F200.000000
G1 X79.436097 Y41.466078 F200.000000
G1 X79.491726 Y41.533019 F200.000000
G1 X79.588246 Y41.723519 F200.000000
G1 X79.589683 Y41.729277 F200.000000
G1 X79.593383 Y41.733916 F200.000000
G1 X79.620596 Y41.853146 F200.000000
G1 X79.650209 Y41.971803 F200.000000
G1 X79.649005 Y41.977614 F200.000000
G1 X79.650326 Y41.983399 F200.000000
G1 Y42.173899 F200.000000
G1 X79.649005 Y42.179684 F200.000000
G1 X79.650209 Y42.185495 F200.000000
G1 X79.620596 Y42.304152 F200.000000
G1 X79.593383 Y42.423382 F200.000000
G1 X79.589683 Y42.428021 F200.000000
G1 X79.588246 Y42.433779 F200.000000
G1 X79.491726 Y42.624279 F200.000000
G1 X79.433697 Y42.694108 F200.000000
G1 X79.385392 Y42.770985 F200.000000
G1 X79.291412 Y42.864965 F200.000000
G1 X79.214535 Y42.913270 F200.000000
G1 X79.144706 Y42.971299 F200.000000
G1 X79.121831 Y42.982889 F200.000000
G1 X79.144706 Y42.994479 F200.000000
G1 X79.214535 Y43.052508 F200.000000
G1 X79.291412 Y43.100813 F200.000000
G1 X79.385392 Y43.194793 F200.000000
G1 X79.433697 Y43.271670 F200.000000
G1 X79.491726 Y43.341499 F200.000000
G1 X79.588246 Y43.531999 F200.000000
G1 X79.589683 Y43.537757 F200.000000
G1 X79.593383 Y43.542396 F200.000000
G1 X79.620596 Y43.661626 F200.000000
G1 X79.650209 Y43.780283 F200.000000
G1 X79.649005 Y43.786094 F200.000000
G1 X79.650326 Y43.791879 F200.000000
G1 Y44.269399 F200.000000
G1 X79.649005 Y44.275184 F200.000000
G1 X79.650209 Y44.280995 F200.000000
G1 X79.620596 Y44.399652 F200.000000
G1 X79.593383 Y44.518882 F200.000000
G1 X79.589683 Y44.523521 F200.000000
G1 X79.588246 Y44.529279 F200.000000
G1 X79.491726 Y44.719779 F200.000000
G1 X79.433697 Y44.789608 F200.000000
G1 X79.385392 Y44.866485 F200.000000
G1 X79.291412 Y44.960465 F200.000000
G1 X79.074736 Y45.096611 F200.000000
G1 X78.820447 Y45.125263 F200.000000
G1 X78.578908 Y45.040745 F200.000000
G1 X78.397960 Y44.859797 F200.000000
G1 X78.313442 Y44.618259 F200.000000
G1 X78.342094 Y44.363969 F200.000000
G1 X78.478240 Y44.147293 F200.000000
G1 X78.500327 Y44.125206 F200.000000
G1 Y44.037051 F200.000000
G1 X77.480392 Y45.056985 F200.000000
G1 X77.452702 Y45.074384 F200.000000
G1 X77.432312 Y45.099952 F200.000000
G1 X77.345398 Y45.141808 F200.000000
G1 X77.263716 Y45.193131 F200.000000
G1 X77.231219 Y45.196793 F200.000000
G1 X77.201755 Y45.210982 F200.000000
G1 X77.105288 F200.000000
G1 X77.009427 Y45.221783 F200.000000
G1 X76.978559 Y45.210982 F200.000000
G1 X76.945857 F200.000000
G1 X76.858942 Y45.169126 F200.000000
G1 X76.767888 Y45.137265 F200.000000
G1 X76.744764 Y45.114141 F200.000000
G1 X76.715300 Y45.099952 F200.000000
G1 X76.655153 Y45.024530 F200.000000
G1 X76.586940 Y44.956317 F200.000000
G1 X76.576139 Y44.925450 F200.000000
G1 X76.555749 Y44.899882 F200.000000
G1 X76.534283 Y44.805833 F200.000000
G1 X76.502422 Y44.714779 F200.000000
G1 X76.506084 Y44.682282 F200.000000
G1 X76.498807 Y44.650399 F200.000000
G1 Y43.410879 F200.000000
G1 X76.555749 Y43.161396 F200.000000
G1 X76.715300 Y42.961326 F200.000000
G1 X76.882745 Y42.880689 F200.000000
G1 X76.857720 Y42.864965 F200.000000
G1 X76.763740 Y42.770985 F200.000000
G1 X76.715435 Y42.694108 F200.000000
G1 X76.657406 Y42.624279 F200.000000
G1 X76.560886 Y42.433779 F200.000000
G1 X76.559449 Y42.428021 F200.000000
G1 X76.555749 Y42.423382 F200.000000
G1 X76.528536 Y42.304152 F200.000000
G1 X76.498923 Y42.185495 F200.000000
G1 X76.500127 Y42.179684 F200.000000
G1 X76.498807 Y42.173899 F200.000000
G1 Y41.983399 F200.000000
G1 X76.500127 Y41.977614 F200.000000
G1 X76.498923 Y41.971803 F200.000000
G1 X76.528536 Y41.853146 F200.000000
G1 X76.555749 Y41.733916 F200.000000
G1 X76.559449 Y41.729277 F200.000000
G1 X76.560886 Y41.723519 F200.000000
G1 X76.657406 Y41.533019 F200.000000
G1 X76.713035 Y41.466078 F200.000000
G1 X76.758355 Y41.391770 F200.000000
G1 X76.852335 Y41.295250 F200.000000
G1 X76.884076 Y41.274710 F200.000000
G1 X76.715300 Y41.193432 F200.000000
G1 X76.555749 Y40.993362 F200.000000
G1 X76.498807 Y40.743879 F200.000000
G1 Y39.600879 F200.000000
G1 X76.555749 Y39.351396 F200.000000
G1 X76.708341 Y39.160052 F200.000000
G1 X76.657406 Y39.098759 F200.000000
G1 X76.560886 Y38.908259 F200.000000
G1 X76.559449 Y38.902501 F200.000000
G1 X76.555749 Y38.897862 F200.000000
G1 X76.528536 Y38.778632 F200.000000
G0 Z0.500000
G0 X77.676277 Y38.534270
G1 Z-0.040000 F60.000000
G1 X77.809522 Y38.752741 F200.000000
G1 X77.834781 Y39.007391 F200.000000
G1 X77.747050 Y39.247781 F200.000000
G1 X77.600731 Y39.390250 F200.000000
G1 X77.648007 Y39.597380 F200.000000
G1 X79.075326 Y39.597380 F200.000000
G1 X79.162528 Y39.617283 F200.000000
G1 X79.251633 Y39.625076 F200.000000
G1 X79.285924 Y39.645447 F200.000000
G1 X79.324809 Y39.654322 F200.000000
G1 X79.394740 Y39.710090 F200.000000
G1 X79.471639 Y39.755773 F200.000000
G1 X79.493695 Y39.789005 F200.000000
G1 X79.524879 Y39.813873 F200.000000
G1 X79.563687 Y39.894460 F200.000000
G1 X79.613150 Y39.968983 F200.000000
G1 X79.618603 Y40.008494 F200.000000
G1 X79.635909 Y40.044430 F200.000000
G1 Y40.133874 F200.000000
G1 X79.648139 Y40.222479 F200.000000
G0 Z0.500000
G0 X79.581206 Y37.422547
G1 Z-0.040000 F60.000000
G1 X79.584863 Y37.435713 F200.000000
G1 X79.593383 Y37.446396 F200.000000
G1 X79.618949 Y37.558408 F200.000000
G1 X79.649702 Y37.669108 F200.000000
G1 X79.647285 Y37.682557 F200.000000
G1 X79.650326 Y37.695879 F200.000000
G1 Y38.935399 F200.000000
G1 X79.593383 Y39.184882 F200.000000
G1 X79.433832 Y39.384952 F200.000000
G1 X79.203275 Y39.495982 F200.000000
G1 X78.947377 F200.000000
G1 X78.716820 Y39.384952 F200.000000
G1 X78.557269 Y39.184882 F200.000000
G1 X78.500327 Y38.935399 F200.000000
G1 Y38.900038 F200.000000
G1 X78.467236 Y38.917917 F200.000000
G1 X78.453587 Y38.918553 F200.000000
G1 X78.441275 Y38.924482 F200.000000
G1 X78.326383 F200.000000
G1 X78.211615 Y38.929831 F200.000000
G1 X78.199041 Y38.924482 F200.000000
G1 X78.185377 F200.000000
G1 X78.081862 Y38.874632 F200.000000
G1 X77.976139 Y38.829656 F200.000000
G1 X77.967131 Y38.819381 F200.000000
G1 X77.954820 Y38.813452 F200.000000
G1 X77.883185 Y38.723625 F200.000000
G1 X77.807447 Y38.637231 F200.000000
G1 X77.803789 Y38.624065 F200.000000
G1 X77.795269 Y38.613382 F200.000000
G1 X77.769703 Y38.501370 F200.000000
G1 X77.738950 Y38.390670 F200.000000
G1 X77.741367 Y38.377221 F200.000000
G1 X77.738327 Y38.363899 F200.000000
G1 Y38.270879 F200.000000
G1 X77.648806 F200.000000
G1 Y38.506056 F200.000000
G1 X77.676277 Y38.534270 F200.000000
G0 Z0.500000
G0 X76.528536 Y38.778632
G1 Z-0.040000 F60.000000
G1 X76.498923 Y38.659975 F200.000000
G1 X76.500127 Y38.654164 F200.000000
G1 X76.498807 Y38.648379 F200.000000
G1 Y38.076879 F200.000000
G1 X76.500127 Y38.071094 F200.000000
G1 X76.498923 Y38.065283 F200.000000
G1 X76.528536 Y37.946626 F200.000000
G1 X76.555749 Y37.827396 F200.000000
G1 X76.559449 Y37.822757 F200.000000
G1 X76.560886 Y37.816999 F200.000000
G1 X76.657406 Y37.626499 F200.000000
G1 X76.715435 Y37.556670 F200.000000
G1 X76.763740 Y37.479793 F200.000000
G1 X76.857720 Y37.385813 F200.000000
G1 X76.934597 Y37.337508 F200.000000
G1 X77.004427 Y37.279479 F200.000000
G1 X77.194927 Y37.182959 F200.000000
G1 X77.200684 Y37.181522 F200.000000
G1 X77.205323 Y37.177822 F200.000000
G1 X77.324553 Y37.150609 F200.000000
G1 X77.443210 Y37.120996 F200.000000
G1 X77.449021 Y37.122200 F200.000000
G1 X77.454806 Y37.120880 F200.000000
G1 X77.932326 F200.000000
G1 X77.938111 Y37.122200 F200.000000
G1 X77.943922 Y37.120996 F200.000000
G1 X78.062579 Y37.150609 F200.000000
G1 X78.181809 Y37.177822 F200.000000
G1 X78.186448 Y37.181522 F200.000000
G1 X78.192206 Y37.182959 F200.000000
G1 X78.382706 Y37.279479 F200.000000
G1 X78.452535 Y37.337508 F200.000000
G1 X78.529412 Y37.385813 F200.000000
G1 X78.542189 Y37.398590 F200.000000
G1 X78.696278 Y37.263505 F200.000000
G1 X78.708300 Y37.257010 F200.000000
G1 X78.716820 Y37.246326 F200.000000
G1 X78.820334 Y37.196476 F200.000000
G1 X78.921416 Y37.141861 F200.000000
G1 X78.935065 Y37.141225 F200.000000
G1 X78.947377 Y37.135296 F200.000000
G1 X79.062269 F200.000000
G1 X79.177037 Y37.129947 F200.000000
G1 X79.189611 Y37.135296 F200.000000
G1 X79.203275 F200.000000
G1 X79.306790 Y37.185146 F200.000000
G1 X79.412513 Y37.230123 F200.000000
G1 X79.421521 Y37.240398 F200.000000
G1 X79.433832 Y37.246326 F200.000000
G1 X79.505467 Y37.336153 F200.000000
G1 X79.581206 Y37.422547 F200.000000
G0 Z0.500000
G0 X15.711898 Y22.645622
G1 Z-0.040000 F60.000000
G1 X15.480706 Y22.599879 F200.000000
G1 X14.986686 F200.000000
G1 X14.755494 Y22.645622 F200.000000
G1 X14.988049 Y22.692879 F200.000000
G1 X15.479343 F200.000000
G1 X15.711898 Y22.645622 F200.000000
G0 Z0.500000
G0 X14.733343 Y21.102076
G1 Z-0.040000 F60.000000
G1 Y21.162859 F200.000000
G1 X14.746495 Y21.222201 F200.000000
G1 X14.746469 Y21.222312 F200.000000
G1 X14.746494 Y21.222422 F200.000000
G1 X14.733343 Y21.278309 F200.000000
G1 Y21.335722 F200.000000
G1 X14.706970 Y21.390486 F200.000000
G1 X14.693072 Y21.449659 F200.000000
G1 X14.693001 Y21.449747 F200.000000
G1 X14.692975 Y21.449857 F200.000000
G1 X14.656878 Y21.494503 F200.000000
G1 X14.631967 Y21.546231 F200.000000
G1 X14.584445 Y21.584128 F200.000000
G1 X14.560424 Y21.613864 F200.000000
G1 X14.833345 Y21.559864 F200.000000
G1 X14.884931 Y21.561363 F200.000000
G1 X14.935246 Y21.549879 F200.000000
G1 X15.532146 F200.000000
G1 X15.582461 Y21.561363 F200.000000
G1 X15.634047 Y21.559864 F200.000000
G1 X16.109027 Y21.653844 F200.000000
G1 X16.154610 Y21.674185 F200.000000
G1 X16.203890 Y21.682127 F200.000000
G1 X16.442650 Y21.778647 F200.000000
G1 X16.503552 Y21.821082 F200.000000
G1 X16.570630 Y21.852867 F200.000000
G1 X16.690010 Y21.946847 F200.000000
G1 X16.748119 Y22.018781 F200.000000
G1 X16.812796 Y22.084874 F200.000000
G1 X16.929636 Y22.275374 F200.000000
G1 X16.938278 Y22.300958 F200.000000
G1 X16.955114 Y22.322070 F200.000000
G1 X16.975332 Y22.410652 F200.000000
G1 X17.004411 Y22.496733 F200.000000
G1 X17.001097 Y22.523532 F200.000000
G1 X17.007106 Y22.549859 F200.000000
G1 Y22.740359 F200.000000
G1 X17.001097 Y22.766686 F200.000000
G1 X17.004411 Y22.793485 F200.000000
G1 X16.975332 Y22.879566 F200.000000
G1 X16.955114 Y22.968148 F200.000000
G1 X16.938278 Y22.989260 F200.000000
G1 X16.929636 Y23.014844 F200.000000
G1 X16.812796 Y23.205344 F200.000000
G1 X16.750452 Y23.269053 F200.000000
G1 X16.695345 Y23.339114 F200.000000
G1 X16.575965 Y23.435634 F200.000000
G1 X16.504178 Y23.470801 F200.000000
G1 X16.438175 Y23.515897 F200.000000
G1 X16.199415 Y23.609877 F200.000000
G1 X16.153752 Y23.616806 F200.000000
G1 X16.111674 Y23.635844 F200.000000
G1 X16.110558 Y23.636070 F200.000000
G1 X16.173200 Y23.854653 F200.000000
G1 X16.133742 Y24.084944 F200.000000
G1 X15.998271 Y24.275308 F200.000000
G1 X15.845153 Y24.359655 F200.000000
G1 X15.997719 Y24.443418 F200.000000
G1 X16.133457 Y24.633591 F200.000000
G1 X16.173240 Y24.863826 F200.000000
G1 X16.109188 Y25.088522 F200.000000
G1 X15.953988 Y25.263175 F200.000000
G1 X15.738378 Y25.353192 F200.000000
G1 X15.505063 Y25.340746 F200.000000
G1 X13.838823 Y24.865766 F200.000000
G1 X13.760670 Y24.822858 F200.000000
G1 X13.678347 Y24.788624 F200.000000
G1 X13.659218 Y24.767158 F200.000000
G1 X13.634013 Y24.753320 F200.000000
G1 X13.582217 Y24.680752 F200.000000
G1 X13.522900 Y24.614190 F200.000000
G1 X13.514979 Y24.586550 F200.000000
G1 X13.498275 Y24.563147 F200.000000
G1 X13.483094 Y24.475292 F200.000000
G1 X13.458532 Y24.389585 F200.000000
G1 X13.463388 Y24.361245 F200.000000
G1 X13.458492 Y24.332912 F200.000000
G1 X13.482933 Y24.247171 F200.000000
G1 X13.497990 Y24.159294 F200.000000
G1 X13.514662 Y24.135868 F200.000000
G1 X13.522544 Y24.108216 F200.000000
G1 X13.581767 Y24.041571 F200.000000
G1 X13.633461 Y23.968930 F200.000000
G1 X13.658645 Y23.955056 F200.000000
G1 X13.677745 Y23.933563 F200.000000
G1 X13.760019 Y23.899214 F200.000000
G1 X13.838111 Y23.856196 F200.000000
G1 X14.502746 Y23.665721 F200.000000
G1 X14.355718 Y23.635844 F200.000000
G1 X14.313640 Y23.616806 F200.000000
G1 X14.267977 Y23.609877 F200.000000
G1 X14.029217 Y23.515897 F200.000000
G1 X13.963214 Y23.470801 F200.000000
G1 X13.891427 Y23.435634 F200.000000
G1 X13.772047 Y23.339114 F200.000000
G1 X13.718468 Y23.270996 F200.000000
G1 X13.657261 Y23.209641 F200.000000
G1 X13.537881 Y23.019141 F200.000000
G1 X13.528157 Y22.991245 F200.000000
G1 X13.509738 Y22.968148 F200.000000
G1 X13.490070 Y22.881976 F200.000000
G1 X13.460977 Y22.798513 F200.000000
G1 X13.464320 Y22.769161 F200.000000
G1 X13.457746 Y22.740359 F200.000000
G1 Y22.549859 F200.000000
G1 X13.464320 Y22.521057 F200.000000
G1 X13.460977 Y22.491705 F200.000000
G1 X13.490070 Y22.408242 F200.000000
G1 X13.509738 Y22.322070 F200.000000
G1 X13.528157 Y22.298973 F200.000000
G1 X13.537881 Y22.271077 F200.000000
G1 X13.657261 Y22.080577 F200.000000
G1 X13.720826 Y22.016859 F200.000000
G1 X13.777382 Y21.946847 F200.000000
G1 X13.896762 Y21.852867 F200.000000
G1 X13.963841 Y21.821082 F200.000000
G1 X13.968932 Y21.817534 F200.000000
G1 X13.880044 Y21.774037 F200.000000
G1 X13.777382 Y21.725391 F200.000000
G1 X13.658176 Y21.631548 F200.000000
G0 Z0.500000
G0 X16.213231 Y20.639161
G1 Z-0.040000 F60.000000
G1 X16.048217 Y20.804573 F200.000000
G1 X15.827774 Y20.882007 F200.000000
G1 X15.595565 Y20.856125 F200.000000
G1 X15.397582 Y20.732056 F200.000000
G1 X15.273036 Y20.534371 F200.000000
G1 X15.247925 Y20.313879 F200.000000
G1 X14.507746 F200.000000
G1 Y20.360379 F200.000000
G1 X14.455754 Y20.588168 F200.000000
G1 X14.377414 Y20.686404 F200.000000
G1 X14.426696 Y20.709731 F200.000000
G1 X14.428965 Y20.712536 F200.000000
G1 X14.432205 Y20.714124 F200.000000
G1 X14.551414 Y20.810505 F200.000000
G1 X14.551585 Y20.810644 F200.000000
G1 X14.587080 Y20.855770 F200.000000
G1 X14.631967 Y20.891567 F200.000000
G1 X14.658340 Y20.946331 F200.000000
G1 X14.695938 Y20.994090 F200.000000
G1 X14.695962 Y20.994201 F200.000000
G1 X14.696032 Y20.994289 F200.000000
G1 X14.708432 Y21.050348 F200.000000
G1 X14.733343 Y21.102076 F200.000000
G0 Z0.500000
G0 X13.658176 Y21.631547
G1 Z-0.040000 F60.000000
G1 X13.658002 Y21.631411 F200.000000
G1 X13.619807 Y21.584128 F200.000000
G1 X13.572285 Y21.546231 F200.000000
G1 X13.547374 Y21.494503 F200.000000
G1 X13.511277 Y21.449857 F200.000000
G1 X13.511251 Y21.449747 F200.000000
G1 X13.511180 Y21.449659 F200.000000
G1 X13.497282 Y21.390486 F200.000000
G1 X13.470909 Y21.335722 F200.000000
G1 Y21.278309 F200.000000
G1 X13.457758 Y21.222422 F200.000000
G1 X13.457783 Y21.222312 F200.000000
G1 X13.457757 Y21.222201 F200.000000
G1 X13.470909 Y21.162859 F200.000000
G1 Y21.102076 F200.000000
G1 X13.495820 Y21.050348 F200.000000
G1 X13.508220 Y20.994289 F200.000000
G1 X13.508290 Y20.994201 F200.000000
G1 X13.508314 Y20.994090 F200.000000
G1 X13.545912 Y20.946331 F200.000000
G1 X13.572285 Y20.891567 F200.000000
G1 X13.617172 Y20.855770 F200.000000
G1 X13.652667 Y20.810644 F200.000000
G1 X13.652839 Y20.810505 F200.000000
G1 X13.684546 Y20.784869 F200.000000
G1 X13.655414 Y20.770840 F200.000000
G1 X13.509738 Y20.588168 F200.000000
G1 X13.457746 Y20.360379 F200.000000
G1 Y19.217379 F200.000000
G1 X13.509738 Y18.989590 F200.000000
G1 X13.655414 Y18.806918 F200.000000
G1 X13.865923 Y18.705542 F200.000000
G1 X14.099569 F200.000000
G1 X14.310078 Y18.806918 F200.000000
G1 X14.455754 Y18.989590 F200.000000
G1 X14.507746 Y19.217379 F200.000000
G1 Y19.263879 F200.000000
G1 X16.482106 F200.000000
G1 X16.585268 Y19.287425 F200.000000
G1 X16.689346 Y19.306514 F200.000000
G1 X16.698658 Y19.313306 F200.000000
G1 X16.709895 Y19.315871 F200.000000
G1 X16.792624 Y19.381845 F200.000000
G1 X16.878113 Y19.444201 F200.000000
G1 X16.883556 Y19.454361 F200.000000
G1 X16.892567 Y19.461547 F200.000000
G1 X16.938478 Y19.556883 F200.000000
G1 X16.988446 Y19.650156 F200.000000
G1 X16.988942 Y19.661671 F200.000000
G1 X16.993943 Y19.672056 F200.000000
G1 Y19.777870 F200.000000
G1 X16.998493 Y19.883587 F200.000000
G1 X16.993943 Y19.894177 F200.000000
G1 Y19.905702 F200.000000
G1 X16.948032 Y20.001038 F200.000000
G1 X16.906262 Y20.098260 F200.000000
G1 X16.897568 Y20.105827 F200.000000
G1 X16.892567 Y20.116211 F200.000000
G1 X16.809838 Y20.182185 F200.000000
G1 X16.730022 Y20.251656 F200.000000
G1 X16.416566 Y20.419579 F200.000000
G1 X16.285107 Y20.524466 F200.000000
G1 X16.213231 Y20.639161 F200.000000
G0 Z0.500000
G0 X19.337634 Y28.619648
G1 Z-0.040000 F60.000000
G1 X19.269436 Y28.705166 F200.000000
G1 X19.548192 Y28.648520 F200.000000
G1 X19.670772 Y28.600271 F200.000000
G1 X19.740692 Y28.544484 F200.000000
G1 X19.767106 Y28.479595 F200.000000
G1 Y28.446054 F200.000000
G1 X19.727737 Y28.381864 F200.000000
G1 X19.652961 Y28.160505 F200.000000
G1 X19.681635 Y27.928625 F200.000000
G1 X19.808078 Y27.732149 F200.000000
G1 X19.893301 Y27.679879 F200.000000
G1 X19.270512 Y27.679879 F200.000000
G1 X19.275087 Y27.683527 F200.000000
G1 X19.300753 Y27.736822 F200.000000
G1 X19.337634 Y27.783070 F200.000000
G1 X19.350797 Y27.840740 F200.000000
G1 X19.376463 Y27.894036 F200.000000
G1 Y27.953189 F200.000000
G1 X19.389626 Y28.010859 F200.000000
G1 Y28.391859 F200.000000
G1 X19.337634 Y28.619648 F200.000000
G0 Z0.500000
G0 X20.708992 Y27.473988
G1 Z-0.040000 F60.000000
G1 X20.704884 Y27.477400 F200.000000
G1 X20.702567 Y27.482211 F200.000000
G1 X20.615208 Y27.551877 F200.000000
G1 X20.529251 Y27.623266 F200.000000
G1 X20.524070 Y27.624558 F200.000000
G1 X20.519895 Y27.627887 F200.000000
G1 X20.418387 Y27.651056 F200.000000
G1 X20.459382 Y27.665901 F200.000000
G1 X20.622796 Y27.832894 F200.000000
G1 X20.739636 Y28.023394 F200.000000
G1 X20.748278 Y28.048978 F200.000000
G1 X20.765114 Y28.070090 F200.000000
G1 X20.785332 Y28.158672 F200.000000
G1 X20.814411 Y28.244753 F200.000000
G1 X20.811097 Y28.271552 F200.000000
G1 X20.817106 Y28.297879 F200.000000
G1 Y28.582359 F200.000000
G1 X20.794653 Y28.680728 F200.000000
G1 X20.778360 Y28.780303 F200.000000
G1 X20.661520 Y29.067323 F200.000000
G1 X20.652013 Y29.080896 F200.000000
G1 X20.648330 Y29.097052 F200.000000
G1 X20.585401 Y29.176003 F200.000000
G1 X20.527481 Y29.258698 F200.000000
G1 X20.513027 Y29.266802 F200.000000
G1 X20.502698 Y29.279760 F200.000000
G1 X20.263938 Y29.470260 F200.000000
G1 X20.193424 Y29.504239 F200.000000
G1 X20.128795 Y29.548397 F200.000000
G1 X19.890035 Y29.642377 F200.000000
G1 X19.844372 Y29.649306 F200.000000
G1 X19.802294 Y29.668344 F200.000000
G1 X19.327314 Y29.764864 F200.000000
G1 X19.274384 Y29.763597 F200.000000
G1 X19.222766 Y29.775379 F200.000000
G1 X18.864626 F200.000000
G1 X18.813008 Y29.763597 F200.000000
G1 X18.760078 Y29.764864 F200.000000
G1 X18.285098 Y29.668344 F200.000000
G1 X18.243020 Y29.649306 F200.000000
G1 X18.197357 Y29.642377 F200.000000
G1 X17.958597 Y29.548397 F200.000000
G1 X17.893968 Y29.504239 F200.000000
G1 X17.823454 Y29.470260 F200.000000
G1 X17.584694 Y29.279760 F200.000000
G1 X17.575620 Y29.268376 F200.000000
G1 X17.562868 Y29.261352 F200.000000
G1 X17.503200 Y29.177519 F200.000000
G1 X17.439062 Y29.097052 F200.000000
G1 X17.435826 Y29.082858 F200.000000
G1 X17.427384 Y29.070997 F200.000000
G1 X17.308004 Y28.783977 F200.000000
G1 X17.290630 Y28.682618 F200.000000
G1 X17.267746 Y28.582359 F200.000000
G1 Y28.391859 F200.000000
G1 X17.290810 Y28.290810 F200.000000
G1 X17.308644 Y28.188709 F200.000000
G1 X17.428024 Y27.904229 F200.000000
G1 X17.435010 Y27.894480 F200.000000
G1 X17.437600 Y27.882769 F200.000000
G1 X17.502740 Y27.799952 F200.000000
G1 X17.564109 Y27.714303 F200.000000
G1 X17.574632 Y27.708550 F200.000000
G1 X17.582047 Y27.699124 F200.000000
G1 X17.646996 Y27.646612 F200.000000
G1 X17.564957 Y27.627887 F200.000000
G1 X17.382285 Y27.482211 F200.000000
G1 X17.280909 Y27.271702 F200.000000
G1 Y27.038056 F200.000000
G1 X17.382285 Y26.827547 F200.000000
G1 X17.564957 Y26.681871 F200.000000
G1 X17.792746 Y26.629879 F200.000000
G1 X17.881757 F200.000000
G1 X17.574404 Y26.489321 F200.000000
G1 X17.570163 Y26.486076 F200.000000
G1 X17.564957 Y26.484887 F200.000000
G1 X17.477598 Y26.415221 F200.000000
G1 X17.388872 Y26.347304 F200.000000
G1 X17.386460 Y26.342540 F200.000000
G1 X17.382285 Y26.339211 F200.000000
G1 X17.333804 Y26.238540 F200.000000
G1 X17.283332 Y26.138852 F200.000000
G1 X17.283226 Y26.133514 F200.000000
G1 X17.280909 Y26.128702 F200.000000
G1 Y26.016966 F200.000000
G1 X17.278688 Y25.905252 F200.000000
G1 X17.280909 Y25.900396 F200.000000
G1 Y25.895056 F200.000000
G1 X17.329390 Y25.794385 F200.000000
G1 X17.375860 Y25.692770 F200.000000
G1 X17.379968 Y25.689358 F200.000000
G1 X17.382285 Y25.684547 F200.000000
G1 X17.469644 Y25.614881 F200.000000
G1 X17.555601 Y25.543492 F200.000000
G1 X17.560782 Y25.542200 F200.000000
G1 X17.564957 Y25.538871 F200.000000
G1 X17.579160 Y25.535629 F200.000000
G1 X17.564957 Y25.532387 F200.000000
G1 X17.518709 Y25.495506 F200.000000
G1 X17.465414 Y25.469840 F200.000000
G1 X17.428533 Y25.423592 F200.000000
G1 X17.382285 Y25.386711 F200.000000
G1 X17.356619 Y25.333416 F200.000000
G1 X17.319738 Y25.287168 F200.000000
G1 X17.306575 Y25.229498 F200.000000
G0 Z0.500000
G0 X18.372493 Y28.535859
G1 Z-0.040000 F60.000000
G1 X18.342006 Y28.535859 F200.000000
G1 X18.345043 Y28.543162 F200.000000
G1 X18.380643 Y28.571566 F200.000000
G1 X18.372493 Y28.535859 F200.000000
G0 Z0.500000
G0 X18.578386 Y24.497051
G1 Z-0.040000 F60.000000
G1 X18.560715 Y24.454940 F200.000000
G1 X18.526261 Y24.441379 F200.000000
G1 X18.369871 F200.000000
G1 X18.317746 Y24.461896 F200.000000
G1 Y24.534379 F200.000000
G1 X18.578386 F200.000000
G1 Y24.497051 F200.000000
G0 Z0.500000
G0 X19.906516 Y21.333364
G1 Z-0.040000 F60.000000
G1 X19.789676 Y21.523864 F200.000000
G1 X19.626262 Y21.690857 F200.000000
G1 X19.466691 Y21.748641 F200.000000
G1 X19.481058 Y21.758457 F200.000000
G1 X19.552845 Y21.793624 F200.000000
G1 X19.672225 Y21.890144 F200.000000
G1 X19.727332 Y21.960205 F200.000000
G1 X19.789676 Y22.023914 F200.000000
G1 X19.906516 Y22.214414 F200.000000
G1 X19.915158 Y22.239998 F200.000000
G1 X19.931994 Y22.261110 F200.000000
G1 X19.952212 Y22.349692 F200.000000
G1 X19.981291 Y22.435773 F200.000000
G1 X19.977977 Y22.462572 F200.000000
G1 X19.983986 Y22.488899 F200.000000
G1 Y22.773379 F200.000000
G1 X19.977977 Y22.799706 F200.000000
G1 X19.981291 Y22.826505 F200.000000
G1 X19.952212 Y22.912586 F200.000000
G1 X19.931994 Y23.001168 F200.000000
G1 X19.915158 Y23.022280 F200.000000
G1 X19.906516 Y23.047864 F200.000000
G1 X19.789676 Y23.238364 F200.000000
G1 X19.727332 Y23.302073 F200.000000
G1 X19.672225 Y23.372134 F200.000000
G1 X19.552845 Y23.468654 F200.000000
G1 X19.481058 Y23.503821 F200.000000
G1 X19.473655 Y23.508878 F200.000000
G1 X19.479671 Y23.507886 F200.000000
G1 X19.578366 Y23.485359 F200.000000
G1 X19.817126 F200.000000
G1 X19.914890 Y23.507673 F200.000000
G1 X20.013890 Y23.523627 F200.000000
G1 X20.252650 Y23.620147 F200.000000
G1 X20.313552 Y23.662582 F200.000000
G1 X20.380630 Y23.694367 F200.000000
G1 X20.500010 Y23.788347 F200.000000
G1 X20.558119 Y23.860281 F200.000000
G1 X20.622796 Y23.926374 F200.000000
G1 X20.739636 Y24.116874 F200.000000
G1 X20.748278 Y24.142458 F200.000000
G1 X20.765114 Y24.163570 F200.000000
G1 X20.785332 Y24.252152 F200.000000
G1 X20.814411 Y24.338233 F200.000000
G1 X20.811097 Y24.365032 F200.000000
G1 X20.817106 Y24.391359 F200.000000
G1 Y25.059379 F200.000000
G1 X20.803943 Y25.117049 F200.000000
G1 Y25.176202 F200.000000
G1 X20.778277 Y25.229498 F200.000000
G1 X20.765114 Y25.287168 F200.000000
G1 X20.728233 Y25.333416 F200.000000
G1 X20.702567 Y25.386711 F200.000000
G1 X20.656319 Y25.423592 F200.000000
G1 X20.619438 Y25.469840 F200.000000
G1 X20.566143 Y25.495506 F200.000000
G1 X20.519895 Y25.532387 F200.000000
G1 X20.505692 Y25.535629 F200.000000
G1 X20.519895 Y25.538871 F200.000000
G1 X20.702567 Y25.684547 F200.000000
G1 X20.803943 Y25.895056 F200.000000
G1 Y26.128702 F200.000000
G1 X20.702567 Y26.339211 F200.000000
G1 X20.519895 Y26.484887 F200.000000
G1 X20.292106 Y26.536879 F200.000000
G1 X20.203095 F200.000000
G1 X20.510449 Y26.677437 F200.000000
G1 X20.514689 Y26.680682 F200.000000
G1 X20.519895 Y26.681871 F200.000000
G1 X20.607254 Y26.751537 F200.000000
G1 X20.695980 Y26.819454 F200.000000
G1 X20.698392 Y26.824218 F200.000000
G1 X20.702567 Y26.827547 F200.000000
G1 X20.751048 Y26.928218 F200.000000
G1 X20.801520 Y27.027906 F200.000000
G1 X20.801626 Y27.033245 F200.000000
G1 X20.803943 Y27.038056 F200.000000
G1 Y27.149792 F200.000000
G1 X20.806164 Y27.261506 F200.000000
G1 X20.803943 Y27.266363 F200.000000
G1 Y27.271702 F200.000000
G1 X20.755462 Y27.372373 F200.000000
G1 X20.708992 Y27.473988 F200.000000
G0 Z0.500000
G0 X17.306575 Y25.229498
G1 Z-0.040000 F60.000000
G1 X17.280909 Y25.176202 F200.000000
G1 Y25.117049 F200.000000
G1 X17.267746 Y25.059379 F200.000000
G1 Y24.297379 F200.000000
G1 X17.274320 Y24.268577 F200.000000
G1 X17.270977 Y24.239225 F200.000000
G1 X17.300070 Y24.155762 F200.000000
G1 X17.319738 Y24.069590 F200.000000
G1 X17.338157 Y24.046493 F200.000000
G1 X17.347881 Y24.018597 F200.000000
G1 X17.467261 Y23.828097 F200.000000
G1 X17.528468 Y23.766742 F200.000000
G1 X17.582047 Y23.698624 F200.000000
G1 X17.701427 Y23.602104 F200.000000
G1 X17.773214 Y23.566937 F200.000000
G1 X17.819403 Y23.535379 F200.000000
G1 X17.773214 Y23.503821 F200.000000
G1 X17.701427 Y23.468654 F200.000000
G1 X17.582047 Y23.372134 F200.000000
G1 X17.528468 Y23.304016 F200.000000
G1 X17.467261 Y23.242661 F200.000000
G1 X17.347881 Y23.052161 F200.000000
G1 X17.338157 Y23.024265 F200.000000
G1 X17.319738 Y23.001168 F200.000000
G1 X17.300070 Y22.914996 F200.000000
G1 X17.270977 Y22.831533 F200.000000
G1 X17.274320 Y22.802181 F200.000000
G1 X17.267746 Y22.773379 F200.000000
G1 Y22.488899 F200.000000
G1 X17.274320 Y22.460097 F200.000000
G1 X17.270977 Y22.430745 F200.000000
G1 X17.300070 Y22.347282 F200.000000
G1 X17.319738 Y22.261110 F200.000000
G1 X17.338157 Y22.238013 F200.000000
G1 X17.347881 Y22.210117 F200.000000
G1 X17.467261 Y22.019617 F200.000000
G1 X17.528468 Y21.958262 F200.000000
G1 X17.582047 Y21.890144 F200.000000
G1 X17.701427 Y21.793624 F200.000000
G1 X17.772050 Y21.759028 F200.000000
G1 X17.715362 Y21.736111 F200.000000
G1 X17.676716 Y21.709183 F200.000000
G1 X17.632275 Y21.693573 F200.000000
G1 X17.582031 Y21.643208 F200.000000
G0 Z0.500000
G0 Y21.643208
G1 Z-0.040000 F60.000000
G1 X17.523662 Y21.602537 F200.000000
G1 X17.500527 Y21.561508 F200.000000
G1 X17.467261 Y21.528161 F200.000000
G1 X17.347881 Y21.337661 F200.000000
G1 X17.338157 Y21.309765 F200.000000
G1 X17.319738 Y21.286668 F200.000000
G1 X17.300070 Y21.200496 F200.000000
G1 X17.270977 Y21.117033 F200.000000
G1 X17.274320 Y21.087681 F200.000000
G1 X17.267746 Y21.058879 F200.000000
G1 Y20.583899 F200.000000
G1 X17.274320 Y20.555097 F200.000000
G1 X17.270977 Y20.525745 F200.000000
G1 X17.280909 Y20.497251 F200.000000
G1 Y20.276576 F200.000000
G1 X17.382285 Y20.066067 F200.000000
G1 X17.564957 Y19.920391 F200.000000
G1 X17.579160 Y19.917149 F200.000000
G1 X17.564957 Y19.913907 F200.000000
G1 X17.382285 Y19.768231 F200.000000
G1 X17.280909 Y19.557722 F200.000000
G1 Y19.324076 F200.000000
G1 X17.382285 Y19.113567 F200.000000
G1 X17.564957 Y18.967891 F200.000000
G1 X17.792746 Y18.915899 F200.000000
G1 X18.881903 F200.000000
G1 X18.933986 Y18.894844 F200.000000
G1 Y18.869399 F200.000000
G1 X18.944600 Y18.822899 F200.000000
G1 X18.270266 F200.000000
G1 X18.172502 Y18.800585 F200.000000
G1 X18.073502 Y18.784631 F200.000000
G1 X17.834742 Y18.688111 F200.000000
G1 X17.773841 Y18.645676 F200.000000
G1 X17.706762 Y18.613891 F200.000000
G1 X17.587382 Y18.519911 F200.000000
G1 X17.530826 Y18.449899 F200.000000
G1 X17.467261 Y18.386181 F200.000000
G1 X17.347881 Y18.195681 F200.000000
G1 X17.338157 Y18.167785 F200.000000
G1 X17.319738 Y18.144688 F200.000000
G1 X17.300070 Y18.058516 F200.000000
G1 X17.270977 Y17.975053 F200.000000
G1 X17.274320 Y17.945701 F200.000000
G1 X17.267746 Y17.916899 F200.000000
G1 Y17.535899 F200.000000
G1 X17.274320 Y17.507097 F200.000000
G1 X17.270977 Y17.477745 F200.000000
G1 X17.280909 Y17.449251 F200.000000
G1 Y17.228576 F200.000000
G1 X17.382285 Y17.018067 F200.000000
G1 X17.564957 Y16.872391 F200.000000
G1 X17.792746 Y16.820399 F200.000000
G1 X20.292106 F200.000000
G1 X20.519895 Y16.872391 F200.000000
G1 X20.702567 Y17.018067 F200.000000
G1 X20.803943 Y17.228576 F200.000000
G1 Y17.462222 F200.000000
G1 X20.702567 Y17.672731 F200.000000
G1 X20.519895 Y17.818407 F200.000000
G1 X20.292106 Y17.870399 F200.000000
G1 X19.983986 F200.000000
G1 Y17.916899 F200.000000
G1 X19.977977 Y17.943226 F200.000000
G1 X19.981291 Y17.970025 F200.000000
G1 X19.952212 Y18.056106 F200.000000
G1 X19.931994 Y18.144688 F200.000000
G1 X19.915158 Y18.165800 F200.000000
G1 X19.906516 Y18.191384 F200.000000
G1 X19.789676 Y18.381884 F200.000000
G1 X19.737350 Y18.435356 F200.000000
G1 X19.786318 Y18.458938 F200.000000
G1 X19.931994 Y18.641610 F200.000000
G1 X19.983986 Y18.869399 F200.000000
G1 Y19.059899 F200.000000
G1 X19.977977 Y19.086226 F200.000000
G1 X19.981291 Y19.113025 F200.000000
G1 X19.952212 Y19.199106 F200.000000
G1 X19.938845 Y19.257673 F200.000000
G1 X19.970823 Y19.324076 F200.000000
G1 Y19.557722 F200.000000
G1 X19.869447 Y19.768231 F200.000000
G1 X19.686775 Y19.913907 F200.000000
G1 X19.458986 Y19.965899 F200.000000
G1 X19.450692 F200.000000
G1 X19.534435 Y19.998861 F200.000000
G1 X19.577370 Y20.028196 F200.000000
G1 X19.626262 Y20.045901 F200.000000
G1 X19.672622 Y20.093277 F200.000000
G1 X19.727352 Y20.130671 F200.000000
G1 X19.753307 Y20.175729 F200.000000
G1 X19.789676 Y20.212894 F200.000000
G1 X19.906516 Y20.403394 F200.000000
G1 X19.915158 Y20.428978 F200.000000
G1 X19.931994 Y20.450090 F200.000000
G1 X19.952212 Y20.538672 F200.000000
G1 X19.981291 Y20.624753 F200.000000
G1 X19.977977 Y20.651552 F200.000000
G1 X19.983986 Y20.677879 F200.000000
G1 Y21.058879 F200.000000
G1 X19.977977 Y21.085206 F200.000000
G1 X19.981291 Y21.112005 F200.000000
G1 X19.952212 Y21.198086 F200.000000
G1 X19.931994 Y21.286668 F200.000000
G1 X19.915158 Y21.307780 F200.000000
G1 X19.906516 Y21.333364 F200.000000
G0 Z0.500000
G0 X75.339565 Y25.540657
G1 Z-0.040000 F60.000000
G1 X75.593295 Y25.858826 F200.000000
G1 X76.024336 Y26.066404 F200.000000
G1 X76.502756 F200.000000
G1 X76.933797 Y25.858826 F200.000000
G1 X77.232086 Y25.484782 F200.000000
G1 X77.338545 Y25.018358 F200.000000
G1 Y24.018360 F200.000000
G1 X77.232086 Y23.551936 F200.000000
G1 X76.933797 Y23.177892 F200.000000
G1 X76.502756 Y22.970314 F200.000000
G1 X76.024336 F200.000000
G1 X75.593295 Y23.177892 F200.000000
G1 X75.295006 Y23.551936 F200.000000
G1 X75.235526 Y23.812535 F200.000000
G1 X75.233106 Y23.801935 F200.000000
G1 X74.934817 Y23.427892 F200.000000
G1 X74.503776 Y23.220313 F200.000000
G1 X74.025356 F200.000000
G1 X73.594315 Y23.427892 F200.000000
G1 X73.296026 Y23.801935 F200.000000
G1 X73.263806 Y23.943099 F200.000000
G1 X73.231586 Y23.801935 F200.000000
G1 X72.933297 Y23.427892 F200.000000
G1 X72.502256 Y23.220313 F200.000000
G1 X72.023836 F200.000000
G1 X71.592795 Y23.427892 F200.000000
G1 X71.294506 Y23.801935 F200.000000
G1 X71.263556 Y23.937535 F200.000000
G1 X71.232606 Y23.801935 F200.000000
G1 X70.934317 Y23.427892 F200.000000
G1 X70.503276 Y23.220313 F200.000000
G1 X70.024856 F200.000000
G1 X69.593815 Y23.427892 F200.000000
G1 X69.295526 Y23.801935 F200.000000
G1 X69.293106 Y23.812535 F200.000000
G1 X69.233626 Y23.551936 F200.000000
G1 X68.935337 Y23.177892 F200.000000
G1 X68.504296 Y22.970314 F200.000000
G1 X68.219369 F200.000000
G0 Z0.500000
G0 X72.925639 Y25.612514
G1 Z-0.040000 F60.000000
G1 X72.933297 Y25.608826 F200.000000
G1 X73.189568 Y25.287473 F200.000000
G0 Z0.500000
G0 X67.195637 Y23.994045
G1 Z-0.040000 F60.000000
G1 X67.190088 Y24.018360 F200.000000
G1 X67.190088 Y25.018358 F200.000000
G1 X67.190088 F200.000000
G1 X67.296546 Y25.484782 F200.000000
G1 X67.594835 Y25.858826 F200.000000
G1 X68.025876 Y26.066404 F200.000000
G1 X68.504296 F200.000000
G1 X68.935337 Y25.858826 F200.000000
G1 X69.233626 Y25.484782 F200.000000
G1 X69.293106 Y25.224183 F200.000000
G1 X69.295526 Y25.234783 F200.000000
G1 X69.593815 Y25.608826 F200.000000
G1 X70.024856 Y25.816405 F200.000000
G1 X70.503276 F200.000000
G1 X70.553048 Y25.792436 F200.000000
G0 Z0.500000
G0 X58.479045 Y26.862920
G1 Z-0.040000 F60.000000
G1 Y31.063361 F200.000000
G1 X59.258049 F200.000000
G1 Y28.023362 F200.000000
G1 X59.758048 F200.000000
G1 Y26.862920 F200.000000
G0 Z0.500000
G0 X61.908045 Y26.862920
G1 Z-0.040000 F60.000000
G1 Y28.023362 F200.000000
G1 X62.408044 F200.000000
G1 Y28.523361 F200.000000
G1 X65.913046 F200.000000
G1 X66.379470 Y28.629819 F200.000000
G1 X66.753514 Y28.928108 F200.000000
G1 X66.961092 Y29.359149 F200.000000
G1 Y29.837569 F200.000000
G1 X66.753514 Y30.268610 F200.000000
G1 X66.379470 Y30.566899 F200.000000
G1 X65.913046 Y30.673358 F200.000000
G1 X62.408044 F200.000000
G1 Y31.063361 F200.000000
G1 X66.737767 F200.000000
G1 X68.962907 Y28.838220 F200.000000
G1 X68.963219 Y28.838025 F200.000000
G1 X68.963415 Y28.837713 F200.000000
G1 X70.553048 Y27.250200 F200.000000
G1 Y25.792436 F200.000000
G0 Z0.500000
G0 X32.067793 Y53.528308
G1 Z-0.040000 F60.000000
G1 X31.864926 Y53.430612 F200.000000
G1 X31.381166 F200.000000
G1 X30.945313 Y53.640508 F200.000000
G1 X30.643693 Y54.018727 F200.000000
G1 X30.536046 Y54.490359 F200.000000
G1 X30.536046 Y55.506359 F200.000000
G1 X30.536046 F200.000000
G1 X30.643693 Y55.977991 F200.000000
G1 X30.945313 Y56.356210 F200.000000
G1 X31.381166 Y56.566106 F200.000000
G1 X31.864926 F200.000000
G1 X32.300779 Y56.356210 F200.000000
G1 X32.602399 Y55.977991 F200.000000
G1 X32.710046 Y55.506359 F200.000000
G1 Y54.936663 F200.000000
G0 Z0.500000
G0 X28.367186 Y53.688317
G1 Z-0.040000 F60.000000
G1 X28.103693 Y54.018727 F200.000000
G1 X27.996046 Y54.490359 F200.000000
G1 X27.996046 Y55.506359 F200.000000
G1 X27.996046 F200.000000
G1 X28.103693 Y55.977991 F200.000000
G1 X28.405313 Y56.356210 F200.000000
G1 X28.841166 Y56.566106 F200.000000
G1 X29.324926 F200.000000
G1 X29.760779 Y56.356210 F200.000000
G1 X30.062399 Y55.977991 F200.000000
G1 X30.170046 Y55.506359 F200.000000
G1 Y54.490359 F200.000000
G1 X30.062399 Y54.018727 F200.000000
G1 X29.953960 Y53.882749 F200.000000
G0 Z0.500000
G0 X25.827186 Y53.688317
G1 Z-0.040000 F60.000000
G1 X25.563693 Y54.018727 F200.000000
G1 X25.456046 Y54.490359 F200.000000
G1 X25.456046 Y55.506359 F200.000000
G1 X25.456046 F200.000000
G1 X25.563693 Y55.977991 F200.000000
G1 X25.865313 Y56.356210 F200.000000
G1 X26.301166 Y56.566106 F200.000000
G1 X26.784926 F200.000000
G1 X27.220779 Y56.356210 F200.000000
G1 X27.522399 Y55.977991 F200.000000
G1 X27.630046 Y55.506359 F200.000000
G1 Y54.490359 F200.000000
G1 X27.522399 Y54.018727 F200.000000
G1 X27.413960 Y53.882749 F200.000000
G0 Z0.500000
G0 X23.287186 Y53.688317
G1 Z-0.040000 F60.000000
G1 X23.023693 Y54.018727 F200.000000
G1 X22.916046 Y54.490359 F200.000000
G1 X22.916046 Y55.506359 F200.000000
G1 X22.916046 F200.000000
G1 X23.023693 Y55.977991 F200.000000
G1 X23.325313 Y56.356210 F200.000000
G1 X23.761166 Y56.566106 F200.000000
G1 X24.244926 F200.000000
G1 X24.680779 Y56.356210 F200.000000
G1 X24.982399 Y55.977991 F200.000000
G1 X25.090046 Y55.506359 F200.000000
G1 Y54.490359 F200.000000
G1 X24.982399 Y54.018727 F200.000000
G1 X24.873960 Y53.882749 F200.000000
G0 Z0.500000
G0 X20.747186 Y53.688317
G1 Z-0.040000 F60.000000
G1 X20.483693 Y54.018727 F200.000000
G1 X20.376046 Y54.490359 F200.000000
G1 X20.376046 Y55.506359 F200.000000
G1 X20.376046 F200.000000
G1 X20.483693 Y55.977991 F200.000000
G1 X20.785313 Y56.356210 F200.000000
G1 X21.221166 Y56.566106 F200.000000
G1 X21.704926 F200.000000
G1 X22.140779 Y56.356210 F200.000000
G1 X22.442399 Y55.977991 F200.000000
G1 X22.550046 Y55.506359 F200.000000
G1 Y54.490359 F200.000000
G1 X22.442399 Y54.018727 F200.000000
G1 X22.333960 Y53.882749 F200.000000
G0 Z0.500000
G0 X18.207186 Y53.688317
G1 Z-0.040000 F60.000000
G1 X17.943693 Y54.018727 F200.000000
G1 X17.836046 Y54.490359 F200.000000
G1 X17.836046 Y55.506359 F200.000000
G1 X17.836046 F200.000000
G1 X17.943693 Y55.977991 F200.000000
G1 X18.245313 Y56.356210 F200.000000
G1 X18.681166 Y56.566106 F200.000000
G1 X19.164926 F200.000000
G1 X19.600779 Y56.356210 F200.000000
G1 X19.902399 Y55.977991 F200.000000
G1 X20.010046 Y55.506359 F200.000000
G1 Y54.490359 F200.000000
G1 X19.902399 Y54.018727 F200.000000
G1 X19.793960 Y53.882749 F200.000000
G0 Z0.500000
G0 X15.658047 Y53.699778
G1 Z-0.040000 F60.000000
G1 X15.403693 Y54.018727 F200.000000
G1 X15.296046 Y54.490359 F200.000000
G1 X15.296046 Y55.506359 F200.000000
G1 X15.296046 F200.000000
G1 X15.403693 Y55.977991 F200.000000
G1 X15.705313 Y56.356210 F200.000000
G1 X16.141166 Y56.566106 F200.000000
G1 X16.624926 F200.000000
G1 X17.060779 Y56.356210 F200.000000
G1 X17.362399 Y55.977991 F200.000000
G1 X17.470046 Y55.506359 F200.000000
G1 Y54.490359 F200.000000
G1 X17.362399 Y54.018727 F200.000000
G1 X17.108045 Y53.699778 F200.000000
G0 Z0.500000
G0 X13.118047 Y53.699778
G1 Z-0.040000 F60.000000
G1 X12.863693 Y54.018727 F200.000000
G1 X12.756046 Y54.490359 F200.000000
G1 X12.756046 Y55.506359 F200.000000
G1 X12.756046 F200.000000
G1 X12.863693 Y55.977991 F200.000000
G1 X13.165313 Y56.356210 F200.000000
G1 X13.601166 Y56.566106 F200.000000
G1 X14.084926 F200.000000
G1 X14.520779 Y56.356210 F200.000000
G1 X14.822399 Y55.977991 F200.000000
G1 X14.930046 Y55.506359 F200.000000
G1 Y54.490359 F200.000000
G1 X14.822399 Y54.018727 F200.000000
G1 X14.568045 Y53.699778 F200.000000
G0 Z0.500000
G0 X7.676046 Y7.246359
G1 Z-0.040000 F60.000000
G1 X7.676046 F200.000000
G1 X7.783693 Y7.717991 F200.000000
G1 X8.085313 Y8.096210 F200.000000
G1 X8.521166 Y8.306106 F200.000000
G1 X9.004926 F200.000000
G1 X9.440779 Y8.096210 F200.000000
G1 X9.742399 Y7.717991 F200.000000
G1 X9.850046 Y7.246359 F200.000000
G1 Y6.230359 F200.000000
G1 X9.742399 Y5.758727 F200.000000
G1 X9.440779 Y5.380508 F200.000000
G1 X9.004926 Y5.170612 F200.000000
G1 X8.521166 F200.000000
G1 X8.085313 Y5.380508 F200.000000
G1 X7.783693 Y5.758727 F200.000000
G1 X7.676046 Y6.230359 F200.000000
G1 X7.676046 Y7.246359 F200.000000
G0 Z0.500000
G0 X10.216046
G1 Z-0.040000 F60.000000
G1 X10.216046 F200.000000
G1 X10.323693 Y7.717991 F200.000000
G1 X10.625313 Y8.096210 F200.000000
G1 X11.061166 Y8.306106 F200.000000
G1 X11.544926 F200.000000
G1 X11.980779 Y8.096210 F200.000000
G1 X12.282399 Y7.717991 F200.000000
G1 X12.390046 Y7.246359 F200.000000
G1 Y6.230359 F200.000000
G1 X12.282399 Y5.758727 F200.000000
G1 X11.980779 Y5.380508 F200.000000
G1 X11.544926 Y5.170612 F200.000000
G1 X11.061166 F200.000000
G1 X10.625313 Y5.380508 F200.000000
G1 X10.323693 Y5.758727 F200.000000
G1 X10.216046 Y6.230359 F200.000000
G1 X10.216046 Y7.246359 F200.000000
G0 Z0.500000
G0 X12.756046
G1 Z-0.040000 F60.000000
G1 X12.756046 F200.000000
G1 X12.863693 Y7.717991 F200.000000
G1 X13.165313 Y8.096210 F200.000000
G1 X13.601166 Y8.306106 F200.000000
G1 X14.084926 F200.000000
G1 X14.520779 Y8.096210 F200.000000
G1 X14.822399 Y7.717991 F200.000000
G1 X14.930046 Y7.246359 F200.000000
G1 Y6.230359 F200.000000
G1 X14.822399 Y5.758727 F200.000000
G1 X14.520779 Y5.380508 F200.000000
G1 X14.084926 Y5.170612 F200.000000
G1 X13.601166 F200.000000
G1 X13.165313 Y5.380508 F200.000000
G1 X12.863693 Y5.758727 F200.000000
G1 X12.756046 Y6.230359 F200.000000
G1 X12.756046 Y7.246359 F200.000000
G0 Z0.500000
G0 X15.296046
G1 Z-0.040000 F60.000000
G1 X15.296046 F200.000000
G1 X15.403693 Y7.717991 F200.000000
G1 X15.705313 Y8.096210 F200.000000
G1 X16.141166 Y8.306106 F200.000000
G1 X16.624926 F200.000000
G1 X17.060779 Y8.096210 F200.000000
G1 X17.362399 Y7.717991 F200.000000
G1 X17.470046 Y7.246359 F200.000000
G1 Y6.230359 F200.000000
G1 X17.362399 Y5.758727 F200.000000
G1 X17.060779 Y5.380508 F200.000000
G1 X16.624926 Y5.170612 F200.000000
G1 X16.141166 F200.000000
G1 X15.705313 Y5.380508 F200.000000
G1 X15.403693 Y5.758727 F200.000000
G1 X15.296046 Y6.230359 F200.000000
G1 X15.296046 Y7.246359 F200.000000
G0 Z0.500000
G0 X27.630046 Y6.800055
G1 Z-0.040000 F60.000000
G1 Y6.230359 F200.000000
G1 X27.522399 Y5.758727 F200.000000
G1 X27.220779 Y5.380508 F200.000000
G1 X26.784926 Y5.170612 F200.000000
G1 X26.301166 F200.000000
G1 X25.865313 Y5.380508 F200.000000
G1 X25.563693 Y5.758727 F200.000000
G1 X25.456046 Y6.230359 F200.000000
G1 X25.456046 Y7.246359 F200.000000
G1 X25.456046 F200.000000
G1 X25.563693 Y7.717991 F200.000000
G1 X25.865313 Y8.096210 F200.000000
G1 X26.301166 Y8.306106 F200.000000
G1 X26.453047 F200.000000
G0 Z0.500000
G0 X31.178299 Y8.208410
G1 Z-0.040000 F60.000000
G1 X31.381166 Y8.306106 F200.000000
G1 X31.864926 F200.000000
G1 X32.300779 Y8.096210 F200.000000
G1 X32.602399 Y7.717991 F200.000000
G1 X32.710046 Y7.246359 F200.000000
G1 Y6.230359 F200.000000
G1 X32.602399 Y5.758727 F200.000000
G1 X32.300779 Y5.380508 F200.000000
G1 X31.864926 Y5.170612 F200.000000
G1 X31.381166 F200.000000
G1 X30.945313 Y5.380508 F200.000000
G1 X30.643693 Y5.758727 F200.000000
G1 X30.536046 Y6.230359 F200.000000
G1 Y6.388359 F200.000000
G0 Z0.500000
G0 X34.878906 Y8.048401
G1 Z-0.040000 F60.000000
G1 X35.142399 Y7.717991 F200.000000
G1 X35.250046 Y7.246359 F200.000000
G1 Y6.230359 F200.000000
G1 X35.142399 Y5.758727 F200.000000
G1 X34.840779 Y5.380508 F200.000000
G1 X34.404926 Y5.170612 F200.000000
G1 X33.921166 F200.000000
G1 X33.485313 Y5.380508 F200.000000
G1 X33.183693 Y5.758727 F200.000000
G1 X33.076046 Y6.230359 F200.000000
G1 X33.076046 Y7.246359 F200.000000
G1 X33.076046 F200.000000
G1 X33.183693 Y7.717991 F200.000000
G1 X33.292132 Y7.853969 F200.000000
G0 Z0.500000
G0 X24.728045 Y8.036940
G1 Z-0.040000 F60.000000
G1 X24.982399 Y7.717991 F200.000000
G1 X25.090046 Y7.246359 F200.000000
G1 Y6.230359 F200.000000
G1 X24.982399 Y5.758727 F200.000000
G1 X24.680779 Y5.380508 F200.000000
G1 X24.244926 Y5.170612 F200.000000
G1 X23.761166 F200.000000
G1 X23.325313 Y5.380508 F200.000000
G1 X23.023693 Y5.758727 F200.000000
G1 X22.916046 Y6.230359 F200.000000
G1 X22.916046 Y7.246359 F200.000000
G1 X22.916046 F200.000000
G1 X23.023693 Y7.717991 F200.000000
G1 X23.278047 Y8.036940 F200.000000
G0 Z0.500000
G0 X20.376046 Y7.246359
G1 Z-0.040000 F60.000000
G1 X20.376046 F200.000000
G1 X20.483693 Y7.717991 F200.000000
G1 X20.785313 Y8.096210 F200.000000
G1 X21.221166 Y8.306106 F200.000000
G1 X21.704926 F200.000000
G1 X22.140779 Y8.096210 F200.000000
G1 X22.442399 Y7.717991 F200.000000
G1 X22.550046 Y7.246359 F200.000000
G1 Y6.230359 F200.000000
G1 X22.442399 Y5.758727 F200.000000
G1 X22.140779 Y5.380508 F200.000000
G1 X21.704926 Y5.170612 F200.000000
G1 X21.221166 F200.000000
G1 X20.785313 Y5.380508 F200.000000
G1 X20.483693 Y5.758727 F200.000000
G1 X20.376046 Y6.230359 F200.000000
G1 X20.376046 Y7.246359 F200.000000
G0 Z0.500000
G0 X17.836046
G1 Z-0.040000 F60.000000
G1 X17.836046 F200.000000
G1 X17.943693 Y7.717991 F200.000000
G1 X18.245313 Y8.096210 F200.000000
G1 X18.681166 Y8.306106 F200.000000
G1 X19.164926 F200.000000
G1 X19.600779 Y8.096210 F200.000000
G1 X19.902399 Y7.717991 F200.000000
G1 X20.010046 Y7.246359 F200.000000
G1 Y6.230359 F200.000000
G1 X19.902399 Y5.758727 F200.000000
G1 X19.600779 Y5.380508 F200.000000
G1 X19.164926 Y5.170612 F200.000000
G1 X18.681166 F200.000000
G1 X18.245313 Y5.380508 F200.000000
G1 X17.943693 Y5.758727 F200.000000
G1 X17.836046 Y6.230359 F200.000000
G1 X17.836046 Y7.246359 F200.000000
G0 Z0.500000
G0 X37.428045 Y8.036940
G1 Z-0.040000 F60.000000
G1 X37.682399 Y7.717991 F200.000000
G1 X37.790046 Y7.246359 F200.000000
G1 Y6.230359 F200.000000
G1 X37.682399 Y5.758727 F200.000000
G1 X37.380779 Y5.380508 F200.000000
G1 X36.944926 Y5.170612 F200.000000
G1 X36.461166 F200.000000
G1 X36.025313 Y5.380508 F200.000000
G1 X35.723693 Y5.758727 F200.000000
G1 X35.616046 Y6.230359 F200.000000
G1 X35.616046 Y7.246359 F200.000000
G1 X35.616046 F200.000000
G1 X35.723693 Y7.717991 F200.000000
G1 X35.978047 Y8.036940 F200.000000
G0 Z0.500000
G0 X39.968045 Y8.036940
G1 Z-0.040000 F60.000000
G1 X40.222399 Y7.717991 F200.000000
G1 X40.330046 Y7.246359 F200.000000
G1 Y6.230359 F200.000000
G1 X40.222399 Y5.758727 F200.000000
G1 X39.920779 Y5.380508 F200.000000
G1 X39.484926 Y5.170612 F200.000000
G1 X39.001166 F200.000000
G1 X38.565313 Y5.380508 F200.000000
G1 X38.263693 Y5.758727 F200.000000
G1 X38.156046 Y6.230359 F200.000000
G1 X38.156046 Y7.246359 F200.000000
G1 X38.156046 F200.000000
G1 X38.263693 Y7.717991 F200.000000
G1 X38.518047 Y8.036940 F200.000000
G0 Z0.500000
G0 X42.508045 Y8.036940
G1 Z-0.040000 F60.000000
G1 X42.762399 Y7.717991 F200.000000
G1 X42.870046 Y7.246359 F200.000000
G1 Y6.230359 F200.000000
G1 X42.762399 Y5.758727 F200.000000
G1 X42.460779 Y5.380508 F200.000000
G1 X42.024926 Y5.170612 F200.000000
G1 X41.541166 F200.000000
G1 X41.105313 Y5.380508 F200.000000
G1 X40.803693 Y5.758727 F200.000000
G1 X40.696046 Y6.230359 F200.000000
G1 X40.696046 Y7.246359 F200.000000
G1 X40.696046 F200.000000
G1 X40.803693 Y7.717991 F200.000000
G1 X41.058047 Y8.036940 F200.000000
G0 Z0.500000
G0 X50.128045 Y8.036940
G1 Z-0.040000 F60.000000
G1 X50.382399 Y7.717991 F200.000000
G1 X50.490046 Y7.246359 F200.000000
G1 Y6.230359 F200.000000
G1 X50.382399 Y5.758727 F200.000000
G1 X50.080779 Y5.380508 F200.000000
G1 X49.644926 Y5.170612 F200.000000
G1 X49.161166 F200.000000
G1 X48.725313 Y5.380508 F200.000000
G1 X48.423693 Y5.758727 F200.000000
G1 X48.316046 Y6.230359 F200.000000
G1 X48.316046 Y7.246359 F200.000000
G1 X48.316046 F200.000000
G1 X48.423693 Y7.717991 F200.000000
G1 X48.678047 Y8.036940 F200.000000
G0 Z0.500000
G0 X47.588045 Y8.036940
G1 Z-0.040000 F60.000000
G1 X47.842399 Y7.717991 F200.000000
G1 X47.950046 Y7.246359 F200.000000
G1 Y6.230359 F200.000000
G1 X47.842399 Y5.758727 F200.000000
G1 X47.540779 Y5.380508 F200.000000
G1 X47.104926 Y5.170612 F200.000000
G1 X46.621166 F200.000000
G1 X46.185313 Y5.380508 F200.000000
G1 X45.883693 Y5.758727 F200.000000
G1 X45.776046 Y6.230359 F200.000000
G1 X45.776046 Y7.246359 F200.000000
G1 X45.776046 F200.000000
G1 X45.883693 Y7.717991 F200.000000
G1 X46.138047 Y8.036940 F200.000000
G0 Z0.500000
G0 X45.048045 Y8.036940
G1 Z-0.040000 F60.000000
G1 X45.302399 Y7.717991 F200.000000
G1 X45.410046 Y7.246359 F200.000000
G1 Y6.230359 F200.000000
G1 X45.302399 Y5.758727 F200.000000
G1 X45.000779 Y5.380508 F200.000000
G1 X44.564926 Y5.170612 F200.000000
G1 X44.081166 F200.000000
G1 X43.645313 Y5.380508 F200.000000
G1 X43.343693 Y5.758727 F200.000000
G1 X43.236046 Y6.230359 F200.000000
G1 X43.236046 Y7.246359 F200.000000
G1 X43.236046 F200.000000
G1 X43.343693 Y7.717991 F200.000000
G1 X43.598047 Y8.036940 F200.000000
G0 Z0.500000
G0 X53.396046 Y7.246359
G1 Z-0.040000 F60.000000
G1 X53.396046 F200.000000
G1 X53.503693 Y7.717991 F200.000000
G1 X53.805313 Y8.096210 F200.000000
G1 X54.241166 Y8.306106 F200.000000
G1 X54.724926 F200.000000
G1 X55.160779 Y8.096210 F200.000000
G1 X55.462399 Y7.717991 F200.000000
G1 X55.570046 Y7.246359 F200.000000
G1 Y6.230359 F200.000000
G1 X55.462399 Y5.758727 F200.000000
G1 X55.160779 Y5.380508 F200.000000
G1 X54.724926 Y5.170612 F200.000000
G1 X54.241166 F200.000000
G1 X53.805313 Y5.380508 F200.000000
G1 X53.503693 Y5.758727 F200.000000
G1 X53.396046 Y6.230359 F200.000000
G1 X53.396046 Y7.246359 F200.000000
G0 Z0.500000
G0 X57.926347 Y5.663361
G1 Z-0.040000 F60.000000
G1 X57.700779 Y5.380508 F200.000000
G1 X57.264926 Y5.170612 F200.000000
G1 X56.781166 F200.000000
G1 X56.345313 Y5.380508 F200.000000
G1 X56.043693 Y5.758727 F200.000000
G1 X55.936046 Y6.230359 F200.000000
G1 X55.936046 Y7.246359 F200.000000
G1 X55.936046 F200.000000
G1 X56.043693 Y7.717991 F200.000000
G1 X56.345313 Y8.096210 F200.000000
G1 X56.781166 Y8.306106 F200.000000
G1 X57.218048 F200.000000
G0 Z0.500000
G0 X59.368045
G1 Z-0.040000 F60.000000
G1 X59.804926 F200.000000
G1 X60.240779 Y8.096210 F200.000000
G1 X60.542399 Y7.717991 F200.000000
G1 X60.650046 Y7.246359 F200.000000
G1 Y6.230359 F200.000000
G1 X60.542399 Y5.758727 F200.000000
G1 X60.240779 Y5.380508 F200.000000
G1 X59.804926 Y5.170612 F200.000000
G1 X59.321166 F200.000000
G1 X58.885313 Y5.380508 F200.000000
G1 X58.659745 Y5.663361 F200.000000
G0 Z0.500000
G0 X63.556046 Y7.246359
G1 Z-0.040000 F60.000000
G1 X63.556046 F200.000000
G1 X63.663693 Y7.717991 F200.000000
G1 X63.965313 Y8.096210 F200.000000
G1 X64.401166 Y8.306106 F200.000000
G1 X64.884926 F200.000000
G1 X65.320779 Y8.096210 F200.000000
G1 X65.622399 Y7.717991 F200.000000
G1 X65.730046 Y7.246359 F200.000000
G1 Y6.230359 F200.000000
G1 X65.622399 Y5.758727 F200.000000
G1 X65.320779 Y5.380508 F200.000000
G1 X64.884926 Y5.170612 F200.000000
G1 X64.401166 F200.000000
G1 X63.965313 Y5.380508 F200.000000
G1 X63.663693 Y5.758727 F200.000000
G1 X63.556046 Y6.230359 F200.000000
G1 X63.556046 Y7.246359 F200.000000
G0 Z0.500000
G0 X68.270046 Y6.800055
G1 Z-0.040000 F60.000000
G1 Y6.230359 F200.000000
G1 X68.162399 Y5.758727 F200.000000
G1 X67.860779 Y5.380508 F200.000000
G1 X67.424926 Y5.170612 F200.000000
G1 X66.941166 F200.000000
G1 X66.505313 Y5.380508 F200.000000
G1 X66.203693 Y5.758727 F200.000000
G1 X66.096046 Y6.230359 F200.000000
G1 X66.096046 Y7.246359 F200.000000
G1 X66.096046 F200.000000
G1 X66.203693 Y7.717991 F200.000000
G1 X66.505313 Y8.096210 F200.000000
G1 X66.941166 Y8.306106 F200.000000
G1 X67.424926 F200.000000
G1 X67.627793 Y8.208410 F200.000000
G0 Z0.500000
G0 X40.912132 Y53.882749
G1 Z-0.040000 F60.000000
G1 X40.803693 Y54.018727 F200.000000
G1 X40.696046 Y54.490359 F200.000000
G1 X40.696046 Y55.506359 F200.000000
G1 X40.696046 F200.000000
G1 X40.803693 Y55.977991 F200.000000
G1 X41.105313 Y56.356210 F200.000000
G1 X41.541166 Y56.566106 F200.000000
G1 X42.024926 F200.000000
G1 X42.460779 Y56.356210 F200.000000
G1 X42.762399 Y55.977991 F200.000000
G1 X42.870046 Y55.506359 F200.000000
G1 Y54.490359 F200.000000
G1 X42.762399 Y54.018727 F200.000000
G1 X42.498906 Y53.688317 F200.000000
G0 Z0.500000
G0 X43.452132 Y53.882749
G1 Z-0.040000 F60.000000
G1 X43.343693 Y54.018727 F200.000000
G1 X43.236046 Y54.490359 F200.000000
G1 X43.236046 Y55.506359 F200.000000
G1 X43.236046 F200.000000
G1 X43.343693 Y55.977991 F200.000000
G1 X43.645313 Y56.356210 F200.000000
G1 X44.081166 Y56.566106 F200.000000
G1 X44.564926 F200.000000
G1 X45.000779 Y56.356210 F200.000000
G1 X45.302399 Y55.977991 F200.000000
G1 X45.410046 Y55.506359 F200.000000
G1 Y54.490359 F200.000000
G1 X45.302399 Y54.018727 F200.000000
G1 X45.038906 Y53.688317 F200.000000
G0 Z0.500000
G0 X45.992132 Y53.882749
G1 Z-0.040000 F60.000000
G1 X45.883693 Y54.018727 F200.000000
G1 X45.776046 Y54.490359 F200.000000
G1 X45.776046 Y55.506359 F200.000000
G1 X45.776046 F200.000000
G1 X45.883693 Y55.977991 F200.000000
G1 X46.185313 Y56.356210 F200.000000
G1 X46.621166 Y56.566106 F200.000000
G1 X47.104926 F200.000000
G1 X47.540779 Y56.356210 F200.000000
G1 X47.842399 Y55.977991 F200.000000
G1 X47.950046 Y55.506359 F200.000000
G1 Y54.490359 F200.000000
G1 X47.842399 Y54.018727 F200.000000
G1 X47.578906 Y53.688317 F200.000000
G0 Z0.500000
G0 X48.532132 Y53.882749
G1 Z-0.040000 F60.000000
G1 X48.423693 Y54.018727 F200.000000
G1 X48.316046 Y54.490359 F200.000000
G1 X48.316046 Y55.506359 F200.000000
G1 X48.316046 F200.000000
G1 X48.423693 Y55.977991 F200.000000
G1 X48.725313 Y56.356210 F200.000000
G1 X49.161166 Y56.566106 F200.000000
G1 X49.644926 F200.000000
G1 X50.080779 Y56.356210 F200.000000
G1 X50.382399 Y55.977991 F200.000000
G1 X50.490046 Y55.506359 F200.000000
G1 Y54.490359 F200.000000
G1 X50.382399 Y54.018727 F200.000000
G1 X50.118906 Y53.688317 F200.000000
G0 Z0.500000
G0 X51.072132 Y53.882749
G1 Z-0.040000 F60.000000
G1 X50.963693 Y54.018727 F200.000000
G1 X50.856046 Y54.490359 F200.000000
G1 X50.856046 Y55.506359 F200.000000
G1 X50.856046 F200.000000
G1 X50.963693 Y55.977991 F200.000000
G1 X51.265313 Y56.356210 F200.000000
G1 X51.701166 Y56.566106 F200.000000
G1 X52.184926 F200.000000
G1 X52.620779 Y56.356210 F200.000000
G1 X52.922399 Y55.977991 F200.000000
G1 X53.030046 Y55.506359 F200.000000
G1 Y54.490359 F200.000000
G1 X52.922399 Y54.018727 F200.000000
G1 X52.658906 Y53.688317 F200.000000
G0 Z0.500000
G0 X53.758047 Y53.699778
G1 Z-0.040000 F60.000000
G1 X53.503693 Y54.018727 F200.000000
G1 X53.396046 Y54.490359 F200.000000
G1 X53.396046 Y55.506359 F200.000000
G1 X53.396046 F200.000000
G1 X53.503693 Y55.977991 F200.000000
G1 X53.805313 Y56.356210 F200.000000
G1 X54.241166 Y56.566106 F200.000000
G1 X54.724926 F200.000000
G1 X55.160779 Y56.356210 F200.000000
G1 X55.462399 Y55.977991 F200.000000
G1 X55.570046 Y55.506359 F200.000000
G1 Y54.490359 F200.000000
G1 X55.462399 Y54.018727 F200.000000
G1 X55.208045 Y53.699778 F200.000000
G0 Z0.500000
G0 X57.722047 Y53.825173
G1 Z-0.040000 F60.000000
G1 X57.567693 Y54.018727 F200.000000
G1 X57.460046 Y54.490359 F200.000000
G1 X57.460046 Y55.506359 F200.000000
G1 X57.460046 F200.000000
G1 X57.567693 Y55.977991 F200.000000
G1 X57.869313 Y56.356210 F200.000000
G1 X58.305166 Y56.566106 F200.000000
G1 X58.788926 F200.000000
G1 X59.224779 Y56.356210 F200.000000
G1 X59.526399 Y55.977991 F200.000000
G1 X59.634046 Y55.506359 F200.000000
G1 Y54.490359 F200.000000
G1 X59.526399 Y54.018727 F200.000000
G1 X59.372045 Y53.825173 F200.000000
G0 Z0.500000
G0 X60.362047 Y53.699778
G1 Z-0.040000 F60.000000
G1 X60.107693 Y54.018727 F200.000000
G1 X60.000046 Y54.490359 F200.000000
G1 X60.000046 Y55.506359 F200.000000
G1 X60.000046 F200.000000
G1 X60.107693 Y55.977991 F200.000000
G1 X60.409313 Y56.356210 F200.000000
G1 X60.845166 Y56.566106 F200.000000
G1 X61.328926 F200.000000
G1 X61.764779 Y56.356210 F200.000000
G1 X62.066399 Y55.977991 F200.000000
G1 X62.174046 Y55.506359 F200.000000
G1 Y54.490359 F200.000000
G1 X62.066399 Y54.018727 F200.000000
G1 X61.812045 Y53.699778 F200.000000
G0 Z0.500000
G0 X62.902047 Y53.699778
G1 Z-0.040000 F60.000000
G1 X62.647693 Y54.018727 F200.000000
G1 X62.540046 Y54.490359 F200.000000
G1 X62.540046 Y55.506359 F200.000000
G1 X62.540046 F200.000000
G1 X62.647693 Y55.977991 F200.000000
G1 X62.949313 Y56.356210 F200.000000
G1 X63.385166 Y56.566106 F200.000000
G1 X63.868926 F200.000000
G1 X64.304779 Y56.356210 F200.000000
G1 X64.606399 Y55.977991 F200.000000
G1 X64.714046 Y55.506359 F200.000000
G1 Y54.490359 F200.000000
G1 X64.606399 Y54.018727 F200.000000
G1 X64.352045 Y53.699778 F200.000000
G0 Z0.500000
G0 X65.442047
G1 Z-0.040000 F60.000000
G1 X65.187693 Y54.018727 F200.000000
G1 X65.080046 Y54.490359 F200.000000
G1 X65.080046 Y55.506359 F200.000000
G1 X65.080046 F200.000000
G1 X65.187693 Y55.977991 F200.000000
G1 X65.489313 Y56.356210 F200.000000
G1 X65.925166 Y56.566106 F200.000000
G1 X66.408926 F200.000000
G1 X66.844779 Y56.356210 F200.000000
G1 X67.146399 Y55.977991 F200.000000
G1 X67.254046 Y55.506359 F200.000000
G1 Y54.490359 F200.000000
G1 X67.146399 Y54.018727 F200.000000
G1 X66.892045 Y53.699778 F200.000000
G0 Z0.500000
G0 X67.982047
G1 Z-0.040000 F60.000000
G1 X67.727693 Y54.018727 F200.000000
G1 X67.620046 Y54.490359 F200.000000
G1 X67.620046 Y55.506359 F200.000000
G1 X67.620046 F200.000000
G1 X67.727693 Y55.977991 F200.000000
G1 X68.029313 Y56.356210 F200.000000
G1 X68.465166 Y56.566106 F200.000000
G1 X68.948926 F200.000000
G1 X69.384779 Y56.356210 F200.000000
G1 X69.686399 Y55.977991 F200.000000
G1 X69.794046 Y55.506359 F200.000000
G1 Y54.490359 F200.000000
G1 X69.686399 Y54.018727 F200.000000
G1 X69.432045 Y53.699778 F200.000000
G0 Z0.500000
G0 X70.160046 Y55.506359
G1 Z-0.040000 F60.000000
G1 X70.160046 F200.000000
G1 X70.267693 Y55.977991 F200.000000
G1 X70.569313 Y56.356210 F200.000000
G1 X71.005166 Y56.566106 F200.000000
G1 X71.488926 F200.000000
G1 X71.924779 Y56.356210 F200.000000
G1 X72.226399 Y55.977991 F200.000000
G1 X72.334046 Y55.506359 F200.000000
G1 Y54.490359 F200.000000
G1 X72.226399 Y54.018727 F200.000000
G1 X71.924779 Y53.640508 F200.000000
G1 X71.488926 Y53.430612 F200.000000
G1 X71.005166 F200.000000
G1 X70.569313 Y53.640508 F200.000000
G1 X70.267693 Y54.018727 F200.000000
G1 X70.160046 Y54.490359 F200.000000
G1 X70.160046 Y55.506359 F200.000000
G0 Z0.500000
G0 X72.712048 Y54.437777
G1 Z-0.040000 F60.000000
G1 X72.700046 Y54.490359 F200.000000
G1 X72.700046 Y55.506359 F200.000000
G1 X72.700046 F200.000000
G1 X72.807693 Y55.977991 F200.000000
G1 X73.109313 Y56.356210 F200.000000
G1 X73.545166 Y56.566106 F200.000000
G1 X74.028926 F200.000000
G1 X74.464779 Y56.356210 F200.000000
G1 X74.766399 Y55.977991 F200.000000
G1 X74.874046 Y55.506359 F200.000000
G1 Y54.490359 F200.000000
G1 X74.862045 Y54.437777 F200.000000
G0 Z0.500000
G0 X75.240046 Y55.506359
G1 Z-0.040000 F60.000000
G1 X75.240046 F200.000000
G1 X75.347693 Y55.977991 F200.000000
G1 X75.649313 Y56.356210 F200.000000
G1 X76.085166 Y56.566106 F200.000000
G1 X76.568926 F200.000000
G1 X77.004779 Y56.356210 F200.000000
G1 X77.306399 Y55.977991 F200.000000
G1 X77.414046 Y55.506359 F200.000000
G1 Y54.490359 F200.000000
G1 X77.306399 Y54.018727 F200.000000
G1 X77.004779 Y53.640508 F200.000000
G1 X76.568926 Y53.430612 F200.000000
G1 X76.085166 F200.000000
G1 X75.649313 Y53.640508 F200.000000
G1 X75.347693 Y54.018727 F200.000000
G1 X75.240046 Y54.490359 F200.000000
G1 X75.240046 Y55.506359 F200.000000
G0 Z0.500000
G0 X63.178045 Y7.298941
G1 Z-0.040000 F60.000000
G1 X63.190046 Y7.246359 F200.000000
G1 Y6.230359 F200.000000
G1 X63.082399 Y5.758727 F200.000000
G1 X62.780779 Y5.380508 F200.000000
G1 X62.344926 Y5.170612 F200.000000
G1 X61.861166 F200.000000
G1 X61.425313 Y5.380508 F200.000000
G1 X61.123693 Y5.758727 F200.000000
G1 X61.016046 Y6.230359 F200.000000
G1 X61.016046 Y7.246359 F200.000000
G1 X61.016046 F200.000000
G1 X61.028048 Y7.298941 F200.000000
G0 Z0.500000
G0 X9.272907 Y30.993498
G1 Z-0.040000 F60.000000
G1 X9.176954 Y30.840789 F200.000000
G1 X9.064506 Y30.699783 F200.000000
G1 X9.050901 Y30.640177 F200.000000
G1 X9.018373 Y30.588409 F200.000000
G1 X8.998180 Y30.409190 F200.000000
G1 X8.958048 Y30.233359 F200.000000
G1 Y16.073638 F200.000000
G1 X8.002907 Y15.118498 F200.000000
G1 X7.906954 Y14.965789 F200.000000
G1 X7.794506 Y14.824783 F200.000000
G1 X7.780901 Y14.765177 F200.000000
G1 X7.748373 Y14.713409 F200.000000
G1 X7.728180 Y14.534190 F200.000000
G1 X7.688048 Y14.358359 F200.000000
G1 Y12.898638 F200.000000
G1 X7.682767 Y12.893358 F200.000000
G1 X7.681792 F200.000000
G1 X7.418165 Y13.197600 F200.000000
G1 X6.981177 Y13.478435 F200.000000
G1 X6.482770 Y13.624780 F200.000000
G1 X5.963322 F200.000000
G1 X5.464915 Y13.478435 F200.000000
G1 X5.027927 Y13.197600 F200.000000
G1 X4.687761 Y12.805027 F200.000000
G1 X4.471974 Y12.332520 F200.000000
G1 X4.398049 Y11.818359 F200.000000
G1 X4.471974 Y11.304198 F200.000000
G1 X4.687761 Y10.831691 F200.000000
G1 X5.027927 Y10.439118 F200.000000
G1 X5.464915 Y10.158283 F200.000000
G1 X5.963322 Y10.011938 F200.000000
G1 X6.482770 F200.000000
G1 X6.981177 Y10.158283 F200.000000
G1 X7.418165 Y10.439118 F200.000000
G1 X7.681792 Y10.743361 F200.000000
G1 X8.128046 F200.000000
G1 X8.303877 Y10.783493 F200.000000
G1 X8.483096 Y10.803686 F200.000000
G1 X8.534864 Y10.836214 F200.000000
G1 X8.594470 Y10.849819 F200.000000
G1 X8.735476 Y10.962267 F200.000000
G1 X8.888185 Y11.058220 F200.000000
G1 X9.523185 Y11.693220 F200.000000
G1 X9.619138 Y11.845929 F200.000000
G1 X9.731586 Y11.986935 F200.000000
G1 X9.745191 Y12.046541 F200.000000
G1 X9.777719 Y12.098310 F200.000000
G1 X9.797912 Y12.277528 F200.000000
G1 X9.838045 Y12.453359 F200.000000
G1 Y13.913080 F200.000000
G1 X10.793185 Y14.868220 F200.000000
G1 X10.889138 Y15.020929 F200.000000
G1 X11.001586 Y15.161935 F200.000000
G1 X11.015191 Y15.221541 F200.000000
G1 X11.047719 Y15.273310 F200.000000
G1 X11.067912 Y15.452528 F200.000000
G1 X11.108045 Y15.628359 F200.000000
G1 Y29.788080 F200.000000
G0 Z0.500000
G0 X58.293046 Y13.283361
G1 Z-0.040000 F60.000000
G1 X59.606529 F200.000000
G1 X59.596901 Y13.241177 F200.000000
G1 X59.564373 Y13.189409 F200.000000
G1 X59.558490 Y13.137200 F200.000000
G1 X59.355377 Y12.833219 F200.000000
G1 X59.254556 Y12.326359 F200.000000
G1 X59.355377 Y11.819499 F200.000000
G1 X59.642490 Y11.389803 F200.000000
G1 X60.072186 Y11.102690 F200.000000
G1 X60.334644 Y11.050484 F200.000000
G1 X61.028048 Y10.357080 F200.000000
G1 Y7.298941 F200.000000
G0 Z0.500000
G0 X58.479045 Y26.862920
G1 Z-0.040000 F60.000000
G1 X58.503543 Y26.832199 F200.000000
G1 X58.624396 Y26.302709 F200.000000
G1 Y24.512009 F200.000000
G1 X58.503543 Y23.982519 F200.000000
G1 X58.164922 Y23.557901 F200.000000
G1 X57.675599 Y23.322256 F200.000000
G1 X57.132493 F200.000000
G1 X56.643170 Y23.557901 F200.000000
G1 X56.304549 Y23.982519 F200.000000
G1 X56.183696 Y24.512009 F200.000000
G1 Y26.302709 F200.000000
G1 X56.304549 Y26.832199 F200.000000
G1 X56.329048 Y26.862920 F200.000000
G0 Z0.500000
G0 X57.875700 Y22.545358
G1 Z-0.040000 F60.000000
G1 X57.955549 Y22.895199 F200.000000
G1 X58.294170 Y23.319817 F200.000000
G1 X58.783493 Y23.555462 F200.000000
G1 X59.326599 F200.000000
G1 X59.815922 Y23.319817 F200.000000
G1 X60.154543 Y22.895199 F200.000000
G1 X60.275396 Y22.365709 F200.000000
G1 Y20.575009 F200.000000
G1 X60.154543 Y20.045519 F200.000000
G1 X60.130045 Y20.014798 F200.000000
G0 Z0.500000
G0 X57.980048 Y20.014798
G1 Z-0.040000 F60.000000
G1 X57.955549 Y20.045519 F200.000000
G1 X57.875700 Y20.395361 F200.000000
G0 Z0.500000
G0 X62.012392 Y24.332361
G1 Z-0.040000 F60.000000
G1 X61.932543 Y23.982519 F200.000000
G1 X61.593922 Y23.557901 F200.000000
G1 X61.104599 Y23.322256 F200.000000
G1 X60.561493 F200.000000
G1 X60.072170 Y23.557901 F200.000000
G1 X59.733549 Y23.982519 F200.000000
G1 X59.612696 Y24.512009 F200.000000
G1 Y26.302709 F200.000000
G1 X59.733549 Y26.832199 F200.000000
G1 X59.758048 Y26.862920 F200.000000
G0 Z0.500000
G0 X61.908045 Y26.862920
G1 Z-0.040000 F60.000000
G1 X61.932543 Y26.832199 F200.000000
G1 X62.012392 Y26.482358 F200.000000
G0 Z0.500000
G0 X63.080546 Y19.480582
G1 Z-0.040000 F60.000000
G1 X62.882599 Y19.385256 F200.000000
G1 X62.339493 F200.000000
G1 X61.850170 Y19.620901 F200.000000
G1 X61.511549 Y20.045519 F200.000000
G1 X61.390696 Y20.575009 F200.000000
G1 Y22.365709 F200.000000
G1 X61.511549 Y22.895199 F200.000000
G1 X61.850170 Y23.319817 F200.000000
G1 X62.339493 Y23.555462 F200.000000
G1 X62.882599 F200.000000
G1 X63.371922 Y23.319817 F200.000000
G1 X63.710543 Y22.895199 F200.000000
G1 X63.831396 Y22.365709 F200.000000
G1 Y21.770286 F200.000000
G0 Z0.500000
G0 X63.082700 Y26.482358
G1 Z-0.040000 F60.000000
G1 X63.162549 Y26.832199 F200.000000
G1 X63.501170 Y27.256817 F200.000000
G1 X63.990493 Y27.492462 F200.000000
G1 X64.533599 F200.000000
G1 X65.022922 Y27.256817 F200.000000
G1 X65.361543 Y26.832199 F200.000000
G1 X65.482396 Y26.302709 F200.000000
G1 Y25.707286 F200.000000
G0 Z0.500000
G0 X64.731546 Y23.417582
G1 Z-0.040000 F60.000000
G1 X64.533599 Y23.322256 F200.000000
G1 X63.990493 F200.000000
G1 X63.501170 Y23.557901 F200.000000
G1 X63.162549 Y23.982519 F200.000000
G1 X63.082700 Y24.332361 F200.000000
G0 Z0.500000
G0 X59.796481 Y44.067542
G1 Z-0.040000 F60.000000
G1 X59.682546 Y43.568359 F200.000000
G1 X59.796481 Y43.069176 F200.000000
G1 X60.008047 Y42.803881 F200.000000
G1 Y39.148709 F200.000000
G1 X59.870555 Y38.993513 F200.000000
G1 X59.746046 Y38.488359 F200.000000
G1 X59.870555 Y37.983205 F200.000000
G1 X60.215560 Y37.593776 F200.000000
G1 X60.702023 Y37.409284 F200.000000
G1 X61.218502 Y37.471996 F200.000000
G1 X61.646677 Y37.767545 F200.000000
G1 X61.888460 Y38.228223 F200.000000
G1 Y38.748495 F200.000000
G1 X61.658045 Y39.187514 F200.000000
G1 Y42.803881 F200.000000
G1 X61.869611 Y43.069176 F200.000000
G1 X61.983546 Y43.568359 F200.000000
G1 X61.869611 Y44.067542 F200.000000
G1 X61.550371 Y44.467856 F200.000000
G1 X61.089056 Y44.690014 F200.000000
G1 X60.577036 F200.000000
G1 X60.115721 Y44.467856 F200.000000
G1 X59.796481 Y44.067542 F200.000000
G0 Z0.500000
G0 X62.594343 Y42.025879
G1 Z-0.040000 F60.000000
G1 X62.619307 Y41.986150 F200.000000
G1 X62.629748 Y41.940405 F200.000000
G1 X62.716045 Y41.832192 F200.000000
G1 X62.789684 Y41.714997 F200.000000
G1 X65.088047 Y39.416633 F200.000000
G1 Y39.148709 F200.000000
G1 X64.950555 Y38.993513 F200.000000
G1 X64.826046 Y38.488359 F200.000000
G1 X64.950555 Y37.983205 F200.000000
G1 X65.295560 Y37.593776 F200.000000
G1 X65.782023 Y37.409284 F200.000000
G1 X66.298502 Y37.471996 F200.000000
G1 X66.726677 Y37.767545 F200.000000
G1 X66.968460 Y38.228223 F200.000000
G1 Y38.748495 F200.000000
G1 X66.738045 Y39.187514 F200.000000
G1 Y39.758359 F200.000000
G1 X66.707246 Y39.893299 F200.000000
G1 X66.691749 Y40.030839 F200.000000
G1 X66.666785 Y40.070568 F200.000000
G1 X66.656344 Y40.116313 F200.000000
G1 X66.570047 Y40.224526 F200.000000
G0 Z0.500000
G0 X65.134343 Y42.025879
G1 Z-0.040000 F60.000000
G1 X65.159307 Y41.986150 F200.000000
G1 X65.169748 Y41.940405 F200.000000
G1 X65.256045 Y41.832192 F200.000000
G1 X65.329684 Y41.714997 F200.000000
G1 X67.628047 Y39.416633 F200.000000
G1 Y39.148709 F200.000000
G1 X67.490555 Y38.993513 F200.000000
G1 X67.366046 Y38.488359 F200.000000
G1 X67.490555 Y37.983205 F200.000000
G1 X67.835560 Y37.593776 F200.000000
G1 X68.322023 Y37.409284 F200.000000
G1 X68.838502 Y37.471996 F200.000000
G1 X69.266677 Y37.767545 F200.000000
G1 X69.508460 Y38.228223 F200.000000
G1 Y38.748495 F200.000000
G1 X69.278045 Y39.187514 F200.000000
G1 Y39.758359 F200.000000
G1 X69.247246 Y39.893299 F200.000000
G1 X69.231749 Y40.030839 F200.000000
G1 X69.206785 Y40.070568 F200.000000
G1 X69.196344 Y40.116313 F200.000000
G1 X69.110047 Y40.224526 F200.000000
G0 Z0.500000
G0 X75.339565 Y25.540657
G1 Z-0.040000 F60.000000
G1 Y30.139379 F200.000000
G1 X75.299229 Y30.316101 F200.000000
G1 X75.278620 Y30.496193 F200.000000
G1 X75.246502 Y30.547111 F200.000000
G1 X75.233106 Y30.605803 F200.000000
G1 X75.128046 Y30.737545 F200.000000
G1 Y32.463359 F200.000000
G1 X71.938046 F200.000000
G1 Y29.273359 F200.000000
G1 X73.189568 F200.000000
G1 Y25.287473 F200.000000
G0 Z0.500000
G0 X49.915698 Y14.871011
G1 Z-0.040000 F60.000000
G1 X47.588045 Y17.198664 F200.000000
G1 Y38.823055 F200.000000
G1 X49.223291 Y40.458300 F200.000000
G1 X50.790620 F200.000000
G1 X50.754081 Y40.412482 F200.000000
G1 X50.640146 Y39.913299 F200.000000
G1 X50.754081 Y39.414116 F200.000000
G1 X51.073321 Y39.013802 F200.000000
G1 X51.534636 Y38.791644 F200.000000
G1 X52.046656 F200.000000
G1 X52.507971 Y39.013802 F200.000000
G1 X52.827211 Y39.414116 F200.000000
G1 X52.941146 Y39.913299 F200.000000
G1 X52.917881 Y40.015230 F200.000000
G1 X53.360951 Y40.458300 F200.000000
G1 X53.474164 Y40.458300 F200.000000
G1 X53.613321 Y40.283802 F200.000000
G1 X54.074636 Y40.061644 F200.000000
G1 X54.586656 F200.000000
G1 X55.047971 Y40.283802 F200.000000
G1 X55.367211 Y40.684116 F200.000000
G1 X55.481146 Y41.183299 F200.000000
G1 X55.367211 Y41.682482 F200.000000
G1 X55.047971 Y42.082796 F200.000000
G1 X54.586656 Y42.304954 F200.000000
G1 X54.074636 F200.000000
G1 X53.613321 Y42.082796 F200.000000
G1 X53.474164 Y41.908298 F200.000000
G1 X48.922986 Y41.908298 F200.000000
G1 X48.804402 Y41.881232 F200.000000
G1 X48.683534 Y41.867614 F200.000000
G1 X48.648620 Y41.845676 F200.000000
G1 X48.608421 Y41.836501 F200.000000
G1 X48.513324 Y41.760664 F200.000000
G1 X48.410334 Y41.695951 F200.000000
G1 X46.350394 Y39.636011 F200.000000
G0 Z0.500000
G0 X60.362047 Y53.699778
G1 Z-0.040000 F60.000000
G1 Y52.206480 F200.000000
G1 X60.115721 Y52.087856 F200.000000
G1 X59.796481 Y51.687542 F200.000000
G1 X59.682546 Y51.188359 F200.000000
G1 X59.796481 Y50.689176 F200.000000
G1 X60.115721 Y50.288862 F200.000000
G1 X60.577036 Y50.066704 F200.000000
G1 X61.089056 F200.000000
G1 X61.550371 Y50.288862 F200.000000
G1 X61.869611 Y50.689176 F200.000000
G1 X61.983546 Y51.188359 F200.000000
G1 X61.869611 Y51.687542 F200.000000
G1 X61.812045 Y51.759727 F200.000000
G1 Y53.699778 F200.000000
G0 Z0.500000
G0 X62.902047 Y53.699778
G1 Z-0.040000 F60.000000
G1 Y52.206480 F200.000000
G1 X62.655721 Y52.087856 F200.000000
G1 X62.336481 Y51.687542 F200.000000
G1 X62.222546 Y51.188359 F200.000000
G1 X62.336481 Y50.689176 F200.000000
G1 X62.655721 Y50.288862 F200.000000
G1 X63.117036 Y50.066704 F200.000000
G1 X63.629056 F200.000000
G1 X64.090371 Y50.288862 F200.000000
G1 X64.409611 Y50.689176 F200.000000
G1 X64.523546 Y51.188359 F200.000000
G1 X64.409611 Y51.687542 F200.000000
G1 X64.352045 Y51.759727 F200.000000
G1 Y53.699778 F200.000000
G0 Z0.500000
G0 X66.570047 Y40.224526
G1 Z-0.040000 F60.000000
G1 X66.496408 Y40.341721 F200.000000
G1 X64.198045 Y42.640085 F200.000000
G1 Y42.803881 F200.000000
G1 X64.409611 Y43.069176 F200.000000
G1 X64.523546 Y43.568359 F200.000000
G1 X64.409611 Y44.067542 F200.000000
G1 X64.090371 Y44.467856 F200.000000
G1 X63.629056 Y44.690014 F200.000000
G1 X63.117036 F200.000000
G1 X62.655721 Y44.467856 F200.000000
G1 X62.336481 Y44.067542 F200.000000
G1 X62.222546 Y43.568359 F200.000000
G1 X62.336481 Y43.069176 F200.000000
G1 X62.548047 Y42.803881 F200.000000
G1 Y42.298359 F200.000000
G1 X62.578846 Y42.163419 F200.000000
G1 X62.594343 Y42.025879 F200.000000
G0 Z0.500000
G0 X65.442047 Y53.699778
G1 Z-0.040000 F60.000000
G1 Y52.206480 F200.000000
G1 X65.195721 Y52.087856 F200.000000
G1 X64.876481 Y51.687542 F200.000000
G1 X64.762546 Y51.188359 F200.000000
G1 X64.876481 Y50.689176 F200.000000
G1 X65.195721 Y50.288862 F200.000000
G1 X65.657036 Y50.066704 F200.000000
G1 X66.169056 F200.000000
G1 X66.630371 Y50.288862 F200.000000
G1 X66.949611 Y50.689176 F200.000000
G1 X67.063546 Y51.188359 F200.000000
G1 X66.949611 Y51.687542 F200.000000
G1 X66.892045 Y51.759727 F200.000000
G1 Y53.699778 F200.000000
G0 Z0.500000
G0 X69.110047 Y40.224526
G1 Z-0.040000 F60.000000
G1 X69.036408 Y40.341721 F200.000000
G1 X66.738045 Y42.640085 F200.000000
G1 Y42.803881 F200.000000
G1 X66.949611 Y43.069176 F200.000000
G1 X67.063546 Y43.568359 F200.000000
G1 X66.949611 Y44.067542 F200.000000
G1 X66.630371 Y44.467856 F200.000000
G1 X66.169056 Y44.690014 F200.000000
G1 X65.657036 F200.000000
G1 X65.195721 Y44.467856 F200.000000
G1 X64.876481 Y44.067542 F200.000000
G1 X64.762546 Y43.568359 F200.000000
G1 X64.876481 Y43.069176 F200.000000
G1 X65.088047 Y42.803881 F200.000000
G1 Y42.298359 F200.000000
G1 X65.118846 Y42.163419 F200.000000
G1 X65.134343 Y42.025879 F200.000000
G0 Z0.500000
G0 X39.672578 Y45.438108
G1 Z-0.040000 F60.000000
G1 X39.755167 Y45.372246 F200.000000
G1 X39.895560 Y45.213776 F200.000000
G1 X40.006771 Y45.171599 F200.000000
G1 X40.046622 Y45.139819 F200.000000
G1 X40.156991 Y45.114628 F200.000000
G1 X40.382023 Y45.029284 F200.000000
G1 X40.479205 Y45.041085 F200.000000
G1 X40.513046 Y45.033361 F200.000000
G1 X42.911275 F200.000000
G1 X42.922023 Y45.029284 F200.000000
G1 X42.955592 Y45.033361 F200.000000
G1 X45.451275 F200.000000
G1 X45.462023 Y45.029284 F200.000000
G1 X45.495592 Y45.033361 F200.000000
G1 X47.991275 Y45.033361 F200.000000
G1 X48.002023 Y45.029284 F200.000000
G1 X48.035592 Y45.033361 F200.000000
G1 X50.531275 Y45.033361 F200.000000
G1 X50.542023 Y45.029284 F200.000000
G1 X50.575592 Y45.033361 F200.000000
G1 X50.673046 F200.000000
G1 X53.071275 F200.000000
G1 X53.082023 Y45.029284 F200.000000
G1 X53.115592 Y45.033361 F200.000000
G1 X72.458048 F200.000000
G1 Y42.298359 F200.000000
G1 Y42.298359 F200.000000
G1 Y42.298359 F200.000000
G1 Y37.101260 F200.000000
G1 X72.380145 Y37.023358 F200.000000
G1 X64.448045 F200.000000
G1 Y38.488359 F200.000000
G1 X64.428460 Y38.574165 F200.000000
G1 Y38.748495 F200.000000
G1 X64.358050 Y38.882649 F200.000000
G1 X64.341586 Y38.954783 F200.000000
G1 X64.279005 Y39.033258 F200.000000
G1 X64.186677 Y39.209173 F200.000000
G1 X64.079991 Y39.282814 F200.000000
G1 X64.043297 Y39.328827 F200.000000
G1 X63.944172 Y39.376563 F200.000000
G1 X63.758502 Y39.504722 F200.000000
G1 X63.650922 Y39.517784 F200.000000
G1 X63.612256 Y39.536405 F200.000000
G1 X63.497565 F200.000000
G1 X63.242023 Y39.567434 F200.000000
G1 X63.160207 Y39.536405 F200.000000
G1 X63.133836 F200.000000
G1 X63.036097 Y39.489336 F200.000000
G1 X62.755560 Y39.382942 F200.000000
G1 X62.711205 Y39.332877 F200.000000
G1 X62.702795 Y39.328827 F200.000000
G1 X62.659321 Y39.274312 F200.000000
G1 X62.410555 Y38.993513 F200.000000
G1 X62.286046 Y38.488359 F200.000000
G1 X62.298048 Y38.439667 F200.000000
G1 Y36.520958 F200.000000
G1 X60.574469 F200.000000
G1 X60.435311 Y36.695456 F200.000000
G1 X59.973996 Y36.917614 F200.000000
G1 X59.461976 F200.000000
G1 X59.000661 Y36.695456 F200.000000
G1 X58.681421 Y36.295142 F200.000000
G1 X58.567486 Y35.795959 F200.000000
G1 X58.681421 Y35.296776 F200.000000
G1 X59.000661 Y34.896462 F200.000000
G1 X59.461976 Y34.674304 F200.000000
G1 X59.973996 F200.000000
G1 X60.435311 Y34.896462 F200.000000
G1 X60.574469 Y35.070960 F200.000000
G1 X62.779485 Y35.070960 F200.000000
G1 X62.811924 Y35.055338 F200.000000
G1 X62.906622 Y34.979819 F200.000000
G1 X63.024708 Y34.952866 F200.000000
G1 X63.133836 Y34.900313 F200.000000
G1 X63.254960 F200.000000
G1 X63.373046 Y34.873361 F200.000000
G1 X72.380145 F200.000000
G1 X72.595529 Y34.657977 F200.000000
G1 X73.040164 Y34.431424 F200.000000
G1 X73.533046 Y34.353359 F200.000000
G1 X74.025928 Y34.431424 F200.000000
G1 X74.470564 Y34.657977 F200.000000
G1 X74.685947 Y34.873361 F200.000000
G1 X75.627767 F200.000000
G1 X77.538048 Y32.963080 F200.000000
G1 Y23.693638 F200.000000
G1 X75.627767 Y21.783358 F200.000000
G1 X69.406325 F200.000000
G1 X68.219369 Y22.970314 F200.000000
G0 Z0.500000
G0 X34.878906 Y8.048401
G1 Z-0.040000 F60.000000
G1 X34.860979 Y8.126943 F200.000000
G1 X34.847361 Y8.247811 F200.000000
G1 X34.825423 Y8.282725 F200.000000
G1 X34.816248 Y8.322924 F200.000000
G1 X34.740411 Y8.418021 F200.000000
G1 X34.675698 Y8.521011 F200.000000
G1 X33.735350 Y9.461359 F200.000000
G1 X35.885046 F200.000000
G1 Y9.706055 F200.000000
G1 X35.978047 Y9.613055 F200.000000
G1 Y8.036940 F200.000000
G0 Z0.500000
G0 X30.712819 Y20.136425
G1 Z-0.040000 F60.000000
G1 X30.773287 Y20.075957 F200.000000
G1 X31.005560 Y19.813776 F200.000000
G1 X31.492023 Y19.629284 F200.000000
G1 X32.008502 Y19.691996 F200.000000
G1 X32.233693 Y19.847435 F200.000000
G1 X36.263048 Y15.818080 F200.000000
G1 Y14.803638 F200.000000
G1 X35.622767 Y14.163358 F200.000000
G1 X34.700592 F200.000000
G1 X34.667023 Y14.167434 F200.000000
G1 X34.656275 Y14.163358 F200.000000
G1 X32.160592 F200.000000
G1 X32.127023 Y14.167434 F200.000000
G1 X32.116275 Y14.163358 F200.000000
G1 X29.620592 F200.000000
G1 X29.587023 Y14.167434 F200.000000
G1 X29.576275 Y14.163358 F200.000000
G1 X27.178046 F200.000000
G1 X27.144205 Y14.155634 F200.000000
G1 X27.047023 Y14.167434 F200.000000
G1 X26.821991 Y14.082090 F200.000000
G1 X26.711622 Y14.056899 F200.000000
G1 X26.671771 Y14.025119 F200.000000
G1 X26.560560 Y13.982942 F200.000000
G1 X26.420167 Y13.824472 F200.000000
G1 X26.406231 Y13.813358 F200.000000
G1 X24.003046 F200.000000
G1 X23.884462 Y13.786292 F200.000000
G1 X23.763594 Y13.772674 F200.000000
G1 X23.728680 Y13.750736 F200.000000
G1 X23.688481 Y13.741561 F200.000000
G1 X23.593384 Y13.665724 F200.000000
G0 Z0.500000
G0 X57.722047 Y53.825173
G1 Z-0.040000 F60.000000
G1 Y53.054085 F200.000000
G1 X56.943321 Y52.275359 F200.000000
G1 X55.936046 F200.000000
G1 Y50.101359 F200.000000
G1 X58.110046 F200.000000
G1 Y51.108634 F200.000000
G1 X59.130408 Y52.128997 F200.000000
G1 X59.204047 Y52.246192 F200.000000
G1 X59.290344 Y52.354405 F200.000000
G1 X59.300785 Y52.400150 F200.000000
G1 X59.325749 Y52.439879 F200.000000
G1 X59.341246 Y52.577419 F200.000000
G1 X59.372045 Y52.712359 F200.000000
G1 Y53.825173 F200.000000
G0 Z0.500000
G0 X53.758047 Y53.699778
G1 Z-0.040000 F60.000000
G1 Y52.758664 F200.000000
G1 X53.274742 Y52.275359 F200.000000
G1 X52.126046 F200.000000
G1 Y50.101359 F200.000000
G1 X54.300046 F200.000000
G1 Y51.250055 F200.000000
G1 X54.995698 Y51.945707 F200.000000
G1 X55.060411 Y52.048697 F200.000000
G1 X55.136248 Y52.143794 F200.000000
G1 X55.145423 Y52.183993 F200.000000
G1 X55.167361 Y52.218907 F200.000000
G1 X55.180979 Y52.339775 F200.000000
G1 X55.208045 Y52.458359 F200.000000
G1 Y53.699778 F200.000000
G0 Z0.500000
G0 X51.072132 Y53.882749
G1 Z-0.040000 F60.000000
G1 X50.160394 Y52.971011 F200.000000
G1 X50.095681 Y52.868021 F200.000000
G1 X50.019844 Y52.772924 F200.000000
G1 X50.010669 Y52.732725 F200.000000
G1 X49.988731 Y52.697811 F200.000000
G1 X49.975113 Y52.576943 F200.000000
G1 X49.948047 Y52.458359 F200.000000
G1 Y52.275359 F200.000000
G1 X49.586046 F200.000000
G1 Y50.101359 F200.000000
G1 X51.760046 F200.000000
G1 Y52.275359 F200.000000
G1 X51.515350 F200.000000
G1 X52.455698 Y53.215707 F200.000000
G1 X52.520411 Y53.318697 F200.000000
G1 X52.596248 Y53.413794 F200.000000
G1 X52.605423 Y53.453993 F200.000000
G1 X52.627361 Y53.488907 F200.000000
G1 X52.640979 Y53.609775 F200.000000
G1 X52.658906 Y53.688317 F200.000000
G0 Z0.500000
G0 X48.532132 Y53.882749
G1 Z-0.040000 F60.000000
G1 X47.620394 Y52.971011 F200.000000
G1 X47.555681 Y52.868021 F200.000000
G1 X47.479844 Y52.772924 F200.000000
G1 X47.470669 Y52.732725 F200.000000
G1 X47.448731 Y52.697811 F200.000000
G1 X47.435113 Y52.576943 F200.000000
G1 X47.408047 Y52.458359 F200.000000
G1 Y52.275359 F200.000000
G1 X47.046046 F200.000000
G1 Y50.101359 F200.000000
G1 X49.220046 F200.000000
G1 Y52.275359 F200.000000
G1 X48.975350 F200.000000
G1 X49.915698 Y53.215707 F200.000000
G1 X49.980411 Y53.318697 F200.000000
G1 X50.056248 Y53.413794 F200.000000
G1 X50.065423 Y53.453993 F200.000000
G1 X50.087361 Y53.488907 F200.000000
G1 X50.100979 Y53.609775 F200.000000
G1 X50.118906 Y53.688317 F200.000000
G0 Z0.500000
G0 X45.992132 Y53.882749
G1 Z-0.040000 F60.000000
G1 X45.080394 Y52.971011 F200.000000
G1 X45.015681 Y52.868021 F200.000000
G1 X44.939844 Y52.772924 F200.000000
G1 X44.930669 Y52.732725 F200.000000
G1 X44.908731 Y52.697811 F200.000000
G1 X44.895113 Y52.576943 F200.000000
G1 X44.868047 Y52.458359 F200.000000
G1 Y52.275359 F200.000000
G1 X44.506046 F200.000000
G1 Y50.101359 F200.000000
G1 X46.680046 F200.000000
G1 Y52.275359 F200.000000
G1 X46.435350 F200.000000
G1 X47.375698 Y53.215707 F200.000000
G1 X47.440411 Y53.318697 F200.000000
G1 X47.516248 Y53.413794 F200.000000
G1 X47.525423 Y53.453993 F200.000000
G1 X47.547361 Y53.488907 F200.000000
G1 X47.560979 Y53.609775 F200.000000
G1 X47.578906 Y53.688317 F200.000000
G0 Z0.500000
G0 X43.452132 Y53.882749
G1 Z-0.040000 F60.000000
G1 X42.540394 Y52.971011 F200.000000
G1 X42.475681 Y52.868021 F200.000000
G1 X42.399844 Y52.772924 F200.000000
G1 X42.390669 Y52.732725 F200.000000
G1 X42.368731 Y52.697811 F200.000000
G1 X42.355113 Y52.576943 F200.000000
G1 X42.328047 Y52.458359 F200.000000
G1 Y52.275359 F200.000000
G1 X41.966046 F200.000000
G1 Y50.101359 F200.000000
G1 X44.140046 F200.000000
G1 Y52.275359 F200.000000
G1 X43.895350 F200.000000
G1 X44.835698 Y53.215707 F200.000000
G1 X44.900411 Y53.318697 F200.000000
G1 X44.976248 Y53.413794 F200.000000
G1 X44.985423 Y53.453993 F200.000000
G1 X45.007361 Y53.488907 F200.000000
G1 X45.020979 Y53.609775 F200.000000
G1 X45.038906 Y53.688317 F200.000000
G0 Z0.500000
G0 X40.912132 Y53.882749
G1 Z-0.040000 F60.000000
G1 X40.000394 Y52.971011 F200.000000
G1 X39.935681 Y52.868021 F200.000000
G1 X39.859844 Y52.772924 F200.000000
G1 X39.850669 Y52.732725 F200.000000
G1 X39.828731 Y52.697811 F200.000000
G1 X39.815113 Y52.576943 F200.000000
G1 X39.788047 Y52.458359 F200.000000
G1 Y52.275359 F200.000000
G1 X39.426046 F200.000000
G1 Y50.101359 F200.000000
G1 X41.600046 F200.000000
G1 Y52.275359 F200.000000
G1 X41.355350 F200.000000
G1 X42.295698 Y53.215707 F200.000000
G1 X42.360411 Y53.318697 F200.000000
G1 X42.436248 Y53.413794 F200.000000
G1 X42.445423 Y53.453993 F200.000000
G1 X42.467361 Y53.488907 F200.000000
G1 X42.480979 Y53.609775 F200.000000
G1 X42.498906 Y53.688317 F200.000000
G0 Z0.500000
G0 X31.178299 Y8.208410
G1 Z-0.040000 F60.000000
G1 X30.443045 Y8.943664 F200.000000
G1 Y9.461359 F200.000000
G1 X30.805046 F200.000000
G1 Y11.635359 F200.000000
G1 X28.631046 F200.000000
G1 Y9.461359 F200.000000
G1 X28.993047 F200.000000
G1 Y8.643359 F200.000000
G1 X29.020113 Y8.524775 F200.000000
G1 X29.033731 Y8.403907 F200.000000
G1 X29.055669 Y8.368993 F200.000000
G1 X29.064844 Y8.328794 F200.000000
G1 X29.140681 Y8.233697 F200.000000
G1 X29.205394 Y8.130707 F200.000000
G1 X30.536046 Y6.800055 F200.000000
G0 Z0.500000
G0 X27.630046 Y6.800055
G1 Z-0.040000 F60.000000
G1 X27.690698 Y6.860707 F200.000000
G1 X27.755411 Y6.963697 F200.000000
G1 X27.831248 Y7.058794 F200.000000
G1 X27.840423 Y7.098993 F200.000000
G1 X27.862361 Y7.133907 F200.000000
G1 X27.875979 Y7.254775 F200.000000
G1 X27.903045 Y7.373359 F200.000000
G1 Y9.461359 F200.000000
G1 X28.265046 F200.000000
G1 Y11.635359 F200.000000
G1 X26.091046 F200.000000
G1 Y9.461359 F200.000000
G1 X26.453047 F200.000000
G1 Y8.306106 F200.000000
G0 Z0.500000
G0 X23.880698 Y11.940707
G1 Z-0.040000 F60.000000
G1 X24.303351 Y12.363360 F200.000000
G1 X26.406231 Y12.363360 F200.000000
G1 X26.420167 Y12.352246 F200.000000
G1 X26.560560 Y12.193776 F200.000000
G1 X26.671771 Y12.151599 F200.000000
G1 X26.711622 Y12.119819 F200.000000
G1 X26.821991 Y12.094628 F200.000000
G1 X27.047023 Y12.009284 F200.000000
G1 X27.144205 Y12.021085 F200.000000
G1 X27.178046 Y12.013361 F200.000000
G1 X29.576275 F200.000000
G1 X29.587023 Y12.009284 F200.000000
G1 X29.620592 Y12.013361 F200.000000
G1 X32.116275 F200.000000
G1 X32.127023 Y12.009284 F200.000000
G1 X32.160592 Y12.013361 F200.000000
G1 X34.656275 F200.000000
G1 X34.667023 Y12.009284 F200.000000
G1 X34.700592 Y12.013361 F200.000000
G1 X36.068046 F200.000000
G1 X36.243877 Y12.053493 F200.000000
G1 X36.423096 Y12.073686 F200.000000
G1 X36.474864 Y12.106214 F200.000000
G1 X36.534470 Y12.119819 F200.000000
G1 X36.675476 Y12.232267 F200.000000
G1 X36.828185 Y12.328220 F200.000000
G1 X38.098185 Y13.598220 F200.000000
G1 X38.194138 Y13.750929 F200.000000
G1 X38.306586 Y13.891935 F200.000000
G1 X38.320191 Y13.951541 F200.000000
G1 X38.352719 Y14.003310 F200.000000
G1 X38.372912 Y14.182528 F200.000000
G1 X38.413045 Y14.358359 F200.000000
G1 Y16.263359 F200.000000
G1 X38.372912 Y16.439190 F200.000000
G1 X38.352719 Y16.618409 F200.000000
G1 X38.320191 Y16.670177 F200.000000
G1 X38.306586 Y16.729783 F200.000000
G1 X38.194138 Y16.870789 F200.000000
G1 X38.107621 Y17.008481 F200.000000
G1 X38.518047 Y16.598055 F200.000000
G1 Y8.036940 F200.000000
G0 Z0.500000
G0 X26.417907 Y18.043220
G1 Z-0.040000 F60.000000
G1 X27.757770 Y16.703358 F200.000000
G1 X27.178046 F200.000000
G1 X27.144205 Y16.695634 F200.000000
G1 X27.047023 Y16.707434 F200.000000
G1 X26.821991 Y16.622090 F200.000000
G1 X26.711622 Y16.596899 F200.000000
G1 X26.671771 Y16.565119 F200.000000
G1 X26.560560 Y16.522942 F200.000000
G1 X26.420167 Y16.364472 F200.000000
G1 X26.406231 Y16.353358 F200.000000
G1 X24.303351 F200.000000
G0 Z0.500000
G0 X19.576248 Y43.253794
G1 Z-0.040000 F60.000000
G1 X19.585423 Y43.293993 F200.000000
G1 X19.607361 Y43.328907 F200.000000
G1 X19.620979 Y43.449775 F200.000000
G1 X19.648045 Y43.568359 F200.000000
G1 Y45.473359 F200.000000
G1 X19.620979 Y45.591943 F200.000000
G1 X19.607361 Y45.712811 F200.000000
G1 X19.585423 Y45.747725 F200.000000
G1 X19.576248 Y45.787924 F200.000000
G1 X19.500411 Y45.883021 F200.000000
G1 X19.435698 Y45.986011 F200.000000
G1 X18.145281 Y47.276428 F200.000000
G1 X18.168546 Y47.378359 F200.000000
G1 X18.054611 Y47.877542 F200.000000
G1 X17.743045 Y48.268233 F200.000000
G1 Y49.771366 F200.000000
G1 X17.831677 Y49.832545 F200.000000
G1 X18.073460 Y50.293223 F200.000000
G1 Y50.813495 F200.000000
G1 X17.831677 Y51.274173 F200.000000
G1 X17.403502 Y51.569722 F200.000000
G1 X17.108045 Y51.605597 F200.000000
G1 Y53.699778 F200.000000
G0 Z0.500000
G0 X8.311046 Y34.861359
G1 Z-0.040000 F60.000000
G1 X10.485046 F200.000000
G1 Y37.035359 F200.000000
G1 X10.473045 F200.000000
G1 Y40.576359 F200.000000
G1 X10.485046 F200.000000
G1 Y42.750359 F200.000000
G1 X10.473045 F200.000000
G1 Y44.507565 F200.000000
G1 X10.548546 Y44.838359 F200.000000
G1 X10.473045 Y45.169153 F200.000000
G1 Y47.047565 F200.000000
G1 X10.548546 Y47.378359 F200.000000
G1 X10.473045 Y47.709153 F200.000000
G1 Y49.466359 F200.000000
G1 X10.485046 F200.000000
G1 Y51.640359 F200.000000
G1 X10.473045 F200.000000
G1 Y53.728359 F200.000000
G1 X10.432912 Y53.904190 F200.000000
G1 X10.412719 Y54.083409 F200.000000
G1 X10.380191 Y54.135177 F200.000000
G1 X10.366586 Y54.194783 F200.000000
G1 X10.254138 Y54.335789 F200.000000
G1 X10.158185 Y54.488498 F200.000000
G1 X8.888185 Y55.758498 F200.000000
G1 X8.735476 Y55.854451 F200.000000
G1 X8.594470 Y55.966899 F200.000000
G1 X8.534864 Y55.980504 F200.000000
G1 X8.483096 Y56.013032 F200.000000
G1 X8.303877 Y56.033225 F200.000000
G1 X8.128046 Y56.073358 F200.000000
G1 X7.681792 F200.000000
G1 X7.418165 Y56.377600 F200.000000
G1 X6.981177 Y56.658435 F200.000000
G1 X6.482770 Y56.804780 F200.000000
G1 X5.963322 F200.000000
G1 X5.464915 Y56.658435 F200.000000
G1 X5.027927 Y56.377600 F200.000000
G1 X4.687761 Y55.985027 F200.000000
G1 X4.471974 Y55.512520 F200.000000
G1 X4.398049 Y54.998359 F200.000000
G1 X4.471974 Y54.484198 F200.000000
G1 X4.687761 Y54.011691 F200.000000
G1 X5.027927 Y53.619118 F200.000000
G1 X5.464915 Y53.338283 F200.000000
G1 X5.963322 Y53.191938 F200.000000
G1 X6.482770 F200.000000
G1 X6.981177 Y53.338283 F200.000000
G1 X7.418165 Y53.619118 F200.000000
G1 X7.681792 Y53.923361 F200.000000
G1 X7.682767 F200.000000
G1 X8.323048 Y53.283080 F200.000000
G1 Y51.640359 F200.000000
G1 X8.311046 F200.000000
G1 Y49.466359 F200.000000
G1 X8.323048 F200.000000
G1 Y47.709153 F200.000000
G1 X8.247546 Y47.378359 F200.000000
G1 X8.323048 Y47.047565 F200.000000
G1 Y45.169153 F200.000000
G1 X8.247546 Y44.838359 F200.000000
G1 X8.323048 Y44.507565 F200.000000
G1 Y42.750359 F200.000000
G1 X8.311046 F200.000000
G1 Y40.576359 F200.000000
G1 X8.323048 F200.000000
G1 Y37.035359 F200.000000
G1 X8.311046 F200.000000
G1 Y34.861359 F200.000000
G0 Z0.500000
G0 X24.728045 Y8.036940
G1 Z-0.040000 F60.000000
G1 Y8.643359 F200.000000
G1 X24.700979 Y8.761943 F200.000000
G1 X24.687361 Y8.882811 F200.000000
G1 X24.665423 Y8.917725 F200.000000
G1 X24.656248 Y8.957924 F200.000000
G1 X24.580411 Y9.053021 F200.000000
G1 X24.515698 Y9.156011 F200.000000
G1 X23.860281 Y9.811428 F200.000000
G1 X23.883546 Y9.913359 F200.000000
G1 X23.769611 Y10.412542 F200.000000
G1 X23.450371 Y10.812856 F200.000000
G1 X22.989056 Y11.035014 F200.000000
G1 X22.477036 F200.000000
G1 X22.015721 Y10.812856 F200.000000
G1 X21.876564 Y10.638358 F200.000000
G1 X15.413351 Y10.638358 F200.000000
G1 X15.203045 Y10.848664 F200.000000
G1 Y11.671366 F200.000000
G1 X15.291677 Y11.732545 F200.000000
G1 X15.533460 Y12.193223 F200.000000
G1 Y12.713495 F200.000000
G1 X15.291677 Y13.174173 F200.000000
G1 X14.863502 Y13.469722 F200.000000
G1 X14.347023 Y13.532434 F200.000000
G1 X13.860560 Y13.347942 F200.000000
G1 X13.515555 Y12.958513 F200.000000
G1 X13.391046 Y12.453359 F200.000000
G1 X13.515555 Y11.948205 F200.000000
G1 X13.753047 Y11.680132 F200.000000
G1 Y10.548359 F200.000000
G1 X13.780113 Y10.429775 F200.000000
G1 X13.793731 Y10.308907 F200.000000
G1 X13.815669 Y10.273993 F200.000000
G1 X13.824844 Y10.233794 F200.000000
G1 X13.900681 Y10.138697 F200.000000
G1 X13.965394 Y10.035707 F200.000000
G1 X14.600394 Y9.400707 F200.000000
G0 Z0.500000
G0 X15.931046 Y12.453359
G1 Z-0.040000 F60.000000
G1 X16.055555 Y11.948205 F200.000000
G1 X16.400560 Y11.558776 F200.000000
G1 X16.887023 Y11.374284 F200.000000
G1 X17.403502 Y11.436996 F200.000000
G1 X17.831677 Y11.732545 F200.000000
G1 X18.073460 Y12.193223 F200.000000
G1 Y12.713495 F200.000000
G1 X17.831677 Y13.174173 F200.000000
G1 X17.403502 Y13.469722 F200.000000
G1 X16.887023 Y13.532434 F200.000000
G1 X16.400560 Y13.347942 F200.000000
G1 X16.055555 Y12.958513 F200.000000
G1 X15.931046 Y12.453359 F200.000000
G0 Z0.500000
G0 X23.593384 Y13.665724
G1 Z-0.040000 F60.000000
G1 X23.490394 Y13.601011 F200.000000
G1 X23.067742 Y13.178358 F200.000000
G1 X20.365614 Y13.178358 F200.000000
G1 X19.943502 Y13.469722 F200.000000
G1 X19.427023 Y13.532434 F200.000000
G1 X18.940560 Y13.347942 F200.000000
G1 X18.595555 Y12.958513 F200.000000
G1 X18.471046 Y12.453359 F200.000000
G1 X18.595555 Y11.948205 F200.000000
G1 X18.940560 Y11.558776 F200.000000
G1 X19.427023 Y11.374284 F200.000000
G1 X19.943502 Y11.436996 F200.000000
G1 X20.365614 Y11.728360 F200.000000
G1 X23.368046 Y11.728360 F200.000000
G1 X23.486630 Y11.755426 F200.000000
G1 X23.607498 Y11.769044 F200.000000
G1 X23.642412 Y11.790982 F200.000000
G1 X23.682611 Y11.800157 F200.000000
G1 X23.777708 Y11.875994 F200.000000
G1 X23.880698 Y11.940707 F200.000000
G0 Z0.500000
G0 X24.303351 Y16.353358
G1 Z-0.040000 F60.000000
G1 X23.704358 Y16.952351 F200.000000
G1 X23.769611 Y17.034176 F200.000000
G1 X23.883546 Y17.533359 F200.000000
G1 X23.769611 Y18.032542 F200.000000
G1 X23.450371 Y18.432856 F200.000000
G1 X22.989056 Y18.655014 F200.000000
G1 X22.477036 F200.000000
G1 X22.015721 Y18.432856 F200.000000
G1 X21.696481 Y18.032542 F200.000000
G1 X21.582546 Y17.533359 F200.000000
G1 X21.696481 Y17.034176 F200.000000
G1 X22.015721 Y16.633862 F200.000000
G1 X22.074924 Y16.605351 F200.000000
G1 X22.079844 Y16.583794 F200.000000
G1 X22.155681 Y16.488697 F200.000000
G0 Z0.500000
G0 X14.600394 Y9.400707
G1 Z-0.040000 F60.000000
G1 X14.703384 Y9.335994 F200.000000
G1 X14.798481 Y9.260157 F200.000000
G1 X14.838680 Y9.250982 F200.000000
G1 X14.873594 Y9.229044 F200.000000
G1 X14.994462 Y9.215426 F200.000000
G1 X15.113046 Y9.188360 F200.000000
G1 X21.876564 F200.000000
G1 X22.015721 Y9.013862 F200.000000
G1 X22.477036 Y8.791704 F200.000000
G1 X22.829397 F200.000000
G1 X23.278047 Y8.343055 F200.000000
G1 Y8.036940 F200.000000
G0 Z0.500000
G0 X32.067793 Y53.528308
G1 Z-0.040000 F60.000000
G1 X32.803047 Y52.793055 F200.000000
G1 Y52.275359 F200.000000
G1 X32.441046 F200.000000
G1 Y50.101359 F200.000000
G1 X34.615046 F200.000000
G1 Y52.275359 F200.000000
G1 X34.253045 F200.000000
G1 Y53.093359 F200.000000
G1 X34.225979 Y53.211943 F200.000000
G1 X34.212361 Y53.332811 F200.000000
G1 X34.190423 Y53.367725 F200.000000
G1 X34.181248 Y53.407924 F200.000000
G1 X34.105411 Y53.503021 F200.000000
G1 X34.040698 Y53.606011 F200.000000
G1 X32.710046 Y54.936663 F200.000000
G0 Z0.500000
G0 X20.361622 Y47.679819
G1 Z-0.040000 F60.000000
G1 X20.471991 Y47.654628 F200.000000
G1 X20.697023 Y47.569284 F200.000000
G1 X20.794205 Y47.581085 F200.000000
G1 X20.828046 Y47.573361 F200.000000
G1 X23.226275 F200.000000
G1 X23.237023 Y47.569284 F200.000000
G1 X23.270592 Y47.573361 F200.000000
G1 X25.766275 F200.000000
G1 X25.777023 Y47.569284 F200.000000
G1 X25.810592 Y47.573361 F200.000000
G1 X28.306275 F200.000000
G1 X28.317023 Y47.569284 F200.000000
G1 X28.350592 Y47.573361 F200.000000
G1 X30.846275 F200.000000
G1 X30.857023 Y47.569284 F200.000000
G1 X30.890592 Y47.573361 F200.000000
G1 X33.386275 F200.000000
G1 X33.397023 Y47.569284 F200.000000
G1 X33.430592 Y47.573361 F200.000000
G1 X36.363474 F200.000000
G1 X36.369506 Y47.546935 F200.000000
G1 X36.580548 Y47.282297 F200.000000
G1 Y44.331138 F200.000000
G1 X33.717767 Y41.468358 F200.000000
G0 Z0.500000
G0 X18.207186 Y53.688317
G1 Z-0.040000 F60.000000
G1 X18.225113 Y53.609775 F200.000000
G1 X18.238731 Y53.488907 F200.000000
G1 X18.260669 Y53.453993 F200.000000
G1 X18.269844 Y53.413794 F200.000000
G1 X18.345681 Y53.318697 F200.000000
G1 X18.410394 Y53.215707 F200.000000
G1 X19.741046 Y51.885055 F200.000000
G1 Y50.101359 F200.000000
G1 X21.915046 F200.000000
G1 Y52.251055 F200.000000
G1 X22.281046 Y51.885055 F200.000000
G1 Y50.101359 F200.000000
G1 X24.455046 F200.000000
G1 Y52.251055 F200.000000
G1 X24.821046 Y51.885055 F200.000000
