(Generated by ./pygerber2gcode_cui_MOD.py )
( 2013-06-13 15:19:54 )
(Initialize)

(Start form here)
G0 Z0.500000
G0 X44.318658 Y3.563359
G1 Z-2.000000 F20.000000
G1 X81.148658 F30.000000
G1 Y28.963359 F30.000000
G0 Z0.500000
G0 X41.143658 Y3.563359
G1 Z-2.000000 F20.000000
G1 X3.043658 F30.000000
G1 Y30.233359 F30.000000
G0 Z0.500000
G0 Y32.773359
G1 Z-2.000000 F20.000000
G1 Y58.173359 F30.000000
G1 X81.148658 F30.000000
G1 Y31.503359 F30.000000

(Goto to Initial position)
G0 Z0.500000
G0 X0.000000 Y0.000000
G0 Z0.000000
