(Generated by ./pygerber2gcode_cui_MOD.py )
( 2013-06-18 10:33:27 )
(Initialize)

(Start form here)
G0 Z0.500000
G0 X81.148658 Y30.296859
G1 Z-0.400000 F20.000000
G1 Y3.626859 F30.000000
G1 X44.636158 F30.000000
G0 Z0.500000
G0 X41.016658
G1 Z-0.400000 F20.000000
G1 X7.044158 F30.000000
G1 X3.297658 Y7.373359 F30.000000
G1 Y13.532859 F30.000000
G1 X6.409158 Y16.644359 F30.000000
G1 Z-0.400000 F20.000000
G1 Y50.553359 F30.000000
G1 X3.424658 Y53.537859 F30.000000
G1 Y58.109859 F30.000000
G0 Z0.500000
G0 X6.980658
G1 Z-0.400000 F20.000000
G1 X54.605658 F30.000000
G0 Z0.500000
G0 X81.148658 Y58.173359
G1 Z-0.400000 F20.000000
G1 Y33.789359 F30.000000
G0 Z0.500000
G0 X58.288658 Y58.109859
G1 Z-0.400000 F20.000000
G1 X81.148658 F30.000000
G0 Z0.500000
G0 Y30.296859
G1 Z-0.800000 F20.000000
G1 Y3.626859 F30.000000
G1 X44.636158 F30.000000
G0 Z0.500000
G0 X41.016658
G1 Z-0.800000 F20.000000
G1 X7.044158 F30.000000
G1 X3.297658 Y7.373359 F30.000000
G1 Y13.532859 F30.000000
G1 X6.409158 Y16.644359 F30.000000
G1 Z-0.800000 F20.000000
G1 Y50.553359 F30.000000
G1 X3.424658 Y53.537859 F30.000000
G1 Y58.109859 F30.000000
G0 Z0.500000
G0 X6.980658
G1 Z-0.800000 F20.000000
G1 X54.605658 F30.000000
G0 Z0.500000
G0 X81.148658 Y58.173359
G1 Z-0.800000 F20.000000
G1 Y33.789359 F30.000000
G0 Z0.500000
G0 X58.288658 Y58.109859
G1 Z-0.800000 F20.000000
G1 X81.148658 F30.000000
G0 Z0.500000
G0 Y30.296859
G1 Z-1.200000 F20.000000
G1 Y3.626859 F30.000000
G1 X44.636158 F30.000000
G0 Z0.500000
G0 X41.016658
G1 Z-1.200000 F20.000000
G1 X7.044158 F30.000000
G1 X3.297658 Y7.373359 F30.000000
G1 Y13.532859 F30.000000
G1 X6.409158 Y16.644359 F30.000000
G1 Z-1.200000 F20.000000
G1 Y50.553359 F30.000000
G1 X3.424658 Y53.537859 F30.000000
G1 Y58.109859 F30.000000
G0 Z0.500000
G0 X6.980658
G1 Z-1.200000 F20.000000
G1 X54.605658 F30.000000
G0 Z0.500000
G0 X81.148658 Y58.173359
G1 Z-1.200000 F20.000000
G1 Y33.789359 F30.000000
G0 Z0.500000
G0 X58.288658 Y58.109859
G1 Z-1.200000 F20.000000
G1 X81.148658 F30.000000
G0 Z0.500000
G0 Y30.296859
G1 Z-1.600000 F20.000000
G1 Y3.626859 F30.000000
G1 X44.636158 F30.000000
G0 Z0.500000
G0 X41.016658
G1 Z-1.600000 F20.000000
G1 X7.044158 F30.000000
G1 X3.297658 Y7.373359 F30.000000
G1 Y13.532859 F30.000000
G1 X6.409158 Y16.644359 F30.000000
G1 Z-1.600000 F20.000000
G1 Y50.553359 F30.000000
G1 X3.424658 Y53.537859 F30.000000
G1 Y58.109859 F30.000000
G0 Z0.500000
G0 X6.980658
G1 Z-1.600000 F20.000000
G1 X54.605658 F30.000000
G0 Z0.500000
G0 X81.148658 Y58.173359
G1 Z-1.600000 F20.000000
G1 Y33.789359 F30.000000
G0 Z0.500000
G0 X58.288658 Y58.109859
G1 Z-1.600000 F20.000000
G1 X81.148658 F30.000000
G0 Z0.500000
G0 Y30.296859
G1 Z-2.000000 F20.000000
G1 Y3.626859 F30.000000
G1 X44.636158 F30.000000
G0 Z0.500000
G0 X41.016658
G1 Z-2.000000 F20.000000
G1 X7.044158 F30.000000
G1 X3.297658 Y7.373359 F30.000000
G1 Y13.532859 F30.000000
G1 X6.409158 Y16.644359 F30.000000
G1 Z-2.000000 F20.000000
G1 Y50.553359 F30.000000
G1 X3.424658 Y53.537859 F30.000000
G1 Y58.109859 F30.000000
G0 Z0.500000
G0 X6.980658
G1 Z-2.000000 F20.000000
G1 X54.605658 F30.000000
G0 Z0.500000
G0 X81.148658 Y58.173359
G1 Z-2.000000 F20.000000
G1 Y33.789359 F30.000000
G0 Z0.500000
G0 X58.288658 Y58.109859
G1 Z-2.000000 F20.000000
G1 X81.148658 F30.000000

(Goto to Initial position)
G0 Z0.500000
G0 X0.000000 Y0.000000
G0 Z0.000000
