(Generated by ./pygerber2gcode_cui_MOD.py )
( 2013-05-29 04:57:18 )
(Initialize)
G92 X0.000000 Y0.000000 Z0.000000

(Start form here)
G0 Z2.000000
G0 X14.385403 Y13.183340
G1 Z-0.040000 F60.000000
G1 X14.369479 Y13.167835 F100.000000
G1 X14.350847 Y13.155718 F100.000000
G1 X14.341912 Y13.140994 F100.000000
G1 X14.329572 Y13.128979 F100.000000
G1 X14.321953 Y13.108100 F100.000000
G1 X14.310423 Y13.089098 F100.000000
G1 X13.977683 Y12.088338 F100.000000
G1 X13.970168 Y12.010777 F100.000000
G1 X13.997050 Y11.937636 F100.000000
G1 X14.053004 Y11.883402 F100.000000
G1 X14.126949 Y11.858816 F100.000000
G1 X14.204238 Y11.868749 F100.000000
G1 X14.269563 Y11.911232 F100.000000
G1 X14.309987 Y11.977852 F100.000000
G1 X14.365568 Y12.145020 F100.000000
G1 X14.589697 F100.000000
G1 X14.645830 Y11.977472 F100.000000
G1 X14.686405 Y11.910945 F100.000000
G1 X14.751828 Y11.868611 F100.000000
G1 X14.829139 Y11.858855 F100.000000
G1 X14.903027 Y11.883610 F100.000000
G1 X14.958858 Y11.937971 F100.000000
G1 X14.978762 Y11.992514 F100.000000
G1 X14.986840 Y11.957124 F100.000000
G1 X15.035425 Y11.896200 F100.000000
G1 X15.105633 Y11.862390 F100.000000
G1 X15.183557 F100.000000
G1 X15.253765 Y11.896200 F100.000000
G1 X15.302350 Y11.957124 F100.000000
G1 X15.319690 Y12.033095 F100.000000
G1 Y12.521155 F100.000000
G1 X15.329164 Y12.526020 F100.000000
G1 X15.389286 F100.000000
G1 X15.395545 Y12.522805 F100.000000
G1 X15.398760 Y12.516546 F100.000000
G1 Y12.033095 F100.000000
G1 X15.416100 Y11.957124 F100.000000
G1 X15.464685 Y11.896200 F100.000000
G1 X15.534893 Y11.862390 F100.000000
G1 X15.612817 F100.000000
G1 X15.683025 Y11.896200 F100.000000
G1 X15.731610 Y11.957124 F100.000000
G1 X15.748950 Y12.033095 F100.000000
G0 Z2.000000
G1 Z-0.040000 F60.000000
G1 Y12.558875 F100.000000
G1 X15.748440 Y12.561110 F100.000000
G1 X15.748893 Y12.563357 F100.000000
G1 X15.739794 Y12.598991 F100.000000
G1 X15.731610 Y12.634846 F100.000000
G1 X15.730181 Y12.636638 F100.000000
G1 X15.729614 Y12.638859 F100.000000
G1 X15.681354 Y12.732839 F100.000000
G1 X15.671518 Y12.744545 F100.000000
G1 X15.665239 Y12.758485 F100.000000
G1 X15.646756 Y12.774016 F100.000000
G1 X15.631225 Y12.792499 F100.000000
G1 X15.617285 Y12.798778 F100.000000
G1 X15.605579 Y12.808614 F100.000000
G1 X15.511599 Y12.856874 F100.000000
G1 X15.509378 Y12.857441 F100.000000
G1 X15.507586 Y12.858870 F100.000000
G1 X15.471731 Y12.867054 F100.000000
G1 X15.436097 Y12.876153 F100.000000
G1 X15.433850 Y12.875700 F100.000000
G1 X15.431615 Y12.876210 F100.000000
G1 X15.286835 F100.000000
G1 X15.284600 Y12.875700 F100.000000
G1 X15.282353 Y12.876153 F100.000000
G1 X15.246719 Y12.867054 F100.000000
G1 X15.210864 Y12.858870 F100.000000
G1 X15.210707 Y12.858745 F100.000000
G1 X15.183557 Y12.871820 F100.000000
G1 X15.105633 F100.000000
G1 X15.035425 Y12.838010 F100.000000
G1 X14.986840 Y12.777086 F100.000000
G1 X14.969500 Y12.701115 F100.000000
G1 Y12.113731 F100.000000
G1 X14.642600 Y13.089478 F100.000000
G1 X14.631027 Y13.108453 F100.000000
G1 X14.623360 Y13.129314 F100.000000
G1 X14.610993 Y13.141301 F100.000000
G1 X14.602025 Y13.156005 F100.000000
G1 X14.583365 Y13.168079 F100.000000
G1 X14.567406 Y13.183548 F100.000000
G1 X14.551062 Y13.188982 F100.000000
G1 X14.536602 Y13.198339 F100.000000
G1 X14.514552 Y13.201122 F100.000000
G1 X14.493461 Y13.208134 F100.000000
G1 X14.476379 Y13.205939 F100.000000
G1 X14.459291 Y13.208095 F100.000000
G1 X14.438217 Y13.201034 F100.000000
G1 X14.416172 Y13.198201 F100.000000
G1 X14.401734 Y13.188812 F100.000000
G1 X14.385403 Y13.183340 F100.000000
G0 Z2.000000
G0 X15.927274 Y12.489936
G1 Z-0.040000 F60.000000
G1 X15.912644 Y12.478422 F100.000000
G1 X15.903483 Y12.459706 F100.000000
G1 X15.890595 Y12.443331 F100.000000
G1 X15.844875 Y12.346811 F100.000000
G1 X15.836568 Y12.309306 F100.000000
G1 X15.828020 Y12.271855 F100.000000
G1 Y12.177875 F100.000000
G1 X15.836568 Y12.140424 F100.000000
G1 X15.844875 Y12.102919 F100.000000
G1 X15.890595 Y12.006399 F100.000000
G1 X15.902346 Y11.991469 F100.000000
G1 X15.910334 Y11.974230 F100.000000
G1 X15.926137 Y11.961239 F100.000000
G1 X15.938788 Y11.945164 F100.000000
G1 X15.955853 Y11.936811 F100.000000
G1 X15.970530 Y11.924745 F100.000000
G1 X16.067050 Y11.876485 F100.000000
G1 X16.068343 Y11.876170 F100.000000
G1 X16.069384 Y11.875340 F100.000000
G1 X16.106134 Y11.866952 F100.000000
G1 X16.142755 Y11.858019 F100.000000
G1 X16.144057 Y11.858296 F100.000000
G1 X16.145355 Y11.858000 F100.000000
G1 X16.384115 F100.000000
G1 X16.386350 Y11.858510 F100.000000
G1 X16.388597 Y11.858057 F100.000000
G1 X16.424231 Y11.867156 F100.000000
G1 X16.427626 Y11.867931 F100.000000
G1 X16.439133 Y11.862390 F100.000000
G1 X16.517057 F100.000000
G1 X16.587265 Y11.896200 F100.000000
G1 X16.635850 Y11.957124 F100.000000
G1 X16.653190 Y12.033095 F100.000000
G1 Y12.558875 F100.000000
G1 X16.653111 Y12.559223 F100.000000
G1 X16.653189 Y12.559572 F100.000000
G1 X16.644444 Y12.597192 F100.000000
G1 X16.635850 Y12.634846 F100.000000
G1 X16.635627 Y12.635125 F100.000000
G1 X16.635547 Y12.635473 F100.000000
G1 X16.589827 Y12.729453 F100.000000
G1 X16.578486 Y12.743559 F100.000000
G1 X16.570876 Y12.759980 F100.000000
G1 X16.554380 Y12.773541 F100.000000
G1 X16.540999 Y12.790183 F100.000000
G1 X16.524661 Y12.797971 F100.000000
G1 X16.510680 Y12.809465 F100.000000
G1 X16.414160 Y12.857725 F100.000000
G1 X16.412867 Y12.858040 F100.000000
G1 X16.411826 Y12.858870 F100.000000
G1 X16.375076 Y12.867258 F100.000000
G1 X16.338455 Y12.876191 F100.000000
G1 X16.337153 Y12.875914 F100.000000
G1 X16.335855 Y12.876210 F100.000000
G1 X16.145355 F100.000000
G1 X16.144057 Y12.875914 F100.000000
G1 X16.142755 Y12.876191 F100.000000
G1 X16.106134 Y12.867258 F100.000000
G1 X16.069384 Y12.858870 F100.000000
G1 X16.068343 Y12.858040 F100.000000
G1 X16.067050 Y12.857725 F100.000000
G1 X15.970530 Y12.809465 F100.000000
G1 X15.910334 Y12.759980 F100.000000
G1 X15.877570 Y12.689278 F100.000000
G1 X15.878727 Y12.611362 F100.000000
G1 X15.913576 Y12.541664 F100.000000
G1 X15.952722 Y12.511387 F100.000000
G1 X15.938788 Y12.504566 F100.000000
G1 X15.927274 Y12.489936 F100.000000
G0 Z2.000000
G0 X16.303000 Y12.239000
G1 Z-0.040000 F60.000000
G1 Y12.208190 F100.000000
G1 X16.186689 F100.000000
G1 X16.181201 Y12.210934 F100.000000
G1 X16.178210 Y12.217248 F100.000000
G1 Y12.232482 F100.000000
G1 X16.180305 Y12.236905 F100.000000
G1 X16.184728 Y12.239000 F100.000000
G1 X16.303000 F100.000000
G0 Z2.000000
G0 X16.780520 Y13.033855
G1 Z-0.040000 F60.000000
G1 Y12.177875 F100.000000
G1 X16.780816 Y12.176577 F100.000000
G1 X16.780539 Y12.175275 F100.000000
G1 X16.789472 Y12.138654 F100.000000
G1 X16.797860 Y12.101904 F100.000000
G1 X16.798690 Y12.100863 F100.000000
G1 X16.799005 Y12.099570 F100.000000
G1 X16.847265 Y12.003050 F100.000000
G1 X16.857568 Y11.990518 F100.000000
G1 X16.864231 Y11.975725 F100.000000
G1 X16.882006 Y11.960789 F100.000000
G1 X16.896750 Y11.942854 F100.000000
G1 X16.911470 Y11.936033 F100.000000
G1 X16.923891 Y11.925596 F100.000000
G1 X17.017871 Y11.877336 F100.000000
G1 X17.093373 Y11.858057 F100.000000
G1 X17.169763 Y11.873447 F100.000000
G1 X17.231910 Y11.920457 F100.000000
G1 X17.267507 Y11.989776 F100.000000
G1 X17.269501 Y12.067675 F100.000000
G1 X17.237499 Y12.138725 F100.000000
G1 X17.177839 Y12.188854 F100.000000
G1 X17.134850 Y12.210929 F100.000000
G1 X17.130710 Y12.219209 F100.000000
G1 Y13.033855 F100.000000
G1 X17.113370 Y13.109826 F100.000000
G1 X17.064785 Y13.170750 F100.000000
G1 X16.994577 Y13.204560 F100.000000
G1 X16.916653 F100.000000
G1 X16.846445 Y13.170750 F100.000000
G1 X16.797860 Y13.109826 F100.000000
G1 X16.780520 Y13.033855 F100.000000
G0 Z2.000000
G0 X17.805991 Y11.867156
G1 Z-0.040000 F60.000000
G1 X17.841846 Y11.875340 F100.000000
G1 X17.843638 Y11.876769 F100.000000
G1 X17.845859 Y11.877336 F100.000000
G1 X17.939839 Y11.925596 F100.000000
G1 X17.960650 Y11.943082 F100.000000
G1 X17.983666 Y11.957544 F100.000000
G1 X18.031926 Y12.005804 F100.000000
G1 X18.046388 Y12.028820 F100.000000
G1 X18.063874 Y12.049631 F100.000000
G1 X18.112134 Y12.143611 F100.000000
G1 X18.112701 Y12.145832 F100.000000
G1 X18.114130 Y12.147624 F100.000000
G1 X18.122314 Y12.183479 F100.000000
G1 X18.131413 Y12.219113 F100.000000
G1 X18.130960 Y12.221360 F100.000000
G1 X18.131470 Y12.223595 F100.000000
G1 Y12.510615 F100.000000
G1 X18.130960 Y12.512850 F100.000000
G1 X18.131413 Y12.515097 F100.000000
G1 X18.122314 Y12.550731 F100.000000
G1 X18.114130 Y12.586586 F100.000000
G1 X18.112701 Y12.588378 F100.000000
G1 X18.112134 Y12.590599 F100.000000
G1 X18.063874 Y12.684579 F100.000000
G1 X18.046388 Y12.705390 F100.000000
G1 X18.031926 Y12.728406 F100.000000
G1 X17.983666 Y12.776666 F100.000000
G1 X17.960650 Y12.791128 F100.000000
G1 X17.939839 Y12.808614 F100.000000
G1 X17.845859 Y12.856874 F100.000000
G1 X17.843638 Y12.857441 F100.000000
G1 X17.841846 Y12.858870 F100.000000
G1 X17.805991 Y12.867054 F100.000000
G1 X17.770357 Y12.876153 F100.000000
G1 X17.768110 Y12.875700 F100.000000
G1 X17.765875 Y12.876210 F100.000000
G1 X17.623635 F100.000000
G1 X17.622337 Y12.875914 F100.000000
G1 X17.621035 Y12.876191 F100.000000
G1 X17.584414 Y12.867258 F100.000000
G1 X17.547664 Y12.858870 F100.000000
G1 X17.546623 Y12.858040 F100.000000
G1 X17.545330 Y12.857725 F100.000000
G1 X17.448810 Y12.809465 F100.000000
G1 X17.427100 Y12.791618 F100.000000
G1 X17.403304 Y12.776666 F100.000000
G1 X17.355044 Y12.728406 F100.000000
G1 X17.339597 Y12.703821 F100.000000
G1 X17.321403 Y12.681193 F100.000000
G1 X17.275683 Y12.587213 F100.000000
G1 X17.275603 Y12.586865 F100.000000
G1 X17.275380 Y12.586586 F100.000000
G1 X17.266786 Y12.548932 F100.000000
G1 X17.258041 Y12.511312 F100.000000
G1 X17.258119 Y12.510963 F100.000000
G1 X17.258040 Y12.510615 F100.000000
G1 Y12.223595 F100.000000
G1 X17.258119 Y12.223247 F100.000000
G1 X17.258041 Y12.222898 F100.000000
G1 X17.266786 Y12.185278 F100.000000
G1 X17.275380 Y12.147624 F100.000000
G1 X17.275603 Y12.147345 F100.000000
G1 X17.275683 Y12.146997 F100.000000
G1 X17.321403 Y12.053017 F100.000000
G1 X17.339597 Y12.030389 F100.000000
G1 X17.355044 Y12.005804 F100.000000
G1 X17.403304 Y11.957544 F100.000000
G1 X17.427100 Y11.942592 F100.000000
G1 X17.448810 Y11.924745 F100.000000
G1 X17.545330 Y11.876485 F100.000000
G1 X17.546623 Y11.876170 F100.000000
G1 X17.547664 Y11.875340 F100.000000
G1 X17.584414 Y11.866952 F100.000000
G1 X17.621035 Y11.858019 F100.000000
G1 X17.622337 Y11.858296 F100.000000
G1 X17.623635 Y11.858000 F100.000000
G1 X17.765875 F100.000000
G1 X17.768110 Y11.858510 F100.000000
G1 X17.770357 Y11.858057 F100.000000
G1 X17.805991 Y11.867156 F100.000000
G0 Z2.000000
G0 X17.664969 Y12.208190
G1 Z-0.040000 F60.000000
G1 X17.630834 Y12.225258 F100.000000
G1 X17.623449 Y12.232643 F100.000000
G1 X17.608230 Y12.263926 F100.000000
G1 Y12.470284 F100.000000
G1 X17.623449 Y12.501567 F100.000000
G1 X17.630834 Y12.508952 F100.000000
G1 X17.664969 Y12.526020 F100.000000
G1 X17.723546 F100.000000
G1 X17.755453 Y12.509635 F100.000000
G1 X17.764895 Y12.500193 F100.000000
G1 X17.781280 Y12.468286 F100.000000
G1 Y12.265924 F100.000000
G1 X17.764895 Y12.234017 F100.000000
G1 X17.755453 Y12.224575 F100.000000
G1 X17.723546 Y12.208190 F100.000000
G1 X17.664969 F100.000000
G0 Z2.000000
G0 X18.487759 Y12.867054
G1 Z-0.040000 F60.000000
G1 X18.451904 Y12.858870 F100.000000
G1 X18.450112 Y12.857441 F100.000000
G1 X18.447891 Y12.856874 F100.000000
G1 X18.353911 Y12.808614 F100.000000
G1 X18.333100 Y12.791128 F100.000000
G1 X18.310084 Y12.776666 F100.000000
G1 X18.261824 Y12.728406 F100.000000
G1 X18.247362 Y12.705390 F100.000000
G1 X18.229876 Y12.684579 F100.000000
G1 X18.181616 Y12.590599 F100.000000
G1 X18.181049 Y12.588378 F100.000000
G1 X18.179620 Y12.586586 F100.000000
G1 X18.171436 Y12.550731 F100.000000
G1 X18.162337 Y12.515097 F100.000000
G1 X18.162790 Y12.512850 F100.000000
G1 X18.162280 Y12.510615 F100.000000
G1 Y12.223595 F100.000000
G1 X18.162790 Y12.221360 F100.000000
G1 X18.162337 Y12.219113 F100.000000
G1 X18.171436 Y12.183479 F100.000000
G1 X18.179620 Y12.147624 F100.000000
G1 X18.181049 Y12.145832 F100.000000
G1 X18.181616 Y12.143611 F100.000000
G1 X18.229876 Y12.049631 F100.000000
G1 X18.247362 Y12.028820 F100.000000
G1 X18.261824 Y12.005804 F100.000000
G1 X18.310084 Y11.957544 F100.000000
G1 X18.333100 Y11.943082 F100.000000
G1 X18.353911 Y11.925596 F100.000000
G1 X18.366831 Y11.918961 F100.000000
G1 X18.313727 Y11.908263 F100.000000
G1 X18.251580 Y11.861253 F100.000000
G1 X18.215983 Y11.791934 F100.000000
G1 X18.213989 Y11.714035 F100.000000
G1 X18.245991 Y11.642985 F100.000000
G1 X18.305651 Y11.592856 F100.000000
G1 X18.399631 Y11.544596 F100.000000
G1 X18.401852 Y11.544029 F100.000000
G1 X18.403644 Y11.542600 F100.000000
G1 X18.439499 Y11.534416 F100.000000
G1 X18.475133 Y11.525317 F100.000000
G1 X18.477380 Y11.525770 F100.000000
G1 X18.479615 Y11.525260 F100.000000
G1 X18.624395 F100.000000
G1 X18.626630 Y11.525770 F100.000000
G1 X18.628877 Y11.525317 F100.000000
G1 X18.664511 Y11.534416 F100.000000
G1 X18.700366 Y11.542600 F100.000000
G1 X18.702158 Y11.544029 F100.000000
G1 X18.704379 Y11.544596 F100.000000
G1 X18.798359 Y11.592856 F100.000000
G1 X18.817394 Y11.608850 F100.000000
G1 X18.838796 Y11.621504 F100.000000
G1 X18.887056 Y11.667224 F100.000000
G1 X18.903929 Y11.692533 F100.000000
G1 X18.923245 Y11.716030 F100.000000
G1 X18.971505 Y11.812550 F100.000000
G1 X18.971820 Y11.813843 F100.000000
G1 X18.972650 Y11.814884 F100.000000
G1 X18.981038 Y11.851634 F100.000000
G1 X18.989971 Y11.888255 F100.000000
G1 X18.989694 Y11.889557 F100.000000
G1 X18.989990 Y11.890855 F100.000000
G1 Y12.701115 F100.000000
G1 X18.972650 Y12.777086 F100.000000
G1 X18.924065 Y12.838010 F100.000000
G1 X18.853857 Y12.871820 F100.000000
G1 X18.775933 F100.000000
G1 X18.763610 Y12.865886 F100.000000
G1 X18.757596 Y12.867258 F100.000000
G1 X18.720975 Y12.876191 F100.000000
G1 X18.719673 Y12.875914 F100.000000
G1 X18.718375 Y12.876210 F100.000000
G1 X18.527875 F100.000000
G1 X18.525640 Y12.875700 F100.000000
G1 X18.523393 Y12.876153 F100.000000
G1 X18.487759 Y12.867054 F100.000000
G0 Z2.000000
G0 X18.639800 Y12.526020
G1 Z-0.040000 F60.000000
G1 Y12.208190 F100.000000
G1 X18.570204 F100.000000
G1 X18.538297 Y12.224575 F100.000000
G1 X18.528855 Y12.234017 F100.000000
G1 X18.512470 Y12.265924 F100.000000
G1 Y12.468286 F100.000000
G1 X18.528855 Y12.500193 F100.000000
G1 X18.538297 Y12.509635 F100.000000
G1 X18.570204 Y12.526020 F100.000000
G1 X18.639800 F100.000000
G0 Z2.000000
G0 X31.679995 Y39.609710
G1 Z-0.040000 F60.000000
G1 X31.664590 F100.000000
G1 Y39.673750 F100.000000
G1 X31.708890 Y39.688780 F100.000000
G1 X31.745561 F100.000000
G1 X31.823001 Y39.662967 F100.000000
G1 X31.868969 Y39.615756 F100.000000
G1 X31.896148 Y39.562829 F100.000000
G1 X31.934160 Y39.412781 F100.000000
G1 Y39.314209 F100.000000
G1 X31.895914 Y39.163237 F100.000000
G1 X31.868297 Y39.108004 F100.000000
G1 X31.824030 Y39.062540 F100.000000
G1 X31.746985 Y39.038210 F100.000000
G1 X31.672066 F100.000000
G1 X31.614353 Y39.066287 F100.000000
G1 X31.538452 Y39.083929 F100.000000
G1 X31.462413 Y39.066891 F100.000000
G1 X31.401296 Y39.018549 F100.000000
G1 X31.367206 Y38.948476 F100.000000
G1 X31.366896 Y38.870552 F100.000000
G1 X31.400427 Y38.800211 F100.000000
G1 X31.461157 Y38.751383 F100.000000
G1 X31.555137 Y38.705663 F100.000000
G1 X31.555485 Y38.705583 F100.000000
G1 X31.555764 Y38.705360 F100.000000
G1 X31.593418 Y38.696766 F100.000000
G1 X31.631038 Y38.688021 F100.000000
G1 X31.631387 Y38.688099 F100.000000
G1 X31.631735 Y38.688020 F100.000000
G1 X31.773975 F100.000000
G1 X31.800047 Y38.693971 F100.000000
G1 X31.826702 Y38.696147 F100.000000
G1 X31.971482 Y38.741867 F100.000000
G1 X31.974878 Y38.743859 F100.000000
G1 X31.978783 Y38.744351 F100.000000
G1 X32.008337 Y38.763476 F100.000000
G1 X32.038705 Y38.781280 F100.000000
G1 X32.040900 Y38.784547 F100.000000
G1 X32.044206 Y38.786686 F100.000000
G1 X32.138186 Y38.883206 F100.000000
G1 X32.152224 Y38.906223 F100.000000
G1 X32.169345 Y38.927050 F100.000000
G1 X32.217605 Y39.023570 F100.000000
G1 X32.222098 Y39.041992 F100.000000
G1 X32.230728 Y39.058876 F100.000000
G1 X32.278988 Y39.249376 F100.000000
G1 X32.279504 Y39.271145 F100.000000
G1 X32.284350 Y39.292375 F100.000000
G1 Y39.434615 F100.000000
G1 X32.279504 Y39.455845 F100.000000
G1 X32.278988 Y39.477614 F100.000000
G1 X32.230728 Y39.668114 F100.000000
G1 X32.221675 Y39.685826 F100.000000
G1 X32.216754 Y39.705099 F100.000000
G1 X32.168494 Y39.799079 F100.000000
G1 X32.151743 Y39.819014 F100.000000
G1 X32.138186 Y39.841244 F100.000000
G1 X32.044206 Y39.937764 F100.000000
G1 X32.042088 Y39.939135 F100.000000
G1 X32.040714 Y39.941251 F100.000000
G1 X32.009475 Y39.960238 F100.000000
G1 X31.978783 Y39.980099 F100.000000
G1 X31.976281 Y39.980414 F100.000000
G1 X31.974125 Y39.981725 F100.000000
G1 X31.829345 Y40.029985 F100.000000
G1 X31.801374 Y40.032716 F100.000000
G1 X31.773975 Y40.038970 F100.000000
G1 X31.679995 F100.000000
G1 X31.652149 Y40.032614 F100.000000
G1 X31.623738 Y40.029686 F100.000000
G1 X31.481498 Y39.981426 F100.000000
G1 X31.480772 Y39.980980 F100.000000
G1 X31.479925 Y39.980884 F100.000000
G1 X31.447621 Y39.960587 F100.000000
G1 X31.415126 Y39.940597 F100.000000
G1 X31.414666 Y39.939879 F100.000000
G1 X31.413944 Y39.939426 F100.000000
G1 X31.365684 Y39.891166 F100.000000
G1 X31.350055 Y39.866293 F100.000000
G1 X31.331740 Y39.843326 F100.000000
G1 X31.329524 Y39.833617 F100.000000
G1 X31.324226 Y39.825185 F100.000000
G1 X31.320937 Y39.795994 F100.000000
G1 X31.314400 Y39.767355 F100.000000
G1 Y39.434615 F100.000000
G1 X31.318790 Y39.415381 F100.000000
G1 Y39.395653 F100.000000
G1 X31.327350 Y39.377878 F100.000000
G1 X31.331740 Y39.358644 F100.000000
G1 X31.344040 Y39.343220 F100.000000
G1 X31.352600 Y39.325445 F100.000000
G1 X31.368025 Y39.313145 F100.000000
G1 X31.380325 Y39.297720 F100.000000
G1 X31.398100 Y39.289160 F100.000000
G1 X31.413524 Y39.276860 F100.000000
G1 X31.432758 Y39.272470 F100.000000
G1 X31.450533 Y39.263910 F100.000000
G1 X31.470261 F100.000000
G1 X31.489495 Y39.259520 F100.000000
G1 X31.679995 F100.000000
G1 X31.755966 Y39.276860 F100.000000
G1 X31.816890 Y39.325445 F100.000000
G1 X31.850700 Y39.395653 F100.000000
G1 Y39.473577 F100.000000
G1 X31.816890 Y39.543785 F100.000000
G1 X31.755966 Y39.592370 F100.000000
G1 X31.679995 Y39.609710 F100.000000
G0 Z2.000000
G0 X31.178722 Y38.734200
G1 Z-0.040000 F60.000000
G1 X31.197428 Y38.761360 F100.000000
G1 X31.217990 Y38.787144 F100.000000
G1 X31.219380 Y38.793233 F100.000000
G1 X31.222922 Y38.798376 F100.000000
G1 X31.227992 Y38.830963 F100.000000
G1 X31.235330 Y38.863115 F100.000000
G1 Y39.863875 F100.000000
G1 X31.217990 Y39.939846 F100.000000
G1 X31.169405 Y40.000770 F100.000000
G1 X31.099197 Y40.034580 F100.000000
G1 X31.021273 F100.000000
G1 X30.951065 Y40.000770 F100.000000
G1 X30.902480 Y39.939846 F100.000000
G1 X30.885140 Y39.863875 F100.000000
G1 Y39.522810 F100.000000
G1 X30.640784 Y39.950705 F100.000000
G1 X30.618467 Y39.974986 F100.000000
G1 X30.597905 Y40.000770 F100.000000
G1 X30.592278 Y40.003479 F100.000000
G1 X30.588052 Y40.008078 F100.000000
G1 X30.557410 Y40.020271 F100.000000
G1 X30.527697 Y40.034580 F100.000000
G1 X30.521452 F100.000000
G1 X30.515650 Y40.036889 F100.000000
G1 X30.482752 Y40.034580 F100.000000
G1 X30.449773 F100.000000
G1 X30.444146 Y40.031870 F100.000000
G1 X30.437916 Y40.031433 F100.000000
G1 X30.409278 Y40.015079 F100.000000
G1 X30.379565 Y40.000770 F100.000000
G1 X30.375671 Y39.995887 F100.000000
G1 X30.370248 Y39.992790 F100.000000
G1 X30.351542 Y39.965630 F100.000000
G1 X30.330980 Y39.939846 F100.000000
G1 X30.329590 Y39.933757 F100.000000
G1 X30.326048 Y39.928614 F100.000000
G1 X30.320978 Y39.896027 F100.000000
G1 X30.313640 Y39.863875 F100.000000
G1 Y38.863115 F100.000000
G1 X30.330980 Y38.787144 F100.000000
G1 X30.379565 Y38.726220 F100.000000
G1 X30.449773 Y38.692410 F100.000000
G1 X30.527697 F100.000000
G1 X30.597905 Y38.726220 F100.000000
G1 X30.646490 Y38.787144 F100.000000
G1 X30.663830 Y38.863115 F100.000000
G1 Y39.204180 F100.000000
G1 X30.908186 Y38.776285 F100.000000
G1 X30.930503 Y38.752004 F100.000000
G1 X30.951065 Y38.726220 F100.000000
G1 X30.956692 Y38.723511 F100.000000
G1 X30.960918 Y38.718912 F100.000000
G1 X30.991560 Y38.706719 F100.000000
G1 X31.021273 Y38.692410 F100.000000
G1 X31.027518 F100.000000
G1 X31.033320 Y38.690101 F100.000000
G1 X31.066218 Y38.692410 F100.000000
G1 X31.099197 F100.000000
G1 X31.104824 Y38.695120 F100.000000
G1 X31.111054 Y38.695557 F100.000000
G1 X31.139692 Y38.711911 F100.000000
G1 X31.169405 Y38.726220 F100.000000
G1 X31.173299 Y38.731103 F100.000000
G1 X31.178722 Y38.734200 F100.000000
G0 Z2.000000
G0 X30.148110 Y38.753945
G1 Z-0.040000 F60.000000
G1 X30.156670 Y38.771720 F100.000000
G1 X30.168970 Y38.787144 F100.000000
G1 X30.173360 Y38.806378 F100.000000
G1 X30.181920 Y38.824153 F100.000000
G1 Y38.843881 F100.000000
G1 X30.186310 Y38.863115 F100.000000
G1 Y39.863875 F100.000000
G1 X30.181920 Y39.883109 F100.000000
G1 Y39.902837 F100.000000
G1 X30.173360 Y39.920612 F100.000000
G1 X30.168970 Y39.939846 F100.000000
G1 X30.156670 Y39.955270 F100.000000
G1 X30.148110 Y39.973045 F100.000000
G1 X30.132685 Y39.985345 F100.000000
G1 X30.120385 Y40.000770 F100.000000
G1 X30.102610 Y40.009330 F100.000000
G1 X30.087186 Y40.021630 F100.000000
G1 X30.067952 Y40.026020 F100.000000
G1 X30.050177 Y40.034580 F100.000000
G1 X30.030449 F100.000000
G1 X30.011215 Y40.038970 F100.000000
G1 X29.772455 F100.000000
G1 X29.744609 Y40.032614 F100.000000
G1 X29.716198 Y40.029686 F100.000000
G1 X29.573958 Y39.981426 F100.000000
G1 X29.572216 Y39.980355 F100.000000
G1 X29.570187 Y39.980099 F100.000000
G1 X29.539112 Y39.959990 F100.000000
G0 Z2.000000
G1 Z-0.040000 F60.000000
G1 X29.507586 Y39.940597 F100.000000
G1 X29.506482 Y39.938875 F100.000000
G1 X29.504764 Y39.937764 F100.000000
G1 X29.410784 Y39.841244 F100.000000
G1 X29.397227 Y39.819014 F100.000000
G1 X29.380476 Y39.799079 F100.000000
G1 X29.332216 Y39.705099 F100.000000
G1 X29.327295 Y39.685826 F100.000000
G1 X29.318242 Y39.668114 F100.000000
G1 X29.269982 Y39.477614 F100.000000
G1 X29.269466 Y39.455845 F100.000000
G1 X29.264620 Y39.434615 F100.000000
G1 Y39.292375 F100.000000
G1 X29.269466 Y39.271145 F100.000000
G1 X29.269982 Y39.249376 F100.000000
G1 X29.318242 Y39.058876 F100.000000
G1 X29.326872 Y39.041992 F100.000000
G1 X29.331365 Y39.023570 F100.000000
G1 X29.379625 Y38.927050 F100.000000
G1 X29.396746 Y38.906223 F100.000000
G1 X29.410784 Y38.883206 F100.000000
G1 X29.504764 Y38.786686 F100.000000
G1 X29.507687 Y38.784795 F100.000000
G1 X29.509614 Y38.781895 F100.000000
G1 X29.540266 Y38.763713 F100.000000
G1 X29.570187 Y38.744351 F100.000000
G1 X29.573640 Y38.743916 F100.000000
G1 X29.576634 Y38.742140 F100.000000
G1 X29.718874 Y38.696420 F100.000000
G1 X29.745954 Y38.694069 F100.000000
G1 X29.772455 Y38.688020 F100.000000
G1 X30.011215 F100.000000
G1 X30.030449 Y38.692410 F100.000000
G1 X30.050177 F100.000000
G1 X30.067952 Y38.700970 F100.000000
G1 X30.087186 Y38.705360 F100.000000
G1 X30.102610 Y38.717660 F100.000000
G1 X30.120385 Y38.726220 F100.000000
G1 X30.132685 Y38.741645 F100.000000
G1 X30.148110 Y38.753945 F100.000000
G0 Z2.000000
G0 X29.836120 Y39.688780
G1 Z-0.040000 F60.000000
G1 Y39.038210 F100.000000
G1 X29.799904 F100.000000
G1 X29.725273 Y39.062199 F100.000000
G1 X29.680673 Y39.108004 F100.000000
G1 X29.653056 Y39.163237 F100.000000
G1 X29.614810 Y39.314209 F100.000000
G1 Y39.412781 F100.000000
G1 X29.652822 Y39.562829 F100.000000
G1 X29.680001 Y39.615756 F100.000000
G1 X29.726315 Y39.663322 F100.000000
G1 X29.801350 Y39.688780 F100.000000
G1 X29.836120 F100.000000
G0 Z2.000000
G0 X34.639095 Y15.756900
G1 Z-0.040000 F60.000000
G1 X34.845000 F100.000000
G1 Y15.550995 F100.000000
G1 X34.862340 Y15.475024 F100.000000
G1 X34.910925 Y15.414100 F100.000000
G1 X34.981133 Y15.380290 F100.000000
G1 X35.059057 F100.000000
G1 X35.129265 Y15.414100 F100.000000
G1 X35.177850 Y15.475024 F100.000000
G1 X35.195190 Y15.550995 F100.000000
G1 Y15.756900 F100.000000
G1 X35.401095 F100.000000
G1 X35.477066 Y15.774240 F100.000000
G1 X35.537990 Y15.822825 F100.000000
G1 X35.571800 Y15.893033 F100.000000
G1 Y15.970957 F100.000000
G1 X35.537990 Y16.041165 F100.000000
G1 X35.477066 Y16.089750 F100.000000
G1 X35.401095 Y16.107090 F100.000000
G1 X35.195190 F100.000000
G1 Y16.312995 F100.000000
G1 X35.177850 Y16.388966 F100.000000
G1 X35.129265 Y16.449890 F100.000000
G1 X35.059057 Y16.483700 F100.000000
G1 X34.981133 F100.000000
G1 X34.910925 Y16.449890 F100.000000
G1 X34.862340 Y16.388966 F100.000000
G1 X34.845000 Y16.312995 F100.000000
G1 Y16.107090 F100.000000
G1 X34.639095 F100.000000
G1 X34.563124 Y16.089750 F100.000000
G1 X34.502200 Y16.041165 F100.000000
G1 X34.468390 Y15.970957 F100.000000
G1 Y15.893033 F100.000000
G1 X34.502200 Y15.822825 F100.000000
G1 X34.563124 Y15.774240 F100.000000
G1 X34.639095 Y15.756900 F100.000000
G0 Z2.000000
G0 X34.859426 Y14.997924
G1 Z-0.040000 F60.000000
G1 X34.900884 Y15.063905 F100.000000
G1 X34.909609 Y15.141339 F100.000000
G1 X34.883872 Y15.214891 F100.000000
G1 X34.828771 Y15.269992 F100.000000
G1 X34.755219 Y15.295729 F100.000000
G1 X34.677785 Y15.287004 F100.000000
G1 X34.611804 Y15.245546 F100.000000
G1 X34.563544 Y15.197286 F100.000000
G1 X34.549082 Y15.174270 F100.000000
G1 X34.531596 Y15.153459 F100.000000
G1 X34.483336 Y15.059479 F100.000000
G1 X34.482769 Y15.057258 F100.000000
G1 X34.481340 Y15.055466 F100.000000
G1 X34.473156 Y15.019611 F100.000000
G1 X34.464057 Y14.983977 F100.000000
G1 X34.464510 Y14.981730 F100.000000
G1 X34.464000 Y14.979495 F100.000000
G1 Y14.740735 F100.000000
G1 X34.464296 Y14.739437 F100.000000
G1 X34.464019 Y14.738135 F100.000000
G1 X34.472952 Y14.701514 F100.000000
G1 X34.481340 Y14.664764 F100.000000
G1 X34.482170 Y14.663723 F100.000000
G1 X34.482485 Y14.662430 F100.000000
G1 X34.530745 Y14.565910 F100.000000
G1 X34.550061 Y14.542413 F100.000000
G1 X34.566934 Y14.517104 F100.000000
G1 X34.615194 Y14.471384 F100.000000
G1 X34.636596 Y14.458730 F100.000000
G1 X34.655631 Y14.442736 F100.000000
G1 X34.749611 Y14.394476 F100.000000
G1 X34.751832 Y14.393909 F100.000000
G1 X34.753624 Y14.392480 F100.000000
G1 X34.789479 Y14.384296 F100.000000
G1 X34.825113 Y14.375197 F100.000000
G1 X34.827360 Y14.375650 F100.000000
G1 X34.829595 Y14.375140 F100.000000
G1 X35.068355 F100.000000
G1 X35.069653 Y14.375436 F100.000000
G1 X35.070955 Y14.375159 F100.000000
G1 X35.107576 Y14.384092 F100.000000
G1 X35.144326 Y14.392480 F100.000000
G1 X35.145367 Y14.393310 F100.000000
G1 X35.146660 Y14.393625 F100.000000
G1 X35.243180 Y14.441885 F100.000000
G1 X35.264890 Y14.459732 F100.000000
G1 X35.288686 Y14.474684 F100.000000
G1 X35.334406 Y14.520404 F100.000000
G1 X35.349358 Y14.544200 F100.000000
G1 X35.367205 Y14.565910 F100.000000
G1 X35.415465 Y14.662430 F100.000000
G1 X35.415780 Y14.663723 F100.000000
G1 X35.416610 Y14.664764 F100.000000
G1 X35.424998 Y14.701514 F100.000000
G1 X35.433931 Y14.738135 F100.000000
G1 X35.433654 Y14.739437 F100.000000
G1 X35.433950 Y14.740735 F100.000000
G1 Y14.918399 F100.000000
G1 X35.464760 Y14.915269 F100.000000
G1 Y14.598495 F100.000000
G1 X35.482100 Y14.522524 F100.000000
G1 X35.530685 Y14.461600 F100.000000
G1 X35.595440 Y14.430416 F100.000000
G1 X35.584612 Y14.429367 F100.000000
G1 X34.583852 Y14.096627 F100.000000
G1 X34.564682 Y14.084995 F100.000000
G1 X34.543636 Y14.077260 F100.000000
G1 X34.531787 Y14.065035 F100.000000
G1 X34.517232 Y14.056203 F100.000000
G1 X34.505007 Y14.037406 F100.000000
G1 X34.489402 Y14.021306 F100.000000
G1 X34.484030 Y14.005150 F100.000000
G1 X34.474749 Y13.990878 F100.000000
G1 X34.471891 Y13.968638 F100.000000
G1 X34.464816 Y13.947361 F100.000000
G1 X34.466986 Y13.930475 F100.000000
G1 X34.464816 Y13.913589 F100.000000
G1 X34.471891 Y13.892312 F100.000000
G1 X34.474749 Y13.870072 F100.000000
G1 X34.484030 Y13.855800 F100.000000
G1 X34.489402 Y13.839644 F100.000000
G1 X34.505007 Y13.823544 F100.000000
G1 X34.517232 Y13.804747 F100.000000
G1 X34.531787 Y13.795915 F100.000000
G1 X34.543636 Y13.783690 F100.000000
G1 X34.564682 Y13.775955 F100.000000
G1 X34.583852 Y13.764323 F100.000000
G1 X35.584612 Y13.431583 F100.000000
G1 X35.662173 Y13.424068 F100.000000
G1 X35.735314 Y13.450950 F100.000000
G1 X35.789548 Y13.506904 F100.000000
G1 X35.814134 Y13.580849 F100.000000
G1 X35.804201 Y13.658138 F100.000000
G1 X35.761718 Y13.723463 F100.000000
G1 X35.695098 Y13.763887 F100.000000
G0 Z2.000000
G1 Z-0.040000 F60.000000
G1 X35.194062 Y13.930475 F100.000000
G1 X35.695098 Y14.097063 F100.000000
G1 X35.761718 Y14.137487 F100.000000
G1 X35.804201 Y14.202812 F100.000000
G1 X35.814134 Y14.280101 F100.000000
G1 X35.789548 Y14.354046 F100.000000
G1 X35.735314 Y14.410000 F100.000000
G1 X35.682320 Y14.429477 F100.000000
G1 X35.749025 Y14.461600 F100.000000
G1 X35.797610 Y14.522524 F100.000000
G1 X35.814950 Y14.598495 F100.000000
G1 Y15.073475 F100.000000
G1 X35.812520 Y15.084120 F100.000000
G1 X35.813624 Y15.094982 F100.000000
G1 X35.803938 Y15.121720 F100.000000
G1 X35.797610 Y15.149446 F100.000000
G1 X35.790803 Y15.157982 F100.000000
G1 X35.787084 Y15.168248 F100.000000
G1 X35.766756 Y15.188136 F100.000000
G1 X35.749025 Y15.210370 F100.000000
G1 X35.739188 Y15.215107 F100.000000
G1 X35.731383 Y15.222743 F100.000000
G1 X35.704439 Y15.231841 F100.000000
G1 X35.678817 Y15.244180 F100.000000
G1 X35.667899 F100.000000
G1 X35.657554 Y15.247673 F100.000000
G1 X35.182574 Y15.295933 F100.000000
G1 X35.166259 Y15.293914 F100.000000
G1 X35.149979 Y15.296195 F100.000000
G1 X35.128069 Y15.289187 F100.000000
G1 X35.105240 Y15.286362 F100.000000
G1 X35.091416 Y15.277463 F100.000000
G1 X35.075758 Y15.272455 F100.000000
G1 X35.059059 Y15.256634 F100.000000
G1 X35.039717 Y15.244184 F100.000000
G1 X35.031123 Y15.230169 F100.000000
G1 X35.019189 Y15.218863 F100.000000
G1 X35.011007 Y15.197363 F100.000000
G1 X34.998983 Y15.177753 F100.000000
G1 X34.997321 Y15.161398 F100.000000
G1 X34.991474 Y15.146033 F100.000000
G1 X34.993431 Y15.123113 F100.000000
G1 X34.991106 Y15.100228 F100.000000
G1 X34.996705 Y15.084771 F100.000000
G1 X34.998104 Y15.068391 F100.000000
G1 X35.009811 Y15.048590 F100.000000
G1 X35.017646 Y15.026962 F100.000000
G1 X35.029397 Y15.015465 F100.000000
G1 X35.037764 Y15.001314 F100.000000
G1 X35.066270 Y14.971225 F100.000000
G1 X35.083760 Y14.937166 F100.000000
G1 Y14.782069 F100.000000
G1 X35.066692 Y14.747934 F100.000000
G1 X35.061156 Y14.742398 F100.000000
G1 X35.027021 Y14.725330 F100.000000
G1 X34.871924 F100.000000
G1 X34.837865 Y14.742820 F100.000000
G1 X34.830169 Y14.750111 F100.000000
G1 X34.814190 Y14.782069 F100.000000
G1 Y14.937166 F100.000000
G1 X34.830575 Y14.969073 F100.000000
G1 X34.859426 Y14.997924 F100.000000
G0 Z2.000000
G0 X44.732292 Y37.094469
G1 Z-0.040000 F60.000000
G1 X44.722398 Y37.073923 F100.000000
G1 X44.708179 Y37.056093 F100.000000
G1 X44.703104 Y37.033860 F100.000000
G1 X44.693210 Y37.013313 F100.000000
G1 Y36.990508 F100.000000
G1 X44.688135 Y36.968275 F100.000000
G1 Y34.936275 F100.000000
G1 X44.708179 Y34.848457 F100.000000
G1 X44.764341 Y34.778032 F100.000000
G1 X44.845497 Y34.738950 F100.000000
G1 X44.935573 F100.000000
G1 X45.016729 Y34.778032 F100.000000
G1 X45.072891 Y34.848457 F100.000000
G1 X45.092935 Y34.936275 F100.000000
G1 Y35.701615 F100.000000
G1 X45.469655 F100.000000
G1 X45.483544 Y35.704785 F100.000000
G1 X45.497739 Y35.703573 F100.000000
G1 X45.526976 Y35.714698 F100.000000
G0 Z2.000000
G1 Z-0.040000 F60.000000
G1 X45.557473 Y35.721659 F100.000000
G1 X45.568611 Y35.730541 F100.000000
G1 X45.581926 Y35.735608 F100.000000
G1 X45.726706 Y35.832128 F100.000000
G1 X45.749674 Y35.856371 F100.000000
G1 X45.775333 Y35.877744 F100.000000
G1 X45.848993 Y35.974264 F100.000000
G1 X45.861521 Y36.001764 F100.000000
G1 X45.878016 Y36.027084 F100.000000
G1 X45.949136 Y36.220124 F100.000000
G1 X45.953698 Y36.255409 F100.000000
G1 X45.961615 Y36.290095 F100.000000
G1 Y36.579655 F100.000000
G1 X45.953698 Y36.614341 F100.000000
G1 X45.949136 Y36.649626 F100.000000
G1 X45.878016 Y36.842666 F100.000000
G1 X45.861521 Y36.867986 F100.000000
G1 X45.848993 Y36.895486 F100.000000
G1 X45.775333 Y36.992006 F100.000000
G1 X45.750591 Y37.012616 F100.000000
G1 X45.728727 Y37.036257 F100.000000
G1 X45.583947 Y37.135317 F100.000000
G1 X45.569562 Y37.140990 F100.000000
G1 X45.557473 Y37.150631 F100.000000
G1 X45.528141 Y37.157326 F100.000000
G1 X45.500152 Y37.168364 F100.000000
G1 X45.484730 Y37.167234 F100.000000
G1 X45.469655 Y37.170675 F100.000000
G1 X44.890535 F100.000000
G1 X44.868302 Y37.165600 F100.000000
G1 X44.845497 F100.000000
G1 X44.824950 Y37.155706 F100.000000
G1 X44.802717 Y37.150631 F100.000000
G1 X44.784887 Y37.136412 F100.000000
G1 X44.764341 Y37.126518 F100.000000
G1 X44.750122 Y37.108688 F100.000000
G1 X44.732292 Y37.094469 F100.000000
G0 Z2.000000
G0 X45.092935 Y36.106415
G1 Z-0.040000 F60.000000
G1 Y36.765875 F100.000000
G1 X45.407040 F100.000000
G1 X45.473282 Y36.720551 F100.000000
G1 X45.508709 Y36.674129 F100.000000
G1 X45.556815 Y36.543557 F100.000000
G1 Y36.326193 F100.000000
G1 X45.508709 Y36.195621 F100.000000
G1 X45.474042 Y36.150194 F100.000000
G1 X45.408373 Y36.106415 F100.000000
G1 X45.092935 F100.000000
G0 Z2.000000
G0 X46.453146 Y36.218208
G1 Z-0.040000 F60.000000
G1 X46.572815 Y36.297987 F100.000000
G1 Y35.138675 F100.000000
G1 X46.340875 F100.000000
G1 X46.253057 Y35.118631 F100.000000
G1 X46.182632 Y35.062469 F100.000000
G1 X46.143550 Y34.981313 F100.000000
G1 Y34.891237 F100.000000
G1 X46.182632 Y34.810081 F100.000000
G1 X46.253057 Y34.753919 F100.000000
G1 X46.340875 Y34.733875 F100.000000
G1 X47.212095 F100.000000
G1 X47.299913 Y34.753919 F100.000000
G1 X47.370338 Y34.810081 F100.000000
G1 X47.409420 Y34.891237 F100.000000
G1 Y34.981313 F100.000000
G1 X47.370338 Y35.062469 F100.000000
G1 X47.299913 Y35.118631 F100.000000
G1 X47.212095 Y35.138675 F100.000000
G1 X46.977615 F100.000000
G1 Y36.968275 F100.000000
G1 X46.967843 Y37.011091 F100.000000
G1 X46.958557 Y37.054015 F100.000000
G1 X46.957833 Y37.054944 F100.000000
G1 X46.957571 Y37.056093 F100.000000
G1 X46.930189 Y37.090429 F100.000000
G1 X46.903199 Y37.125073 F100.000000
G1 X46.902144 Y37.125597 F100.000000
G1 X46.901409 Y37.126518 F100.000000
G1 X46.861841 Y37.145573 F100.000000
G1 X46.822493 Y37.165076 F100.000000
G1 X46.821315 Y37.165089 F100.000000
G1 X46.820253 Y37.165600 F100.000000
G1 X46.776336 F100.000000
G1 X46.732422 Y37.166099 F100.000000
G1 X46.731355 Y37.165600 F100.000000
G1 X46.730177 F100.000000
G1 X46.690609 Y37.146546 F100.000000
G1 X46.650827 Y37.127942 F100.000000
G1 X46.650082 Y37.127029 F100.000000
G1 X46.649021 Y37.126518 F100.000000
G1 X46.621639 Y37.092182 F100.000000
G1 X46.593869 Y37.058160 F100.000000
G1 X46.457351 Y36.782730 F100.000000
G1 X46.344537 Y36.632311 F100.000000
G1 X46.228604 Y36.555022 F100.000000
G1 X46.166653 Y36.489632 F100.000000
G1 X46.139209 Y36.403838 F100.000000
G1 X46.151708 Y36.314633 F100.000000
G1 X46.201673 Y36.239684 F100.000000
G1 X46.279209 Y36.193838 F100.000000
G1 X46.368959 Y36.186173 F100.000000
G1 X46.453146 Y36.218208 F100.000000
G0 Z2.000000
G0 X45.375940 Y6.285025
G1 Z-0.040000 F60.000000
G1 X45.367380 Y6.267250 F100.000000
G1 X45.355080 Y6.251826 F100.000000
G1 X45.350690 Y6.232592 F100.000000
G1 X45.342130 Y6.214817 F100.000000
G1 Y6.195089 F100.000000
G1 X45.337740 Y6.175855 F100.000000
G1 Y5.175095 F100.000000
G1 X45.355080 Y5.099124 F100.000000
G1 X45.403665 Y5.038200 F100.000000
G1 X45.473873 Y5.004390 F100.000000
G1 X45.551797 F100.000000
G1 X45.622005 Y5.038200 F100.000000
G1 X45.670590 Y5.099124 F100.000000
G1 X45.687930 Y5.175095 F100.000000
G1 Y5.437713 F100.000000
G1 X45.940677 Y5.074993 F100.000000
G1 X45.998336 Y5.022575 F100.000000
G1 X46.073029 Y5.000365 F100.000000
G1 X46.149961 Y5.012763 F100.000000
G1 X46.213895 Y5.057313 F100.000000
G1 X46.252168 Y5.125191 F100.000000
G1 X46.257200 Y5.202953 F100.000000
G1 X46.227993 Y5.275197 F100.000000
G1 X46.047780 Y5.533825 F100.000000
G1 X46.068660 Y5.544265 F100.000000
G1 X46.090370 Y5.562112 F100.000000
G1 X46.114166 Y5.577064 F100.000000
G1 X46.159886 Y5.622784 F100.000000
G1 X46.174838 Y5.646580 F100.000000
G1 X46.192685 Y5.668290 F100.000000
G1 X46.240945 Y5.764810 F100.000000
G1 X46.241260 Y5.766103 F100.000000
G1 X46.242090 Y5.767144 F100.000000
G1 X46.250478 Y5.803894 F100.000000
G0 Z2.000000
G1 Z-0.040000 F60.000000
G1 X46.259411 Y5.840515 F100.000000
G1 X46.259134 Y5.841817 F100.000000
G1 X46.259430 Y5.843115 F100.000000
G1 Y5.985355 F100.000000
G1 X46.259134 Y5.986653 F100.000000
G1 X46.259411 Y5.987955 F100.000000
G1 X46.250478 Y6.024576 F100.000000
G1 X46.242090 Y6.061326 F100.000000
G1 X46.241260 Y6.062367 F100.000000
G1 X46.240945 Y6.063660 F100.000000
G1 X46.192685 Y6.160180 F100.000000
G1 X46.174838 Y6.181890 F100.000000
G1 X46.159886 Y6.205686 F100.000000
G1 X46.114166 Y6.251406 F100.000000
G1 X46.090370 Y6.266358 F100.000000
G1 X46.068660 Y6.284205 F100.000000
G1 X45.972140 Y6.332465 F100.000000
G1 X45.970847 Y6.332780 F100.000000
G1 X45.969806 Y6.333610 F100.000000
G1 X45.933056 Y6.341998 F100.000000
G1 X45.896435 Y6.350931 F100.000000
G1 X45.895133 Y6.350654 F100.000000
G1 X45.893835 Y6.350950 F100.000000
G1 X45.512835 F100.000000
G1 X45.493601 Y6.346560 F100.000000
G1 X45.473873 F100.000000
G1 X45.456098 Y6.338000 F100.000000
G1 X45.436864 Y6.333610 F100.000000
G1 X45.421440 Y6.321310 F100.000000
G1 X45.403665 Y6.312750 F100.000000
G1 X45.391365 Y6.297325 F100.000000
G1 X45.375940 Y6.285025 F100.000000
G0 Z2.000000
G0 X45.687930 Y5.827710
G1 Z-0.040000 F60.000000
G1 Y6.000760 F100.000000
G1 X45.852501 F100.000000
G1 X45.886636 Y5.983692 F100.000000
G1 X45.892172 Y5.978156 F100.000000
G1 X45.909240 Y5.944021 F100.000000
G1 Y5.884449 F100.000000
G1 X45.892172 Y5.850314 F100.000000
G1 X45.886636 Y5.844778 F100.000000
G1 X45.852501 Y5.827710 F100.000000
G1 X45.687930 F100.000000
G0 Z2.000000
G0 X46.376700 Y6.285025
G1 Z-0.040000 F60.000000
G1 X46.368140 Y6.267250 F100.000000
G1 X46.355840 Y6.251826 F100.000000
G1 X46.351450 Y6.232592 F100.000000
G1 X46.342890 Y6.214817 F100.000000
G1 Y6.195089 F100.000000
G1 X46.338500 Y6.175855 F100.000000
G1 Y5.175095 F100.000000
G1 X46.342890 Y5.155861 F100.000000
G1 Y5.136133 F100.000000
G1 X46.351450 Y5.118358 F100.000000
G1 X46.355840 Y5.099124 F100.000000
G1 X46.368140 Y5.083700 F100.000000
G1 X46.376700 Y5.065925 F100.000000
G1 X46.392125 Y5.053625 F100.000000
G1 X46.404425 Y5.038200 F100.000000
G1 X46.422200 Y5.029640 F100.000000
G1 X46.437624 Y5.017340 F100.000000
G1 X46.456858 Y5.012950 F100.000000
G1 X46.474633 Y5.004390 F100.000000
G1 X46.494361 F100.000000
G1 X46.513595 Y5.000000 F100.000000
G1 X46.991115 F100.000000
G1 X47.067086 Y5.017340 F100.000000
G1 X47.128010 Y5.065925 F100.000000
G1 X47.161820 Y5.136133 F100.000000
G1 Y5.214057 F100.000000
G1 X47.128010 Y5.284265 F100.000000
G1 X47.067086 Y5.332850 F100.000000
G1 X46.991115 Y5.350190 F100.000000
G1 X46.688690 F100.000000
G1 Y5.525780 F100.000000
G1 X46.846335 F100.000000
G1 X46.922306 Y5.543120 F100.000000
G1 X46.983230 Y5.591705 F100.000000
G1 X47.017040 Y5.661913 F100.000000
G1 Y5.739837 F100.000000
G1 X46.983230 Y5.810045 F100.000000
G1 X46.922306 Y5.858630 F100.000000
G1 X46.846335 Y5.875970 F100.000000
G1 X46.688690 F100.000000
G1 Y6.000760 F100.000000
G1 X46.991115 F100.000000
G1 X47.067086 Y6.018100 F100.000000
G1 X47.128010 Y6.066685 F100.000000
G1 X47.161820 Y6.136893 F100.000000
G1 Y6.214817 F100.000000
G1 X47.128010 Y6.285025 F100.000000
G1 X47.067086 Y6.333610 F100.000000
G1 X46.991115 Y6.350950 F100.000000
G1 X46.513595 F100.000000
G1 X46.494361 Y6.346560 F100.000000
G1 X46.474633 F100.000000
G1 X46.456858 Y6.338000 F100.000000
G1 X46.437624 Y6.333610 F100.000000
G1 X46.422200 Y6.321310 F100.000000
G1 X46.404425 Y6.312750 F100.000000
G1 X46.392125 Y6.297325 F100.000000
G1 X46.376700 Y6.285025 F100.000000
G0 Z2.000000
G0 X47.999872 Y6.293406
G1 Z-0.040000 F60.000000
G1 X47.857632 Y6.341666 F100.000000
G1 X47.829221 Y6.344594 F100.000000
G1 X47.801375 Y6.350950 F100.000000
G1 X47.562615 F100.000000
G1 X47.561317 Y6.350654 F100.000000
G1 X47.560015 Y6.350931 F100.000000
G1 X47.523394 Y6.341998 F100.000000
G1 X47.486644 Y6.333610 F100.000000
G1 X47.485603 Y6.332780 F100.000000
G1 X47.484310 Y6.332465 F100.000000
G1 X47.387790 Y6.284205 F100.000000
G1 X47.366080 Y6.266358 F100.000000
G1 X47.342284 Y6.251406 F100.000000
G1 X47.296564 Y6.205686 F100.000000
G1 X47.281612 Y6.181890 F100.000000
G1 X47.263765 Y6.160180 F100.000000
G1 X47.215505 Y6.063660 F100.000000
G1 X47.215190 Y6.062367 F100.000000
G1 X47.214360 Y6.061326 F100.000000
G1 X47.205972 Y6.024576 F100.000000
G1 X47.197039 Y5.987955 F100.000000
G1 X47.197316 Y5.986653 F100.000000
G1 X47.197020 Y5.985355 F100.000000
G1 Y5.891375 F100.000000
G1 X47.197316 Y5.890077 F100.000000
G1 X47.197039 Y5.888775 F100.000000
G1 X47.205972 Y5.852154 F100.000000
G1 X47.214360 Y5.815404 F100.000000
G1 X47.215190 Y5.814363 F100.000000
G1 X47.215505 Y5.813070 F100.000000
G1 X47.263765 Y5.716550 F100.000000
G1 X47.280140 Y5.696631 F100.000000
G1 X47.293264 Y5.674434 F100.000000
G1 X47.338984 Y5.626174 F100.000000
G1 X47.365807 Y5.608292 F100.000000
G1 X47.391139 Y5.588355 F100.000000
G1 X47.487659 Y5.542635 F100.000000
G1 X47.504373 Y5.538933 F100.000000
G1 X47.519616 Y5.531142 F100.000000
G1 X47.690829 Y5.487768 F100.000000
G1 X47.742693 Y5.461135 F100.000000
G1 X47.752135 Y5.451693 F100.000000
G1 X47.768520 Y5.419786 F100.000000
G1 Y5.407924 F100.000000
G1 X47.752135 Y5.376017 F100.000000
G1 X47.742693 Y5.366575 F100.000000
G1 X47.710786 Y5.350190 F100.000000
G1 X47.543250 F100.000000
G1 X47.428372 Y5.389166 F100.000000
G1 X47.350858 Y5.397155 F100.000000
G1 X47.277554 Y5.370720 F100.000000
G1 X47.222979 Y5.315098 F100.000000
G1 X47.197943 Y5.241305 F100.000000
G1 X47.207403 Y5.163957 F100.000000
G1 X47.249486 Y5.098373 F100.000000
G1 X47.315858 Y5.057544 F100.000000
G1 X47.458098 Y5.009284 F100.000000
G1 X47.486509 Y5.006356 F100.000000
G1 X47.514355 Y5.000000 F100.000000
G1 X47.753115 F100.000000
G1 X47.755350 Y5.000510 F100.000000
G1 X47.757597 Y5.000057 F100.000000
G1 X47.793231 Y5.009156 F100.000000
G1 X47.829086 Y5.017340 F100.000000
G1 X47.830878 Y5.018769 F100.000000
G1 X47.833099 Y5.019336 F100.000000
G1 X47.927079 Y5.067596 F100.000000
G1 X47.947890 Y5.085082 F100.000000
G1 X47.970906 Y5.099544 F100.000000
G1 X48.019166 Y5.147804 F100.000000
G1 X48.033628 Y5.170820 F100.000000
G1 X48.051114 Y5.191631 F100.000000
G1 X48.099374 Y5.285611 F100.000000
G1 X48.099941 Y5.287832 F100.000000
G1 X48.101370 Y5.289624 F100.000000
G1 X48.109554 Y5.325479 F100.000000
G1 X48.118653 Y5.361113 F100.000000
G1 X48.118200 Y5.363360 F100.000000
G1 X48.118710 Y5.365595 F100.000000
G1 Y5.462115 F100.000000
G1 X48.118200 Y5.464350 F100.000000
G1 X48.118653 Y5.466597 F100.000000
G1 X48.109554 Y5.502231 F100.000000
G1 X48.101370 Y5.538086 F100.000000
G1 X48.099941 Y5.539878 F100.000000
G1 X48.099374 Y5.542099 F100.000000
G1 X48.051114 Y5.636079 F100.000000
G1 X48.033628 Y5.656890 F100.000000
G1 X48.019166 Y5.679906 F100.000000
G1 X47.970906 Y5.728166 F100.000000
G1 X47.947890 Y5.742628 F100.000000
G1 X47.927079 Y5.760114 F100.000000
G1 X47.833099 Y5.808374 F100.000000
G1 X47.813826 Y5.813295 F100.000000
G1 X47.796114 Y5.822348 F100.000000
G1 X47.622152 Y5.866418 F100.000000
G1 X47.570667 Y5.890806 F100.000000
G1 X47.565361 Y5.896407 F100.000000
G1 X47.547210 Y5.932709 F100.000000
G1 Y5.944021 F100.000000
G1 X47.564278 Y5.978156 F100.000000
G1 X47.569814 Y5.983692 F100.000000
G1 X47.603949 Y6.000760 F100.000000
G1 X47.772480 F100.000000
G1 X47.887358 Y5.961784 F100.000000
G1 X47.964872 Y5.953795 F100.000000
G1 X48.038176 Y5.980230 F100.000000
G1 X48.092751 Y6.035852 F100.000000
G1 X48.117787 Y6.109645 F100.000000
G1 X48.108327 Y6.186993 F100.000000
G1 X48.066244 Y6.252577 F100.000000
G1 X47.999872 Y6.293406 F100.000000
G0 Z2.000000
G0 X48.263705 Y5.038200
G1 Z-0.040000 F60.000000
G1 X48.281480 Y5.029640 F100.000000
G1 X48.296904 Y5.017340 F100.000000
G1 X48.316138 Y5.012950 F100.000000
G1 X48.333913 Y5.004390 F100.000000
G1 X48.353641 F100.000000
G1 X48.372875 Y5.000000 F100.000000
G1 X48.847855 F100.000000
G1 X48.923826 Y5.017340 F100.000000
G1 X48.984750 Y5.065925 F100.000000
G1 X49.018560 Y5.136133 F100.000000
G1 Y5.214057 F100.000000
G1 X48.984750 Y5.284265 F100.000000
G1 X48.923826 Y5.332850 F100.000000
G1 X48.847855 Y5.350190 F100.000000
G1 X48.547970 F100.000000
G1 Y5.525780 F100.000000
G1 X48.705615 F100.000000
G1 X48.781586 Y5.543120 F100.000000
G1 X48.842510 Y5.591705 F100.000000
G1 X48.876320 Y5.661913 F100.000000
G1 Y5.739837 F100.000000
G1 X48.842510 Y5.810045 F100.000000
G1 X48.781586 Y5.858630 F100.000000
G1 X48.705615 Y5.875970 F100.000000
G1 X48.547970 F100.000000
G1 Y6.000760 F100.000000
G1 X48.847855 F100.000000
G1 X48.923826 Y6.018100 F100.000000
G1 X48.984750 Y6.066685 F100.000000
G1 X48.991365 Y6.080422 F100.000000
G1 X48.997980 Y6.066685 F100.000000
G1 X49.058904 Y6.018100 F100.000000
G1 X49.134875 Y6.000760 F100.000000
G1 X49.246800 F100.000000
G1 Y5.175095 F100.000000
G1 X49.264140 Y5.099124 F100.000000
G1 X49.312725 Y5.038200 F100.000000
G1 X49.382933 Y5.004390 F100.000000
G1 X49.460857 F100.000000
G1 X49.531065 Y5.038200 F100.000000
G1 X49.579650 Y5.099124 F100.000000
G1 X49.596990 Y5.175095 F100.000000
G0 Z2.000000
G0 X48.235980 Y6.285025
G1 Z-0.040000 F60.000000
G1 X48.227420 Y6.267250 F100.000000
G1 X48.215120 Y6.251826 F100.000000
G1 X48.210730 Y6.232592 F100.000000
G1 X48.202170 Y6.214817 F100.000000
G1 Y6.195089 F100.000000
G1 X48.197780 Y6.175855 F100.000000
G1 Y5.175095 F100.000000
G1 X48.202170 Y5.155861 F100.000000
G1 Y5.136133 F100.000000
G1 X48.210730 Y5.118358 F100.000000
G1 X48.215120 Y5.099124 F100.000000
G1 X48.227420 Y5.083700 F100.000000
G1 X48.235980 Y5.065925 F100.000000
G1 X48.251405 Y5.053625 F100.000000
G1 X48.263705 Y5.038200 F100.000000
G0 Z2.000000
G0 X49.596990 Y5.175095
G1 Z-0.040000 F60.000000
G1 Y6.000760 F100.000000
G1 X49.706375 F100.000000
G1 X49.782346 Y6.018100 F100.000000
G1 X49.843270 Y6.066685 F100.000000
G1 X49.877080 Y6.136893 F100.000000
G1 Y6.214817 F100.000000
G1 X49.843270 Y6.285025 F100.000000
G1 X49.782346 Y6.333610 F100.000000
G1 X49.706375 Y6.350950 F100.000000
G1 X49.134875 F100.000000
G1 X49.058904 Y6.333610 F100.000000
G1 X48.997980 Y6.285025 F100.000000
G1 X48.991365 Y6.271288 F100.000000
G1 X48.984750 Y6.285025 F100.000000
G1 X48.923826 Y6.333610 F100.000000
G1 X48.847855 Y6.350950 F100.000000
G1 X48.372875 F100.000000
G1 X48.353641 Y6.346560 F100.000000
G1 X48.333913 F100.000000
G1 X48.316138 Y6.338000 F100.000000
G1 X48.296904 Y6.333610 F100.000000
G1 X48.281480 Y6.321310 F100.000000
G1 X48.263705 Y6.312750 F100.000000
G1 X48.251405 Y6.297325 F100.000000
G1 X48.235980 Y6.285025 F100.000000
G0 Z2.000000
G0 X28.289260 Y13.137995
G1 Z-0.040000 F60.000000
G1 Y13.122590 F100.000000
G1 X28.225220 F100.000000
G1 X28.210190 Y13.166890 F100.000000
G1 Y13.203561 F100.000000
G1 X28.236003 Y13.281001 F100.000000
G1 X28.283214 Y13.326969 F100.000000
G1 X28.336141 Y13.354148 F100.000000
G1 X28.486189 Y13.392160 F100.000000
G1 X28.584761 F100.000000
G1 X28.735733 Y13.353914 F100.000000
G1 X28.789896 Y13.326832 F100.000000
G1 X28.834556 Y13.282172 F100.000000
G1 X28.860760 Y13.203561 F100.000000
G1 Y13.132064 F100.000000
G1 X28.831836 Y13.075739 F100.000000
G1 X28.812557 Y13.000237 F100.000000
G1 X28.827947 Y12.923847 F100.000000
G1 X28.874957 Y12.861700 F100.000000
G1 X28.944276 Y12.826103 F100.000000
G1 X29.022175 Y12.824109 F100.000000
G1 X29.093225 Y12.856111 F100.000000
G1 X29.143354 Y12.915771 F100.000000
G1 X29.191614 Y13.009751 F100.000000
G1 X29.192181 Y13.011972 F100.000000
G1 X29.193610 Y13.013764 F100.000000
G1 X29.201794 Y13.049619 F100.000000
G1 X29.210893 Y13.085253 F100.000000
G1 X29.210440 Y13.087500 F100.000000
G1 X29.210950 Y13.089735 F100.000000
G1 Y13.231975 F100.000000
G1 X29.204696 Y13.259374 F100.000000
G1 X29.201965 Y13.287345 F100.000000
G1 X29.153705 Y13.432125 F100.000000
G1 X29.153013 Y13.433262 F100.000000
G1 X29.152864 Y13.434585 F100.000000
G1 X29.132809 Y13.466502 F100.000000
G1 X29.113231 Y13.498714 F100.000000
G1 X29.112114 Y13.499439 F100.000000
G1 X29.111406 Y13.500566 F100.000000
G1 X29.017426 Y13.594546 F100.000000
G1 X28.993630 Y13.609498 F100.000000
G1 X28.971920 Y13.627345 F100.000000
G1 X28.875400 Y13.675605 F100.000000
G1 X28.856978 Y13.680098 F100.000000
G1 X28.840094 Y13.688728 F100.000000
G1 X28.649594 Y13.736988 F100.000000
G1 X28.627825 Y13.737504 F100.000000
G1 X28.606595 Y13.742350 F100.000000
G1 X28.464355 F100.000000
G1 X28.443125 Y13.737504 F100.000000
G1 X28.421356 Y13.736988 F100.000000
G1 X28.230856 Y13.688728 F100.000000
G1 X28.213144 Y13.679675 F100.000000
G1 X28.193871 Y13.674754 F100.000000
G1 X28.099891 Y13.626494 F100.000000
G1 X28.079956 Y13.609743 F100.000000
G1 X28.057726 Y13.596186 F100.000000
G1 X27.961206 Y13.502206 F100.000000
G1 X27.959835 Y13.500088 F100.000000
G1 X27.957719 Y13.498714 F100.000000
G1 X27.938732 Y13.467475 F100.000000
G1 X27.918871 Y13.436783 F100.000000
G1 X27.918556 Y13.434281 F100.000000
G1 X27.917245 Y13.432125 F100.000000
G1 X27.868985 Y13.287345 F100.000000
G1 X27.866254 Y13.259374 F100.000000
G1 X27.860000 Y13.231975 F100.000000
G1 Y13.137995 F100.000000
G1 X27.866356 Y13.110149 F100.000000
G1 X27.869284 Y13.081738 F100.000000
G1 X27.917544 Y12.939498 F100.000000
G1 X27.917990 Y12.938772 F100.000000
G1 X27.918086 Y12.937925 F100.000000
G1 X27.938383 Y12.905621 F100.000000
G1 X27.958373 Y12.873126 F100.000000
G1 X27.959091 Y12.872666 F100.000000
G1 X27.959544 Y12.871944 F100.000000
G1 X28.007804 Y12.823684 F100.000000
G1 X28.032677 Y12.808055 F100.000000
G1 X28.055644 Y12.789740 F100.000000
G1 X28.065353 Y12.787524 F100.000000
G1 X28.073785 Y12.782226 F100.000000
G1 X28.102976 Y12.778937 F100.000000
G1 X28.131615 Y12.772400 F100.000000
G1 X28.464355 F100.000000
G1 X28.483589 Y12.776790 F100.000000
G1 X28.503317 F100.000000
G1 X28.521092 Y12.785350 F100.000000
G1 X28.540326 Y12.789740 F100.000000
G1 X28.555750 Y12.802040 F100.000000
G1 X28.573525 Y12.810600 F100.000000
G1 X28.585825 Y12.826025 F100.000000
G1 X28.601250 Y12.838325 F100.000000
G1 X28.609810 Y12.856100 F100.000000
G1 X28.622110 Y12.871524 F100.000000
G1 X28.626500 Y12.890758 F100.000000
G1 X28.635060 Y12.908533 F100.000000
G1 Y12.928261 F100.000000
G1 X28.639450 Y12.947495 F100.000000
G1 Y13.137995 F100.000000
G1 X28.622110 Y13.213966 F100.000000
G1 X28.573525 Y13.274890 F100.000000
G1 X28.503317 Y13.308700 F100.000000
G1 X28.425393 F100.000000
G1 X28.355185 Y13.274890 F100.000000
G1 X28.306600 Y13.213966 F100.000000
G1 X28.289260 Y13.137995 F100.000000
G0 Z2.000000
G0 X29.164770 Y12.636722
G1 Z-0.040000 F60.000000
G1 X29.137610 Y12.655428 F100.000000
G1 X29.111826 Y12.675990 F100.000000
G1 X29.105737 Y12.677380 F100.000000
G1 X29.100594 Y12.680922 F100.000000
G1 X29.068007 Y12.685992 F100.000000
G1 X29.035855 Y12.693330 F100.000000
G1 X28.035095 F100.000000
G1 X27.959124 Y12.675990 F100.000000
G1 X27.898200 Y12.627405 F100.000000
G1 X27.864390 Y12.557197 F100.000000
G1 Y12.479273 F100.000000
G1 X27.898200 Y12.409065 F100.000000
G1 X27.959124 Y12.360480 F100.000000
G1 X28.035095 Y12.343140 F100.000000
G1 X28.376160 F100.000000
G1 X27.948265 Y12.098784 F100.000000
G1 X27.923984 Y12.076467 F100.000000
G1 X27.898200 Y12.055905 F100.000000
G1 X27.895491 Y12.050278 F100.000000
G1 X27.890892 Y12.046052 F100.000000
G1 X27.878699 Y12.015410 F100.000000
G1 X27.864390 Y11.985697 F100.000000
G1 Y11.979452 F100.000000
G1 X27.862081 Y11.973650 F100.000000
G1 X27.864390 Y11.940752 F100.000000
G1 Y11.907773 F100.000000
G1 X27.867100 Y11.902146 F100.000000
G1 X27.867537 Y11.895916 F100.000000
G1 X27.883891 Y11.867278 F100.000000
G1 X27.898200 Y11.837565 F100.000000
G1 X27.903083 Y11.833671 F100.000000
G1 X27.906180 Y11.828248 F100.000000
G1 X27.933340 Y11.809542 F100.000000
G1 X27.959124 Y11.788980 F100.000000
G1 X27.965213 Y11.787590 F100.000000
G1 X27.970356 Y11.784048 F100.000000
G1 X28.002943 Y11.778978 F100.000000
G1 X28.035095 Y11.771640 F100.000000
G1 X29.035855 F100.000000
G1 X29.111826 Y11.788980 F100.000000
G1 X29.172750 Y11.837565 F100.000000
G1 X29.206560 Y11.907773 F100.000000
G1 Y11.985697 F100.000000
G1 X29.172750 Y12.055905 F100.000000
G1 X29.111826 Y12.104490 F100.000000
G1 X29.035855 Y12.121830 F100.000000
G1 X28.694790 F100.000000
G1 X29.122685 Y12.366186 F100.000000
G1 X29.146966 Y12.388503 F100.000000
G1 X29.172750 Y12.409065 F100.000000
G1 X29.175459 Y12.414692 F100.000000
G1 X29.180058 Y12.418918 F100.000000
G1 X29.192251 Y12.449560 F100.000000
G1 X29.206560 Y12.479273 F100.000000
G1 Y12.485518 F100.000000
G1 X29.208869 Y12.491320 F100.000000
G1 X29.206560 Y12.524218 F100.000000
G1 Y12.557197 F100.000000
G1 X29.203850 Y12.562824 F100.000000
G1 X29.203413 Y12.569054 F100.000000
G1 X29.187059 Y12.597692 F100.000000
G1 X29.172750 Y12.627405 F100.000000
G1 X29.167867 Y12.631299 F100.000000
G1 X29.164770 Y12.636722 F100.000000
G0 Z2.000000
G0 X29.145025 Y11.606110
G1 Z-0.040000 F60.000000
G1 X29.127250 Y11.614670 F100.000000
G1 X29.111826 Y11.626970 F100.000000
G1 X29.092592 Y11.631360 F100.000000
G1 X29.074817 Y11.639920 F100.000000
G1 X29.055089 F100.000000
G1 X29.035855 Y11.644310 F100.000000
G1 X28.035095 F100.000000
G1 X28.015861 Y11.639920 F100.000000
G1 X27.996133 F100.000000
G1 X27.978358 Y11.631360 F100.000000
G1 X27.959124 Y11.626970 F100.000000
G1 X27.943700 Y11.614670 F100.000000
G1 X27.925925 Y11.606110 F100.000000
G1 X27.913625 Y11.590685 F100.000000
G1 X27.898200 Y11.578385 F100.000000
G1 X27.889640 Y11.560610 F100.000000
G1 X27.877340 Y11.545186 F100.000000
G1 X27.872950 Y11.525952 F100.000000
G1 X27.864390 Y11.508177 F100.000000
G1 Y11.488449 F100.000000
G1 X27.860000 Y11.469215 F100.000000
G1 Y11.230455 F100.000000
G1 X27.866356 Y11.202609 F100.000000
G1 X27.869284 Y11.174198 F100.000000
G1 X27.917544 Y11.031958 F100.000000
G1 X27.918615 Y11.030216 F100.000000
G1 X27.918871 Y11.028187 F100.000000
G1 X27.938980 Y10.997112 F100.000000
G0 Z2.000000
G0 Y10.997112
G1 Z-0.040000 F60.000000
G1 X27.958373 Y10.965586 F100.000000
G1 X27.960095 Y10.964482 F100.000000
G1 X27.961206 Y10.962764 F100.000000
G1 X28.057726 Y10.868784 F100.000000
G1 X28.079956 Y10.855227 F100.000000
G1 X28.099891 Y10.838476 F100.000000
G1 X28.193871 Y10.790216 F100.000000
G1 X28.213144 Y10.785295 F100.000000
G1 X28.230856 Y10.776242 F100.000000
G1 X28.421356 Y10.727982 F100.000000
G1 X28.443125 Y10.727466 F100.000000
G1 X28.464355 Y10.722620 F100.000000
G1 X28.606595 F100.000000
G1 X28.627825 Y10.727466 F100.000000
G1 X28.649594 Y10.727982 F100.000000
G1 X28.840094 Y10.776242 F100.000000
G1 X28.856978 Y10.784872 F100.000000
G1 X28.875400 Y10.789365 F100.000000
G1 X28.971920 Y10.837625 F100.000000
G1 X28.993630 Y10.855472 F100.000000
G1 X29.017426 Y10.870424 F100.000000
G1 X29.111406 Y10.964404 F100.000000
G1 X29.111859 Y10.965126 F100.000000
G1 X29.112577 Y10.965586 F100.000000
G1 X29.132567 Y10.998081 F100.000000
G1 X29.152864 Y11.030385 F100.000000
G1 X29.152960 Y11.031232 F100.000000
G1 X29.153406 Y11.031958 F100.000000
G1 X29.201666 Y11.174198 F100.000000
G1 X29.204594 Y11.202609 F100.000000
G1 X29.210950 Y11.230455 F100.000000
G1 Y11.469215 F100.000000
G1 X29.206560 Y11.488449 F100.000000
G1 Y11.508177 F100.000000
G1 X29.198000 Y11.525952 F100.000000
G1 X29.193610 Y11.545186 F100.000000
G1 X29.181310 Y11.560610 F100.000000
G1 X29.172750 Y11.578385 F100.000000
G1 X29.157325 Y11.590685 F100.000000
G1 X29.145025 Y11.606110 F100.000000
G0 Z2.000000
G0 X28.210190 Y11.294120
G1 Z-0.040000 F60.000000
G1 X28.860760 F100.000000
G1 Y11.259350 F100.000000
G1 X28.834906 Y11.183147 F100.000000
G1 X28.789896 Y11.138138 F100.000000
G1 X28.735733 Y11.111056 F100.000000
G1 X28.584761 Y11.072810 F100.000000
G1 X28.486189 F100.000000
G1 X28.336141 Y11.110822 F100.000000
G1 X28.283214 Y11.138001 F100.000000
G1 X28.235648 Y11.184315 F100.000000
G1 X28.210190 Y11.259350 F100.000000
G1 Y11.294120 F100.000000
G0 Z2.000000
G0 X39.431426 Y28.571684
G1 Z-0.040000 F60.000000
G1 X39.472884 Y28.637665 F100.000000
G1 X39.481609 Y28.715099 F100.000000
G1 X39.455872 Y28.788651 F100.000000
G1 X39.400771 Y28.843752 F100.000000
G1 X39.327219 Y28.869489 F100.000000
G1 X39.249785 Y28.860764 F100.000000
G1 X39.183804 Y28.819306 F100.000000
G1 X39.135544 Y28.771046 F100.000000
G1 X39.121082 Y28.748030 F100.000000
G1 X39.103596 Y28.727219 F100.000000
G1 X39.055336 Y28.633239 F100.000000
G1 X39.054769 Y28.631018 F100.000000
G1 X39.053340 Y28.629226 F100.000000
G1 X39.045156 Y28.593371 F100.000000
G1 X39.036057 Y28.557737 F100.000000
G1 X39.036510 Y28.555490 F100.000000
G1 X39.036000 Y28.553255 F100.000000
G1 Y28.314495 F100.000000
G1 X39.036296 Y28.313197 F100.000000
G1 X39.036019 Y28.311895 F100.000000
G1 X39.044952 Y28.275274 F100.000000
G1 X39.053340 Y28.238524 F100.000000
G1 X39.054170 Y28.237483 F100.000000
G1 X39.054485 Y28.236190 F100.000000
G1 X39.102745 Y28.139670 F100.000000
G1 X39.122061 Y28.116173 F100.000000
G1 X39.138934 Y28.090864 F100.000000
G1 X39.187194 Y28.045144 F100.000000
G1 X39.208596 Y28.032490 F100.000000
G1 X39.227631 Y28.016496 F100.000000
G1 X39.321611 Y27.968236 F100.000000
G1 X39.323832 Y27.967669 F100.000000
G1 X39.325624 Y27.966240 F100.000000
G1 X39.361479 Y27.958056 F100.000000
G1 X39.397113 Y27.948957 F100.000000
G1 X39.399360 Y27.949410 F100.000000
G1 X39.401595 Y27.948900 F100.000000
G1 X39.640355 F100.000000
G1 X39.641653 Y27.949196 F100.000000
G1 X39.642955 Y27.948919 F100.000000
G1 X39.679576 Y27.957852 F100.000000
G1 X39.716326 Y27.966240 F100.000000
G1 X39.717367 Y27.967070 F100.000000
G1 X39.718660 Y27.967385 F100.000000
G1 X39.815180 Y28.015645 F100.000000
G1 X39.836890 Y28.033492 F100.000000
G1 X39.860686 Y28.048444 F100.000000
G1 X39.906406 Y28.094164 F100.000000
G1 X39.921358 Y28.117960 F100.000000
G1 X39.939205 Y28.139670 F100.000000
G1 X39.987465 Y28.236190 F100.000000
G1 X39.987780 Y28.237483 F100.000000
G1 X39.988610 Y28.238524 F100.000000
G1 X39.996998 Y28.275274 F100.000000
G1 X40.005931 Y28.311895 F100.000000
G1 X40.005654 Y28.313197 F100.000000
G1 X40.005950 Y28.314495 F100.000000
G1 Y28.492159 F100.000000
G1 X40.036760 Y28.489029 F100.000000
G1 Y28.172255 F100.000000
G1 X40.054100 Y28.096284 F100.000000
G1 X40.102685 Y28.035360 F100.000000
G1 X40.167440 Y28.004176 F100.000000
G1 X40.156612 Y28.003127 F100.000000
G1 X39.155852 Y27.670387 F100.000000
G1 X39.136682 Y27.658755 F100.000000
G1 X39.115636 Y27.651020 F100.000000
G1 X39.103787 Y27.638795 F100.000000
G1 X39.089232 Y27.629963 F100.000000
G1 X39.077007 Y27.611166 F100.000000
G1 X39.061402 Y27.595066 F100.000000
G1 X39.056030 Y27.578910 F100.000000
G1 X39.046749 Y27.564638 F100.000000
G1 X39.043891 Y27.542398 F100.000000
G1 X39.036816 Y27.521121 F100.000000
G1 X39.038986 Y27.504235 F100.000000
G1 X39.036816 Y27.487349 F100.000000
G1 X39.043891 Y27.466072 F100.000000
G1 X39.046749 Y27.443832 F100.000000
G1 X39.056030 Y27.429560 F100.000000
G1 X39.061402 Y27.413404 F100.000000
G1 X39.077007 Y27.397304 F100.000000
G1 X39.089232 Y27.378507 F100.000000
G1 X39.103787 Y27.369675 F100.000000
G1 X39.115636 Y27.357450 F100.000000
G1 X39.136682 Y27.349715 F100.000000
G1 X39.155852 Y27.338083 F100.000000
G1 X40.156612 Y27.005343 F100.000000
G1 X40.234173 Y26.997828 F100.000000
G1 X40.307314 Y27.024710 F100.000000
G1 X40.361548 Y27.080664 F100.000000
G1 X40.386134 Y27.154609 F100.000000
G1 X40.376201 Y27.231898 F100.000000
G1 X40.333718 Y27.297223 F100.000000
G1 X40.267098 Y27.337647 F100.000000
G0 Z2.000000
G1 Z-0.040000 F60.000000
G1 X39.766062 Y27.504235 F100.000000
G1 X40.267098 Y27.670823 F100.000000
G1 X40.333718 Y27.711247 F100.000000
G1 X40.376201 Y27.776572 F100.000000
G1 X40.386134 Y27.853861 F100.000000
G1 X40.361548 Y27.927806 F100.000000
G1 X40.307314 Y27.983760 F100.000000
G1 X40.254320 Y28.003237 F100.000000
G1 X40.321025 Y28.035360 F100.000000
G1 X40.369610 Y28.096284 F100.000000
G1 X40.386950 Y28.172255 F100.000000
G1 Y28.647235 F100.000000
G1 X40.384520 Y28.657880 F100.000000
G1 X40.385624 Y28.668742 F100.000000
G1 X40.375938 Y28.695480 F100.000000
G1 X40.369610 Y28.723206 F100.000000
G1 X40.362803 Y28.731742 F100.000000
G1 X40.359084 Y28.742008 F100.000000
G1 X40.338756 Y28.761896 F100.000000
G1 X40.321025 Y28.784130 F100.000000
G1 X40.311188 Y28.788867 F100.000000
G1 X40.303383 Y28.796503 F100.000000
G1 X40.276439 Y28.805601 F100.000000
G1 X40.250817 Y28.817940 F100.000000
G1 X40.239899 F100.000000
G1 X40.229554 Y28.821433 F100.000000
G1 X39.754574 Y28.869693 F100.000000
G1 X39.738259 Y28.867674 F100.000000
G1 X39.721979 Y28.869955 F100.000000
G1 X39.700069 Y28.862947 F100.000000
G1 X39.677240 Y28.860122 F100.000000
G1 X39.663416 Y28.851223 F100.000000
G1 X39.647758 Y28.846215 F100.000000
G1 X39.631059 Y28.830394 F100.000000
G1 X39.611717 Y28.817944 F100.000000
G1 X39.603123 Y28.803929 F100.000000
G1 X39.591189 Y28.792623 F100.000000
G1 X39.583007 Y28.771123 F100.000000
G1 X39.570983 Y28.751513 F100.000000
G1 X39.569321 Y28.735158 F100.000000
G1 X39.563474 Y28.719793 F100.000000
G1 X39.565431 Y28.696873 F100.000000
G1 X39.563106 Y28.673988 F100.000000
G1 X39.568705 Y28.658531 F100.000000
G1 X39.570104 Y28.642151 F100.000000
G1 X39.581811 Y28.622350 F100.000000
G1 X39.589646 Y28.600722 F100.000000
G1 X39.601397 Y28.589225 F100.000000
G1 X39.609764 Y28.575074 F100.000000
G1 X39.638270 Y28.544985 F100.000000
G1 X39.655760 Y28.510926 F100.000000
G1 Y28.355829 F100.000000
G1 X39.638692 Y28.321694 F100.000000
G1 X39.633156 Y28.316158 F100.000000
G1 X39.599021 Y28.299090 F100.000000
G1 X39.443924 F100.000000
G1 X39.409865 Y28.316580 F100.000000
G1 X39.402169 Y28.323871 F100.000000
G1 X39.386190 Y28.355829 F100.000000
G1 Y28.510926 F100.000000
G1 X39.402575 Y28.542833 F100.000000
G1 X39.431426 Y28.571684 F100.000000
G0 Z2.000000
G0 X5.429260 Y16.693995
G1 Z-0.040000 F60.000000
G1 Y16.678590 F100.000000
G1 X5.365220 Y16.678590 F100.000000
G1 X5.350190 Y16.722890 F100.000000
G1 Y16.759561 F100.000000
G1 X5.376003 Y16.837001 F100.000000
G1 X5.423214 Y16.882969 F100.000000
G1 X5.476141 Y16.910148 F100.000000
G1 X5.626189 Y16.948160 F100.000000
G1 X5.724761 F100.000000
G1 X5.875733 Y16.909914 F100.000000
G1 X5.929896 Y16.882832 F100.000000
G1 X5.974556 Y16.838172 F100.000000
G1 X6.000760 Y16.759561 F100.000000
G1 Y16.688064 F100.000000
G1 X5.971836 Y16.631739 F100.000000
G1 X5.952557 Y16.556237 F100.000000
G1 X5.967947 Y16.479847 F100.000000
G1 X6.014957 Y16.417700 F100.000000
G1 X6.084276 Y16.382103 F100.000000
G1 X6.162175 Y16.380109 F100.000000
G1 X6.233225 Y16.412111 F100.000000
G1 X6.283354 Y16.471771 F100.000000
G1 X6.331614 Y16.565751 F100.000000
G1 X6.332181 Y16.567972 F100.000000
G1 X6.333610 Y16.569764 F100.000000
G1 X6.341794 Y16.605619 F100.000000
G1 X6.350893 Y16.641253 F100.000000
G1 X6.350440 Y16.643500 F100.000000
G1 X6.350950 Y16.645735 F100.000000
G1 Y16.787975 F100.000000
G1 X6.344696 Y16.815374 F100.000000
G1 X6.341965 Y16.843345 F100.000000
G1 X6.293705 Y16.988125 F100.000000
G1 X6.293013 Y16.989262 F100.000000
G1 X6.292864 Y16.990585 F100.000000
G1 X6.272809 Y17.022502 F100.000000
G1 X6.253231 Y17.054714 F100.000000
G1 X6.252114 Y17.055439 F100.000000
G1 X6.251406 Y17.056566 F100.000000
G1 X6.157426 Y17.150546 F100.000000
G1 X6.133630 Y17.165498 F100.000000
G1 X6.111920 Y17.183345 F100.000000
G1 X6.015400 Y17.231605 F100.000000
G1 X5.996978 Y17.236098 F100.000000
G1 X5.980094 Y17.244728 F100.000000
G1 X5.789594 Y17.292988 F100.000000
G1 X5.767825 Y17.293504 F100.000000
G1 X5.746595 Y17.298350 F100.000000
G1 X5.604355 F100.000000
G1 X5.583125 Y17.293504 F100.000000
G1 X5.561356 Y17.292988 F100.000000
G1 X5.370856 Y17.244728 F100.000000
G1 X5.353144 Y17.235675 F100.000000
G1 X5.333871 Y17.230754 F100.000000
G1 X5.239891 Y17.182494 F100.000000
G1 X5.219956 Y17.165743 F100.000000
G1 X5.197726 Y17.152186 F100.000000
G1 X5.101206 Y17.058206 F100.000000
G1 X5.099835 Y17.056088 F100.000000
G1 X5.097719 Y17.054714 F100.000000
G1 X5.078732 Y17.023475 F100.000000
G1 X5.058871 Y16.992783 F100.000000
G1 X5.058556 Y16.990281 F100.000000
G1 X5.057245 Y16.988125 F100.000000
G1 X5.008985 Y16.843345 F100.000000
G1 X5.006254 Y16.815374 F100.000000
G1 X5.000000 Y16.787975 F100.000000
G1 Y16.693995 F100.000000
G1 X5.006356 Y16.666149 F100.000000
G1 X5.009284 Y16.637738 F100.000000
G1 X5.057544 Y16.495498 F100.000000
G1 X5.057990 Y16.494772 F100.000000
G1 X5.058086 Y16.493925 F100.000000
G1 X5.078383 Y16.461621 F100.000000
G1 X5.098373 Y16.429126 F100.000000
G1 X5.099091 Y16.428666 F100.000000
G1 X5.099544 Y16.427944 F100.000000
G1 X5.147804 Y16.379684 F100.000000
G1 X5.172677 Y16.364055 F100.000000
G1 X5.195644 Y16.345740 F100.000000
G1 X5.205353 Y16.343524 F100.000000
G1 X5.213785 Y16.338226 F100.000000
G1 X5.242976 Y16.334937 F100.000000
G1 X5.271615 Y16.328400 F100.000000
G1 X5.604355 F100.000000
G1 X5.623589 Y16.332790 F100.000000
G1 X5.643317 F100.000000
G1 X5.661092 Y16.341350 F100.000000
G1 X5.680326 Y16.345740 F100.000000
G1 X5.695750 Y16.358040 F100.000000
G1 X5.713525 Y16.366600 F100.000000
G1 X5.725825 Y16.382025 F100.000000
G1 X5.741250 Y16.394325 F100.000000
G1 X5.749810 Y16.412100 F100.000000
G1 X5.762110 Y16.427524 F100.000000
G1 X5.766500 Y16.446758 F100.000000
G1 X5.775060 Y16.464533 F100.000000
G1 Y16.484261 F100.000000
G1 X5.779450 Y16.503495 F100.000000
G1 Y16.693995 F100.000000
G1 X5.762110 Y16.769966 F100.000000
G1 X5.713525 Y16.830890 F100.000000
G1 X5.643317 Y16.864700 F100.000000
G1 X5.565393 F100.000000
G1 X5.495185 Y16.830890 F100.000000
G1 X5.446600 Y16.769966 F100.000000
G1 X5.429260 Y16.693995 F100.000000
G0 Z2.000000
G0 X6.304770 Y16.192722
G1 Z-0.040000 F60.000000
G1 X6.277610 Y16.211428 F100.000000
G1 X6.251826 Y16.231990 F100.000000
G1 X6.245737 Y16.233380 F100.000000
G1 X6.240594 Y16.236922 F100.000000
G1 X6.208007 Y16.241992 F100.000000
G1 X6.175855 Y16.249330 F100.000000
G1 X5.175095 F100.000000
G1 X5.099124 Y16.231990 F100.000000
G1 X5.038200 Y16.183405 F100.000000
G1 X5.004390 Y16.113197 F100.000000
G1 Y16.035273 F100.000000
G1 X5.038200 Y15.965065 F100.000000
G1 X5.099124 Y15.916480 F100.000000
G1 X5.175095 Y15.899140 F100.000000
G1 X5.516160 F100.000000
G1 X5.088265 Y15.654784 F100.000000
G1 X5.063984 Y15.632467 F100.000000
G1 X5.038200 Y15.611905 F100.000000
G1 X5.035491 Y15.606278 F100.000000
G1 X5.030892 Y15.602052 F100.000000
G1 X5.018699 Y15.571410 F100.000000
G1 X5.004390 Y15.541697 F100.000000
G1 Y15.535452 F100.000000
G1 X5.002081 Y15.529650 F100.000000
G1 X5.004390 Y15.496752 F100.000000
G1 Y15.463773 F100.000000
G1 X5.007100 Y15.458146 F100.000000
G1 X5.007537 Y15.451916 F100.000000
G1 X5.023891 Y15.423278 F100.000000
G1 X5.038200 Y15.393565 F100.000000
G1 X5.043083 Y15.389671 F100.000000
G1 X5.046180 Y15.384248 F100.000000
G1 X5.073340 Y15.365542 F100.000000
G1 X5.099124 Y15.344980 F100.000000
G1 X5.105213 Y15.343590 F100.000000
G1 X5.110356 Y15.340048 F100.000000
G1 X5.142943 Y15.334978 F100.000000
G1 X5.175095 Y15.327640 F100.000000
G1 X6.175855 F100.000000
G1 X6.251826 Y15.344980 F100.000000
G1 X6.312750 Y15.393565 F100.000000
G1 X6.346560 Y15.463773 F100.000000
G1 Y15.541697 F100.000000
G1 X6.312750 Y15.611905 F100.000000
G1 X6.251826 Y15.660490 F100.000000
G1 X6.175855 Y15.677830 F100.000000
G1 X5.834790 F100.000000
G1 X6.262685 Y15.922186 F100.000000
G1 X6.286966 Y15.944503 F100.000000
G1 X6.312750 Y15.965065 F100.000000
G1 X6.315459 Y15.970692 F100.000000
G1 X6.320058 Y15.974918 F100.000000
G1 X6.332251 Y16.005560 F100.000000
G1 X6.346560 Y16.035273 F100.000000
G1 Y16.041518 F100.000000
G1 X6.348869 Y16.047320 F100.000000
G1 X6.346560 Y16.080218 F100.000000
G1 Y16.113197 F100.000000
G1 X6.343850 Y16.118824 F100.000000
G1 X6.343413 Y16.125054 F100.000000
G1 X6.327059 Y16.153692 F100.000000
G1 X6.312750 Y16.183405 F100.000000
G1 X6.307867 Y16.187299 F100.000000
G1 X6.304770 Y16.192722 F100.000000
G0 Z2.000000
G0 X6.285025 Y15.162110
G1 Z-0.040000 F60.000000
G1 X6.267250 Y15.170670 F100.000000
G1 X6.251826 Y15.182970 F100.000000
G1 X6.232592 Y15.187360 F100.000000
G1 X6.214817 Y15.195920 F100.000000
G1 X6.195089 F100.000000
G1 X6.175855 Y15.200310 F100.000000
G1 X5.175095 F100.000000
G1 X5.155861 Y15.195920 F100.000000
G1 X5.136133 F100.000000
G1 X5.118358 Y15.187360 F100.000000
G1 X5.099124 Y15.182970 F100.000000
G1 X5.083700 Y15.170670 F100.000000
G1 X5.065925 Y15.162110 F100.000000
G1 X5.053625 Y15.146685 F100.000000
G1 X5.038200 Y15.134385 F100.000000
G1 X5.029640 Y15.116610 F100.000000
G1 X5.017340 Y15.101186 F100.000000
G1 X5.012950 Y15.081952 F100.000000
G1 X5.004390 Y15.064177 F100.000000
G1 Y15.044449 F100.000000
G1 X5.000000 Y15.025215 F100.000000
G1 Y14.786455 F100.000000
G1 X5.006356 Y14.758609 F100.000000
G1 X5.009284 Y14.730198 F100.000000
G1 X5.057544 Y14.587958 F100.000000
G1 X5.058615 Y14.586216 F100.000000
G1 X5.058871 Y14.584187 F100.000000
G1 X5.078980 Y14.553112 F100.000000
G0 Z2.000000
G1 Z-0.040000 F60.000000
G1 X5.098373 Y14.521586 F100.000000
G1 X5.100095 Y14.520482 F100.000000
G1 X5.101206 Y14.518764 F100.000000
G1 X5.197726 Y14.424784 F100.000000
G1 X5.219956 Y14.411227 F100.000000
G1 X5.239891 Y14.394476 F100.000000
G1 X5.333871 Y14.346216 F100.000000
G1 X5.353144 Y14.341295 F100.000000
G1 X5.370856 Y14.332242 F100.000000
G1 X5.561356 Y14.283982 F100.000000
G1 X5.583125 Y14.283466 F100.000000
G1 X5.604355 Y14.278620 F100.000000
G1 X5.746595 F100.000000
G1 X5.767825 Y14.283466 F100.000000
G1 X5.789594 Y14.283982 F100.000000
G1 X5.980094 Y14.332242 F100.000000
G1 X5.996978 Y14.340872 F100.000000
G1 X6.015400 Y14.345365 F100.000000
G1 X6.111920 Y14.393625 F100.000000
G1 X6.133630 Y14.411472 F100.000000
G1 X6.157426 Y14.426424 F100.000000
G1 X6.251406 Y14.520404 F100.000000
G1 X6.251859 Y14.521126 F100.000000
G1 X6.252577 Y14.521586 F100.000000
G1 X6.272567 Y14.554081 F100.000000
G1 X6.292864 Y14.586385 F100.000000
G1 X6.292960 Y14.587232 F100.000000
G1 X6.293406 Y14.587958 F100.000000
G1 X6.341666 Y14.730198 F100.000000
G1 X6.344594 Y14.758609 F100.000000
G1 X6.350950 Y14.786455 F100.000000
G1 Y15.025215 F100.000000
G1 X6.346560 Y15.044449 F100.000000
G1 Y15.064177 F100.000000
G1 X6.338000 Y15.081952 F100.000000
G1 X6.333610 Y15.101186 F100.000000
G1 X6.321310 Y15.116610 F100.000000
G1 X6.312750 Y15.134385 F100.000000
G1 X6.297325 Y15.146685 F100.000000
G1 X6.285025 Y15.162110 F100.000000
G0 Z2.000000
G0 X5.350190 Y14.850120
G1 Z-0.040000 F60.000000
G1 X6.000760 F100.000000
G1 Y14.815350 F100.000000
G1 X5.974906 Y14.739147 F100.000000
G1 X5.929896 Y14.694138 F100.000000
G1 X5.875733 Y14.667056 F100.000000
G1 X5.724761 Y14.628810 F100.000000
G1 X5.626189 F100.000000
G1 X5.476141 Y14.666822 F100.000000
G1 X5.423214 Y14.694001 F100.000000
G1 X5.375648 Y14.740315 F100.000000
G1 X5.350190 Y14.815350 F100.000000
G1 Y14.850120 F100.000000
G0 Z2.000000
G0 X5.175095 Y25.662900
G1 Z-0.040000 F60.000000
G1 X5.381000 F100.000000
G1 Y25.456995 F100.000000
G1 X5.398340 Y25.381024 F100.000000
G1 X5.446925 Y25.320100 F100.000000
G1 X5.517133 Y25.286290 F100.000000
G1 X5.595057 F100.000000
G1 X5.665265 Y25.320100 F100.000000
G1 X5.713850 Y25.381024 F100.000000
G1 X5.731190 Y25.456995 F100.000000
G1 Y25.662900 F100.000000
G1 X5.937095 F100.000000
G1 X6.013066 Y25.680240 F100.000000
G1 X6.073990 Y25.728825 F100.000000
G1 X6.107800 Y25.799033 F100.000000
G1 Y25.876957 F100.000000
G1 X6.073990 Y25.947165 F100.000000
G1 X6.013066 Y25.995750 F100.000000
G1 X5.937095 Y26.013090 F100.000000
G1 X5.731190 F100.000000
G1 Y26.218995 F100.000000
G1 X5.713850 Y26.294966 F100.000000
G1 X5.665265 Y26.355890 F100.000000
G1 X5.595057 Y26.389700 F100.000000
G1 X5.517133 F100.000000
G1 X5.446925 Y26.355890 F100.000000
G1 X5.398340 Y26.294966 F100.000000
G1 X5.381000 Y26.218995 F100.000000
G1 Y26.013090 F100.000000
G1 X5.175095 F100.000000
G1 X5.099124 Y25.995750 F100.000000
G1 X5.038200 Y25.947165 F100.000000
G1 X5.004390 Y25.876957 F100.000000
G1 Y25.799033 F100.000000
G1 X5.038200 Y25.728825 F100.000000
G1 X5.099124 Y25.680240 F100.000000
G1 X5.175095 Y25.662900 F100.000000
G0 Z2.000000
G0 X5.395426 Y24.903924
G1 Z-0.040000 F60.000000
G1 X5.436884 Y24.969905 F100.000000
G1 X5.445609 Y25.047339 F100.000000
G1 X5.419872 Y25.120891 F100.000000
G1 X5.364771 Y25.175992 F100.000000
G1 X5.291219 Y25.201729 F100.000000
G1 X5.213785 Y25.193004 F100.000000
G1 X5.147804 Y25.151546 F100.000000
G1 X5.099544 Y25.103286 F100.000000
G1 X5.085082 Y25.080270 F100.000000
G1 X5.067596 Y25.059459 F100.000000
G1 X5.019336 Y24.965479 F100.000000
G1 X5.018769 Y24.963258 F100.000000
G1 X5.017340 Y24.961466 F100.000000
G1 X5.009156 Y24.925611 F100.000000
G1 X5.000057 Y24.889977 F100.000000
G1 X5.000510 Y24.887730 F100.000000
G1 X5.000000 Y24.885495 F100.000000
G1 Y24.646735 F100.000000
G1 X5.000296 Y24.645437 F100.000000
G1 X5.000019 Y24.644135 F100.000000
G1 X5.008952 Y24.607514 F100.000000
G1 X5.017340 Y24.570764 F100.000000
G1 X5.018170 Y24.569723 F100.000000
G1 X5.018485 Y24.568430 F100.000000
G1 X5.066745 Y24.471910 F100.000000
G1 X5.086061 Y24.448413 F100.000000
G1 X5.102934 Y24.423104 F100.000000
G1 X5.151194 Y24.377384 F100.000000
G1 X5.172596 Y24.364730 F100.000000
G1 X5.191631 Y24.348736 F100.000000
G1 X5.285611 Y24.300476 F100.000000
G1 X5.287832 Y24.299909 F100.000000
G1 X5.289624 Y24.298480 F100.000000
G1 X5.325479 Y24.290296 F100.000000
G1 X5.361113 Y24.281197 F100.000000
G1 X5.363360 Y24.281650 F100.000000
G1 X5.365595 Y24.281140 F100.000000
G1 X5.604355 F100.000000
G1 X5.605653 Y24.281436 F100.000000
G1 X5.606955 Y24.281159 F100.000000
G1 X5.643576 Y24.290092 F100.000000
G1 X5.680326 Y24.298480 F100.000000
G1 X5.681367 Y24.299310 F100.000000
G1 X5.682660 Y24.299625 F100.000000
G1 X5.779180 Y24.347885 F100.000000
G1 X5.800890 Y24.365732 F100.000000
G1 X5.824686 Y24.380684 F100.000000
G1 X5.870406 Y24.426404 F100.000000
G1 X5.885358 Y24.450200 F100.000000
G1 X5.903205 Y24.471910 F100.000000
G1 X5.951465 Y24.568430 F100.000000
G1 X5.951780 Y24.569723 F100.000000
G1 X5.952610 Y24.570764 F100.000000
G1 X5.960998 Y24.607514 F100.000000
G1 X5.969931 Y24.644135 F100.000000
G1 X5.969654 Y24.645437 F100.000000
G1 X5.969950 Y24.646735 F100.000000
G1 Y24.824399 F100.000000
G1 X6.000760 Y24.821269 F100.000000
G1 Y24.504495 F100.000000
G1 X6.018100 Y24.428524 F100.000000
G1 X6.066685 Y24.367600 F100.000000
G1 X6.131440 Y24.336416 F100.000000
G1 X6.120612 Y24.335367 F100.000000
G1 X5.119852 Y24.002627 F100.000000
G1 X5.100682 Y23.990995 F100.000000
G1 X5.079636 Y23.983260 F100.000000
G1 X5.067787 Y23.971035 F100.000000
G1 X5.053232 Y23.962203 F100.000000
G1 X5.041007 Y23.943406 F100.000000
G1 X5.025402 Y23.927306 F100.000000
G1 X5.020030 Y23.911150 F100.000000
G1 X5.010749 Y23.896878 F100.000000
G1 X5.007891 Y23.874638 F100.000000
G1 X5.000816 Y23.853361 F100.000000
G1 X5.002986 Y23.836475 F100.000000
G1 X5.000816 Y23.819589 F100.000000
G1 X5.007891 Y23.798312 F100.000000
G1 X5.010749 Y23.776072 F100.000000
G1 X5.020030 Y23.761800 F100.000000
G1 X5.025402 Y23.745644 F100.000000
G1 X5.041007 Y23.729544 F100.000000
G1 X5.053232 Y23.710747 F100.000000
G1 X5.067787 Y23.701915 F100.000000
G1 X5.079636 Y23.689690 F100.000000
G1 X5.100682 Y23.681955 F100.000000
G1 X5.119852 Y23.670323 F100.000000
G1 X6.120612 Y23.337583 F100.000000
G1 X6.198173 Y23.330068 F100.000000
G1 X6.271314 Y23.356950 F100.000000
G1 X6.325548 Y23.412904 F100.000000
G1 X6.350134 Y23.486849 F100.000000
G1 X6.340201 Y23.564138 F100.000000
G1 X6.297718 Y23.629463 F100.000000
G1 X6.231098 Y23.669887 F100.000000
G0 Z2.000000
G1 Z-0.040000 F60.000000
G1 X5.730062 Y23.836475 F100.000000
G1 X6.231098 Y24.003063 F100.000000
G1 X6.297718 Y24.043487 F100.000000
G1 X6.340201 Y24.108812 F100.000000
G1 X6.350134 Y24.186101 F100.000000
G1 X6.325548 Y24.260046 F100.000000
G1 X6.271314 Y24.316000 F100.000000
G1 X6.218320 Y24.335477 F100.000000
G1 X6.285025 Y24.367600 F100.000000
G1 X6.333610 Y24.428524 F100.000000
G1 X6.350950 Y24.504495 F100.000000
G1 Y24.979475 F100.000000
G1 X6.348520 Y24.990120 F100.000000
G1 X6.349624 Y25.000982 F100.000000
G1 X6.339938 Y25.027720 F100.000000
G1 X6.333610 Y25.055446 F100.000000
G1 X6.326803 Y25.063982 F100.000000
G1 X6.323084 Y25.074248 F100.000000
G1 X6.302756 Y25.094136 F100.000000
G1 X6.285025 Y25.116370 F100.000000
G1 X6.275188 Y25.121107 F100.000000
G1 X6.267383 Y25.128743 F100.000000
G1 X6.240439 Y25.137841 F100.000000
G1 X6.214817 Y25.150180 F100.000000
G1 X6.203899 F100.000000
G1 X6.193554 Y25.153673 F100.000000
G1 X5.718574 Y25.201933 F100.000000
G1 X5.702259 Y25.199914 F100.000000
G1 X5.685979 Y25.202195 F100.000000
G1 X5.664069 Y25.195187 F100.000000
G1 X5.641240 Y25.192362 F100.000000
G1 X5.627416 Y25.183463 F100.000000
G1 X5.611758 Y25.178455 F100.000000
G1 X5.595059 Y25.162634 F100.000000
G1 X5.575717 Y25.150184 F100.000000
G1 X5.567123 Y25.136169 F100.000000
G1 X5.555189 Y25.124863 F100.000000
G1 X5.547007 Y25.103363 F100.000000
G1 X5.534983 Y25.083753 F100.000000
G1 X5.533321 Y25.067398 F100.000000
G1 X5.527474 Y25.052033 F100.000000
G1 X5.529431 Y25.029113 F100.000000
G1 X5.527106 Y25.006228 F100.000000
G1 X5.532705 Y24.990771 F100.000000
G1 X5.534104 Y24.974391 F100.000000
G1 X5.545811 Y24.954590 F100.000000
G1 X5.553646 Y24.932962 F100.000000
G1 X5.565397 Y24.921465 F100.000000
G1 X5.573764 Y24.907314 F100.000000
G1 X5.602270 Y24.877225 F100.000000
G1 X5.619760 Y24.843166 F100.000000
G1 Y24.688069 F100.000000
G1 X5.602692 Y24.653934 F100.000000
G1 X5.597156 Y24.648398 F100.000000
G1 X5.563021 Y24.631330 F100.000000
G1 X5.407924 F100.000000
G1 X5.373865 Y24.648820 F100.000000
G1 X5.366169 Y24.656111 F100.000000
G1 X5.350190 Y24.688069 F100.000000
G1 Y24.843166 F100.000000
G1 X5.366575 Y24.875073 F100.000000
G1 X5.395426 Y24.903924 F100.000000
G0 Z2.000000
G0 X54.015325 Y48.241984
G1 Z-0.040000 F60.000000
G1 X54.015509 Y48.244135 F100.000000
G1 X54.494275 F100.000000
G1 X54.582093 Y48.264179 F100.000000
G1 X54.652518 Y48.320341 F100.000000
G1 X54.691600 Y48.401497 F100.000000
G1 Y48.491573 F100.000000
G1 X54.652518 Y48.572729 F100.000000
G1 X54.582093 Y48.628891 F100.000000
G1 X54.494275 Y48.648935 F100.000000
G1 X52.462275 F100.000000
G1 X52.374457 Y48.628891 F100.000000
G1 X52.304032 Y48.572729 F100.000000
G1 X52.264950 Y48.491573 F100.000000
G1 Y48.401497 F100.000000
G1 X52.304032 Y48.320341 F100.000000
G1 X52.374457 Y48.264179 F100.000000
G1 X52.462275 Y48.244135 F100.000000
G1 X53.554646 F100.000000
G1 X53.569916 Y48.232482 F100.000000
G1 X53.613695 Y48.166813 F100.000000
G1 Y48.070937 F100.000000
G1 X53.587024 Y48.030931 F100.000000
G1 X53.489231 Y47.993615 F100.000000
G1 X52.462275 F100.000000
G1 X52.374457 Y47.973571 F100.000000
G1 X52.304032 Y47.917409 F100.000000
G1 X52.264950 Y47.836253 F100.000000
G1 Y47.746177 F100.000000
G1 X52.304032 Y47.665021 F100.000000
G1 X52.374457 Y47.608859 F100.000000
G1 X52.462275 Y47.588815 F100.000000
G1 X53.526535 F100.000000
G1 X53.562333 Y47.596986 F100.000000
G1 X53.598692 Y47.602114 F100.000000
G1 X53.791732 Y47.675774 F100.000000
G1 X53.806116 Y47.685383 F100.000000
G1 X53.822592 Y47.690653 F100.000000
G1 X53.843120 Y47.710101 F100.000000
G1 X53.866634 Y47.725809 F100.000000
G1 X53.875425 Y47.740707 F100.000000
G1 X53.887982 Y47.752604 F100.000000
G1 X53.984502 Y47.897384 F100.000000
G1 X53.989569 Y47.910699 F100.000000
G1 X53.998451 Y47.921837 F100.000000
G1 X54.005412 Y47.952334 F100.000000
G1 X54.016537 Y47.981571 F100.000000
G1 X54.015325 Y47.995766 F100.000000
G1 X54.018495 Y48.009655 F100.000000
G1 Y48.228095 F100.000000
G1 X54.015325 Y48.241984 F100.000000
G0 Z2.000000
G0 X52.664675 Y45.832875
G1 Z-0.040000 F60.000000
G1 Y45.916373 F100.000000
G1 X52.691346 Y45.956379 F100.000000
G1 X52.789139 Y45.993695 F100.000000
G1 X53.613695 F100.000000
G1 Y45.832875 F100.000000
G1 X53.633739 Y45.745057 F100.000000
G1 X53.689901 Y45.674632 F100.000000
G1 X53.771057 Y45.635550 F100.000000
G1 X53.861133 F100.000000
G1 X53.942289 Y45.674632 F100.000000
G1 X53.998451 Y45.745057 F100.000000
G1 X54.018495 Y45.832875 F100.000000
G1 Y45.993695 F100.000000
G1 X54.494275 F100.000000
G1 X54.582093 Y46.013739 F100.000000
G1 X54.652518 Y46.069901 F100.000000
G1 X54.691600 Y46.151057 F100.000000
G1 Y46.241133 F100.000000
G1 X54.652518 Y46.322289 F100.000000
G1 X54.582093 Y46.378451 F100.000000
G1 X54.494275 Y46.398495 F100.000000
G1 X54.018495 F100.000000
G1 Y46.414535 F100.000000
G1 X53.998451 Y46.502353 F100.000000
G1 X53.953025 Y46.559315 F100.000000
G1 X53.998451 Y46.616277 F100.000000
G1 X54.018495 Y46.704095 F100.000000
G1 Y46.864915 F100.000000
G1 X54.494275 F100.000000
G1 X54.582093 Y46.884959 F100.000000
G1 X54.652518 Y46.941121 F100.000000
G1 X54.691600 Y47.022277 F100.000000
G1 Y47.112353 F100.000000
G1 X54.652518 Y47.193509 F100.000000
G1 X54.582093 Y47.249671 F100.000000
G1 X54.494275 Y47.269715 F100.000000
G1 X54.018495 F100.000000
G1 Y47.283215 F100.000000
G1 X53.998451 Y47.371033 F100.000000
G1 X53.942289 Y47.441458 F100.000000
G1 X53.861133 Y47.480540 F100.000000
G1 X53.771057 F100.000000
G1 X53.689901 Y47.441458 F100.000000
G1 X53.633739 Y47.371033 F100.000000
G1 X53.613695 Y47.283215 F100.000000
G1 Y47.269715 F100.000000
G1 X52.751835 F100.000000
G1 X52.716037 Y47.261544 F100.000000
G1 X52.679678 Y47.256416 F100.000000
G1 X52.486638 Y47.182756 F100.000000
G1 X52.472254 Y47.173147 F100.000000
G1 X52.455778 Y47.167877 F100.000000
G1 X52.435250 Y47.148429 F100.000000
G1 X52.411736 Y47.132721 F100.000000
G1 X52.402945 Y47.117823 F100.000000
G1 X52.390388 Y47.105926 F100.000000
G1 X52.293868 Y46.961146 F100.000000
G1 X52.288801 Y46.947831 F100.000000
G1 X52.279919 Y46.936693 F100.000000
G1 X52.272958 Y46.906196 F100.000000
G1 X52.261833 Y46.876959 F100.000000
G1 X52.263045 Y46.862764 F100.000000
G1 X52.259875 Y46.848875 F100.000000
G1 Y46.704095 F100.000000
G1 X52.279919 Y46.616277 F100.000000
G1 X52.336081 Y46.545852 F100.000000
G1 X52.417237 Y46.506770 F100.000000
G1 X52.507313 F100.000000
G1 X52.588469 Y46.545852 F100.000000
G1 X52.644631 Y46.616277 F100.000000
G1 X52.664675 Y46.704095 F100.000000
G1 Y46.787593 F100.000000
G1 X52.691346 Y46.827599 F100.000000
G1 X52.789139 Y46.864915 F100.000000
G1 X53.613695 F100.000000
G1 Y46.704095 F100.000000
G1 X53.633739 Y46.616277 F100.000000
G1 X53.679165 Y46.559315 F100.000000
G1 X53.633739 Y46.502353 F100.000000
G1 X53.613695 Y46.414535 F100.000000
G1 Y46.398495 F100.000000
G1 X52.751835 F100.000000
G1 X52.716037 Y46.390324 F100.000000
G1 X52.679678 Y46.385196 F100.000000
G1 X52.486638 Y46.311536 F100.000000
G1 X52.472254 Y46.301927 F100.000000
G1 X52.455778 Y46.296657 F100.000000
G1 X52.435250 Y46.277209 F100.000000
G1 X52.411736 Y46.261501 F100.000000
G1 X52.402945 Y46.246603 F100.000000
G1 X52.390388 Y46.234706 F100.000000
G1 X52.293868 Y46.089926 F100.000000
G1 X52.288801 Y46.076611 F100.000000
G1 X52.279919 Y46.065473 F100.000000
G1 X52.272958 Y46.034976 F100.000000
G1 X52.261833 Y46.005739 F100.000000
G1 X52.263045 Y45.991544 F100.000000
G1 X52.259875 Y45.977655 F100.000000
G1 Y45.832875 F100.000000
G1 X52.279919 Y45.745057 F100.000000
G1 X52.336081 Y45.674632 F100.000000
G1 X52.417237 Y45.635550 F100.000000
G1 X52.507313 F100.000000
G1 X52.588469 Y45.674632 F100.000000
G1 X52.644631 Y45.745057 F100.000000
G1 X52.664675 Y45.832875 F100.000000
G0 Z2.000000
G0 X52.272782 Y44.833987
G1 Z-0.040000 F60.000000
G1 X52.279919 Y44.802717 F100.000000
G1 X52.288297 Y44.792211 F100.000000
G1 X52.292975 Y44.779614 F100.000000
G1 X52.389495 Y44.632294 F100.000000
G1 X52.415324 Y44.607429 F100.000000
G1 X52.438732 Y44.580272 F100.000000
G1 X52.535252 Y44.509152 F100.000000
G1 X52.560374 Y44.498214 F100.000000
G1 X52.583158 Y44.482994 F100.000000
G1 X52.776198 Y44.409334 F100.000000
G1 X52.812557 Y44.404206 F100.000000
G1 X52.848355 Y44.396035 F100.000000
G1 X53.430015 F100.000000
G1 X53.465813 Y44.404206 F100.000000
G1 X53.502172 Y44.409334 F100.000000
G1 X53.695212 Y44.482994 F100.000000
G1 X53.717996 Y44.498214 F100.000000
G1 X53.743118 Y44.509152 F100.000000
G1 X53.839638 Y44.580272 F100.000000
G1 X53.863046 Y44.607429 F100.000000
G1 X53.888875 Y44.632294 F100.000000
G1 X53.985395 Y44.779614 F100.000000
G1 X53.990073 Y44.792211 F100.000000
G1 X53.998451 Y44.802717 F100.000000
G1 X54.005588 Y44.833987 F100.000000
G1 X54.016755 Y44.864055 F100.000000
G1 X54.015505 Y44.877435 F100.000000
G1 X54.018495 Y44.890535 F100.000000
G1 Y45.180095 F100.000000
G1 X54.015325 Y45.193984 F100.000000
G1 X54.016537 Y45.208179 F100.000000
G1 X54.005412 Y45.237416 F100.000000
G1 X54.001418 Y45.254914 F100.000000
G1 X54.013420 Y45.279837 F100.000000
G1 Y45.369913 F100.000000
G1 X53.974338 Y45.451069 F100.000000
G1 X53.903913 Y45.507231 F100.000000
G1 X53.816095 Y45.527275 F100.000000
G1 X51.784095 F100.000000
G1 X51.696277 Y45.507231 F100.000000
G1 X51.625852 Y45.451069 F100.000000
G1 X51.586770 Y45.369913 F100.000000
G1 Y45.279837 F100.000000
G1 X51.625852 Y45.198681 F100.000000
G1 X51.696277 Y45.142519 F100.000000
G1 X51.784095 Y45.122475 F100.000000
G1 X52.259875 F100.000000
G1 Y44.890535 F100.000000
G1 X52.262865 Y44.877435 F100.000000
G1 X52.261615 Y44.864055 F100.000000
G1 X52.272782 Y44.833987 F100.000000
G0 Z2.000000
G0 X52.667116 Y45.122475
G1 Z-0.040000 F60.000000
G1 X53.611254 F100.000000
G1 X53.613695 Y45.118813 F100.000000
G1 Y44.950934 F100.000000
G1 X53.570217 Y44.884573 F100.000000
G1 X53.525165 Y44.851377 F100.000000
G1 X53.392711 Y44.800835 F100.000000
G1 X52.885659 F100.000000
G1 X52.753205 Y44.851377 F100.000000
G1 X52.708153 Y44.884573 F100.000000
G1 X52.664675 Y44.950934 F100.000000
G1 Y45.118813 F100.000000
G1 X52.667116 Y45.122475 F100.000000
G0 Z2.000000
G0 X52.513965 Y44.215729
G1 Z-0.040000 F60.000000
G1 X52.509559 Y44.215635 F100.000000
G1 X52.473159 Y44.197139 F100.000000
G1 X52.436004 Y44.180213 F100.000000
G1 X52.339484 Y44.106553 F100.000000
G1 X52.335557 Y44.101838 F100.000000
G1 X52.330134 Y44.098967 F100.000000
G1 X52.318873 Y44.083685 F100.000000
G1 X52.304032 Y44.071849 F100.000000
G1 X52.295063 Y44.053225 F100.000000
G1 X52.281833 Y44.037342 F100.000000
G1 X52.280341 Y44.031390 F100.000000
G1 X52.276700 Y44.026450 F100.000000
G1 X52.273186 Y44.007796 F100.000000
G1 X52.264950 Y43.990693 F100.000000
G1 Y43.970022 F100.000000
G1 X52.259921 Y43.949972 F100.000000
G1 X52.261159 Y43.943961 F100.000000
G1 X52.260022 Y43.937931 F100.000000
G1 X52.264950 Y43.919599 F100.000000
G1 Y43.900617 F100.000000
G1 X52.273919 Y43.881993 F100.000000
G1 X52.278087 Y43.861746 F100.000000
G1 X52.281810 Y43.856868 F100.000000
G1 X52.283403 Y43.850942 F100.000000
G1 X52.295796 Y43.836563 F100.000000
G1 X52.304032 Y43.819461 F100.000000
G1 X52.320194 Y43.806572 F100.000000
G1 X52.332734 Y43.790140 F100.000000
G1 X52.338205 Y43.787360 F100.000000
G1 X52.342212 Y43.782712 F100.000000
G1 X52.438732 Y43.711592 F100.000000
G1 X52.473116 Y43.696621 F100.000000
G1 X52.506259 Y43.679072 F100.000000
G1 X52.514113 Y43.678772 F100.000000
G1 X52.521320 Y43.675635 F100.000000
G1 X52.558795 Y43.677066 F100.000000
G1 X52.596270 Y43.675635 F100.000000
G1 X52.603477 Y43.678772 F100.000000
G1 X52.611331 Y43.679072 F100.000000
G1 X52.644474 Y43.696621 F100.000000
G1 X52.678858 Y43.711592 F100.000000
G1 X52.775378 Y43.782712 F100.000000
G1 X52.779385 Y43.787360 F100.000000
G1 X52.784856 Y43.790140 F100.000000
G1 X52.797396 Y43.806572 F100.000000
G1 X52.813558 Y43.819461 F100.000000
G1 X52.821794 Y43.836563 F100.000000
G1 X52.834187 Y43.850942 F100.000000
G1 X52.835780 Y43.856868 F100.000000
G1 X52.839503 Y43.861746 F100.000000
G1 X52.843671 Y43.881993 F100.000000
G1 X52.852640 Y43.900617 F100.000000
G1 Y43.919599 F100.000000
G1 X52.857568 Y43.937931 F100.000000
G1 X52.856431 Y43.943961 F100.000000
G1 X52.857669 Y43.949972 F100.000000
G1 X52.852640 Y43.970022 F100.000000
G1 Y43.990693 F100.000000
G1 X52.844404 Y44.007796 F100.000000
G1 X52.840890 Y44.026450 F100.000000
G1 X52.837249 Y44.031390 F100.000000
G1 X52.835757 Y44.037342 F100.000000
G1 X52.822527 Y44.053225 F100.000000
G1 X52.813558 Y44.071849 F100.000000
G1 X52.798717 Y44.083685 F100.000000
G1 X52.787456 Y44.098967 F100.000000
G1 X52.782033 Y44.101838 F100.000000
G1 X52.778106 Y44.106553 F100.000000
G1 X52.681586 Y44.180213 F100.000000
G1 X52.644431 Y44.197139 F100.000000
G1 X52.608031 Y44.215635 F100.000000
G1 X52.603625 Y44.215729 F100.000000
G1 X52.599614 Y44.217556 F100.000000
G1 X52.558795 Y44.216685 F100.000000
G1 X52.517976 Y44.217556 F100.000000
G1 X52.513965 Y44.215729 F100.000000
G0 Z2.000000
G0 X53.578225
G1 Z-0.040000 F60.000000
G1 X53.573819 Y44.215635 F100.000000
G1 X53.537419 Y44.197139 F100.000000
G1 X53.500264 Y44.180213 F100.000000
G1 X53.403744 Y44.106553 F100.000000
G1 X53.399817 Y44.101838 F100.000000
G1 X53.394394 Y44.098967 F100.000000
G1 X53.383133 Y44.083685 F100.000000
G1 X53.368292 Y44.071849 F100.000000
G1 X53.359323 Y44.053225 F100.000000
G1 X53.346093 Y44.037342 F100.000000
G1 X53.344601 Y44.031390 F100.000000
G1 X53.340960 Y44.026450 F100.000000
G1 X53.337446 Y44.007796 F100.000000
G1 X53.329210 Y43.990693 F100.000000
G1 Y43.970022 F100.000000
G1 X53.324181 Y43.949972 F100.000000
G1 X53.325419 Y43.943961 F100.000000
G1 X53.324282 Y43.937931 F100.000000
G1 X53.329210 Y43.919599 F100.000000
G1 Y43.900617 F100.000000
G1 X53.338179 Y43.881993 F100.000000
G1 X53.342347 Y43.861746 F100.000000
G1 X53.346070 Y43.856868 F100.000000
G1 X53.347663 Y43.850942 F100.000000
G1 X53.360056 Y43.836563 F100.000000
G1 X53.368292 Y43.819461 F100.000000
G1 X53.384454 Y43.806572 F100.000000
G1 X53.396994 Y43.790140 F100.000000
G1 X53.402465 Y43.787360 F100.000000
G1 X53.406472 Y43.782712 F100.000000
G1 X53.502992 Y43.711592 F100.000000
G1 X53.537376 Y43.696621 F100.000000
G1 X53.570519 Y43.679072 F100.000000
G1 X53.578373 Y43.678772 F100.000000
G1 X53.585580 Y43.675635 F100.000000
G1 X53.623055 Y43.677066 F100.000000
G1 X53.660530 Y43.675635 F100.000000
G1 X53.667737 Y43.678772 F100.000000
G1 X53.675591 Y43.679072 F100.000000
G1 X53.708734 Y43.696621 F100.000000
G1 X53.743118 Y43.711592 F100.000000
G1 X53.839638 Y43.782712 F100.000000
G1 X53.843645 Y43.787360 F100.000000
G1 X53.849116 Y43.790140 F100.000000
G1 X53.861656 Y43.806572 F100.000000
G1 X53.877818 Y43.819461 F100.000000
G1 X53.886054 Y43.836563 F100.000000
G1 X53.898447 Y43.850942 F100.000000
G1 X53.900040 Y43.856868 F100.000000
G1 X53.903763 Y43.861746 F100.000000
G1 X53.907931 Y43.881993 F100.000000
G1 X53.916900 Y43.900617 F100.000000
G1 Y43.919599 F100.000000
G1 X53.921828 Y43.937931 F100.000000
G1 X53.920691 Y43.943961 F100.000000
G1 X53.921929 Y43.949972 F100.000000
G1 X53.916900 Y43.970022 F100.000000
G1 Y43.990693 F100.000000
G1 X53.908664 Y44.007796 F100.000000
G1 X53.905150 Y44.026450 F100.000000
G1 X53.901509 Y44.031390 F100.000000
G1 X53.900017 Y44.037342 F100.000000
G1 X53.886787 Y44.053225 F100.000000
G1 X53.877818 Y44.071849 F100.000000
G1 X53.862977 Y44.083685 F100.000000
G1 X53.851716 Y44.098967 F100.000000
G1 X53.846293 Y44.101838 F100.000000
G1 X53.842366 Y44.106553 F100.000000
G1 X53.745846 Y44.180213 F100.000000
G1 X53.708691 Y44.197139 F100.000000
G1 X53.672291 Y44.215635 F100.000000
G1 X53.667885 Y44.215729 F100.000000
G1 X53.663874 Y44.217556 F100.000000
G1 X53.623055 Y44.216685 F100.000000
G1 X53.582236 Y44.217556 F100.000000
G1 X53.578225 Y44.215729 F100.000000
G0 Z2.000000
G0 X54.500349 Y41.951028
G1 Z-0.040000 F60.000000
G1 X54.587868 Y41.929716 F100.000000
G1 X54.675967 Y41.948488 F100.000000
G1 X54.747196 Y42.003626 F100.000000
G1 X54.787449 Y42.084208 F100.000000
G1 X54.788751 Y42.174275 F100.000000
G1 X54.750846 Y42.255988 F100.000000
G1 X54.681241 Y42.313162 F100.000000
G1 X52.067581 Y43.618722 F100.000000
G1 X51.980062 Y43.640034 F100.000000
G1 X51.891963 Y43.621262 F100.000000
G1 X51.820734 Y43.566124 F100.000000
G1 X51.780481 Y43.485542 F100.000000
G1 X51.779179 Y43.395475 F100.000000
G1 X51.817084 Y43.313762 F100.000000
G1 X51.886689 Y43.256588 F100.000000
G1 X54.500349 Y41.951028 F100.000000
G0 Z2.000000
G0 X54.500209 Y40.353438
G1 Z-0.040000 F60.000000
G1 X54.587711 Y40.332058 F100.000000
G1 X54.675824 Y40.350762 F100.000000
G1 X54.747097 Y40.405844 F100.000000
G1 X54.787411 Y40.486395 F100.000000
G1 X54.788784 Y40.576461 F100.000000
G1 X54.750942 Y40.658204 F100.000000
G1 X54.681381 Y40.715432 F100.000000
G1 X52.067721 Y42.023532 F100.000000
G1 X51.980219 Y42.044912 F100.000000
G1 X51.892106 Y42.026208 F100.000000
G1 X51.820833 Y41.971126 F100.000000
G1 X51.780519 Y41.890575 F100.000000
G1 X51.779146 Y41.800509 F100.000000
G1 X51.816988 Y41.718766 F100.000000
G1 X51.886549 Y41.661538 F100.000000
G1 X54.500209 Y40.353438 F100.000000
G0 Z2.000000
G0 X53.887982 Y39.261384
G1 Z-0.040000 F60.000000
G1 X53.984502 Y39.406164 F100.000000
G1 X53.989569 Y39.419479 F100.000000
G1 X53.998451 Y39.430617 F100.000000
G1 X54.005412 Y39.461114 F100.000000
G1 X54.016537 Y39.490351 F100.000000
G1 X54.015325 Y39.504546 F100.000000
G1 X54.018495 Y39.518435 F100.000000
G1 Y39.810535 F100.000000
G1 X54.015325 Y39.824424 F100.000000
G1 X54.016537 Y39.838619 F100.000000
G1 X54.005412 Y39.867856 F100.000000
G1 X53.998451 Y39.898353 F100.000000
G1 X53.989569 Y39.909491 F100.000000
G1 X53.984502 Y39.922806 F100.000000
G1 X53.887982 Y40.067586 F100.000000
G1 X53.862529 Y40.091700 F100.000000
G1 X53.839638 Y40.118258 F100.000000
G1 X53.743118 Y40.189378 F100.000000
G1 X53.717996 Y40.200316 F100.000000
G1 X53.695212 Y40.215536 F100.000000
G1 X53.502172 Y40.289196 F100.000000
G1 X53.465813 Y40.294324 F100.000000
G1 X53.430015 Y40.302495 F100.000000
G1 X52.848355 F100.000000
G1 X52.812557 Y40.294324 F100.000000
G1 X52.776198 Y40.289196 F100.000000
G1 X52.583158 Y40.215536 F100.000000
G1 X52.560374 Y40.200316 F100.000000
G1 X52.535252 Y40.189378 F100.000000
G1 X52.438732 Y40.118258 F100.000000
G1 X52.415841 Y40.091700 F100.000000
G1 X52.390388 Y40.067586 F100.000000
G1 X52.293868 Y39.922806 F100.000000
G1 X52.288801 Y39.909491 F100.000000
G1 X52.279919 Y39.898353 F100.000000
G1 X52.272958 Y39.867856 F100.000000
G1 X52.261833 Y39.838619 F100.000000
G1 X52.263045 Y39.824424 F100.000000
G1 X52.259875 Y39.810535 F100.000000
G1 Y39.518435 F100.000000
G1 X52.263045 Y39.504546 F100.000000
G1 X52.261833 Y39.490351 F100.000000
G1 X52.272958 Y39.461114 F100.000000
G1 X52.279919 Y39.430617 F100.000000
G1 X52.288801 Y39.419479 F100.000000
G1 X52.293868 Y39.406164 F100.000000
G1 X52.390388 Y39.261384 F100.000000
G1 X52.455778 Y39.199433 F100.000000
G1 X52.541572 Y39.171989 F100.000000
G1 X52.630777 Y39.184488 F100.000000
G1 X52.705726 Y39.234453 F100.000000
G1 X52.751572 Y39.311989 F100.000000
G1 X52.759237 Y39.401739 F100.000000
G1 X52.727202 Y39.485926 F100.000000
G1 X52.664675 Y39.579717 F100.000000
G1 Y39.749253 F100.000000
G1 X52.707481 Y39.813462 F100.000000
G1 X52.753205 Y39.847153 F100.000000
G1 X52.885659 Y39.897695 F100.000000
G1 X53.392711 F100.000000
G1 X53.525165 Y39.847153 F100.000000
G1 X53.570889 Y39.813462 F100.000000
G1 X53.613695 Y39.749253 F100.000000
G1 Y39.579717 F100.000000
G1 X53.551168 Y39.485926 F100.000000
G1 X53.519133 Y39.401739 F100.000000
G1 X53.526798 Y39.311989 F100.000000
G1 X53.572644 Y39.234453 F100.000000
G1 X53.647593 Y39.184488 F100.000000
G1 X53.736798 Y39.171989 F100.000000
G1 X53.822592 Y39.199433 F100.000000
G1 X53.887982 Y39.261384 F100.000000
G0 Z2.000000
G0 X53.551168 Y38.608604
G1 Z-0.040000 F60.000000
G1 X53.613695 Y38.514813 F100.000000
G1 Y38.346934 F100.000000
G1 X53.586898 Y38.306033 F100.000000
G1 X53.490437 Y38.270495 F100.000000
G1 X53.439276 F100.000000
G1 X53.436835 Y38.274157 F100.000000
G1 Y38.576095 F100.000000
G1 X53.433665 Y38.589984 F100.000000
G1 X53.434877 Y38.604179 F100.000000
G1 X53.423752 Y38.633416 F100.000000
G1 X53.416791 Y38.663913 F100.000000
G1 X53.407909 Y38.675051 F100.000000
G1 X53.402842 Y38.688366 F100.000000
G1 X53.306322 Y38.833146 F100.000000
G1 X53.293765 Y38.845043 F100.000000
G1 X53.284974 Y38.859941 F100.000000
G1 X53.261460 Y38.875649 F100.000000
G1 X53.240932 Y38.895097 F100.000000
G1 X53.224456 Y38.900367 F100.000000
G1 X53.210072 Y38.909976 F100.000000
G1 X53.017032 Y38.983636 F100.000000
G1 X52.980673 Y38.988764 F100.000000
G1 X52.944875 Y38.996935 F100.000000
G1 X52.751835 F100.000000
G1 X52.716037 Y38.988764 F100.000000
G1 X52.679678 Y38.983636 F100.000000
G1 X52.486638 Y38.909976 F100.000000
G1 X52.472254 Y38.900367 F100.000000
G1 X52.455778 Y38.895097 F100.000000
G1 X52.435250 Y38.875649 F100.000000
G1 X52.411736 Y38.859941 F100.000000
G1 X52.402945 Y38.845043 F100.000000
G1 X52.390388 Y38.833146 F100.000000
G1 X52.293868 Y38.688366 F100.000000
G1 X52.288801 Y38.675051 F100.000000
G1 X52.279919 Y38.663913 F100.000000
G1 X52.272958 Y38.633416 F100.000000
G1 X52.261833 Y38.604179 F100.000000
G1 X52.263045 Y38.589984 F100.000000
G1 X52.259875 Y38.576095 F100.000000
G1 Y38.212875 F100.000000
G1 X52.263045 Y38.198986 F100.000000
G1 X52.261833 Y38.184791 F100.000000
G1 X52.272958 Y38.155554 F100.000000
G1 X52.276952 Y38.138056 F100.000000
G1 X52.264950 Y38.113133 F100.000000
G1 Y38.023057 F100.000000
G1 X52.304032 Y37.941901 F100.000000
G1 X52.374457 Y37.885739 F100.000000
G1 X52.462275 Y37.865695 F100.000000
G1 X53.526535 F100.000000
G1 X53.561221 Y37.873612 F100.000000
G1 X53.596506 Y37.878174 F100.000000
G1 X53.789546 Y37.949294 F100.000000
G1 X53.805684 Y37.959808 F100.000000
G1 X53.823982 Y37.965823 F100.000000
G1 X53.842954 Y37.984087 F100.000000
G1 X53.865020 Y37.998462 F100.000000
G1 X53.874999 Y38.014936 F100.000000
G1 X53.888875 Y38.028294 F100.000000
G1 X53.985395 Y38.175614 F100.000000
G1 X53.990073 Y38.188211 F100.000000
G1 X53.998451 Y38.198717 F100.000000
G1 X54.005588 Y38.229987 F100.000000
G1 X54.016755 Y38.260055 F100.000000
G1 X54.015505 Y38.273435 F100.000000
G1 X54.018495 Y38.286535 F100.000000
G1 Y38.576095 F100.000000
G1 X54.015325 Y38.589984 F100.000000
G1 X54.016537 Y38.604179 F100.000000
G1 X54.005412 Y38.633416 F100.000000
G1 X53.998451 Y38.663913 F100.000000
G1 X53.989569 Y38.675051 F100.000000
G1 X53.984502 Y38.688366 F100.000000
G1 X53.887982 Y38.833146 F100.000000
G1 X53.822592 Y38.895097 F100.000000
G1 X53.736798 Y38.922541 F100.000000
G1 X53.647593 Y38.910042 F100.000000
G1 X53.572644 Y38.860077 F100.000000
G1 X53.526798 Y38.782541 F100.000000
G1 X53.519133 Y38.692791 F100.000000
G1 X53.551168 Y38.608604 F100.000000
G0 Z2.000000
G0 X53.032035 Y38.270495
G1 Z-0.040000 F60.000000
G1 X52.667116 F100.000000
G1 X52.664675 Y38.274157 F100.000000
G1 Y38.514813 F100.000000
G1 X52.691346 Y38.554819 F100.000000
G1 X52.789139 Y38.592135 F100.000000
G1 X52.907571 F100.000000
G1 X53.005364 Y38.554819 F100.000000
G1 X53.032035 Y38.514813 F100.000000
G1 Y38.270495 F100.000000
G0 Z2.000000
G0 X54.018495 Y36.907315
G1 Z-0.040000 F60.000000
G1 Y37.052095 F100.000000
G1 X54.015325 Y37.065984 F100.000000
G1 X54.016537 Y37.080179 F100.000000
G1 X54.005412 Y37.109416 F100.000000
G1 X53.998451 Y37.139913 F100.000000
G1 X53.989569 Y37.151051 F100.000000
G1 X53.984502 Y37.164366 F100.000000
G1 X53.958735 Y37.203018 F100.000000
G1 X53.974338 Y37.215461 F100.000000
G1 X54.013420 Y37.296617 F100.000000
G1 Y37.386693 F100.000000
G1 X53.974338 Y37.467849 F100.000000
G1 X53.903913 Y37.524011 F100.000000
G1 X53.816095 Y37.544055 F100.000000
G1 X52.462275 F100.000000
G1 X52.374457 Y37.524011 F100.000000
G1 X52.304032 Y37.467849 F100.000000
G1 X52.264950 Y37.386693 F100.000000
G1 Y37.296617 F100.000000
G1 X52.304032 Y37.215461 F100.000000
G1 X52.374457 Y37.159299 F100.000000
G1 X52.462275 Y37.139255 F100.000000
G1 X53.393917 F100.000000
G1 X53.524489 Y37.091149 F100.000000
G1 X53.569916 Y37.056482 F100.000000
G1 X53.613695 Y36.990813 F100.000000
G1 Y36.907315 F100.000000
G1 X53.633739 Y36.819497 F100.000000
G1 X53.689901 Y36.749072 F100.000000
G1 X53.771057 Y36.709990 F100.000000
G1 X53.861133 F100.000000
G1 X53.942289 Y36.749072 F100.000000
G1 X53.998451 Y36.819497 F100.000000
G1 X54.018495 Y36.907315 F100.000000
G0 Z2.000000
G0 X54.494275 Y36.601715
G1 Z-0.040000 F60.000000
G1 X52.751835 F100.000000
G1 X52.716037 Y36.593544 F100.000000
G1 X52.679678 Y36.588416 F100.000000
G1 X52.486638 Y36.514756 F100.000000
G1 X52.472254 Y36.505147 F100.000000
