(Generated by pygerber2gcode_cui_MOD.py )
( 2013-05-29 00:15:06 )
(Initialize)
G92 X0.000000 Y0.000000 Z0.000000

(Start form here)
G0 Z2.000000
G0 X14.420952 Y13.199880
G1 Z-0.040000 F60.000000
G1 X14.411133 Y13.191338 F100.000000
G1 X14.398151 Y13.190405 F100.000000
G1 X14.361772 Y13.148396 F100.000000
G1 X14.319846 Y13.111921 F100.000000
G1 X14.318943 Y13.098937 F100.000000
G1 X14.310423 Y13.089098 F100.000000
G1 X13.977683 Y12.088338 F100.000000
G1 X13.987285 Y11.954671 F100.000000
G1 X14.088592 Y11.866943 F100.000000
G1 X14.222259 Y11.876545 F100.000000
G1 X14.309987 Y11.977852 F100.000000
G1 X14.365568 Y12.145020 F100.000000
G1 X14.589697 F100.000000
G1 X14.645830 Y11.977472 F100.000000
G1 X14.733789 Y11.876366 F100.000000
G1 X14.867478 Y11.867070 F100.000000
G1 X14.968584 Y11.955029 F100.000000
G1 X14.973364 Y12.023767 F100.000000
G1 X15.020784 Y11.909284 F100.000000
G1 X15.144595 Y11.858000 F100.000000
G1 X15.268406 Y11.909284 F100.000000
G1 X15.319690 Y12.033095 F100.000000
G1 Y12.521155 F100.000000
G1 X15.329164 Y12.526020 F100.000000
G1 X15.389286 F100.000000
G1 X15.395545 Y12.522805 F100.000000
G1 X15.398760 Y12.516546 F100.000000
G1 Y12.033095 F100.000000
G1 X15.450044 Y11.909284 F100.000000
G1 X15.573855 Y11.858000 F100.000000
G1 X15.697666 Y11.909284 F100.000000
G1 X15.748950 Y12.033095 F100.000000
G0 Z2.000000
G1 Z-0.040000 F60.000000
G1 Y12.558875 F100.000000
G1 X15.733013 Y12.597351 F100.000000
G1 X15.729614 Y12.638859 F100.000000
G1 X15.681354 Y12.732839 F100.000000
G1 X15.640364 Y12.767624 F100.000000
G1 X15.605579 Y12.808614 F100.000000
G1 X15.511599 Y12.856874 F100.000000
G1 X15.470091 Y12.860273 F100.000000
G1 X15.431615 Y12.876210 F100.000000
G1 X15.286835 F100.000000
G1 X15.248359 Y12.860273 F100.000000
G1 X15.206851 Y12.856874 F100.000000
G1 X15.199897 Y12.853303 F100.000000
G1 X15.144595 Y12.876210 F100.000000
G1 X15.020784 Y12.824926 F100.000000
G1 X14.969500 Y12.701115 F100.000000
G1 Y12.604595 F100.000000
G1 Y12.113731 F100.000000
G1 X14.642600 Y13.089478 F100.000000
G1 X14.634058 Y13.099297 F100.000000
G1 X14.633125 Y13.112279 F100.000000
G1 X14.591116 Y13.148658 F100.000000
G1 X14.554641 Y13.190584 F100.000000
G1 X14.541657 Y13.191487 F100.000000
G1 X14.531818 Y13.200007 F100.000000
G1 X14.476390 Y13.196025 F100.000000
G1 X14.420952 Y13.199880 F100.000000
G0 Z2.000000
G0 X15.962275 Y12.513796
G1 Z-0.040000 F60.000000
G1 X15.934307 Y12.482903 F100.000000
G1 X15.890595 Y12.443331 F100.000000
G1 X15.844875 Y12.346811 F100.000000
G1 X15.842939 Y12.307873 F100.000000
G1 X15.828020 Y12.271855 F100.000000
G1 Y12.177875 F100.000000
G1 X15.842939 Y12.141857 F100.000000
G1 X15.844875 Y12.102919 F100.000000
G1 X15.890595 Y12.006399 F100.000000
G1 X15.933028 Y11.967986 F100.000000
G1 X15.970530 Y11.924745 F100.000000
G1 X16.067050 Y11.876485 F100.000000
G1 X16.107702 Y11.873596 F100.000000
G1 X16.145355 Y11.858000 F100.000000
G1 X16.384115 F100.000000
G1 X16.422591 Y11.873937 F100.000000
G1 X16.436808 Y11.875102 F100.000000
G1 X16.478095 Y11.858000 F100.000000
G1 X16.601906 Y11.909284 F100.000000
G1 X16.653190 Y12.033095 F100.000000
G1 Y12.558875 F100.000000
G1 X16.637939 Y12.595693 F100.000000
G1 X16.635547 Y12.635473 F100.000000
G1 X16.589827 Y12.729453 F100.000000
G1 X16.547629 Y12.766863 F100.000000
G1 X16.510680 Y12.809465 F100.000000
G1 X16.414160 Y12.857725 F100.000000
G1 X16.373508 Y12.860614 F100.000000
G1 X16.335855 Y12.876210 F100.000000
G1 X16.145355 F100.000000
G1 X16.107702 Y12.860614 F100.000000
G1 X16.067050 Y12.857725 F100.000000
G1 X15.970530 Y12.809465 F100.000000
G1 X15.882725 Y12.708225 F100.000000
G1 X15.892225 Y12.574550 F100.000000
G1 X15.962275 Y12.513796 F100.000000
G0 Z2.000000
G0 X16.303000 Y12.239000
G1 Z-0.040000 F60.000000
G1 Y12.208190 F100.000000
G1 X16.186689 F100.000000
G1 X16.181201 Y12.210934 F100.000000
G1 X16.178210 Y12.217248 F100.000000
G1 Y12.232482 F100.000000
G1 X16.180305 Y12.236905 F100.000000
G1 X16.184728 Y12.239000 F100.000000
G1 X16.303000 F100.000000
G0 Z2.000000
G0 X16.780520 Y13.033855
G1 Z-0.040000 F60.000000
G1 Y12.177875 F100.000000
G1 X16.796116 Y12.140222 F100.000000
G1 X16.799005 Y12.099570 F100.000000
G1 X16.847265 Y12.003050 F100.000000
G1 X16.888540 Y11.967253 F100.000000
G1 X16.923891 Y11.925596 F100.000000
G1 X17.017871 Y11.877336 F100.000000
G1 X17.151436 Y11.866400 F100.000000
G1 X17.253614 Y11.953111 F100.000000
G1 X17.264550 Y12.086676 F100.000000
G1 X17.177839 Y12.188854 F100.000000
G1 X17.134850 Y12.210929 F100.000000
G1 X17.130710 Y12.219209 F100.000000
G1 Y13.033855 F100.000000
G1 X17.079426 Y13.157666 F100.000000
G1 X16.955615 Y13.208950 F100.000000
G1 X16.831804 Y13.157666 F100.000000
G1 X16.780520 Y13.033855 F100.000000
G0 Z2.000000
G0 X17.623635 Y11.858000
G1 Z-0.040000 F60.000000
G1 X17.765875 F100.000000
G1 X17.804351 Y11.873937 F100.000000
G1 X17.845859 Y11.877336 F100.000000
G1 X17.939839 Y11.925596 F100.000000
G1 X17.957891 Y11.946868 F100.000000
G1 X17.983666 Y11.957544 F100.000000
G1 X18.031926 Y12.005804 F100.000000
G1 X18.042602 Y12.031579 F100.000000
G1 X18.063874 Y12.049631 F100.000000
G1 X18.112134 Y12.143611 F100.000000
G1 X18.115533 Y12.185119 F100.000000
G1 X18.131470 Y12.223595 F100.000000
G1 Y12.510615 F100.000000
G1 X18.115533 Y12.549091 F100.000000
G1 X18.112134 Y12.590599 F100.000000
G1 X18.063874 Y12.684579 F100.000000
G1 X18.042602 Y12.702631 F100.000000
G1 X18.031926 Y12.728406 F100.000000
G1 X17.983666 Y12.776666 F100.000000
G1 X17.957891 Y12.787342 F100.000000
G1 X17.939839 Y12.808614 F100.000000
G1 X17.845859 Y12.856874 F100.000000
G1 X17.804351 Y12.860273 F100.000000
G1 X17.765875 Y12.876210 F100.000000
G1 X17.623635 F100.000000
G1 X17.585982 Y12.860614 F100.000000
G1 X17.545330 Y12.857725 F100.000000
G1 X17.448810 Y12.809465 F100.000000
G1 X17.429929 Y12.787694 F100.000000
G1 X17.403304 Y12.776666 F100.000000
G1 X17.355044 Y12.728406 F100.000000
G1 X17.343661 Y12.700925 F100.000000
G1 X17.321403 Y12.681193 F100.000000
G1 X17.275683 Y12.587213 F100.000000
G1 X17.273291 Y12.547433 F100.000000
G1 X17.258040 Y12.510615 F100.000000
G1 Y12.223595 F100.000000
G1 X17.273291 Y12.186777 F100.000000
G1 X17.275683 Y12.146997 F100.000000
G1 X17.321403 Y12.053017 F100.000000
G1 X17.343661 Y12.033285 F100.000000
G1 X17.355044 Y12.005804 F100.000000
G1 X17.403304 Y11.957544 F100.000000
G1 X17.429929 Y11.946516 F100.000000
G1 X17.448810 Y11.924745 F100.000000
G1 X17.545330 Y11.876485 F100.000000
G1 X17.585982 Y11.873596 F100.000000
G1 X17.623635 Y11.858000 F100.000000
G0 Z2.000000
G0 X17.664969 Y12.208190
G1 Z-0.040000 F60.000000
G1 X17.630834 Y12.225258 F100.000000
G1 X17.623449 Y12.232643 F100.000000
G1 X17.608230 Y12.263926 F100.000000
G1 Y12.470284 F100.000000
G1 X17.623449 Y12.501567 F100.000000
G1 X17.630834 Y12.508952 F100.000000
G1 X17.664969 Y12.526020 F100.000000
G1 X17.723546 F100.000000
G1 X17.755453 Y12.509635 F100.000000
G1 X17.764895 Y12.500193 F100.000000
G1 X17.781280 Y12.468286 F100.000000
G1 Y12.265924 F100.000000
G1 X17.764895 Y12.234017 F100.000000
G1 X17.755453 Y12.224575 F100.000000
G1 X17.723546 Y12.208190 F100.000000
G1 X17.664969 F100.000000
G0 Z2.000000
G0 X18.305651 Y11.592856
G1 Z-0.040000 F60.000000
G1 X18.399631 Y11.544596 F100.000000
G1 X18.441139 Y11.541197 F100.000000
G1 X18.479615 Y11.525260 F100.000000
G1 X18.624395 F100.000000
G1 X18.662871 Y11.541197 F100.000000
G1 X18.704379 Y11.544596 F100.000000
G1 X18.798359 Y11.592856 F100.000000
G1 X18.814909 Y11.612358 F100.000000
G1 X18.838796 Y11.621504 F100.000000
G1 X18.887056 Y11.667224 F100.000000
G1 X18.899736 Y11.695641 F100.000000
G1 X18.923245 Y11.716030 F100.000000
G1 X18.971505 Y11.812550 F100.000000
G1 X18.974394 Y11.853202 F100.000000
G1 X18.989990 Y11.890855 F100.000000
G1 Y12.701115 F100.000000
G1 X18.938706 Y12.824926 F100.000000
G1 X18.814895 Y12.876210 F100.000000
G1 X18.774136 Y12.859327 F100.000000
G1 X18.756028 Y12.860614 F100.000000
G1 X18.718375 Y12.876210 F100.000000
G1 X18.527875 F100.000000
G1 X18.489399 Y12.860273 F100.000000
G1 X18.447891 Y12.856874 F100.000000
G1 X18.353911 Y12.808614 F100.000000
G1 X18.335859 Y12.787342 F100.000000
G1 X18.310084 Y12.776666 F100.000000
G1 X18.261824 Y12.728406 F100.000000
G1 X18.251148 Y12.702631 F100.000000
G1 X18.229876 Y12.684579 F100.000000
G1 X18.181616 Y12.590599 F100.000000
G1 X18.178217 Y12.549091 F100.000000
G1 X18.162280 Y12.510615 F100.000000
G1 Y12.223595 F100.000000
G1 X18.178217 Y12.185119 F100.000000
G1 X18.181616 Y12.143611 F100.000000
G1 X18.229876 Y12.049631 F100.000000
G1 X18.251148 Y12.031579 F100.000000
G1 X18.261824 Y12.005804 F100.000000
G1 X18.310084 Y11.957544 F100.000000
G1 X18.335859 Y11.946868 F100.000000
G1 X18.353911 Y11.925596 F100.000000
G1 X18.381887 Y11.911230 F100.000000
G1 X18.332054 Y11.915310 F100.000000
G1 X18.229876 Y11.828599 F100.000000
G1 X18.218940 Y11.695034 F100.000000
G1 X18.305651 Y11.592856 F100.000000
G0 Z2.000000
G0 X18.639800 Y12.526020
G1 Z-0.040000 F60.000000
G1 Y12.208190 F100.000000
G1 X18.570204 F100.000000
G1 X18.538297 Y12.224575 F100.000000
G1 X18.528855 Y12.234017 F100.000000
G1 X18.512470 Y12.265924 F100.000000
G1 Y12.468286 F100.000000
G1 X18.528855 Y12.500193 F100.000000
G1 X18.538297 Y12.509635 F100.000000
G1 X18.570204 Y12.526020 F100.000000
G1 X18.639800 F100.000000
G0 Z2.000000
G0 X31.489495 Y39.259520
G1 Z-0.040000 F60.000000
G1 X31.489495 F100.000000
G1 X31.679995 F100.000000
G1 X31.803806 Y39.310804 F100.000000
G1 X31.855090 Y39.434615 F100.000000
G1 X31.803806 Y39.558426 F100.000000
G1 X31.679995 Y39.609710 F100.000000
G1 X31.664590 F100.000000
G1 Y39.673750 F100.000000
G1 X31.708890 Y39.688780 F100.000000
G1 X31.745561 F100.000000
G1 X31.823001 Y39.662967 F100.000000
G1 X31.868969 Y39.615756 F100.000000
G1 X31.896148 Y39.562829 F100.000000
G1 X31.934160 Y39.412781 F100.000000
G1 Y39.314209 F100.000000
G1 X31.895914 Y39.163237 F100.000000
G1 X31.868297 Y39.108004 F100.000000
G1 X31.824030 Y39.062540 F100.000000
G1 X31.746985 Y39.038210 F100.000000
G1 X31.672066 F100.000000
G1 X31.614353 Y39.066287 F100.000000
G1 X31.480583 Y39.074333 F100.000000
G1 X31.380303 Y38.985433 F100.000000
G1 X31.372257 Y38.851663 F100.000000
G1 X31.461157 Y38.751383 F100.000000
G1 X31.555137 Y38.705663 F100.000000
G1 X31.594917 Y38.703271 F100.000000
G1 X31.631735 Y38.688020 F100.000000
G1 X31.773975 F100.000000
G1 X31.799345 Y38.698529 F100.000000
G1 X31.826702 Y38.696147 F100.000000
G1 X31.971482 Y38.741867 F100.000000
G1 X32.004542 Y38.769634 F100.000000
G1 X32.044206 Y38.786686 F100.000000
G1 X32.138186 Y38.883206 F100.000000
G1 X32.148435 Y38.908916 F100.000000
G1 X32.169345 Y38.927050 F100.000000
G1 X32.217605 Y39.023570 F100.000000
G1 X32.218996 Y39.043145 F100.000000
G1 X32.230728 Y39.058876 F100.000000
G1 X32.278988 Y39.249376 F100.000000
G1 X32.275750 Y39.271614 F100.000000
G1 X32.284350 Y39.292375 F100.000000
G1 Y39.434615 F100.000000
G1 X32.275750 Y39.455376 F100.000000
G1 X32.278988 Y39.477614 F100.000000
G1 X32.230728 Y39.668114 F100.000000
G1 X32.218432 Y39.684601 F100.000000
G1 X32.216754 Y39.705099 F100.000000
G1 X32.168494 Y39.799079 F100.000000
G1 X32.148094 Y39.816391 F100.000000
G1 X32.138186 Y39.841244 F100.000000
G1 X32.044206 Y39.937764 F100.000000
G1 X32.005749 Y39.954298 F100.000000
G1 X31.974125 Y39.981725 F100.000000
G1 X31.829345 Y40.029985 F100.000000
G1 X31.800599 Y40.027942 F100.000000
G1 X31.773975 Y40.038970 F100.000000
G1 X31.679995 F100.000000
G1 X31.652949 Y40.027767 F100.000000
G1 X31.623738 Y40.029686 F100.000000
G1 X31.481498 Y39.981426 F100.000000
G1 X31.451186 Y39.954852 F100.000000
G1 X31.413944 Y39.939426 F100.000000
G1 X31.365684 Y39.891166 F100.000000
G0 Z2.000000
G0 X31.314400 Y39.767355
G1 Z-0.040000 F60.000000
G1 Y39.434615 F100.000000
G0 Z2.000000
G0 X31.489495 Y39.259520
G1 Z-0.040000 F60.000000
G1 X31.679995 F100.000000
G0 Z2.000000
G0 X31.147065 Y38.711066
G1 Z-0.040000 F60.000000
G1 X31.161808 Y38.730093 F100.000000
G1 X31.184046 Y38.739304 F100.000000
G1 X31.201389 Y38.781174 F100.000000
G1 X31.229148 Y38.816998 F100.000000
G1 X31.226119 Y38.840877 F100.000000
G1 X31.235330 Y38.863115 F100.000000
G1 Y39.863875 F100.000000
G1 X31.184046 Y39.987686 F100.000000
G1 X31.060235 Y40.038970 F100.000000
G1 X30.936424 Y39.987686 F100.000000
G1 X30.885140 Y39.863875 F100.000000
G1 Y39.522810 F100.000000
G1 X30.640784 Y39.950705 F100.000000
G1 X30.621757 Y39.965448 F100.000000
G1 X30.612546 Y39.987686 F100.000000
G1 X30.570676 Y40.005029 F100.000000
G1 X30.534852 Y40.032788 F100.000000
G1 X30.510973 Y40.029759 F100.000000
G1 X30.488735 Y40.038970 F100.000000
G1 X30.446865 Y40.021627 F100.000000
G1 X30.401905 Y40.015924 F100.000000
G1 X30.387162 Y39.996897 F100.000000
G1 X30.364924 Y39.987686 F100.000000
G1 X30.347581 Y39.945816 F100.000000
G1 X30.319822 Y39.909992 F100.000000
G1 X30.322851 Y39.886113 F100.000000
G1 X30.313640 Y39.863875 F100.000000
G1 Y38.863115 F100.000000
G1 X30.364924 Y38.739304 F100.000000
G1 X30.488735 Y38.688020 F100.000000
G1 X30.612546 Y38.739304 F100.000000
G1 X30.663830 Y38.863115 F100.000000
G1 Y39.204180 F100.000000
G1 X30.908186 Y38.776285 F100.000000
G1 X30.927213 Y38.761542 F100.000000
G1 X30.936424 Y38.739304 F100.000000
G1 X30.978294 Y38.721961 F100.000000
G1 X31.014118 Y38.694202 F100.000000
G1 X31.037997 Y38.697231 F100.000000
G1 X31.060235 Y38.688020 F100.000000
G1 X31.102105 Y38.705363 F100.000000
G1 X31.147065 Y38.711066 F100.000000
G0 Z2.000000
G0 X30.186310 Y38.863115
G1 Z-0.040000 F60.000000
G1 Y38.863115 F100.000000
G1 Y38.863115 F100.000000
G1 Y38.863115 F100.000000
G1 Y39.863875 F100.000000
G1 X30.135026 Y39.987686 F100.000000
G1 X30.135026 Y39.987686 F100.000000
G1 X30.135026 Y39.987686 F100.000000
G1 X30.135026 Y39.987686 F100.000000
G1 X30.135026 Y39.987686 F100.000000
G0 Z2.000000
G0 X30.011215 Y40.038970
G1 Z-0.040000 F60.000000
G1 X29.772455 F100.000000
G1 X29.745409 Y40.027767 F100.000000
G1 X29.716198 Y40.029686 F100.000000
G1 X29.573958 Y39.981426 F100.000000
G1 X29.542814 Y39.954123 F100.000000
G1 X29.504764 Y39.937764 F100.000000
G1 X29.410784 Y39.841244 F100.000000
G1 X29.400876 Y39.816391 F100.000000
G1 X29.380476 Y39.799079 F100.000000
G1 X29.332216 Y39.705099 F100.000000
G1 X29.330538 Y39.684601 F100.000000
G1 X29.318242 Y39.668114 F100.000000
G1 X29.269982 Y39.477614 F100.000000
G1 X29.273220 Y39.455376 F100.000000
G1 X29.264620 Y39.434615 F100.000000
G1 Y39.292375 F100.000000
G1 X29.273220 Y39.271614 F100.000000
G1 X29.269982 Y39.249376 F100.000000
G1 X29.318242 Y39.058876 F100.000000
G1 X29.329974 Y39.043145 F100.000000
G1 X29.331365 Y39.023570 F100.000000
G1 X29.379625 Y38.927050 F100.000000
G1 X29.400535 Y38.908916 F100.000000
G1 X29.410784 Y38.883206 F100.000000
G1 X29.504764 Y38.786686 F100.000000
G1 X29.544039 Y38.769801 F100.000000
G1 X29.576634 Y38.742140 F100.000000
G1 X29.718874 Y38.696420 F100.000000
G1 X29.746680 Y38.698696 F100.000000
G1 X29.772455 Y38.688020 F100.000000
G1 X30.011215 F100.000000
G1 X30.135026 Y38.739304 F100.000000
G1 Y38.739304 F100.000000
G0 Z2.000000
G0 X29.836120 Y39.688780
G1 Z-0.040000 F60.000000
G1 Y39.038210 F100.000000
G1 X29.799904 F100.000000
G1 X29.725273 Y39.062199 F100.000000
G1 X29.680673 Y39.108004 F100.000000
G1 X29.653056 Y39.163237 F100.000000
G1 X29.614810 Y39.314209 F100.000000
G1 Y39.412781 F100.000000
G1 X29.652822 Y39.562829 F100.000000
G1 X29.680001 Y39.615756 F100.000000
G1 X29.726315 Y39.663322 F100.000000
G1 X29.801350 Y39.688780 F100.000000
G1 X29.836120 F100.000000
G0 Z2.000000
G0 X30.011215 Y38.688020
G1 Z-0.040000 F60.000000
G1 X30.135026 Y38.739304 F100.000000
G0 Z2.000000
G0 X30.186310 Y39.863875
G1 Z-0.040000 F60.000000
G1 X30.135026 Y39.987686 F100.000000
G0 Z2.000000
G0 X30.011215 Y40.038970
G1 Z-0.040000 F60.000000
G1 X29.772455 F100.000000
G0 Z2.000000
G0 X34.639095 Y15.756900
G1 Z-0.040000 F60.000000
G1 X34.845000 F100.000000
G1 Y15.550995 F100.000000
G1 X34.896284 Y15.427184 F100.000000
G1 X35.020095 Y15.375900 F100.000000
G1 X35.143906 Y15.427184 F100.000000
G1 X35.195190 Y15.550995 F100.000000
G1 Y15.756900 F100.000000
G1 X35.401095 F100.000000
G1 X35.524906 Y15.808184 F100.000000
G1 X35.576190 Y15.931995 F100.000000
G1 X35.524906 Y16.055806 F100.000000
G1 X35.401095 Y16.107090 F100.000000
G1 X35.195190 F100.000000
G1 Y16.312995 F100.000000
G1 X35.143906 Y16.436806 F100.000000
G1 X35.020095 Y16.488090 F100.000000
G1 X34.896284 Y16.436806 F100.000000
G1 X34.845000 Y16.312995 F100.000000
G1 Y16.107090 F100.000000
G1 X34.639095 F100.000000
G1 X34.515284 Y16.055806 F100.000000
G1 X34.464000 Y15.931995 F100.000000
G1 X34.515284 Y15.808184 F100.000000
G1 X34.639095 Y15.756900 F100.000000
G0 Z2.000000
G0 X34.859426 Y14.997924
G1 Z-0.040000 F60.000000
G1 X34.910710 Y15.121735 F100.000000
G1 X34.859426 Y15.245546 F100.000000
G1 X34.735615 Y15.296830 F100.000000
G1 X34.611804 Y15.245546 F100.000000
G1 X34.563544 Y15.197286 F100.000000
G1 X34.552868 Y15.171511 F100.000000
G1 X34.531596 Y15.153459 F100.000000
G1 X34.483336 Y15.059479 F100.000000
G1 X34.479937 Y15.017971 F100.000000
G1 X34.464000 Y14.979495 F100.000000
G1 Y14.740735 F100.000000
G1 X34.479596 Y14.703082 F100.000000
G1 X34.482485 Y14.662430 F100.000000
G1 X34.530745 Y14.565910 F100.000000
G1 X34.554254 Y14.545521 F100.000000
G1 X34.566934 Y14.517104 F100.000000
G1 X34.615194 Y14.471384 F100.000000
G1 X34.639081 Y14.462238 F100.000000
G1 X34.655631 Y14.442736 F100.000000
G1 X34.749611 Y14.394476 F100.000000
G1 X34.791119 Y14.391077 F100.000000
G1 X34.829595 Y14.375140 F100.000000
G1 X35.068355 F100.000000
G1 X35.106008 Y14.390736 F100.000000
G1 X35.146660 Y14.393625 F100.000000
G1 X35.243180 Y14.441885 F100.000000
G1 X35.262061 Y14.463656 F100.000000
G1 X35.288686 Y14.474684 F100.000000
G1 X35.334406 Y14.520404 F100.000000
G1 X35.345434 Y14.547029 F100.000000
G1 X35.367205 Y14.565910 F100.000000
G1 X35.415465 Y14.662430 F100.000000
G1 X35.418354 Y14.703082 F100.000000
G1 X35.433950 Y14.740735 F100.000000
G1 Y14.918399 F100.000000
G1 X35.464760 Y14.915269 F100.000000
G1 Y14.598495 F100.000000
G1 X35.516044 Y14.474684 F100.000000
G1 X35.634018 Y14.425818 F100.000000
G1 X35.584612 Y14.429367 F100.000000
G1 X34.583852 Y14.096627 F100.000000
G1 X34.573857 Y14.087972 F100.000000
G1 X34.560671 Y14.087025 F100.000000
G1 X34.524414 Y14.045156 F100.000000
G1 X34.482545 Y14.008899 F100.000000
G1 X34.481598 Y13.995713 F100.000000
G1 X34.472943 Y13.985718 F100.000000
G1 X34.476911 Y13.930475 F100.000000
G1 X34.472943 Y13.875232 F100.000000
G1 X34.481598 Y13.865237 F100.000000
G1 X34.482545 Y13.852051 F100.000000
G1 X34.524414 Y13.815794 F100.000000
G1 X34.560671 Y13.773925 F100.000000
G1 X34.573857 Y13.772978 F100.000000
G1 X34.583852 Y13.764323 F100.000000
G1 X35.584612 Y13.431583 F100.000000
G1 X35.718279 Y13.441185 F100.000000
G1 X35.806007 Y13.542492 F100.000000
G1 X35.796405 Y13.676159 F100.000000
G1 X35.695098 Y13.763887 F100.000000
G0 Z2.000000
G1 Z-0.040000 F60.000000
G1 X35.194062 Y13.930475 F100.000000
G1 X35.695098 Y14.097063 F100.000000
G1 X35.796405 Y14.184791 F100.000000
G1 X35.806007 Y14.318458 F100.000000
G1 X35.718279 Y14.419765 F100.000000
G1 X35.643967 Y14.425103 F100.000000
G1 X35.763666 Y14.474684 F100.000000
G1 X35.814950 Y14.598495 F100.000000
G1 Y15.073475 F100.000000
G1 X35.792445 Y15.127807 F100.000000
G1 X35.775547 Y15.184136 F100.000000
G1 X35.767265 Y15.188596 F100.000000
G1 X35.763666 Y15.197286 F100.000000
G1 X35.709333 Y15.219791 F100.000000
G1 X35.657554 Y15.247673 F100.000000
G1 X35.182574 Y15.295933 F100.000000
G1 X35.175935 Y15.293942 F100.000000
G1 X35.169606 Y15.296766 F100.000000
G1 X35.112640 Y15.274954 F100.000000
G1 X35.054214 Y15.257427 F100.000000
G1 X35.050927 Y15.251324 F100.000000
G1 X35.044454 Y15.248846 F100.000000
G1 X35.019597 Y15.193141 F100.000000
G1 X34.990677 Y15.139434 F100.000000
G1 X34.992668 Y15.132795 F100.000000
G1 X34.989844 Y15.126466 F100.000000
G1 X35.011656 Y15.069500 F100.000000
G1 X35.029183 Y15.011074 F100.000000
G1 X35.035286 Y15.007787 F100.000000
G1 X35.037764 Y15.001314 F100.000000
G1 X35.066270 Y14.971225 F100.000000
G1 X35.083760 Y14.937166 F100.000000
G1 Y14.782069 F100.000000
G1 X35.066692 Y14.747934 F100.000000
G1 X35.061156 Y14.742398 F100.000000
G1 X35.027021 Y14.725330 F100.000000
G1 X34.871924 F100.000000
G1 X34.837865 Y14.742820 F100.000000
G1 X34.830169 Y14.750111 F100.000000
G1 X34.814190 Y14.782069 F100.000000
G1 Y14.937166 F100.000000
G1 X34.830575 Y14.969073 F100.000000
G1 X34.859426 Y14.997924 F100.000000
G0 Z2.000000
G0 X44.688135 Y36.968275
G1 Z-0.040000 F60.000000
G1 Y35.904015 F100.000000
G1 Y34.936275 F100.000000
G1 X44.747417 Y34.793157 F100.000000
G1 X44.890535 Y34.733875 F100.000000
G1 X45.033653 Y34.793157 F100.000000
G1 X45.092935 Y34.936275 F100.000000
G1 Y35.701615 F100.000000
G1 X45.469655 F100.000000
G1 X45.524108 Y35.724170 F100.000000
G1 X45.581926 Y35.735608 F100.000000
G1 X45.726706 Y35.832128 F100.000000
G1 X45.745746 Y35.860558 F100.000000
G1 X45.775333 Y35.877744 F100.000000
G1 X45.848993 Y35.974264 F100.000000
G1 X45.856950 Y36.004276 F100.000000
G1 X45.878016 Y36.027084 F100.000000
G1 X45.949136 Y36.220124 F100.000000
G1 X45.947691 Y36.256480 F100.000000
G1 X45.961615 Y36.290095 F100.000000
G1 Y36.579655 F100.000000
G1 X45.947691 Y36.613270 F100.000000
G1 X45.949136 Y36.649626 F100.000000
G1 X45.878016 Y36.842666 F100.000000
G1 X45.856950 Y36.865474 F100.000000
G1 X45.848993 Y36.895486 F100.000000
G1 X45.775333 Y36.992006 F100.000000
G1 X45.746773 Y37.008595 F100.000000
G1 X45.728727 Y37.036257 F100.000000
G1 X45.583947 Y37.135317 F100.000000
G1 X45.525158 Y37.147685 F100.000000
G1 X45.469655 Y37.170675 F100.000000
G1 X44.890535 F100.000000
G0 Z2.000000
G0 X45.092935 Y36.106415
G1 Z-0.040000 F60.000000
G1 Y36.765875 F100.000000
G1 X45.407040 F100.000000
G1 X45.473282 Y36.720551 F100.000000
G1 X45.508709 Y36.674129 F100.000000
G1 X45.556815 Y36.543557 F100.000000
G1 Y36.326193 F100.000000
G1 X45.508709 Y36.195621 F100.000000
G1 X45.474042 Y36.150194 F100.000000
G1 X45.408373 Y36.106415 F100.000000
G1 X45.092935 F100.000000
G0 Z2.000000
G0 X46.453146 Y36.218208
G1 Z-0.040000 F60.000000
G1 X46.572815 Y36.297987 F100.000000
G1 Y35.138675 F100.000000
G1 X46.340875 F100.000000
G1 X46.197757 Y35.079393 F100.000000
G1 X46.138475 Y34.936275 F100.000000
G1 X46.197757 Y34.793157 F100.000000
G1 X46.340875 Y34.733875 F100.000000
G1 X46.775215 F100.000000
G1 X46.775215 F100.000000
G1 X47.212095 F100.000000
G1 X47.355213 Y34.793157 F100.000000
G1 X47.414495 Y34.936275 F100.000000
G1 X47.355213 Y35.079393 F100.000000
G1 X47.212095 Y35.138675 F100.000000
G1 X46.977615 F100.000000
G1 Y36.968275 F100.000000
G1 X46.964735 Y36.999369 F100.000000
G1 X46.967004 Y37.032948 F100.000000
G1 X46.936234 Y37.068178 F100.000000
G1 X46.918333 Y37.111393 F100.000000
G1 X46.887240 Y37.124273 F100.000000
G1 X46.865100 Y37.149621 F100.000000
G1 X46.818430 Y37.152775 F100.000000
G1 X46.775215 Y37.170675 F100.000000
G1 X46.744121 Y37.157795 F100.000000
G1 X46.710542 Y37.160064 F100.000000
G1 X46.675312 Y37.129294 F100.000000
G1 X46.632097 Y37.111393 F100.000000
G1 X46.619217 Y37.080300 F100.000000
G1 X46.593869 Y37.058160 F100.000000
G1 X46.457351 Y36.782730 F100.000000
G1 X46.344537 Y36.632311 F100.000000
G1 X46.228604 Y36.555022 F100.000000
G1 X46.142405 Y36.426309 F100.000000
G1 X46.172468 Y36.274344 F100.000000
G1 X46.301181 Y36.188145 F100.000000
G1 X46.453146 Y36.218208 F100.000000
G0 Z2.000000
G0 X45.337740 Y6.175855
G1 Z-0.040000 F60.000000
G1 Y5.652615 F100.000000
G1 Y5.175095 F100.000000
G1 X45.389024 Y5.051284 F100.000000
G1 X45.512835 Y5.000000 F100.000000
G1 X45.636646 Y5.051284 F100.000000
G1 X45.687930 Y5.175095 F100.000000
G1 Y5.437713 F100.000000
G1 X45.940677 Y5.074993 F100.000000
G1 X46.053536 Y5.002730 F100.000000
G1 X46.184437 Y5.031437 F100.000000
G1 X46.256700 Y5.144296 F100.000000
G1 X46.227993 Y5.275197 F100.000000
G1 X46.047780 Y5.533825 F100.000000
G1 X46.068660 Y5.544265 F100.000000
G1 X46.087541 Y5.566036 F100.000000
G1 X46.114166 Y5.577064 F100.000000
G1 X46.159886 Y5.622784 F100.000000
G1 X46.170914 Y5.649409 F100.000000
G1 X46.192685 Y5.668290 F100.000000
G1 X46.240945 Y5.764810 F100.000000
G1 X46.243834 Y5.805462 F100.000000
G1 X46.259430 Y5.843115 F100.000000
G1 Y5.985355 F100.000000
G1 X46.243834 Y6.023008 F100.000000
G1 X46.240945 Y6.063660 F100.000000
G1 X46.192685 Y6.160180 F100.000000
G1 X46.170914 Y6.179061 F100.000000
G1 X46.159886 Y6.205686 F100.000000
G1 X46.114166 Y6.251406 F100.000000
G1 X46.087541 Y6.262434 F100.000000
G1 X46.068660 Y6.284205 F100.000000
G1 X45.972140 Y6.332465 F100.000000
G1 X45.931488 Y6.335354 F100.000000
G1 X45.893835 Y6.350950 F100.000000
G1 X45.512835 F100.000000
G1 X45.512835 F100.000000
G1 X45.512835 F100.000000
G0 Z2.000000
G0 X45.687930 Y5.827710
G1 Z-0.040000 F60.000000
G1 Y6.000760 F100.000000
G1 X45.852501 F100.000000
G1 X45.886636 Y5.983692 F100.000000
G1 X45.892172 Y5.978156 F100.000000
G1 X45.909240 Y5.944021 F100.000000
G1 Y5.884449 F100.000000
G1 X45.892172 Y5.850314 F100.000000
G1 X45.886636 Y5.844778 F100.000000
G1 X45.852501 Y5.827710 F100.000000
G1 X45.687930 F100.000000
G0 Z2.000000
G0 X46.513595 Y5.000000
G1 Z-0.040000 F60.000000
G1 X46.991115 F100.000000
G0 Z2.000000
G0 X46.338500 Y6.175855
G1 Z-0.040000 F60.000000
G1 Y5.700875 F100.000000
G1 Y5.175095 F100.000000
G0 Z2.000000
G0 X46.513595 Y5.000000
G1 Z-0.040000 F60.000000
G1 X46.991115 F100.000000
G1 X47.114926 Y5.051284 F100.000000
G1 X47.166210 Y5.175095 F100.000000
G1 X47.114926 Y5.298906 F100.000000
G1 X46.991115 Y5.350190 F100.000000
G1 X46.688690 F100.000000
G1 Y5.525780 F100.000000
G1 X46.846335 F100.000000
G1 X46.970146 Y5.577064 F100.000000
G1 X47.021430 Y5.700875 F100.000000
G1 X46.970146 Y5.824686 F100.000000
G1 X46.846335 Y5.875970 F100.000000
G1 X46.688690 F100.000000
G1 Y6.000760 F100.000000
G1 X46.991115 F100.000000
G1 X47.114926 Y6.052044 F100.000000
G1 X47.166210 Y6.175855 F100.000000
G1 X47.114926 Y6.299666 F100.000000
G1 X46.991115 Y6.350950 F100.000000
G1 X46.513595 F100.000000
G0 Z2.000000
G0 X47.999872 Y6.293406
G1 Z-0.040000 F60.000000
G1 X47.857632 Y6.341666 F100.000000
G1 X47.828421 Y6.339747 F100.000000
G1 X47.801375 Y6.350950 F100.000000
G1 X47.562615 F100.000000
G1 X47.524962 Y6.335354 F100.000000
G1 X47.484310 Y6.332465 F100.000000
G1 X47.387790 Y6.284205 F100.000000
G1 X47.368909 Y6.262434 F100.000000
G1 X47.342284 Y6.251406 F100.000000
G1 X47.296564 Y6.205686 F100.000000
G1 X47.285536 Y6.179061 F100.000000
G1 X47.263765 Y6.160180 F100.000000
G1 X47.215505 Y6.063660 F100.000000
G1 X47.212616 Y6.023008 F100.000000
G1 X47.197020 Y5.985355 F100.000000
G1 Y5.891375 F100.000000
G1 X47.212616 Y5.853722 F100.000000
G1 X47.215505 Y5.813070 F100.000000
G1 X47.263765 Y5.716550 F100.000000
G1 X47.283787 Y5.699185 F100.000000
G1 X47.293264 Y5.674434 F100.000000
G1 X47.338984 Y5.626174 F100.000000
G1 X47.369046 Y5.612760 F100.000000
G1 X47.391139 Y5.588355 F100.000000
G1 X47.487659 Y5.542635 F100.000000
G1 X47.505387 Y5.541754 F100.000000
G1 X47.519616 Y5.531142 F100.000000
G1 X47.690829 Y5.487768 F100.000000
G1 X47.742693 Y5.461135 F100.000000
G1 X47.752135 Y5.451693 F100.000000
G1 X47.768520 Y5.419786 F100.000000
G1 Y5.407924 F100.000000
G1 X47.752135 Y5.376017 F100.000000
G1 X47.742693 Y5.366575 F100.000000
G1 X47.710786 Y5.350190 F100.000000
G1 X47.543250 F100.000000
G1 X47.428372 Y5.389166 F100.000000
G1 X47.294649 Y5.380381 F100.000000
G1 X47.206304 Y5.279612 F100.000000
G1 X47.215089 Y5.145889 F100.000000
G1 X47.315858 Y5.057544 F100.000000
G1 X47.458098 Y5.009284 F100.000000
G1 X47.487309 Y5.011203 F100.000000
G1 X47.514355 Y5.000000 F100.000000
G1 X47.753115 F100.000000
G1 X47.791591 Y5.015937 F100.000000
G1 X47.833099 Y5.019336 F100.000000
G1 X47.927079 Y5.067596 F100.000000
G1 X47.945131 Y5.088868 F100.000000
G1 X47.970906 Y5.099544 F100.000000
G1 X48.019166 Y5.147804 F100.000000
G1 X48.029842 Y5.173579 F100.000000
G1 X48.051114 Y5.191631 F100.000000
G1 X48.099374 Y5.285611 F100.000000
G1 X48.102773 Y5.327119 F100.000000
G1 X48.118710 Y5.365595 F100.000000
G1 Y5.462115 F100.000000
G1 X48.102773 Y5.500591 F100.000000
G1 X48.099374 Y5.542099 F100.000000
G1 X48.051114 Y5.636079 F100.000000
G1 X48.029842 Y5.654131 F100.000000
G1 X48.019166 Y5.679906 F100.000000
G1 X47.970906 Y5.728166 F100.000000
G1 X47.945131 Y5.738842 F100.000000
G1 X47.927079 Y5.760114 F100.000000
G1 X47.833099 Y5.808374 F100.000000
G1 X47.812601 Y5.810052 F100.000000
G1 X47.796114 Y5.822348 F100.000000
G1 X47.622152 Y5.866418 F100.000000
G1 X47.570667 Y5.890806 F100.000000
G1 X47.565361 Y5.896407 F100.000000
G1 X47.547210 Y5.932709 F100.000000
G1 Y5.944021 F100.000000
G1 X47.564278 Y5.978156 F100.000000
G1 X47.569814 Y5.983692 F100.000000
G1 X47.603949 Y6.000760 F100.000000
G1 X47.772480 F100.000000
G1 X47.887358 Y5.961784 F100.000000
G1 X48.021081 Y5.970569 F100.000000
G1 X48.109426 Y6.071338 F100.000000
G1 X48.100641 Y6.205061 F100.000000
G1 X47.999872 Y6.293406 F100.000000
G0 Z2.000000
G0 X48.372875 Y5.000000
G1 Z-0.040000 F60.000000
G1 X48.847855 F100.000000
G1 X48.971666 Y5.051284 F100.000000
G1 X49.022950 Y5.175095 F100.000000
G1 X48.971666 Y5.298906 F100.000000
G1 X48.847855 Y5.350190 F100.000000
G1 X48.547970 F100.000000
G1 Y5.525780 F100.000000
G1 X48.705615 F100.000000
G1 X48.829426 Y5.577064 F100.000000
G1 X48.880710 Y5.700875 F100.000000
G1 X48.829426 Y5.824686 F100.000000
G1 X48.705615 Y5.875970 F100.000000
G1 X48.547970 F100.000000
G1 Y6.000760 F100.000000
G1 X48.847855 F100.000000
G1 X48.971666 Y6.052044 F100.000000
G1 X48.991365 Y6.099602 F100.000000
G1 X49.011064 Y6.052044 F100.000000
G1 X49.134875 Y6.000760 F100.000000
G1 X49.246800 F100.000000
G1 Y5.175095 F100.000000
G1 X49.298084 Y5.051284 F100.000000
G1 X49.421895 Y5.000000 F100.000000
G1 X49.545706 Y5.051284 F100.000000
G1 X49.596990 Y5.175095 F100.000000
G0 Z2.000000
G0 X48.197780 Y6.175855
G1 Z-0.040000 F60.000000
G1 Y5.700875 F100.000000
G1 Y5.175095 F100.000000
G0 Z2.000000
G0 X49.596990
G1 Z-0.040000 F60.000000
G1 Y6.000760 F100.000000
G1 X49.706375 F100.000000
G1 X49.830186 Y6.052044 F100.000000
G1 X49.881470 Y6.175855 F100.000000
G1 X49.830186 Y6.299666 F100.000000
G1 X49.706375 Y6.350950 F100.000000
G1 X49.421895 F100.000000
G1 X49.134875 F100.000000
G1 X49.011064 Y6.299666 F100.000000
G1 X48.991365 Y6.252108 F100.000000
G1 X48.971666 Y6.299666 F100.000000
G1 X48.847855 Y6.350950 F100.000000
G1 X48.372875 F100.000000
G0 Z2.000000
G0 X28.639450 Y12.947495
G1 Z-0.040000 F60.000000
G1 Y13.137995 F100.000000
G1 X28.588166 Y13.261806 F100.000000
G1 X28.464355 Y13.313090 F100.000000
G1 X28.340544 Y13.261806 F100.000000
G1 X28.289260 Y13.137995 F100.000000
G1 Y13.122590 F100.000000
G1 X28.225220 F100.000000
G1 X28.210190 Y13.166890 F100.000000
G1 Y13.203561 F100.000000
G1 X28.236003 Y13.281001 F100.000000
G1 X28.283214 Y13.326969 F100.000000
G1 X28.336141 Y13.354148 F100.000000
G1 X28.486189 Y13.392160 F100.000000
G1 X28.584761 F100.000000
G1 X28.735733 Y13.353914 F100.000000
G1 X28.789896 Y13.326832 F100.000000
G1 X28.834556 Y13.282172 F100.000000
G1 X28.860760 Y13.203561 F100.000000
G1 Y13.132064 F100.000000
G1 X28.831836 Y13.075739 F100.000000
G1 X28.820900 Y12.942174 F100.000000
G1 X28.907611 Y12.839996 F100.000000
G1 X29.041176 Y12.829060 F100.000000
G1 X29.143354 Y12.915771 F100.000000
G1 X29.191614 Y13.009751 F100.000000
G1 X29.195013 Y13.051259 F100.000000
G1 X29.210950 Y13.089735 F100.000000
G1 Y13.231975 F100.000000
G1 X29.199922 Y13.258599 F100.000000
G1 X29.201965 Y13.287345 F100.000000
G1 X29.153705 Y13.432125 F100.000000
G1 X29.127002 Y13.462913 F100.000000
G1 X29.111406 Y13.500566 F100.000000
G1 X29.017426 Y13.594546 F100.000000
G1 X28.990801 Y13.605574 F100.000000
G1 X28.971920 Y13.627345 F100.000000
G1 X28.875400 Y13.675605 F100.000000
G1 X28.855825 Y13.676996 F100.000000
G1 X28.840094 Y13.688728 F100.000000
G1 X28.649594 Y13.736988 F100.000000
G1 X28.627356 Y13.733750 F100.000000
G1 X28.606595 Y13.742350 F100.000000
G1 X28.464355 F100.000000
G1 X28.443594 Y13.733750 F100.000000
G1 X28.421356 Y13.736988 F100.000000
G1 X28.230856 Y13.688728 F100.000000
G1 X28.214369 Y13.676432 F100.000000
G1 X28.193871 Y13.674754 F100.000000
G1 X28.099891 Y13.626494 F100.000000
G1 X28.082579 Y13.606094 F100.000000
G1 X28.057726 Y13.596186 F100.000000
G1 X27.961206 Y13.502206 F100.000000
G1 X27.944672 Y13.463749 F100.000000
G1 X27.917245 Y13.432125 F100.000000
G1 X27.868985 Y13.287345 F100.000000
G1 X27.871028 Y13.258599 F100.000000
G1 X27.860000 Y13.231975 F100.000000
G1 Y13.137995 F100.000000
G1 X27.871203 Y13.110949 F100.000000
G1 X27.869284 Y13.081738 F100.000000
G1 X27.917544 Y12.939498 F100.000000
G1 X27.944118 Y12.909186 F100.000000
G1 X27.959544 Y12.871944 F100.000000
G1 X28.007804 Y12.823684 F100.000000
G0 Z2.000000
G0 X28.131615 Y12.772400
G1 Z-0.040000 F60.000000
G1 X28.131615 F100.000000
G1 X28.464355 F100.000000
G1 X28.588166 Y12.823684 F100.000000
G1 Y12.823684 F100.000000
G0 Z2.000000
G0 X28.131615 Y12.772400
G1 Z-0.040000 F60.000000
G1 X28.464355 F100.000000
G1 X28.588166 Y12.823684 F100.000000
G0 Z2.000000
G0 X28.639450 Y12.947495
G1 Z-0.040000 F60.000000
G1 Y13.137995 F100.000000
G0 Z2.000000
G0 X29.187904 Y12.605065
G1 Z-0.040000 F60.000000
G1 X29.168877 Y12.619808 F100.000000
G1 X29.159666 Y12.642046 F100.000000
G1 X29.117796 Y12.659389 F100.000000
G1 X29.081972 Y12.687148 F100.000000
G1 X29.058093 Y12.684119 F100.000000
G1 X29.035855 Y12.693330 F100.000000
G1 X28.035095 F100.000000
G1 X27.911284 Y12.642046 F100.000000
G1 X27.860000 Y12.518235 F100.000000
G1 X27.911284 Y12.394424 F100.000000
G1 X28.035095 Y12.343140 F100.000000
G1 X28.376160 F100.000000
G1 X27.948265 Y12.098784 F100.000000
G1 X27.933522 Y12.079757 F100.000000
G1 X27.911284 Y12.070546 F100.000000
G1 X27.893941 Y12.028676 F100.000000
G1 X27.866182 Y11.992852 F100.000000
G1 X27.869211 Y11.968973 F100.000000
G1 X27.860000 Y11.946735 F100.000000
G1 X27.877343 Y11.904865 F100.000000
G1 X27.883046 Y11.859905 F100.000000
G1 X27.902073 Y11.845162 F100.000000
G1 X27.911284 Y11.822924 F100.000000
G1 X27.953154 Y11.805581 F100.000000
G1 X27.988978 Y11.777822 F100.000000
G1 X28.012857 Y11.780851 F100.000000
G1 X28.035095 Y11.771640 F100.000000
G1 X29.035855 F100.000000
G1 X29.159666 Y11.822924 F100.000000
G1 X29.210950 Y11.946735 F100.000000
G1 X29.159666 Y12.070546 F100.000000
G1 X29.035855 Y12.121830 F100.000000
G1 X28.694790 F100.000000
G1 X29.122685 Y12.366186 F100.000000
G1 X29.137428 Y12.385213 F100.000000
G1 X29.159666 Y12.394424 F100.000000
G1 X29.177009 Y12.436294 F100.000000
G1 X29.204768 Y12.472118 F100.000000
G1 X29.201739 Y12.495997 F100.000000
G1 X29.210950 Y12.518235 F100.000000
G1 X29.193607 Y12.560105 F100.000000
G1 X29.187904 Y12.605065 F100.000000
G0 Z2.000000
G0 X27.860000 Y11.469215
G1 Z-0.040000 F60.000000
G1 Y11.230455 F100.000000
G1 X27.871203 Y11.203409 F100.000000
G1 X27.869284 Y11.174198 F100.000000
G1 X27.917544 Y11.031958 F100.000000
G1 X27.944847 Y11.000814 F100.000000
G1 X27.961206 Y10.962764 F100.000000
G1 X28.057726 Y10.868784 F100.000000
G1 X28.082579 Y10.858876 F100.000000
G1 X28.099891 Y10.838476 F100.000000
G1 X28.193871 Y10.790216 F100.000000
G1 X28.214369 Y10.788538 F100.000000
G1 X28.230856 Y10.776242 F100.000000
G1 X28.421356 Y10.727982 F100.000000
G1 X28.443594 Y10.731220 F100.000000
G1 X28.464355 Y10.722620 F100.000000
G1 X28.606595 F100.000000
G1 X28.627356 Y10.731220 F100.000000
G1 X28.649594 Y10.727982 F100.000000
G1 X28.840094 Y10.776242 F100.000000
G1 X28.855825 Y10.787974 F100.000000
G1 X28.875400 Y10.789365 F100.000000
G1 X28.971920 Y10.837625 F100.000000
G1 X28.990801 Y10.859396 F100.000000
G1 X29.017426 Y10.870424 F100.000000
G1 X29.111406 Y10.964404 F100.000000
G1 X29.126832 Y11.001646 F100.000000
G1 X29.153406 Y11.031958 F100.000000
G1 X29.201666 Y11.174198 F100.000000
G1 X29.199747 Y11.203409 F100.000000
G1 X29.210950 Y11.230455 F100.000000
G1 Y11.469215 F100.000000
G1 Y11.469215 F100.000000
G1 Y11.469215 F100.000000
G1 Y11.469215 F100.000000
G1 Y11.469215 F100.000000
G0 Z2.000000
G0 X29.159666 Y11.593026
G1 Z-0.040000 F60.000000
G1 Y11.593026 F100.000000
G1 Y11.593026 F100.000000
G1 Y11.593026 F100.000000
G1 Y11.593026 F100.000000
G0 Z2.000000
G0 X29.035855 Y11.644310
G1 Z-0.040000 F60.000000
G1 X29.035855 F100.000000
G1 X29.035855 F100.000000
G1 X29.035855 F100.000000
G1 X28.035095 F100.000000
G0 Z2.000000
G0 X28.210190 Y11.294120
G1 Z-0.040000 F60.000000
G1 X28.860760 F100.000000
G1 Y11.259350 F100.000000
G1 X28.834906 Y11.183147 F100.000000
G1 X28.789896 Y11.138138 F100.000000
G1 X28.735733 Y11.111056 F100.000000
G1 X28.584761 Y11.072810 F100.000000
G1 X28.486189 F100.000000
G1 X28.336141 Y11.110822 F100.000000
G1 X28.283214 Y11.138001 F100.000000
G1 X28.235648 Y11.184315 F100.000000
G1 X28.210190 Y11.259350 F100.000000
G1 Y11.294120 F100.000000
G0 Z2.000000
G0 X39.431426 Y28.571684
G1 Z-0.040000 F60.000000
G1 X39.482710 Y28.695495 F100.000000
G1 X39.431426 Y28.819306 F100.000000
G1 X39.307615 Y28.870590 F100.000000
G1 X39.183804 Y28.819306 F100.000000
G1 X39.135544 Y28.771046 F100.000000
G1 X39.124868 Y28.745271 F100.000000
G1 X39.103596 Y28.727219 F100.000000
G1 X39.055336 Y28.633239 F100.000000
G1 X39.051937 Y28.591731 F100.000000
G1 X39.036000 Y28.553255 F100.000000
G1 Y28.314495 F100.000000
G1 X39.051596 Y28.276842 F100.000000
G1 X39.054485 Y28.236190 F100.000000
G1 X39.102745 Y28.139670 F100.000000
G1 X39.126254 Y28.119281 F100.000000
G1 X39.138934 Y28.090864 F100.000000
G1 X39.187194 Y28.045144 F100.000000
G1 X39.211081 Y28.035998 F100.000000
G1 X39.227631 Y28.016496 F100.000000
G1 X39.321611 Y27.968236 F100.000000
G1 X39.363119 Y27.964837 F100.000000
G1 X39.401595 Y27.948900 F100.000000
G1 X39.640355 F100.000000
G1 X39.678008 Y27.964496 F100.000000
G1 X39.718660 Y27.967385 F100.000000
G1 X39.815180 Y28.015645 F100.000000
G1 X39.834061 Y28.037416 F100.000000
G1 X39.860686 Y28.048444 F100.000000
G1 X39.906406 Y28.094164 F100.000000
G1 X39.917434 Y28.120789 F100.000000
G1 X39.939205 Y28.139670 F100.000000
G1 X39.987465 Y28.236190 F100.000000
G1 X39.990354 Y28.276842 F100.000000
G1 X40.005950 Y28.314495 F100.000000
G1 Y28.492159 F100.000000
G1 X40.036760 Y28.489029 F100.000000
G1 Y28.172255 F100.000000
G1 X40.088044 Y28.048444 F100.000000
G1 X40.206018 Y27.999578 F100.000000
G1 X40.156612 Y28.003127 F100.000000
G1 X39.155852 Y27.670387 F100.000000
G1 X39.145857 Y27.661732 F100.000000
G1 X39.132671 Y27.660785 F100.000000
G1 X39.096414 Y27.618916 F100.000000
G1 X39.054545 Y27.582659 F100.000000
G1 X39.053598 Y27.569473 F100.000000
G1 X39.044943 Y27.559478 F100.000000
G1 X39.048911 Y27.504235 F100.000000
G1 X39.044943 Y27.448992 F100.000000
G1 X39.053598 Y27.438997 F100.000000
G1 X39.054545 Y27.425811 F100.000000
G1 X39.096414 Y27.389554 F100.000000
G1 X39.132671 Y27.347685 F100.000000
G1 X39.145857 Y27.346738 F100.000000
G1 X39.155852 Y27.338083 F100.000000
G1 X40.156612 Y27.005343 F100.000000
G1 X40.290279 Y27.014945 F100.000000
G1 X40.378007 Y27.116252 F100.000000
G1 X40.368405 Y27.249919 F100.000000
G1 X40.267098 Y27.337647 F100.000000
G0 Z2.000000
G1 Z-0.040000 F60.000000
G1 X39.766062 Y27.504235 F100.000000
G1 X40.267098 Y27.670823 F100.000000
G1 X40.368405 Y27.758551 F100.000000
G1 X40.378007 Y27.892218 F100.000000
G1 X40.290279 Y27.993525 F100.000000
G1 X40.215967 Y27.998863 F100.000000
G1 X40.335666 Y28.048444 F100.000000
G1 X40.386950 Y28.172255 F100.000000
G1 Y28.647235 F100.000000
G1 X40.364445 Y28.701567 F100.000000
G1 X40.347547 Y28.757896 F100.000000
G1 X40.339265 Y28.762356 F100.000000
G1 X40.335666 Y28.771046 F100.000000
G1 X40.281333 Y28.793551 F100.000000
G1 X40.229554 Y28.821433 F100.000000
G1 X39.754574 Y28.869693 F100.000000
G1 X39.747935 Y28.867702 F100.000000
G1 X39.741606 Y28.870526 F100.000000
G1 X39.684640 Y28.848714 F100.000000
G1 X39.626214 Y28.831187 F100.000000
G1 X39.622927 Y28.825084 F100.000000
G1 X39.616454 Y28.822606 F100.000000
G1 X39.591597 Y28.766901 F100.000000
G1 X39.562677 Y28.713194 F100.000000
G1 X39.564668 Y28.706555 F100.000000
G1 X39.561844 Y28.700226 F100.000000
G1 X39.583656 Y28.643260 F100.000000
G1 X39.601183 Y28.584834 F100.000000
G1 X39.607286 Y28.581547 F100.000000
G1 X39.609764 Y28.575074 F100.000000
G1 X39.638270 Y28.544985 F100.000000
G1 X39.655760 Y28.510926 F100.000000
G1 Y28.355829 F100.000000
G1 X39.638692 Y28.321694 F100.000000
G1 X39.633156 Y28.316158 F100.000000
G1 X39.599021 Y28.299090 F100.000000
G1 X39.443924 F100.000000
G1 X39.409865 Y28.316580 F100.000000
G1 X39.402169 Y28.323871 F100.000000
G1 X39.386190 Y28.355829 F100.000000
G1 Y28.510926 F100.000000
G1 X39.402575 Y28.542833 F100.000000
G1 X39.431426 Y28.571684 F100.000000
G0 Z2.000000
G0 X5.271615 Y16.328400
G1 Z-0.040000 F60.000000
G1 X5.271615 F100.000000
G1 X5.271615 F100.000000
G1 X5.271615 F100.000000
G1 X5.271615 F100.000000
G1 X5.604355 F100.000000
G1 X5.604355 F100.000000
G1 X5.604355 F100.000000
G1 X5.604355 F100.000000
G1 X5.604355 F100.000000
G0 Z2.000000
G0 X5.728166 Y16.379684
G1 Z-0.040000 F60.000000
G1 X5.728166 Y16.379684 F100.000000
G1 X5.728166 Y16.379684 F100.000000
G1 X5.728166 Y16.379684 F100.000000
G1 X5.728166 Y16.379684 F100.000000
G0 Z2.000000
G0 X5.779450 Y16.503495
G1 Z-0.040000 F60.000000
G1 Y16.503495 F100.000000
G1 Y16.503495 F100.000000
G1 Y16.503495 F100.000000
G1 Y16.503495 F100.000000
G1 Y16.693995 F100.000000
G1 X5.728166 Y16.817806 F100.000000
G1 X5.604355 Y16.869090 F100.000000
G1 X5.480544 Y16.817806 F100.000000
G1 X5.429260 Y16.693995 F100.000000
G1 Y16.678590 F100.000000
G1 X5.365220 Y16.678590 F100.000000
G1 X5.350190 Y16.722890 F100.000000
G1 Y16.759561 F100.000000
G1 X5.376003 Y16.837001 F100.000000
G1 X5.423214 Y16.882969 F100.000000
G1 X5.476141 Y16.910148 F100.000000
G1 X5.626189 Y16.948160 F100.000000
G1 X5.724761 F100.000000
G1 X5.875733 Y16.909914 F100.000000
G1 X5.929896 Y16.882832 F100.000000
G1 X5.974556 Y16.838172 F100.000000
G1 X6.000760 Y16.759561 F100.000000
G1 Y16.688064 F100.000000
G1 X5.971836 Y16.631739 F100.000000
G1 X5.960900 Y16.498174 F100.000000
G1 X6.047611 Y16.395996 F100.000000
G1 X6.181176 Y16.385060 F100.000000
G1 X6.283354 Y16.471771 F100.000000
G1 X6.331614 Y16.565751 F100.000000
G1 X6.335013 Y16.607259 F100.000000
G1 X6.350950 Y16.645735 F100.000000
G1 Y16.787975 F100.000000
G1 X6.339922 Y16.814599 F100.000000
G1 X6.341965 Y16.843345 F100.000000
G1 X6.293705 Y16.988125 F100.000000
G1 X6.267002 Y17.018913 F100.000000
G1 X6.251406 Y17.056566 F100.000000
G1 X6.157426 Y17.150546 F100.000000
G1 X6.130801 Y17.161574 F100.000000
G1 X6.111920 Y17.183345 F100.000000
G1 X6.015400 Y17.231605 F100.000000
G1 X5.995825 Y17.232996 F100.000000
G1 X5.980094 Y17.244728 F100.000000
G1 X5.789594 Y17.292988 F100.000000
G1 X5.767356 Y17.289750 F100.000000
G1 X5.746595 Y17.298350 F100.000000
G1 X5.604355 F100.000000
G1 X5.583594 Y17.289750 F100.000000
G1 X5.561356 Y17.292988 F100.000000
G1 X5.370856 Y17.244728 F100.000000
G1 X5.354369 Y17.232432 F100.000000
G1 X5.333871 Y17.230754 F100.000000
G1 X5.239891 Y17.182494 F100.000000
G1 X5.222579 Y17.162094 F100.000000
G1 X5.197726 Y17.152186 F100.000000
G1 X5.101206 Y17.058206 F100.000000
G1 X5.084672 Y17.019749 F100.000000
G1 X5.057245 Y16.988125 F100.000000
G1 X5.008985 Y16.843345 F100.000000
G1 X5.011028 Y16.814599 F100.000000
G1 X5.000000 Y16.787975 F100.000000
G1 Y16.693995 F100.000000
G1 X5.011203 Y16.666949 F100.000000
G1 X5.009284 Y16.637738 F100.000000
G1 X5.057544 Y16.495498 F100.000000
G1 X5.084118 Y16.465186 F100.000000
G1 X5.099544 Y16.427944 F100.000000
G1 X5.147804 Y16.379684 F100.000000
G0 Z2.000000
G0 X6.327904 Y16.161065
G1 Z-0.040000 F60.000000
G1 X6.308877 Y16.175808 F100.000000
G1 X6.299666 Y16.198046 F100.000000
G1 X6.257796 Y16.215389 F100.000000
G1 X6.221972 Y16.243148 F100.000000
G1 X6.198093 Y16.240119 F100.000000
G1 X6.175855 Y16.249330 F100.000000
G1 X5.175095 F100.000000
G1 X5.051284 Y16.198046 F100.000000
G1 X5.000000 Y16.074235 F100.000000
G1 X5.051284 Y15.950424 F100.000000
G1 X5.175095 Y15.899140 F100.000000
G1 X5.516160 F100.000000
G1 X5.088265 Y15.654784 F100.000000
G1 X5.073522 Y15.635757 F100.000000
G1 X5.051284 Y15.626546 F100.000000
G1 X5.033941 Y15.584676 F100.000000
G1 X5.006182 Y15.548852 F100.000000
G1 X5.009211 Y15.524973 F100.000000
G1 X5.000000 Y15.502735 F100.000000
G1 X5.017343 Y15.460865 F100.000000
G1 X5.023046 Y15.415905 F100.000000
G1 X5.042073 Y15.401162 F100.000000
G1 X5.051284 Y15.378924 F100.000000
G1 X5.093154 Y15.361581 F100.000000
G1 X5.128978 Y15.333822 F100.000000
G1 X5.152857 Y15.336851 F100.000000
G1 X5.175095 Y15.327640 F100.000000
G1 X6.175855 F100.000000
G1 X6.299666 Y15.378924 F100.000000
G1 X6.350950 Y15.502735 F100.000000
G1 X6.299666 Y15.626546 F100.000000
G1 X6.175855 Y15.677830 F100.000000
G1 X5.834790 F100.000000
G1 X6.262685 Y15.922186 F100.000000
G1 X6.277428 Y15.941213 F100.000000
G1 X6.299666 Y15.950424 F100.000000
G1 X6.317009 Y15.992294 F100.000000
G1 X6.344768 Y16.028118 F100.000000
G1 X6.341739 Y16.051997 F100.000000
G1 X6.350950 Y16.074235 F100.000000
G1 X6.333607 Y16.116105 F100.000000
G1 X6.327904 Y16.161065 F100.000000
G0 Z2.000000
G0 X6.299666 Y15.149026
G1 Z-0.040000 F60.000000
G1 Y15.149026 F100.000000
G1 X6.175855 Y15.200310 F100.000000
G1 X5.175095 F100.000000
G1 X5.175095 Y15.200310 F100.000000
G1 X5.175095 Y15.200310 F100.000000
G0 Z2.000000
G0 X5.000000 Y15.025215
G1 Z-0.040000 F60.000000
G1 Y14.786455 F100.000000
G1 X5.011203 Y14.759409 F100.000000
G1 X5.009284 Y14.730198 F100.000000
G1 X5.057544 Y14.587958 F100.000000
G1 X5.084847 Y14.556814 F100.000000
G1 X5.101206 Y14.518764 F100.000000
G1 X5.197726 Y14.424784 F100.000000
G1 X5.222579 Y14.414876 F100.000000
G1 X5.239891 Y14.394476 F100.000000
G1 X5.333871 Y14.346216 F100.000000
G1 X5.354369 Y14.344538 F100.000000
G1 X5.370856 Y14.332242 F100.000000
G1 X5.561356 Y14.283982 F100.000000
G1 X5.583594 Y14.287220 F100.000000
G1 X5.604355 Y14.278620 F100.000000
G1 X5.746595 F100.000000
G1 X5.767356 Y14.287220 F100.000000
G1 X5.789594 Y14.283982 F100.000000
G1 X5.980094 Y14.332242 F100.000000
G1 X5.995825 Y14.343974 F100.000000
G1 X6.015400 Y14.345365 F100.000000
G1 X6.111920 Y14.393625 F100.000000
G1 X6.130801 Y14.415396 F100.000000
G1 X6.157426 Y14.426424 F100.000000
G1 X6.251406 Y14.520404 F100.000000
G1 X6.266832 Y14.557646 F100.000000
G1 X6.293406 Y14.587958 F100.000000
G1 X6.341666 Y14.730198 F100.000000
G1 X6.339747 Y14.759409 F100.000000
G1 X6.350950 Y14.786455 F100.000000
G1 Y15.025215 F100.000000
G1 Y15.025215 F100.000000
G0 Z2.000000
G0 X6.299666 Y15.149026
G1 Z-0.040000 F60.000000
G1 Y15.149026 F100.000000
G1 X6.175855 Y15.200310 F100.000000
G1 X5.175095 F100.000000
G0 Z2.000000
G0 X5.350190 Y14.850120
G1 Z-0.040000 F60.000000
G1 X6.000760 F100.000000
G1 Y14.815350 F100.000000
G1 X5.974906 Y14.739147 F100.000000
G1 X5.929896 Y14.694138 F100.000000
G1 X5.875733 Y14.667056 F100.000000
G1 X5.724761 Y14.628810 F100.000000
G1 X5.626189 F100.000000
G1 X5.476141 Y14.666822 F100.000000
G1 X5.423214 Y14.694001 F100.000000
G1 X5.375648 Y14.740315 F100.000000
G1 X5.350190 Y14.815350 F100.000000
G1 Y14.850120 F100.000000
G0 Z2.000000
G0 X5.175095 Y25.662900
G1 Z-0.040000 F60.000000
G1 X5.381000 F100.000000
G1 Y25.456995 F100.000000
G1 X5.432284 Y25.333184 F100.000000
G1 X5.556095 Y25.281900 F100.000000
G1 X5.679906 Y25.333184 F100.000000
G1 X5.731190 Y25.456995 F100.000000
G1 Y25.662900 F100.000000
G1 X5.937095 F100.000000
G1 X6.060906 Y25.714184 F100.000000
G1 X6.112190 Y25.837995 F100.000000
G1 X6.060906 Y25.961806 F100.000000
G1 X5.937095 Y26.013090 F100.000000
G1 X5.731190 F100.000000
G1 Y26.218995 F100.000000
G1 X5.679906 Y26.342806 F100.000000
G1 X5.556095 Y26.394090 F100.000000
G1 X5.432284 Y26.342806 F100.000000
G1 X5.381000 Y26.218995 F100.000000
G1 Y26.013090 F100.000000
G1 X5.175095 F100.000000
G1 X5.051284 Y25.961806 F100.000000
G1 X5.000000 Y25.837995 F100.000000
G1 X5.051284 Y25.714184 F100.000000
G1 X5.175095 Y25.662900 F100.000000
G0 Z2.000000
G0 X5.395426 Y24.903924
G1 Z-0.040000 F60.000000
G1 X5.446710 Y25.027735 F100.000000
G1 X5.395426 Y25.151546 F100.000000
G1 X5.271615 Y25.202830 F100.000000
G1 X5.147804 Y25.151546 F100.000000
G1 X5.099544 Y25.103286 F100.000000
G1 X5.088868 Y25.077511 F100.000000
G1 X5.067596 Y25.059459 F100.000000
G1 X5.019336 Y24.965479 F100.000000
G1 X5.015937 Y24.923971 F100.000000
G1 X5.000000 Y24.885495 F100.000000
G1 Y24.646735 F100.000000
G1 X5.015596 Y24.609082 F100.000000
G1 X5.018485 Y24.568430 F100.000000
G1 X5.066745 Y24.471910 F100.000000
G1 X5.090254 Y24.451521 F100.000000
G1 X5.102934 Y24.423104 F100.000000
G1 X5.151194 Y24.377384 F100.000000
G1 X5.175081 Y24.368238 F100.000000
G1 X5.191631 Y24.348736 F100.000000
G1 X5.285611 Y24.300476 F100.000000
G1 X5.327119 Y24.297077 F100.000000
G1 X5.365595 Y24.281140 F100.000000
G1 X5.604355 F100.000000
G1 X5.642008 Y24.296736 F100.000000
G1 X5.682660 Y24.299625 F100.000000
G1 X5.779180 Y24.347885 F100.000000
G1 X5.798061 Y24.369656 F100.000000
G1 X5.824686 Y24.380684 F100.000000
G1 X5.870406 Y24.426404 F100.000000
G1 X5.881434 Y24.453029 F100.000000
G1 X5.903205 Y24.471910 F100.000000
G1 X5.951465 Y24.568430 F100.000000
G1 X5.954354 Y24.609082 F100.000000
G1 X5.969950 Y24.646735 F100.000000
G1 Y24.824399 F100.000000
G1 X6.000760 Y24.821269 F100.000000
G1 Y24.504495 F100.000000
G1 X6.052044 Y24.380684 F100.000000
G1 X6.170018 Y24.331818 F100.000000
G1 X6.120612 Y24.335367 F100.000000
G1 X5.119852 Y24.002627 F100.000000
G1 X5.109857 Y23.993972 F100.000000
G1 X5.096671 Y23.993025 F100.000000
G1 X5.060414 Y23.951156 F100.000000
G1 X5.018545 Y23.914899 F100.000000
G1 X5.017598 Y23.901713 F100.000000
G1 X5.008943 Y23.891718 F100.000000
G1 X5.012911 Y23.836475 F100.000000
G1 X5.008943 Y23.781232 F100.000000
G1 X5.017598 Y23.771237 F100.000000
G1 X5.018545 Y23.758051 F100.000000
G1 X5.060414 Y23.721794 F100.000000
G1 X5.096671 Y23.679925 F100.000000
G1 X5.109857 Y23.678978 F100.000000
G1 X5.119852 Y23.670323 F100.000000
G1 X6.120612 Y23.337583 F100.000000
G1 X6.254279 Y23.347185 F100.000000
G1 X6.342007 Y23.448492 F100.000000
G1 X6.332405 Y23.582159 F100.000000
G1 X6.231098 Y23.669887 F100.000000
G0 Z2.000000
G1 Z-0.040000 F60.000000
G1 X5.730062 Y23.836475 F100.000000
G1 X6.231098 Y24.003063 F100.000000
G1 X6.332405 Y24.090791 F100.000000
G1 X6.342007 Y24.224458 F100.000000
G1 X6.254279 Y24.325765 F100.000000
G1 X6.179967 Y24.331103 F100.000000
G1 X6.299666 Y24.380684 F100.000000
G1 X6.350950 Y24.504495 F100.000000
G1 Y24.979475 F100.000000
G1 X6.328445 Y25.033807 F100.000000
G1 X6.311547 Y25.090136 F100.000000
G1 X6.303265 Y25.094596 F100.000000
G1 X6.299666 Y25.103286 F100.000000
G1 X6.245333 Y25.125791 F100.000000
G1 X6.193554 Y25.153673 F100.000000
G1 X5.718574 Y25.201933 F100.000000
G1 X5.711935 Y25.199942 F100.000000
G1 X5.705606 Y25.202766 F100.000000
G1 X5.648640 Y25.180954 F100.000000
G1 X5.590214 Y25.163427 F100.000000
G1 X5.586927 Y25.157324 F100.000000
G1 X5.580454 Y25.154846 F100.000000
G1 X5.555597 Y25.099141 F100.000000
G1 X5.526677 Y25.045434 F100.000000
G1 X5.528668 Y25.038795 F100.000000
G1 X5.525844 Y25.032466 F100.000000
G1 X5.547656 Y24.975500 F100.000000
G1 X5.565183 Y24.917074 F100.000000
G1 X5.571286 Y24.913787 F100.000000
G1 X5.573764 Y24.907314 F100.000000
G1 X5.602270 Y24.877225 F100.000000
G1 X5.619760 Y24.843166 F100.000000
G1 Y24.688069 F100.000000
G1 X5.602692 Y24.653934 F100.000000
G1 X5.597156 Y24.648398 F100.000000
G1 X5.563021 Y24.631330 F100.000000
G1 X5.407924 F100.000000
G1 X5.373865 Y24.648820 F100.000000
G1 X5.366169 Y24.656111 F100.000000
G1 X5.350190 Y24.688069 F100.000000
G1 Y24.843166 F100.000000
G1 X5.366575 Y24.875073 F100.000000
G1 X5.395426 Y24.903924 F100.000000
G0 Z2.000000
G0 X54.018495 Y48.228095
G1 Z-0.040000 F60.000000
G1 X54.011851 Y48.244135 F100.000000
G1 X54.494275 F100.000000
G1 X54.637393 Y48.303417 F100.000000
G1 X54.696675 Y48.446535 F100.000000
G1 X54.637393 Y48.589653 F100.000000
G1 X54.494275 Y48.648935 F100.000000
G1 X52.462275 F100.000000
G1 X52.319157 Y48.589653 F100.000000
G1 X52.259875 Y48.446535 F100.000000
G1 X52.319157 Y48.303417 F100.000000
G1 X52.462275 Y48.244135 F100.000000
G1 X53.554646 F100.000000
G1 X53.569916 Y48.232482 F100.000000
G1 X53.613695 Y48.166813 F100.000000
G1 Y48.070937 F100.000000
G1 X53.587024 Y48.030931 F100.000000
G1 X53.489231 Y47.993615 F100.000000
G1 X52.462275 F100.000000
G1 X52.319157 Y47.934333 F100.000000
G1 X52.259875 Y47.791215 F100.000000
G1 X52.319157 Y47.648097 F100.000000
G1 X52.462275 Y47.588815 F100.000000
G1 X53.526535 F100.000000
G1 X53.561193 Y47.603171 F100.000000
G1 X53.598692 Y47.602114 F100.000000
G1 X53.791732 Y47.675774 F100.000000
G1 X53.836639 Y47.718220 F100.000000
G1 X53.887982 Y47.752604 F100.000000
G1 X53.984502 Y47.897384 F100.000000
G1 X53.995940 Y47.955202 F100.000000
G1 X54.018495 Y48.009655 F100.000000
G1 Y48.228095 F100.000000
G0 Z2.000000
G0 X52.664675 Y45.832875
G1 Z-0.040000 F60.000000
G1 Y45.916373 F100.000000
G1 X52.691346 Y45.956379 F100.000000
G1 X52.789139 Y45.993695 F100.000000
G1 X53.613695 F100.000000
G1 Y45.832875 F100.000000
G1 X53.672977 Y45.689757 F100.000000
G1 X53.816095 Y45.630475 F100.000000
G1 X53.959213 Y45.689757 F100.000000
G1 X54.018495 Y45.832875 F100.000000
G1 Y45.993695 F100.000000
G1 X54.494275 F100.000000
G1 X54.637393 Y46.052977 F100.000000
G1 X54.696675 Y46.196095 F100.000000
G1 X54.637393 Y46.339213 F100.000000
G1 X54.494275 Y46.398495 F100.000000
G1 X54.018495 F100.000000
G1 Y46.414535 F100.000000
G1 X53.959213 Y46.557653 F100.000000
G1 X53.955202 Y46.559315 F100.000000
G1 X53.959213 Y46.560977 F100.000000
G1 X54.018495 Y46.704095 F100.000000
G1 Y46.864915 F100.000000
G1 X54.494275 F100.000000
G1 X54.637393 Y46.924197 F100.000000
G1 X54.696675 Y47.067315 F100.000000
G1 X54.637393 Y47.210433 F100.000000
G1 X54.494275 Y47.269715 F100.000000
G1 X54.018495 F100.000000
G1 Y47.283215 F100.000000
G1 X53.959213 Y47.426333 F100.000000
G1 X53.816095 Y47.485615 F100.000000
G1 X53.672977 Y47.426333 F100.000000
G1 X53.613695 Y47.283215 F100.000000
G1 Y47.269715 F100.000000
G1 X52.751835 F100.000000
G1 X52.717177 Y47.255359 F100.000000
G1 X52.679678 Y47.256416 F100.000000
G1 X52.486638 Y47.182756 F100.000000
G1 X52.441731 Y47.140310 F100.000000
G1 X52.390388 Y47.105926 F100.000000
G1 X52.293868 Y46.961146 F100.000000
G1 X52.282430 Y46.903328 F100.000000
G1 X52.259875 Y46.848875 F100.000000
G1 Y46.704095 F100.000000
G1 X52.319157 Y46.560977 F100.000000
G1 X52.462275 Y46.501695 F100.000000
G1 X52.605393 Y46.560977 F100.000000
G1 X52.664675 Y46.704095 F100.000000
G1 Y46.787593 F100.000000
G1 X52.691346 Y46.827599 F100.000000
G1 X52.789139 Y46.864915 F100.000000
G1 X53.613695 F100.000000
G1 Y46.704095 F100.000000
G1 X53.672977 Y46.560977 F100.000000
G1 X53.676988 Y46.559315 F100.000000
G1 X53.672977 Y46.557653 F100.000000
G1 X53.613695 Y46.414535 F100.000000
G1 Y46.398495 F100.000000
G1 X52.751835 F100.000000
G1 X52.717177 Y46.384139 F100.000000
G1 X52.679678 Y46.385196 F100.000000
G1 X52.486638 Y46.311536 F100.000000
G1 X52.441731 Y46.269090 F100.000000
G1 X52.390388 Y46.234706 F100.000000
G1 X52.293868 Y46.089926 F100.000000
G1 X52.282430 Y46.032108 F100.000000
G1 X52.259875 Y45.977655 F100.000000
G1 Y45.832875 F100.000000
G1 X52.319157 Y45.689757 F100.000000
G1 X52.462275 Y45.630475 F100.000000
G1 X52.605393 Y45.689757 F100.000000
G1 X52.664675 Y45.832875 F100.000000
G0 Z2.000000
G0 X52.259875 Y44.890535
G1 Z-0.040000 F60.000000
G1 X52.282141 Y44.836780 F100.000000
G1 X52.292975 Y44.779614 F100.000000
G1 X52.389495 Y44.632294 F100.000000
G1 X52.419789 Y44.611654 F100.000000
G1 X52.438732 Y44.580272 F100.000000
G1 X52.535252 Y44.509152 F100.000000
G1 X52.562648 Y44.502380 F100.000000
G1 X52.583158 Y44.482994 F100.000000
G1 X52.776198 Y44.409334 F100.000000
G1 X52.813697 Y44.410391 F100.000000
G1 X52.848355 Y44.396035 F100.000000
G1 X53.430015 F100.000000
G1 X53.464673 Y44.410391 F100.000000
G1 X53.502172 Y44.409334 F100.000000
G1 X53.695212 Y44.482994 F100.000000
G1 X53.715722 Y44.502380 F100.000000
G1 X53.743118 Y44.509152 F100.000000
G1 X53.839638 Y44.580272 F100.000000
G1 X53.858581 Y44.611654 F100.000000
G1 X53.888875 Y44.632294 F100.000000
G1 X53.985395 Y44.779614 F100.000000
G1 X53.996229 Y44.836780 F100.000000
G1 X54.018495 Y44.890535 F100.000000
G1 Y45.180095 F100.000000
G1 X53.995940 Y45.234548 F100.000000
G1 X53.991137 Y45.258827 F100.000000
G1 X54.018495 Y45.324875 F100.000000
G1 X53.959213 Y45.467993 F100.000000
G1 X53.816095 Y45.527275 F100.000000
G1 X51.784095 F100.000000
G1 X51.640977 Y45.467993 F100.000000
G1 X51.581695 Y45.324875 F100.000000
G1 X51.640977 Y45.181757 F100.000000
G1 X51.784095 Y45.122475 F100.000000
G1 X52.259875 F100.000000
G1 Y44.890535 F100.000000
G0 Z2.000000
G0 X52.667116 Y45.122475
G1 Z-0.040000 F60.000000
G1 X53.611254 F100.000000
G1 X53.613695 Y45.118813 F100.000000
G1 Y44.950934 F100.000000
G1 X53.570217 Y44.884573 F100.000000
G1 X53.525165 Y44.851377 F100.000000
G1 X53.392711 Y44.800835 F100.000000
G1 X52.885659 F100.000000
G1 X52.753205 Y44.851377 F100.000000
G1 X52.708153 Y44.884573 F100.000000
G1 X52.664675 Y44.950934 F100.000000
G1 Y45.118813 F100.000000
G1 X52.667116 Y45.122475 F100.000000
G0 Z2.000000
G0 X52.265330 Y43.958824
G1 Z-0.040000 F60.000000
G1 X52.259875 Y43.945655 F100.000000
G1 X52.265999 Y43.930870 F100.000000
G1 X52.262159 Y43.915334 F100.000000
G1 X52.288375 Y43.871902 F100.000000
G1 X52.301377 Y43.822864 F100.000000
G1 X52.313702 Y43.815705 F100.000000
G1 X52.319157 Y43.802537 F100.000000
G1 X52.333942 Y43.796412 F100.000000
G1 X52.342212 Y43.782712 F100.000000
G1 X52.438732 Y43.711592 F100.000000
G1 X52.486419 Y43.699804 F100.000000
G1 X52.528474 Y43.674419 F100.000000
G1 X52.558795 Y43.681914 F100.000000
G1 X52.589116 Y43.674419 F100.000000
G1 X52.631171 Y43.699804 F100.000000
G1 X52.678858 Y43.711592 F100.000000
G1 X52.775378 Y43.782712 F100.000000
G1 X52.783648 Y43.796412 F100.000000
G1 X52.798433 Y43.802537 F100.000000
G1 X52.803888 Y43.815705 F100.000000
G1 X52.816213 Y43.822864 F100.000000
G1 X52.829215 Y43.871902 F100.000000
G1 X52.855431 Y43.915334 F100.000000
G1 X52.851591 Y43.930870 F100.000000
G1 X52.857715 Y43.945655 F100.000000
G1 X52.852260 Y43.958824 F100.000000
G1 X52.855913 Y43.972601 F100.000000
G1 X52.830432 Y44.016469 F100.000000
G1 X52.818258 Y44.065718 F100.000000
G1 X52.804558 Y44.073988 F100.000000
G1 X52.798433 Y44.088773 F100.000000
G1 X52.785265 Y44.094228 F100.000000
G1 X52.778106 Y44.106553 F100.000000
G1 X52.681586 Y44.180213 F100.000000
G1 X52.630997 Y44.193626 F100.000000
G1 X52.585741 Y44.219913 F100.000000
G1 X52.558795 Y44.212769 F100.000000
G1 X52.531849 Y44.219913 F100.000000
G1 X52.486593 Y44.193626 F100.000000
G1 X52.436004 Y44.180213 F100.000000
G1 X52.339484 Y44.106553 F100.000000
G1 X52.332325 Y44.094228 F100.000000
G1 X52.319157 Y44.088773 F100.000000
G1 X52.313032 Y44.073988 F100.000000
G1 X52.299332 Y44.065718 F100.000000
G1 X52.287158 Y44.016469 F100.000000
G1 X52.261677 Y43.972601 F100.000000
G1 X52.265330 Y43.958824 F100.000000
G0 Z2.000000
G0 X53.329590 Y43.958824
G1 Z-0.040000 F60.000000
G1 X53.324135 Y43.945655 F100.000000
G1 X53.330259 Y43.930870 F100.000000
G1 X53.326419 Y43.915334 F100.000000
G1 X53.352635 Y43.871902 F100.000000
G1 X53.365637 Y43.822864 F100.000000
G1 X53.377962 Y43.815705 F100.000000
G1 X53.383417 Y43.802537 F100.000000
G1 X53.398202 Y43.796412 F100.000000
G1 X53.406472 Y43.782712 F100.000000
G1 X53.502992 Y43.711592 F100.000000
G1 X53.550679 Y43.699804 F100.000000
G1 X53.592734 Y43.674419 F100.000000
G1 X53.623055 Y43.681914 F100.000000
G1 X53.653376 Y43.674419 F100.000000
G1 X53.695431 Y43.699804 F100.000000
G1 X53.743118 Y43.711592 F100.000000
G1 X53.839638 Y43.782712 F100.000000
G1 X53.847908 Y43.796412 F100.000000
G1 X53.862693 Y43.802537 F100.000000
G1 X53.868148 Y43.815705 F100.000000
G1 X53.880473 Y43.822864 F100.000000
G1 X53.893475 Y43.871902 F100.000000
G1 X53.919691 Y43.915334 F100.000000
G1 X53.915851 Y43.930870 F100.000000
G1 X53.921975 Y43.945655 F100.000000
G1 X53.916520 Y43.958824 F100.000000
G1 X53.920173 Y43.972601 F100.000000
G1 X53.894692 Y44.016469 F100.000000
G1 X53.882518 Y44.065718 F100.000000
G1 X53.868818 Y44.073988 F100.000000
G1 X53.862693 Y44.088773 F100.000000
G1 X53.849525 Y44.094228 F100.000000
G1 X53.842366 Y44.106553 F100.000000
G1 X53.745846 Y44.180213 F100.000000
G1 X53.695257 Y44.193626 F100.000000
G1 X53.650001 Y44.219913 F100.000000
G1 X53.623055 Y44.212769 F100.000000
G1 X53.596109 Y44.219913 F100.000000
G1 X53.550853 Y44.193626 F100.000000
G1 X53.500264 Y44.180213 F100.000000
G1 X53.403744 Y44.106553 F100.000000
G1 X53.396585 Y44.094228 F100.000000
G1 X53.383417 Y44.088773 F100.000000
G1 X53.377292 Y44.073988 F100.000000
G1 X53.363592 Y44.065718 F100.000000
G1 X53.351418 Y44.016469 F100.000000
G1 X53.325937 Y43.972601 F100.000000
G1 X53.329590 Y43.958824 F100.000000
G0 Z2.000000
G0 X54.500349 Y41.951028
G1 Z-0.040000 F60.000000
G1 X54.654874 Y41.940106 F100.000000
G1 X54.771862 Y42.041649 F100.000000
G1 X54.782784 Y42.196174 F100.000000
G1 X54.681241 Y42.313162 F100.000000
G1 X52.067581 Y43.618722 F100.000000
G1 X51.913056 Y43.629644 F100.000000
G1 X51.796068 Y43.528101 F100.000000
G1 X51.785146 Y43.373576 F100.000000
G1 X51.886689 Y43.256588 F100.000000
G1 X54.500349 Y41.951028 F100.000000
G0 Z2.000000
G0 X54.500209 Y40.353438
G1 Z-0.040000 F60.000000
G1 X54.654725 Y40.342397 F100.000000
G1 X54.771792 Y40.443849 F100.000000
G1 X54.782833 Y40.598365 F100.000000
G1 X54.681381 Y40.715432 F100.000000
G1 X52.067721 Y42.023532 F100.000000
G1 X51.913205 Y42.034573 F100.000000
G1 X51.796138 Y41.933121 F100.000000
G1 X51.785097 Y41.778605 F100.000000
G1 X51.886549 Y41.661538 F100.000000
G1 X54.500209 Y40.353438 F100.000000
G0 Z2.000000
G0 X53.887982 Y39.261384
G1 Z-0.040000 F60.000000
G1 X53.984502 Y39.406164 F100.000000
G1 X53.995940 Y39.463982 F100.000000
G1 X54.018495 Y39.518435 F100.000000
G1 Y39.810535 F100.000000
G1 X53.995940 Y39.864988 F100.000000
G1 X53.984502 Y39.922806 F100.000000
G1 X53.887982 Y40.067586 F100.000000
G1 X53.858176 Y40.087547 F100.000000
G1 X53.839638 Y40.118258 F100.000000
G1 X53.743118 Y40.189378 F100.000000
G1 X53.715722 Y40.196150 F100.000000
G1 X53.695212 Y40.215536 F100.000000
G1 X53.502172 Y40.289196 F100.000000
G1 X53.464673 Y40.288139 F100.000000
G1 X53.430015 Y40.302495 F100.000000
G1 X52.848355 F100.000000
G1 X52.813697 Y40.288139 F100.000000
G1 X52.776198 Y40.289196 F100.000000
G1 X52.583158 Y40.215536 F100.000000
G1 X52.562648 Y40.196150 F100.000000
G1 X52.535252 Y40.189378 F100.000000
G1 X52.438732 Y40.118258 F100.000000
G1 X52.420194 Y40.087547 F100.000000
G1 X52.390388 Y40.067586 F100.000000
G1 X52.293868 Y39.922806 F100.000000
G1 X52.282430 Y39.864988 F100.000000
G1 X52.259875 Y39.810535 F100.000000
G1 Y39.518435 F100.000000
G1 X52.282430 Y39.463982 F100.000000
G1 X52.293868 Y39.406164 F100.000000
G1 X52.390388 Y39.261384 F100.000000
G1 X52.519101 Y39.175185 F100.000000
G1 X52.671066 Y39.205248 F100.000000
G1 X52.757265 Y39.333961 F100.000000
G1 X52.727202 Y39.485926 F100.000000
G1 X52.664675 Y39.579717 F100.000000
G1 Y39.749253 F100.000000
G1 X52.707481 Y39.813462 F100.000000
G1 X52.753205 Y39.847153 F100.000000
G1 X52.885659 Y39.897695 F100.000000
G1 X53.392711 F100.000000
G1 X53.525165 Y39.847153 F100.000000
G1 X53.570889 Y39.813462 F100.000000
G1 X53.613695 Y39.749253 F100.000000
G1 Y39.579717 F100.000000
G1 X53.551168 Y39.485926 F100.000000
G1 X53.521105 Y39.333961 F100.000000
G1 X53.607304 Y39.205248 F100.000000
G1 X53.759269 Y39.175185 F100.000000
G1 X53.887982 Y39.261384 F100.000000
G0 Z2.000000
G0 X53.551168 Y38.608604
G1 Z-0.040000 F60.000000
G1 X53.613695 Y38.514813 F100.000000
G1 Y38.346934 F100.000000
G1 X53.586898 Y38.306033 F100.000000
G1 X53.490437 Y38.270495 F100.000000
G1 X53.439276 Y38.270495 F100.000000
G1 X53.436835 Y38.274157 F100.000000
G1 Y38.576095 F100.000000
G1 X53.414280 Y38.630548 F100.000000
G1 X53.402842 Y38.688366 F100.000000
G1 X53.306322 Y38.833146 F100.000000
G1 X53.254979 Y38.867530 F100.000000
G1 X53.210072 Y38.909976 F100.000000
G1 X53.017032 Y38.983636 F100.000000
G1 X52.979533 Y38.982579 F100.000000
G1 X52.944875 Y38.996935 F100.000000
G1 X52.751835 F100.000000
G1 X52.717177 Y38.982579 F100.000000
G1 X52.679678 Y38.983636 F100.000000
G1 X52.486638 Y38.909976 F100.000000
G1 X52.441731 Y38.867530 F100.000000
G1 X52.390388 Y38.833146 F100.000000
G1 X52.293868 Y38.688366 F100.000000
G1 X52.282430 Y38.630548 F100.000000
G1 X52.259875 Y38.576095 F100.000000
G1 Y38.212875 F100.000000
G1 X52.282430 Y38.158422 F100.000000
G1 X52.287233 Y38.134143 F100.000000
G1 X52.259875 Y38.068095 F100.000000
G1 X52.319157 Y37.924977 F100.000000
G1 X52.462275 Y37.865695 F100.000000
G1 X53.526535 F100.000000
G1 X53.560150 Y37.879619 F100.000000
G1 X53.596506 Y37.878174 F100.000000
G1 X53.789546 Y37.949294 F100.000000
G1 X53.836290 Y37.992466 F100.000000
G1 X53.888875 Y38.028294 F100.000000
G1 X53.985395 Y38.175614 F100.000000
G1 X53.996229 Y38.232780 F100.000000
G1 X54.018495 Y38.286535 F100.000000
G1 Y38.576095 F100.000000
G1 X53.995940 Y38.630548 F100.000000
G1 X53.984502 Y38.688366 F100.000000
G1 X53.887982 Y38.833146 F100.000000
G1 X53.759269 Y38.919345 F100.000000
G1 X53.607304 Y38.889282 F100.000000
G1 X53.521105 Y38.760569 F100.000000
G1 X53.551168 Y38.608604 F100.000000
G0 Z2.000000
G0 X53.032035 Y38.270495
G1 Z-0.040000 F60.000000
G1 X52.667116 F100.000000
G1 X52.664675 Y38.274157 F100.000000
G1 Y38.514813 F100.000000
G1 X52.691346 Y38.554819 F100.000000
G1 X52.789139 Y38.592135 F100.000000
G1 X52.907571 F100.000000
G1 X53.005364 Y38.554819 F100.000000
G1 X53.032035 Y38.514813 F100.000000
G1 Y38.270495 F100.000000
G0 Z2.000000
G0 X54.018495 Y36.907315
G1 Z-0.040000 F60.000000
G1 Y37.052095 F100.000000
G1 X53.995940 Y37.106548 F100.000000
G1 X53.984502 Y37.164366 F100.000000
G1 X53.960175 Y37.200857 F100.000000
G1 X54.018495 Y37.341655 F100.000000
G1 X53.959213 Y37.484773 F100.000000
G1 X53.816095 Y37.544055 F100.000000
G1 X52.462275 F100.000000
G1 X52.319157 Y37.484773 F100.000000
G1 X52.259875 Y37.341655 F100.000000
G1 X52.319157 Y37.198537 F100.000000
G1 X52.462275 Y37.139255 F100.000000
G1 X53.393917 F100.000000
G1 X53.524489 Y37.091149 F100.000000
G1 X53.569916 Y37.056482 F100.000000
G1 X53.613695 Y36.990813 F100.000000
G1 Y36.907315 F100.000000
G1 X53.672977 Y36.764197 F100.000000
G1 X53.816095 Y36.704915 F100.000000
G1 X53.959213 Y36.764197 F100.000000
G1 X54.018495 Y36.907315 F100.000000
G0 Z2.000000
G0 X54.494275 Y36.601715
G1 Z-0.040000 F60.000000
G1 X52.751835 F100.000000
G1 X52.717177 Y36.587359 F100.000000
G1 X52.679678 Y36.588416 F100.000000
G1 X52.486638 Y36.514756 F100.000000
G1 X52.441731 Y36.472310 F100.000000
G1 X52.390388 Y36.437926 F100.000000
G1 X52.293868 Y36.293146 F100.000000
G1 X52.263805 Y36.141181 F100.000000
G1 X52.350004 Y36.012468 F100.000000
G1 X52.501969 Y35.982405 F100.000000
G1 X52.630682 Y36.068604 F100.000000
G1 X52.691346 Y36.159599 F100.000000
G1 X52.789139 Y36.196915 F100.000000
G1 X54.494275 F100.000000
G1 X54.637393 Y36.256197 F100.000000
G1 X54.696675 Y36.399315 F100.000000
G1 X54.637393 Y36.542433 F100.000000
G1 X54.494275 Y36.601715 F100.000000
G0 Z2.000000
G0 X52.259875 Y35.383315
G1 Z-0.040000 F60.000000
G1 Y35.164875 F100.000000
G1 X52.282430 Y35.110422 F100.000000
G1 X52.293868 Y35.052604 F100.000000
G1 X52.390388 Y34.907824 F100.000000
G1 X52.418818 Y34.888784 F100.000000
G1 X52.436004 Y34.859197 F100.000000
G1 X52.532524 Y34.785537 F100.000000
G1 X52.562536 Y34.777580 F100.000000
G1 X52.585344 Y34.756514 F100.000000
G1 X52.778384 Y34.685394 F100.000000
G1 X52.814740 Y34.686839 F100.000000
G1 X52.848355 Y34.672915 F100.000000
G1 X53.430015 F100.000000
G1 X53.463630 Y34.686839 F100.000000
G1 X53.499986 Y34.685394 F100.000000
G1 X53.693026 Y34.756514 F100.000000
G1 X53.715834 Y34.777580 F100.000000
G1 X53.745846 Y34.785537 F100.000000
G1 X53.842366 Y34.859197 F100.000000
G1 X53.859552 Y34.888784 F100.000000
G1 X53.887982 Y34.907824 F100.000000
G1 X53.984502 Y35.052604 F100.000000
G1 X53.995940 Y35.110422 F100.000000
G1 X54.018495 Y35.164875 F100.000000
G1 Y35.383315 F100.000000
G1 X53.995940 Y35.437768 F100.000000
G1 X53.984502 Y35.495586 F100.000000
G1 X53.887982 Y35.640366 F100.000000
G1 X53.858176 Y35.660327 F100.000000
G1 X53.839638 Y35.691038 F100.000000
G1 X53.743118 Y35.762158 F100.000000
G1 X53.715722 Y35.768930 F100.000000
G1 X53.695212 Y35.788316 F100.000000
G1 X53.502172 Y35.861976 F100.000000
G1 X53.464673 Y35.860919 F100.000000
G1 X53.430015 Y35.875275 F100.000000
G1 X52.848355 F100.000000
G1 X52.813697 Y35.860919 F100.000000
G1 X52.776198 Y35.861976 F100.000000
G1 X52.583158 Y35.788316 F100.000000
G1 X52.562648 Y35.768930 F100.000000
G1 X52.535252 Y35.762158 F100.000000
G1 X52.438732 Y35.691038 F100.000000
G1 X52.420194 Y35.660327 F100.000000
G1 X52.390388 Y35.640366 F100.000000
G1 X52.293868 Y35.495586 F100.000000
G1 X52.282430 Y35.437768 F100.000000
G1 X52.259875 Y35.383315 F100.000000
G0 Z2.000000
G0 X52.664675 Y35.322033
G1 Z-0.040000 F60.000000
G1 X52.707481 Y35.386242 F100.000000
G1 X52.753205 Y35.419933 F100.000000
G1 X52.885659 Y35.470475 F100.000000
G1 X53.392711 F100.000000
G1 X53.525165 Y35.419933 F100.000000
G1 X53.570889 Y35.386242 F100.000000
G1 X53.613695 Y35.322033 F100.000000
G1 Y35.226157 F100.000000
G1 X53.569916 Y35.160488 F100.000000
G1 X53.524489 Y35.125821 F100.000000
G1 X53.393917 Y35.077715 F100.000000
G1 X52.884453 F100.000000
G1 X52.753881 Y35.125821 F100.000000
G1 X52.708454 Y35.160488 F100.000000
G1 X52.664675 Y35.226157 F100.000000
G1 Y35.322033 F100.000000
G0 Z2.000000
G0 X53.887982 Y33.602264
G1 Z-0.040000 F60.000000
G1 X53.984502 Y33.747044 F100.000000
G1 X53.995940 Y33.804862 F100.000000
G1 X54.018495 Y33.859315 F100.000000
G1 Y34.075215 F100.000000
G1 X53.996229 Y34.128970 F100.000000
G1 X53.985395 Y34.186136 F100.000000
G1 X53.888875 Y34.333456 F100.000000
G1 X53.836290 Y34.369284 F100.000000
G1 X53.789546 Y34.412456 F100.000000
G1 X53.596506 Y34.483576 F100.000000
G1 X53.560150 Y34.482131 F100.000000
G1 X53.526535 Y34.496055 F100.000000
G1 X53.430015 F100.000000
G1 X53.396782 Y34.482290 F100.000000
G1 X53.360846 Y34.483869 F100.000000
G1 X53.165266 Y34.412749 F100.000000
G1 X53.118048 Y34.369507 F100.000000
G1 X53.065135 Y34.333456 F100.000000
G1 X52.968615 Y34.186136 F100.000000
G1 X52.957781 Y34.128970 F100.000000
G1 X52.935515 Y34.075215 F100.000000
G1 Y33.920597 F100.000000
G1 X52.908844 Y33.880591 F100.000000
G1 X52.811051 Y33.843275 F100.000000
G1 X52.789139 F100.000000
G1 X52.691346 Y33.880591 F100.000000
G1 X52.664675 Y33.920597 F100.000000
G1 Y34.087593 F100.000000
G1 X52.727202 Y34.181384 F100.000000
G1 X52.757265 Y34.333349 F100.000000
G1 X52.671066 Y34.462062 F100.000000
G1 X52.519101 Y34.492125 F100.000000
G1 X52.390388 Y34.405926 F100.000000
G1 X52.293868 Y34.261146 F100.000000
G1 X52.282430 Y34.203328 F100.000000
G1 X52.259875 Y34.148875 F100.000000
G1 Y33.859315 F100.000000
G1 X52.282430 Y33.804862 F100.000000
G1 X52.293868 Y33.747044 F100.000000
G1 X52.390388 Y33.602264 F100.000000
G1 X52.441731 Y33.567880 F100.000000
G1 X52.486638 Y33.525434 F100.000000
G1 X52.679678 Y33.451774 F100.000000
G1 X52.717177 Y33.452831 F100.000000
G1 X52.751835 Y33.438475 F100.000000
G1 X52.848355 F100.000000
G1 X52.883013 Y33.452831 F100.000000
G1 X52.920512 Y33.451774 F100.000000
G1 X53.113552 Y33.525434 F100.000000
G1 X53.158459 Y33.567880 F100.000000
G1 X53.209802 Y33.602264 F100.000000
G1 X53.306322 Y33.747044 F100.000000
G1 X53.317760 Y33.804862 F100.000000
G1 X53.340315 Y33.859315 F100.000000
G1 Y34.014816 F100.000000
G1 X53.366852 Y34.055320 F100.000000
G1 X53.465673 Y34.091255 F100.000000
G1 X53.490437 F100.000000
G1 X53.586898 Y34.055717 F100.000000
G1 X53.613695 Y34.014816 F100.000000
G1 Y33.920597 F100.000000
G1 X53.551168 Y33.826806 F100.000000
G1 X53.521105 Y33.674841 F100.000000
G1 X53.607304 Y33.546128 F100.000000
G1 X53.759269 Y33.516065 F100.000000
G1 X53.887982 Y33.602264 F100.000000
G0 Z2.000000
G0 X51.712208 Y33.100366
G1 Z-0.040000 F60.000000
G1 X51.615688 Y32.955586 F100.000000
G1 X51.604250 Y32.897768 F100.000000
G1 X51.581695 Y32.843315 F100.000000
G1 Y32.624875 F100.000000
G1 X51.604250 Y32.570422 F100.000000
G1 X51.615688 Y32.512604 F100.000000
G1 X51.712208 Y32.367824 F100.000000
G1 X51.740638 Y32.348784 F100.000000
G1 X51.757824 Y32.319197 F100.000000
G1 X51.854344 Y32.245537 F100.000000
G1 X51.884356 Y32.237580 F100.000000
G1 X51.907164 Y32.216514 F100.000000
G1 X52.100204 Y32.145394 F100.000000
G1 X52.136560 Y32.146839 F100.000000
G1 X52.170175 Y32.132915 F100.000000
G1 X53.816095 F100.000000
G1 X53.959213 Y32.192197 F100.000000
G1 X54.018495 Y32.335315 F100.000000
G1 X53.991137 Y32.401363 F100.000000
G1 X53.995940 Y32.425642 F100.000000
G1 X54.018495 Y32.480095 F100.000000
G1 Y32.769655 F100.000000
G1 X53.995940 Y32.824108 F100.000000
G1 X53.984502 Y32.881926 F100.000000
G1 X53.887982 Y33.026706 F100.000000
G1 X53.859552 Y33.045746 F100.000000
G1 X53.842366 Y33.075333 F100.000000
G1 X53.745846 Y33.148993 F100.000000
G1 X53.715834 Y33.156950 F100.000000
G1 X53.693026 Y33.178016 F100.000000
G1 X53.499986 Y33.249136 F100.000000
G1 X53.463630 Y33.247691 F100.000000
G1 X53.430015 Y33.261615 F100.000000
G1 X52.848355 F100.000000
G1 X52.814740 Y33.247691 F100.000000
G1 X52.778384 Y33.249136 F100.000000
G1 X52.585344 Y33.178016 F100.000000
G1 X52.562536 Y33.156950 F100.000000
G1 X52.532524 Y33.148993 F100.000000
G1 X52.436004 Y33.075333 F100.000000
G1 X52.418818 Y33.045746 F100.000000
G1 X52.390388 Y33.026706 F100.000000
G1 X52.293868 Y32.881926 F100.000000
G1 X52.282430 Y32.824108 F100.000000
G1 X52.259875 Y32.769655 F100.000000
G1 Y32.537715 F100.000000
G1 X52.206273 F100.000000
G1 X52.075701 Y32.585821 F100.000000
G1 X52.030274 Y32.620488 F100.000000
G1 X51.986495 Y32.686157 F100.000000
G1 Y32.782033 F100.000000
G1 X52.049022 Y32.875824 F100.000000
G1 X52.079085 Y33.027789 F100.000000
G1 X51.992886 Y33.156502 F100.000000
G1 X51.840921 Y33.186565 F100.000000
G1 X51.712208 Y33.100366 F100.000000
G0 Z2.000000
G0 X53.611254 Y32.537715
G1 Z-0.040000 F60.000000
G1 X52.667116 F100.000000
G1 X52.664675 Y32.541377 F100.000000
G1 Y32.708373 F100.000000
G1 X52.708454 Y32.774042 F100.000000
G1 X52.753881 Y32.808709 F100.000000
G1 X52.884453 Y32.856815 F100.000000
G1 X53.393917 F100.000000
G1 X53.524489 Y32.808709 F100.000000
G1 X53.569916 Y32.774042 F100.000000
G1 X53.613695 Y32.708373 F100.000000
G1 Y32.541377 F100.000000
G1 X53.611254 Y32.537715 F100.000000
G0 Z2.000000
G0 X53.887982 Y30.988604
G1 Z-0.040000 F60.000000
G1 X53.984502 Y31.133384 F100.000000
G1 X53.995940 Y31.191202 F100.000000
G1 X54.018495 Y31.245655 F100.000000
G1 Y31.464095 F100.000000
G1 X53.995940 Y31.518548 F100.000000
G1 X53.984502 Y31.576366 F100.000000
G1 X53.887982 Y31.721146 F100.000000
G1 X53.836639 Y31.755530 F100.000000
G1 X53.791732 Y31.797976 F100.000000
G1 X53.598692 Y31.871636 F100.000000
G1 X53.561193 Y31.870579 F100.000000
G1 X53.526535 Y31.884935 F100.000000
G1 X53.430015 F100.000000
G1 X53.395748 Y31.870741 F100.000000
G1 X53.358678 Y31.871947 F100.000000
G1 X53.163098 Y31.798287 F100.000000
G1 X53.117710 Y31.755757 F100.000000
G1 X53.066028 Y31.721146 F100.000000
G1 X52.969508 Y31.576366 F100.000000
G1 X52.958070 Y31.518548 F100.000000
G1 X52.935515 Y31.464095 F100.000000
G1 Y31.306937 F100.000000
G1 X52.908844 Y31.266931 F100.000000
G1 X52.811051 Y31.229615 F100.000000
G1 X52.789139 F100.000000
G1 X52.691346 Y31.266931 F100.000000
G1 X52.664675 Y31.306937 F100.000000
G1 Y31.474816 F100.000000
G1 X52.728095 Y31.571614 F100.000000
G1 X52.756941 Y31.723815 F100.000000
G1 X52.669716 Y31.851835 F100.000000
G1 X52.517515 Y31.880681 F100.000000
G1 X52.389495 Y31.793456 F100.000000
G1 X52.292975 Y31.646136 F100.000000
G1 X52.282141 Y31.588970 F100.000000
G1 X52.259875 Y31.535215 F100.000000
G1 Y31.245655 F100.000000
G1 X52.282430 Y31.191202 F100.000000
G1 X52.293868 Y31.133384 F100.000000
G1 X52.390388 Y30.988604 F100.000000
G1 X52.441731 Y30.954220 F100.000000
G1 X52.486638 Y30.911774 F100.000000
G1 X52.679678 Y30.838114 F100.000000
G1 X52.717177 Y30.839171 F100.000000
G1 X52.751835 Y30.824815 F100.000000
G1 X52.848355 F100.000000
G1 X52.883013 Y30.839171 F100.000000
G1 X52.920512 Y30.838114 F100.000000
G1 X53.113552 Y30.911774 F100.000000
G1 X53.158459 Y30.954220 F100.000000
G1 X53.209802 Y30.988604 F100.000000
G1 X53.306322 Y31.133384 F100.000000
G1 X53.317760 Y31.191202 F100.000000
G1 X53.340315 Y31.245655 F100.000000
G1 Y31.402813 F100.000000
G1 X53.366717 Y31.442417 F100.000000
G1 X53.466866 Y31.480135 F100.000000
G1 X53.489231 F100.000000
G1 X53.587024 Y31.442819 F100.000000
G1 X53.613695 Y31.402813 F100.000000
G1 Y31.306937 F100.000000
G1 X53.551168 Y31.213146 F100.000000
G1 X53.521105 Y31.061181 F100.000000
G1 X53.607304 Y30.932468 F100.000000
G1 X53.759269 Y30.902405 F100.000000
G1 X53.887982 Y30.988604 F100.000000
G0 Z2.000000
G0 X52.265330 Y30.387604
G1 Z-0.040000 F60.000000
G1 X52.259875 Y30.374435 F100.000000
G1 X52.265999 Y30.359650 F100.000000
G1 X52.262159 Y30.344114 F100.000000
G1 X52.288375 Y30.300682 F100.000000
G1 X52.301377 Y30.251644 F100.000000
G1 X52.313702 Y30.244485 F100.000000
G1 X52.319157 Y30.231317 F100.000000
G1 X52.333942 Y30.225192 F100.000000
G1 X52.342212 Y30.211492 F100.000000
G1 X52.438732 Y30.140372 F100.000000
G1 X52.486419 Y30.128584 F100.000000
G1 X52.528474 Y30.103199 F100.000000
G1 X52.558795 Y30.110694 F100.000000
G1 X52.589116 Y30.103199 F100.000000
G1 X52.631171 Y30.128584 F100.000000
G1 X52.678858 Y30.140372 F100.000000
G1 X52.775378 Y30.211492 F100.000000
G1 X52.783648 Y30.225192 F100.000000
G1 X52.798433 Y30.231317 F100.000000
G1 X52.803888 Y30.244485 F100.000000
G1 X52.816213 Y30.251644 F100.000000
G1 X52.829215 Y30.300682 F100.000000
G1 X52.855431 Y30.344114 F100.000000
G1 X52.851591 Y30.359650 F100.000000
G1 X52.857715 Y30.374435 F100.000000
G1 X52.852260 Y30.387604 F100.000000
G1 X52.855913 Y30.401381 F100.000000
G1 X52.830432 Y30.445249 F100.000000
G1 X52.818258 Y30.494498 F100.000000
G1 X52.804558 Y30.502768 F100.000000
G1 X52.798433 Y30.517553 F100.000000
G1 X52.785265 Y30.523008 F100.000000
G1 X52.778106 Y30.535333 F100.000000
G1 X52.681586 Y30.608993 F100.000000
G1 X52.630997 Y30.622406 F100.000000
G1 X52.585741 Y30.648693 F100.000000
G1 X52.558795 Y30.641549 F100.000000
G1 X52.531849 Y30.648693 F100.000000
G1 X52.486593 Y30.622406 F100.000000
G1 X52.436004 Y30.608993 F100.000000
G1 X52.339484 Y30.535333 F100.000000
G1 X52.332325 Y30.523008 F100.000000
G1 X52.319157 Y30.517553 F100.000000
G1 X52.313032 Y30.502768 F100.000000
G1 X52.299332 Y30.494498 F100.000000
G1 X52.287158 Y30.445249 F100.000000
G1 X52.261677 Y30.401381 F100.000000
G1 X52.265330 Y30.387604 F100.000000
G0 Z2.000000
G0 X53.212994 Y28.844216
G1 Z-0.040000 F60.000000
G1 X53.229545 Y28.822593 F100.000000
G1 X53.282035 Y28.815618 F100.000000
G1 X53.330955 Y28.795355 F100.000000
G1 X53.526535 F100.000000
G1 X53.560150 Y28.809279 F100.000000
G1 X53.596506 Y28.807834 F100.000000
G1 X53.789546 Y28.878954 F100.000000
G1 X53.835737 Y28.921616 F100.000000
G1 X53.887982 Y28.956604 F100.000000
G1 X53.984502 Y29.101384 F100.000000
G1 X53.995940 Y29.159202 F100.000000
G1 X54.018495 Y29.213655 F100.000000
G1 Y29.505755 F100.000000
G1 X53.995940 Y29.560208 F100.000000
G1 X53.984502 Y29.618026 F100.000000
G1 X53.887982 Y29.762806 F100.000000
G1 X53.835737 Y29.797794 F100.000000
G1 X53.789546 Y29.840456 F100.000000
G1 X53.596506 Y29.911576 F100.000000
G1 X53.560150 Y29.910131 F100.000000
G1 X53.526535 Y29.924055 F100.000000
G1 X52.751835 F100.000000
G1 X52.718220 Y29.910131 F100.000000
G1 X52.681864 Y29.911576 F100.000000
G1 X52.488824 Y29.840456 F100.000000
G1 X52.442633 Y29.797794 F100.000000
G1 X52.390388 Y29.762806 F100.000000
G1 X52.293868 Y29.618026 F100.000000
G1 X52.282430 Y29.560208 F100.000000
G1 X52.259875 Y29.505755 F100.000000
G1 Y29.213655 F100.000000
G1 X52.282430 Y29.159202 F100.000000
G1 X52.293868 Y29.101384 F100.000000
G1 X52.390388 Y28.956604 F100.000000
G1 X52.519101 Y28.870405 F100.000000
G1 X52.671066 Y28.900468 F100.000000
G1 X52.757265 Y29.029181 F100.000000
G1 X52.727202 Y29.181146 F100.000000
G1 X52.664675 Y29.274937 F100.000000
G1 Y29.444473 F100.000000
G1 X52.690631 Y29.483407 F100.000000
G1 X52.787933 Y29.519255 F100.000000
G1 X52.982415 F100.000000
G1 X53.135389 Y28.945604 F100.000000
G1 X53.167573 Y28.903557 F100.000000
G1 X53.187837 Y28.854637 F100.000000
G1 X53.212994 Y28.844216 F100.000000
G0 Z2.000000
G0 X53.401361 Y29.519255
G1 Z-0.040000 F60.000000
G1 X53.490437 F100.000000
G1 X53.587739 Y29.483407 F100.000000
G1 X53.613695 Y29.444473 F100.000000
G1 Y29.274937 F100.000000
G1 X53.587739 Y29.236003 F100.000000
G1 X53.490437 Y29.200155 F100.000000
G1 X53.486455 F100.000000
G1 X53.401361 Y29.519255 F100.000000
G0 Z2.000000
G0 X53.888875 Y27.723514
G1 Z-0.040000 F60.000000
G1 X53.985395 Y27.870834 F100.000000
G1 X53.996229 Y27.928000 F100.000000
G1 X54.018495 Y27.981755 F100.000000
G1 Y28.197655 F100.000000
G1 X53.995940 Y28.252108 F100.000000
G1 X53.984502 Y28.309926 F100.000000
G1 X53.887982 Y28.454706 F100.000000
G1 X53.836639 Y28.489090 F100.000000
G1 X53.791732 Y28.531536 F100.000000
G1 X53.598692 Y28.605196 F100.000000
G1 X53.561193 Y28.604139 F100.000000
G1 X53.526535 Y28.618495 F100.000000
G1 X53.430015 F100.000000
G1 X53.395748 Y28.604301 F100.000000
G1 X53.358678 Y28.605507 F100.000000
G1 X53.163098 Y28.531847 F100.000000
G1 X53.117710 Y28.489317 F100.000000
G1 X53.066028 Y28.454706 F100.000000
G1 X52.969508 Y28.309926 F100.000000
G1 X52.958070 Y28.252108 F100.000000
G1 X52.935515 Y28.197655 F100.000000
G1 Y28.042154 F100.000000
G1 X52.908718 Y28.001253 F100.000000
G1 X52.812257 Y27.965715 F100.000000
G1 X52.787933 F100.000000
G1 X52.691472 Y28.001253 F100.000000
G1 X52.664675 Y28.042154 F100.000000
G1 Y28.210033 F100.000000
G1 X52.727202 Y28.303824 F100.000000
G1 X52.757265 Y28.455789 F100.000000
G1 X52.671066 Y28.584502 F100.000000
G1 X52.519101 Y28.614565 F100.000000
G1 X52.390388 Y28.528366 F100.000000
G1 X52.293868 Y28.383586 F100.000000
G1 X52.282430 Y28.325768 F100.000000
G1 X52.259875 Y28.271315 F100.000000
G1 Y27.981755 F100.000000
G1 X52.282141 Y27.928000 F100.000000
G1 X52.292975 Y27.870834 F100.000000
G1 X52.389495 Y27.723514 F100.000000
G1 X52.442080 Y27.687686 F100.000000
G1 X52.488824 Y27.644514 F100.000000
G1 X52.681864 Y27.573394 F100.000000
G1 X52.718220 Y27.574839 F100.000000
G1 X52.751835 Y27.560915 F100.000000
G1 X52.848355 F100.000000
G1 X52.881970 Y27.574839 F100.000000
G1 X52.918326 Y27.573394 F100.000000
G1 X53.111366 Y27.644514 F100.000000
G1 X53.158110 Y27.687686 F100.000000
G1 X53.210695 Y27.723514 F100.000000
G1 X53.307215 Y27.870834 F100.000000
G1 X53.318049 Y27.928000 F100.000000
G1 X53.340315 Y27.981755 F100.000000
G1 Y28.136373 F100.000000
G1 X53.366717 Y28.175977 F100.000000
G1 X53.466866 Y28.213695 F100.000000
G1 X53.489231 F100.000000
G1 X53.587024 Y28.176379 F100.000000
G1 X53.613695 Y28.136373 F100.000000
G1 Y28.042154 F100.000000
G1 X53.550275 Y27.945356 F100.000000
G1 X53.521429 Y27.793155 F100.000000
G1 X53.608654 Y27.665135 F100.000000
G1 X53.760855 Y27.636289 F100.000000
G1 X53.888875 Y27.723514 F100.000000
G0 Z2.000000
G0 X46.112275 Y32.608835
G1 Z-0.040000 F60.000000
G1 X45.048015 F100.000000
G1 X44.080275 F100.000000
G1 X43.937157 Y32.549553 F100.000000
G1 X43.877875 Y32.406435 F100.000000
G1 X43.937157 Y32.263317 F100.000000
G1 X44.080275 Y32.204035 F100.000000
G1 X44.845615 F100.000000
G1 Y31.827315 F100.000000
G1 X44.868170 Y31.772862 F100.000000
G1 X44.879608 Y31.715044 F100.000000
G1 X44.976128 Y31.570264 F100.000000
G1 X45.004558 Y31.551224 F100.000000
G1 X45.021744 Y31.521637 F100.000000
G1 X45.118264 Y31.447977 F100.000000
G1 X45.147167 Y31.440314 F100.000000
G1 X45.168898 Y31.419774 F100.000000
G1 X45.361938 Y31.346114 F100.000000
G1 X45.399437 Y31.347171 F100.000000
G1 X45.434095 Y31.332815 F100.000000
G1 X45.723655 F100.000000
G1 X45.758313 Y31.347171 F100.000000
G1 X45.795812 Y31.346114 F100.000000
G1 X45.988852 Y31.419774 F100.000000
G1 X46.010583 Y31.440314 F100.000000
G1 X46.039486 Y31.447977 F100.000000
G1 X46.136006 Y31.521637 F100.000000
G1 X46.152595 Y31.550197 F100.000000
G1 X46.180257 Y31.568243 F100.000000
G1 X46.279317 Y31.713023 F100.000000
G1 X46.291685 Y31.771812 F100.000000
G1 X46.314675 Y31.827315 F100.000000
G1 Y32.406435 F100.000000
G1 Y32.406435 F100.000000
G1 Y32.406435 F100.000000
G1 Y32.406435 F100.000000
G1 Y32.406435 F100.000000
G0 Z2.000000
G0 X46.255393 Y32.549553
G1 Z-0.040000 F60.000000
G1 Y32.549553 F100.000000
G1 Y32.549553 F100.000000
G1 Y32.549553 F100.000000
G1 Y32.549553 F100.000000
G0 Z2.000000
G0 X46.112275 Y32.608835
G1 Z-0.040000 F60.000000
G1 X45.048015 F100.000000
G1 X44.080275 F100.000000
G0 Z2.000000
G0 X45.250415 Y32.204035
G1 Z-0.040000 F60.000000
G1 X45.909875 F100.000000
G1 Y31.889930 F100.000000
G1 X45.864551 Y31.823688 F100.000000
G1 X45.817181 Y31.787537 F100.000000
G1 X45.686351 Y31.737615 F100.000000
G1 X45.471399 F100.000000
G1 X45.340569 Y31.787537 F100.000000
G1 X45.294194 Y31.822928 F100.000000
G1 X45.250415 Y31.888597 F100.000000
G1 Y32.204035 F100.000000
G0 Z2.000000
G0 X45.636495 Y30.448095
G1 Z-0.040000 F60.000000
G1 Y30.592875 F100.000000
G1 X45.613940 Y30.647328 F100.000000
G1 X45.602502 Y30.705146 F100.000000
G1 X45.578175 Y30.741637 F100.000000
G1 X45.636495 Y30.882435 F100.000000
G1 X45.577213 Y31.025553 F100.000000
G1 X45.434095 Y31.084835 F100.000000
G1 X44.080275 F100.000000
G1 X43.937157 Y31.025553 F100.000000
G1 X43.877875 Y30.882435 F100.000000
G1 X43.937157 Y30.739317 F100.000000
G1 X44.080275 Y30.680035 F100.000000
G1 X45.011917 F100.000000
G1 X45.142489 Y30.631929 F100.000000
G1 X45.187916 Y30.597262 F100.000000
G1 X45.231695 Y30.531593 F100.000000
G1 Y30.448095 F100.000000
G1 X45.290977 Y30.304977 F100.000000
G1 X45.434095 Y30.245695 F100.000000
G1 X45.577213 Y30.304977 F100.000000
G1 X45.636495 Y30.448095 F100.000000
G0 Z2.000000
G0 X44.080275 Y30.142495
G1 Z-0.040000 F60.000000
G1 X43.937157 Y30.083213 F100.000000
G1 X43.877875 Y29.940095 F100.000000
G1 X43.937157 Y29.796977 F100.000000
G1 X44.080275 Y29.737695 F100.000000
G1 X45.434095 F100.000000
G1 X45.577213 Y29.796977 F100.000000
G1 X45.636495 Y29.940095 F100.000000
G1 X45.577213 Y30.083213 F100.000000
G1 X45.434095 Y30.142495 F100.000000
G1 X44.080275 F100.000000
G0 Z2.000000
G0 X45.983767 Y29.666189
G1 Z-0.040000 F60.000000
G1 X46.012010 Y29.673301 F100.000000
G1 X46.040161 Y29.665837 F100.000000
G1 X46.084389 Y29.691527 F100.000000
G1 X46.133988 Y29.704017 F100.000000
G1 X46.233048 Y29.777677 F100.000000
G1 X46.241026 Y29.791025 F100.000000
G1 X46.255393 Y29.796977 F100.000000
G1 X46.262006 Y29.812942 F100.000000
G1 X46.276689 Y29.822054 F100.000000
G1 X46.287712 Y29.869138 F100.000000
G1 X46.312521 Y29.910647 F100.000000
G1 X46.308724 Y29.925727 F100.000000
G1 X46.314675 Y29.940095 F100.000000
G1 X46.308062 Y29.956060 F100.000000
G1 X46.312001 Y29.972886 F100.000000
G1 X46.286502 Y30.013974 F100.000000
G1 X46.274693 Y30.060868 F100.000000
G1 X46.261345 Y30.068846 F100.000000
G1 X46.255393 Y30.083213 F100.000000
G1 X46.239428 Y30.089826 F100.000000
G1 X46.230316 Y30.104509 F100.000000
G1 X46.131256 Y30.175629 F100.000000
G1 X46.084578 Y30.186557 F100.000000
G1 X46.043536 Y30.211331 F100.000000
G1 X46.012027 Y30.203543 F100.000000
G1 X45.980424 Y30.210941 F100.000000
G1 X45.939691 Y30.185662 F100.000000
G1 X45.893152 Y30.174158 F100.000000
G1 X45.796632 Y30.103038 F100.000000
G1 X45.788362 Y30.089338 F100.000000
G1 X45.773577 Y30.083213 F100.000000
G1 X45.768122 Y30.070045 F100.000000
G1 X45.755797 Y30.062886 F100.000000
G1 X45.742795 Y30.013848 F100.000000
G1 X45.716579 Y29.970416 F100.000000
G1 X45.720419 Y29.954880 F100.000000
G1 X45.714295 Y29.940095 F100.000000
G1 X45.719750 Y29.926926 F100.000000
G1 X45.716097 Y29.913149 F100.000000
G1 X45.741578 Y29.869281 F100.000000
G1 X45.753752 Y29.820032 F100.000000
G1 X45.767452 Y29.811762 F100.000000
G1 X45.773577 Y29.796977 F100.000000
G1 X45.786745 Y29.791522 F100.000000
G1 X45.793904 Y29.779197 F100.000000
G1 X45.890424 Y29.705537 F100.000000
G1 X45.939864 Y29.692429 F100.000000
G1 X45.983767 Y29.666189 F100.000000
G0 Z2.000000
G0 X44.080275 Y28.358475
G1 Z-0.040000 F60.000000
G1 X45.144535 F100.000000
G1 X45.179193 Y28.372831 F100.000000
G1 X45.216692 Y28.371774 F100.000000
G1 X45.409732 Y28.445434 F100.000000
G1 X45.454639 Y28.487880 F100.000000
G1 X45.505982 Y28.522264 F100.000000
G1 X45.602502 Y28.667044 F100.000000
G1 X45.613940 Y28.724862 F100.000000
G1 X45.636495 Y28.779315 F100.000000
G1 Y28.995215 F100.000000
G1 X45.614229 Y29.048970 F100.000000
G1 X45.603395 Y29.106136 F100.000000
G1 X45.596388 Y29.116829 F100.000000
G1 X45.636495 Y29.213655 F100.000000
G1 X45.577213 Y29.356773 F100.000000
G1 X45.434095 Y29.416055 F100.000000
G1 X44.080275 F100.000000
G1 X43.937157 Y29.356773 F100.000000
G1 X43.877875 Y29.213655 F100.000000
G1 X43.937157 Y29.070537 F100.000000
G1 X44.080275 Y29.011255 F100.000000
G1 X45.174540 F100.000000
G1 X45.188217 Y29.001177 F100.000000
G1 X45.231695 Y28.934816 F100.000000
G1 Y28.840597 F100.000000
G1 X45.205024 Y28.800591 F100.000000
G1 X45.107231 Y28.763275 F100.000000
G1 X44.080275 F100.000000
G1 X43.937157 Y28.703993 F100.000000
G1 X43.877875 Y28.560875 F100.000000
G1 X43.937157 Y28.417757 F100.000000
G1 X44.080275 Y28.358475 F100.000000
G0 Z2.000000
G0 X44.282675 Y27.471215
G1 Z-0.040000 F60.000000
G1 Y27.557253 F100.000000
G1 X44.308631 Y27.596187 F100.000000
G1 X44.405933 Y27.632035 F100.000000
G1 X45.231695 F100.000000
G1 Y27.471215 F100.000000
G1 X45.290977 Y27.328097 F100.000000
G1 X45.434095 Y27.268815 F100.000000
G1 X45.577213 Y27.328097 F100.000000
G1 X45.636495 Y27.471215 F100.000000
G1 Y27.632035 F100.000000
G1 X46.112275 F100.000000
G1 X46.255393 Y27.691317 F100.000000
G1 X46.314675 Y27.834435 F100.000000
G1 X46.255393 Y27.977553 F100.000000
G1 X46.112275 Y28.036835 F100.000000
G1 X45.636495 F100.000000
G1 Y28.052875 F100.000000
G1 X45.577213 Y28.195993 F100.000000
G1 X45.434095 Y28.255275 F100.000000
G1 X45.290977 Y28.195993 F100.000000
G1 X45.231695 Y28.052875 F100.000000
G1 Y28.036835 F100.000000
G1 X44.369835 F100.000000
G1 X44.336220 Y28.022911 F100.000000
G1 X44.299864 Y28.024356 F100.000000
G1 X44.106824 Y27.953236 F100.000000
G1 X44.060633 Y27.910574 F100.000000
G1 X44.008388 Y27.875586 F100.000000
G1 X43.911868 Y27.730806 F100.000000
G1 X43.900430 Y27.672988 F100.000000
G1 X43.877875 Y27.618535 F100.000000
G1 Y27.471215 F100.000000
G1 X43.937157 Y27.328097 F100.000000
G1 X44.080275 Y27.268815 F100.000000
G1 X44.223393 Y27.328097 F100.000000
G1 X44.282675 Y27.471215 F100.000000
G0 Z2.000000
G0 X45.506875 Y26.344294
G1 Z-0.040000 F60.000000
G1 X45.603395 Y26.491614 F100.000000
G1 X45.614229 Y26.548780 F100.000000
G1 X45.636495 Y26.602535 F100.000000
G1 Y26.818435 F100.000000
G1 X45.613940 Y26.872888 F100.000000
G1 X45.602502 Y26.930706 F100.000000
G1 X45.505982 Y27.075486 F100.000000
G1 X45.454639 Y27.109870 F100.000000
G1 X45.409732 Y27.152316 F100.000000
G1 X45.216692 Y27.225976 F100.000000
G1 X45.179193 Y27.224919 F100.000000
G1 X45.144535 Y27.239275 F100.000000
G1 X45.048015 F100.000000
G1 X45.013748 Y27.225081 F100.000000
G1 X44.976678 Y27.226287 F100.000000
G1 X44.781098 Y27.152627 F100.000000
G1 X44.735710 Y27.110097 F100.000000
G1 X44.684028 Y27.075486 F100.000000
G1 X44.587508 Y26.930706 F100.000000
G1 X44.576070 Y26.872888 F100.000000
G1 X44.553515 Y26.818435 F100.000000
G1 Y26.662934 F100.000000
G1 X44.526718 Y26.622033 F100.000000
G1 X44.430257 Y26.586495 F100.000000
G1 X44.405933 F100.000000
G1 X44.309472 Y26.622033 F100.000000
G1 X44.282675 Y26.662934 F100.000000
G1 Y26.830813 F100.000000
G1 X44.345202 Y26.924604 F100.000000
G1 X44.375265 Y27.076569 F100.000000
G1 X44.289066 Y27.205282 F100.000000
G1 X44.137101 Y27.235345 F100.000000
G1 X44.008388 Y27.149146 F100.000000
G1 X43.911868 Y27.004366 F100.000000
G1 X43.900430 Y26.946548 F100.000000
G1 X43.877875 Y26.892095 F100.000000
G1 Y26.602535 F100.000000
G1 X43.900141 Y26.548780 F100.000000
G1 X43.910975 Y26.491614 F100.000000
G1 X44.007495 Y26.344294 F100.000000
G1 X44.060080 Y26.308466 F100.000000
G1 X44.106824 Y26.265294 F100.000000
G1 X44.299864 Y26.194174 F100.000000
G1 X44.336220 Y26.195619 F100.000000
G1 X44.369835 Y26.181695 F100.000000
G1 X44.466355 F100.000000
G1 X44.499970 Y26.195619 F100.000000
G1 X44.536326 Y26.194174 F100.000000
G1 X44.729366 Y26.265294 F100.000000
G1 X44.776110 Y26.308466 F100.000000
G1 X44.828695 Y26.344294 F100.000000
G1 X44.925215 Y26.491614 F100.000000
G1 X44.936049 Y26.548780 F100.000000
G1 X44.958315 Y26.602535 F100.000000
G1 Y26.757153 F100.000000
G1 X44.984717 Y26.796757 F100.000000
G1 X45.084866 Y26.834475 F100.000000
G1 X45.107231 F100.000000
G1 X45.205024 Y26.797159 F100.000000
G1 X45.231695 Y26.757153 F100.000000
G1 Y26.662934 F100.000000
G1 X45.168275 Y26.566136 F100.000000
G1 X45.139429 Y26.413935 F100.000000
G1 X45.226654 Y26.285915 F100.000000
G1 X45.378855 Y26.257069 F100.000000
G1 X45.506875 Y26.344294 F100.000000
G0 Z2.000000
G0 X45.636495 Y25.512875
G1 Z-0.040000 F60.000000
G1 X45.629851 Y25.528915 F100.000000
G1 X46.112275 F100.000000
G1 X46.255393 Y25.588197 F100.000000
G1 X46.314675 Y25.731315 F100.000000
G1 X46.255393 Y25.874433 F100.000000
G1 X46.112275 Y25.933715 F100.000000
G1 X44.080275 F100.000000
G1 X43.937157 Y25.874433 F100.000000
G1 X43.877875 Y25.731315 F100.000000
G1 X43.937157 Y25.588197 F100.000000
G1 X44.080275 Y25.528915 F100.000000
G1 X45.172646 F100.000000
G1 X45.187916 Y25.517262 F100.000000
G1 X45.231695 Y25.451593 F100.000000
G1 Y25.355717 F100.000000
G1 X45.205739 Y25.316783 F100.000000
G1 X45.108437 Y25.280935 F100.000000
G1 X44.080275 F100.000000
G1 X43.937157 Y25.221653 F100.000000
G1 X43.877875 Y25.078535 F100.000000
G1 X43.937157 Y24.935417 F100.000000
G1 X44.080275 Y24.876135 F100.000000
G1 X45.144535 F100.000000
G1 X45.178150 Y24.890059 F100.000000
G1 X45.214506 Y24.888614 F100.000000
G1 X45.407546 Y24.959734 F100.000000
G1 X45.453737 Y25.002396 F100.000000
G1 X45.505982 Y25.037384 F100.000000
G1 X45.602502 Y25.182164 F100.000000
G1 X45.613940 Y25.239982 F100.000000
G1 X45.636495 Y25.294435 F100.000000
G1 Y25.512875 F100.000000
G0 Z2.000000
G0 X44.080275 Y24.554495
G1 Z-0.040000 F60.000000
G1 X43.937157 Y24.495213 F100.000000
G1 X43.877875 Y24.352095 F100.000000
G1 X43.937157 Y24.208977 F100.000000
G1 X44.080275 Y24.149695 F100.000000
G1 X45.434095 F100.000000
G1 X45.577213 Y24.208977 F100.000000
G1 X45.636495 Y24.352095 F100.000000
G1 X45.577213 Y24.495213 F100.000000
G1 X45.434095 Y24.554495 F100.000000
G1 X44.080275 F100.000000
G0 Z2.000000
G0 X45.983767 Y24.078189
G1 Z-0.040000 F60.000000
G1 X46.012010 Y24.085301 F100.000000
G1 X46.040161 Y24.077837 F100.000000
G1 X46.084389 Y24.103527 F100.000000
G1 X46.133988 Y24.116017 F100.000000
G1 X46.233048 Y24.189677 F100.000000
G1 X46.241026 Y24.203025 F100.000000
G1 X46.255393 Y24.208977 F100.000000
G1 X46.262006 Y24.224942 F100.000000
G1 X46.276689 Y24.234054 F100.000000
G1 X46.287712 Y24.281138 F100.000000
G1 X46.312521 Y24.322647 F100.000000
G1 X46.308724 Y24.337727 F100.000000
G1 X46.314675 Y24.352095 F100.000000
G1 X46.308062 Y24.368060 F100.000000
G1 X46.312001 Y24.384886 F100.000000
G1 X46.286502 Y24.425974 F100.000000
G1 X46.274693 Y24.472868 F100.000000
G1 X46.261345 Y24.480846 F100.000000
G1 X46.255393 Y24.495213 F100.000000
G1 X46.239428 Y24.501826 F100.000000
G1 X46.230316 Y24.516509 F100.000000
G1 X46.131256 Y24.587629 F100.000000
G1 X46.084578 Y24.598557 F100.000000
G1 X46.043536 Y24.623331 F100.000000
G1 X46.012027 Y24.615543 F100.000000
G1 X45.980424 Y24.622941 F100.000000
G1 X45.939691 Y24.597662 F100.000000
G1 X45.893152 Y24.586158 F100.000000
G1 X45.796632 Y24.515038 F100.000000
G1 X45.788362 Y24.501338 F100.000000
G1 X45.773577 Y24.495213 F100.000000
G1 X45.768122 Y24.482045 F100.000000
G1 X45.755797 Y24.474886 F100.000000
G1 X45.742795 Y24.425848 F100.000000
G1 X45.716579 Y24.382416 F100.000000
G1 X45.720419 Y24.366880 F100.000000
G1 X45.714295 Y24.352095 F100.000000
G1 X45.719750 Y24.338926 F100.000000
G1 X45.716097 Y24.325149 F100.000000
G1 X45.741578 Y24.281281 F100.000000
G1 X45.753752 Y24.232032 F100.000000
G1 X45.767452 Y24.223762 F100.000000
G1 X45.773577 Y24.208977 F100.000000
G1 X45.786745 Y24.203522 F100.000000
G1 X45.793904 Y24.191197 F100.000000
G1 X45.890424 Y24.117537 F100.000000
G1 X45.939864 Y24.104429 F100.000000
G1 X45.983767 Y24.078189 F100.000000
G0 Z2.000000
G0 X44.830914 Y22.819369
G1 Z-0.040000 F60.000000
G1 X44.847393 Y22.797801 F100.000000
G1 X44.899958 Y22.790770 F100.000000
G1 X44.948955 Y22.770475 F100.000000
G1 X45.144535 F100.000000
G1 X45.179193 Y22.784831 F100.000000
G1 X45.216692 Y22.783774 F100.000000
G1 X45.409732 Y22.857434 F100.000000
G1 X45.454639 Y22.899880 F100.000000
G1 X45.505982 Y22.934264 F100.000000
G1 X45.602502 Y23.079044 F100.000000
G1 X45.613940 Y23.136862 F100.000000
G1 X45.636495 Y23.191315 F100.000000
G1 Y23.480875 F100.000000
G1 X45.613940 Y23.535328 F100.000000
G1 X45.602502 Y23.593146 F100.000000
G1 X45.505982 Y23.737926 F100.000000
G1 X45.454639 Y23.772310 F100.000000
G1 X45.409732 Y23.814756 F100.000000
G1 X45.216692 Y23.888416 F100.000000
G1 X45.179193 Y23.887359 F100.000000
G1 X45.144535 Y23.901715 F100.000000
G1 X44.369835 F100.000000
G1 X44.335177 Y23.887359 F100.000000
G1 X44.297678 Y23.888416 F100.000000
G1 X44.104638 Y23.814756 F100.000000
G1 X44.059731 Y23.772310 F100.000000
G1 X44.008388 Y23.737926 F100.000000
G1 X43.911868 Y23.593146 F100.000000
G1 X43.900430 Y23.535328 F100.000000
G1 X43.877875 Y23.480875 F100.000000
G1 Y23.191315 F100.000000
G1 X43.900430 Y23.136862 F100.000000
G1 X43.911868 Y23.079044 F100.000000
G1 X44.008388 Y22.934264 F100.000000
G1 X44.137101 Y22.848065 F100.000000
G1 X44.289066 Y22.878128 F100.000000
G1 X44.375265 Y23.006841 F100.000000
G1 X44.345202 Y23.158806 F100.000000
G1 X44.282675 Y23.252597 F100.000000
G1 Y23.419593 F100.000000
G1 X44.309346 Y23.459599 F100.000000
G1 X44.407139 Y23.496915 F100.000000
G1 X44.600275 Y23.496915 F100.000000
G1 X44.753344 Y22.920894 F100.000000
G1 X44.785541 Y22.878753 F100.000000
G1 X44.805837 Y22.829757 F100.000000
G1 X44.830914 Y22.819369 F100.000000
G0 Z2.000000
G0 X45.019124 Y23.496915
G1 Z-0.040000 F60.000000
G1 X45.107231 F100.000000
G1 X45.205024 Y23.459599 F100.000000
G1 X45.231695 Y23.419593 F100.000000
G1 Y23.252597 F100.000000
G1 X45.205024 Y23.212591 F100.000000
G1 X45.107231 Y23.175275 F100.000000
G1 X45.104595 F100.000000
G1 X45.019124 Y23.496915 F100.000000
G0 Z2.000000
G0 X46.112275 Y22.522495
G1 Z-0.040000 F60.000000
G1 X44.369835 F100.000000
G1 X44.335177 Y22.508139 F100.000000
G1 X44.297678 Y22.509196 F100.000000
G1 X44.104638 Y22.435536 F100.000000
G1 X44.059731 Y22.393090 F100.000000
G1 X44.008388 Y22.358706 F100.000000
G1 X43.911868 Y22.213926 F100.000000
G1 X43.881805 Y22.061961 F100.000000
G1 X43.968004 Y21.933248 F100.000000
G1 X44.119969 Y21.903185 F100.000000
G1 X44.248682 Y21.989384 F100.000000
G1 X44.309346 Y22.080379 F100.000000
G1 X44.407139 Y22.117695 F100.000000
G1 X46.112275 F100.000000
G1 X46.255393 Y22.176977 F100.000000
G1 X46.314675 Y22.320095 F100.000000
G1 X46.255393 Y22.463213 F100.000000
G1 X46.112275 Y22.522495 F100.000000
G0 Z2.000000
G0 X45.636495 Y21.304095
G1 Z-0.040000 F60.000000
G1 X45.613940 Y21.358548 F100.000000
G1 X45.602502 Y21.416366 F100.000000
G1 X45.505982 Y21.561146 F100.000000
G1 X45.477552 Y21.580186 F100.000000
G1 X45.460366 Y21.609773 F100.000000
G1 X45.363846 Y21.683433 F100.000000
G1 X45.333834 Y21.691390 F100.000000
G1 X45.311026 Y21.712456 F100.000000
G1 X45.117986 Y21.783576 F100.000000
G1 X45.081630 Y21.782131 F100.000000
G1 X45.048015 Y21.796055 F100.000000
G1 X44.466355 F100.000000
G1 X44.432740 Y21.782131 F100.000000
G1 X44.396384 Y21.783576 F100.000000
G1 X44.203344 Y21.712456 F100.000000
G1 X44.180536 Y21.691390 F100.000000
G1 X44.150524 Y21.683433 F100.000000
G1 X44.054004 Y21.609773 F100.000000
G1 X44.036818 Y21.580186 F100.000000
G1 X44.008388 Y21.561146 F100.000000
G1 X43.911868 Y21.416366 F100.000000
G1 X43.900430 Y21.358548 F100.000000
G1 X43.877875 Y21.304095 F100.000000
G1 Y21.014535 F100.000000
G1 X43.900141 Y20.960780 F100.000000
