(Generated by ./pygerber2gcode_cui_MOD.py )
( 2013-05-29 17:29:04 )
(Initialize)

(Start form here)
G0 Z2.000000
G0 X15.808457 Y11.908725
G1 Z-0.040000 F60.000000
G1 X15.806600 Y11.908783 F100.000000
G1 X15.809225 Y11.910047 F100.000000
G1 X15.812830 Y11.908311 F100.000000
G1 X15.808457 Y11.908725 F100.000000
G0 Z2.000000
G0 X19.068935 Y8.571557
G1 Z-0.040000 F60.000000
G1 Y9.673175 F100.000000
G1 X19.073644 Y9.676827 F100.000000
G1 X19.133113 Y9.729257 F100.000000
G1 X19.189173 Y9.785317 F100.000000
G1 X19.241603 Y9.844786 F100.000000
G1 X19.290194 Y9.907430 F100.000000
G1 X19.334757 Y9.973002 F100.000000
G1 X19.375114 Y10.041242 F100.000000
G1 X19.411107 Y10.111882 F100.000000
G1 X19.442593 Y10.184642 F100.000000
G1 X19.469448 Y10.259236 F100.000000
G1 X19.491567 Y10.335368 F100.000000
G1 X19.508862 Y10.412740 F100.000000
G1 X19.521264 Y10.491044 F100.000000
G1 X19.528725 Y10.569973 F100.000000
G1 X19.531215 Y10.649215 F100.000000
G1 X19.528725 Y10.728457 F100.000000
G1 X19.521264 Y10.807386 F100.000000
G1 X19.508862 Y10.885690 F100.000000
G1 X19.491567 Y10.963062 F100.000000
G1 X19.469448 Y11.039194 F100.000000
G1 X19.442593 Y11.113788 F100.000000
G1 X19.411107 Y11.186548 F100.000000
G1 X19.375114 Y11.257188 F100.000000
G1 X19.334757 Y11.325428 F100.000000
G1 X19.290194 Y11.391000 F100.000000
G1 X19.241603 Y11.453644 F100.000000
G1 X19.189173 Y11.513113 F100.000000
G1 X19.159243 Y11.543044 F100.000000
G1 X19.217610 Y11.557948 F100.000000
G1 X19.345614 Y11.587164 F100.000000
G1 X19.352012 Y11.592266 F100.000000
G1 X19.359941 Y11.594291 F100.000000
G1 X19.453921 Y11.642551 F100.000000
G1 X19.521877 Y11.699650 F100.000000
G1 X19.547215 Y11.714632 F100.000000
G1 Y9.387215 F100.000000
G1 X20.009495 F100.000000
G1 Y8.571557 F100.000000
G0 Z2.000000
G0 X30.498935 Y21.571215
G1 Z-0.040000 F60.000000
G1 Y38.335215 F100.000000
G1 X30.469080 Y38.466020 F100.000000
G1 X30.454057 Y38.599346 F100.000000
G1 X30.429859 Y38.637858 F100.000000
G1 X30.419738 Y38.682201 F100.000000
G1 X30.415097 Y38.688020 F100.000000
G1 X30.461215 F100.000000
G1 X30.529880 Y38.703692 F100.000000
G1 X30.600312 F100.000000
G1 X30.663768 Y38.734251 F100.000000
G1 X30.712897 Y38.745465 F100.000000
G1 X30.799638 Y38.703692 F100.000000
G1 X31.077832 F100.000000
G1 X31.220626 Y38.772459 F100.000000
G1 X31.265062 Y38.754776 F100.000000
G1 X31.371138 Y38.703692 F100.000000
G1 X31.393434 F100.000000
G1 X31.414149 Y38.695449 F100.000000
G1 X31.531596 Y38.703692 F100.000000
G1 X31.649332 F100.000000
G1 X31.669419 Y38.713366 F100.000000
G1 X31.691660 Y38.714927 F100.000000
G1 X31.779422 Y38.765045 F100.000000
G1 X31.808277 Y38.751008 F100.000000
G1 X31.809519 Y38.750719 F100.000000
G1 X31.810516 Y38.749924 F100.000000
G1 X31.944944 Y38.719242 F100.000000
G1 X32.079247 Y38.688025 F100.000000
G1 X32.080492 Y38.688304 F100.000000
G1 X32.081735 Y38.688020 F100.000000
G1 X32.223975 F100.000000
G1 X32.317054 Y38.709265 F100.000000
G1 X32.412211 Y38.717035 F100.000000
G1 X32.556991 Y38.762755 F100.000000
G1 X32.569115 Y38.769864 F100.000000
G1 X32.583059 Y38.771623 F100.000000
G1 X32.688567 Y38.839897 F100.000000
G1 X32.796979 Y38.903458 F100.000000
G1 X32.804818 Y38.915123 F100.000000
G1 X32.816618 Y38.922758 F100.000000
G1 X32.910598 Y39.019278 F100.000000
G1 X32.960715 Y39.101452 F100.000000
G1 X33.021837 Y39.175804 F100.000000
G1 X33.070097 Y39.272324 F100.000000
G1 X33.086139 Y39.338090 F100.000000
G1 X33.116948 Y39.398367 F100.000000
G1 X33.165208 Y39.588867 F100.000000
G1 X33.167051 Y39.666585 F100.000000
G1 X33.184350 Y39.742375 F100.000000
G1 Y39.884615 F100.000000
G1 X33.167051 Y39.960405 F100.000000
G1 X33.165208 Y40.038123 F100.000000
G1 X33.116948 Y40.228623 F100.000000
G1 X33.084628 Y40.291855 F100.000000
G1 X33.067059 Y40.360661 F100.000000
G1 X33.018799 Y40.454641 F100.000000
G1 X32.996864 Y40.480747 F100.000000
G1 X33.030548 Y40.495323 F100.000000
G1 X33.101188 Y40.531316 F100.000000
G1 X33.169428 Y40.571673 F100.000000
G1 X33.235000 Y40.616236 F100.000000
G1 X33.297644 Y40.664827 F100.000000
G1 X33.357113 Y40.717257 F100.000000
G1 X33.413173 Y40.773317 F100.000000
G1 X33.465603 Y40.832786 F100.000000
G1 X33.469255 Y40.837495 F100.000000
G1 X33.771215 Y40.837495 F100.000000
G1 Y40.375215 F100.000000
G1 X34.995495 F100.000000
G0 Z2.000000
G0 X28.560020 Y40.375080
G1 Z-0.040000 F60.000000
G1 X28.429215 Y40.404935 F100.000000
G1 X27.682646 F100.000000
G1 X27.727062 Y40.414863 F100.000000
G1 X27.803194 Y40.436982 F100.000000
G1 X27.877788 Y40.463837 F100.000000
G1 X27.950548 Y40.495323 F100.000000
G1 X28.021188 Y40.531316 F100.000000
G1 X28.089428 Y40.571673 F100.000000
G1 X28.155000 Y40.616236 F100.000000
G1 X28.217644 Y40.664827 F100.000000
G1 X28.277113 Y40.717257 F100.000000
G1 X28.333173 Y40.773317 F100.000000
G1 X28.385603 Y40.832786 F100.000000
G1 X28.389255 Y40.837495 F100.000000
G1 X28.977175 Y40.837495 F100.000000
G1 X28.980827 Y40.832786 F100.000000
G1 X29.033257 Y40.773317 F100.000000
G1 X29.089317 Y40.717257 F100.000000
G1 X29.148786 Y40.664827 F100.000000
G1 X29.211430 Y40.616236 F100.000000
G1 X29.277002 Y40.571673 F100.000000
G1 X29.345242 Y40.531316 F100.000000
G1 X29.415882 Y40.495323 F100.000000
G1 X29.451429 Y40.479941 F100.000000
G1 X29.430171 Y40.454641 F100.000000
G1 X29.381911 Y40.360661 F100.000000
G1 X29.364342 Y40.291855 F100.000000
G1 X29.332022 Y40.228623 F100.000000
G1 X29.283762 Y40.038123 F100.000000
G1 X29.281919 Y39.960405 F100.000000
G1 X29.267625 Y39.897780 F100.000000
G1 X28.994702 Y40.170702 F100.000000
G1 X28.881098 Y40.242085 F100.000000
G1 X28.776201 Y40.325738 F100.000000
G1 X28.731858 Y40.335859 F100.000000
G1 X28.693346 Y40.360057 F100.000000
G1 X28.560020 Y40.375080 F100.000000
G0 Z2.000000
G0 X34.308935 Y15.515175
G1 Z-0.040000 F60.000000
G1 X34.313644 Y15.518827 F100.000000
G1 X34.373113 Y15.571257 F100.000000
G1 X34.429173 Y15.627317 F100.000000
G1 X34.481603 Y15.686786 F100.000000
G1 X34.530194 Y15.749430 F100.000000
G1 X34.574757 Y15.815002 F100.000000
G1 X34.615114 Y15.883242 F100.000000
G1 X34.650352 Y15.952400 F100.000000
G1 X34.674850 Y15.932864 F100.000000
G1 X34.643717 Y15.883317 F100.000000
G1 X34.581291 Y15.809021 F100.000000
G1 X34.533031 Y15.715041 F100.000000
G1 X34.531006 Y15.707112 F100.000000
G1 X34.525904 Y15.700714 F100.000000
G1 X34.496688 Y15.572710 F100.000000
G0 Z2.000000
G0 Y15.572710
G1 Z-0.040000 F60.000000
G1 X34.464205 Y15.445496 F100.000000
G1 X34.465821 Y15.437474 F100.000000
G1 X34.464000 Y15.429495 F100.000000
G1 Y15.190735 F100.000000
G1 X34.465057 Y15.186102 F100.000000
G1 X34.464069 Y15.181454 F100.000000
G1 X34.495959 Y15.050715 F100.000000
G1 X34.525904 Y14.919516 F100.000000
G1 X34.528867 Y14.915801 F100.000000
G1 X34.529993 Y14.911184 F100.000000
G1 X34.578253 Y14.814664 F100.000000
G1 X34.615241 Y14.769670 F100.000000
G1 X34.610398 Y14.762223 F100.000000
G1 X34.554685 Y14.704743 F100.000000
G1 X34.544018 Y14.672660 F100.000000
G1 X34.530194 Y14.693000 F100.000000
G1 X34.481603 Y14.755644 F100.000000
G1 X34.429173 Y14.815113 F100.000000
G1 X34.373113 Y14.871173 F100.000000
G1 X34.313644 Y14.923603 F100.000000
G1 X34.308935 Y14.927255 F100.000000
G1 Y15.515175 F100.000000
G0 Z2.000000
G0 X44.639557 Y38.043495
G1 Z-0.040000 F60.000000
G1 X45.172888 F100.000000
G1 X45.129134 Y38.022424 F100.000000
G1 X45.057469 Y38.006067 F100.000000
G1 X44.999999 Y37.960236 F100.000000
G1 X44.933770 Y37.928342 F100.000000
G1 X44.887939 Y37.870871 F100.000000
G1 X44.830468 Y37.825040 F100.000000
G1 X44.798574 Y37.758811 F100.000000
G1 X44.752743 Y37.701341 F100.000000
G1 X44.736386 Y37.629676 F100.000000
G1 X44.704492 Y37.563448 F100.000000
G1 Y37.489940 F100.000000
G1 X44.688135 Y37.418275 F100.000000
G1 Y35.386275 F100.000000
G1 X44.752743 Y35.103209 F100.000000
G1 X44.933770 Y34.876208 F100.000000
G1 X45.195362 Y34.750232 F100.000000
G1 X45.485708 F100.000000
G1 X45.747300 Y34.876208 F100.000000
G1 X45.928327 Y35.103209 F100.000000
G1 X45.992935 Y35.386275 F100.000000
G1 Y35.709398 F100.000000
G1 X46.010178 Y35.707926 F100.000000
G1 X46.104418 Y35.743786 F100.000000
G1 X46.202721 Y35.766223 F100.000000
G1 X46.238623 Y35.794854 F100.000000
G1 X46.281541 Y35.811185 F100.000000
G1 X46.415792 Y35.900686 F100.000000
G1 X46.280808 Y35.793040 F100.000000
G1 X46.154832 Y35.531448 F100.000000
G1 Y35.241102 F100.000000
G1 X46.280808 Y34.979510 F100.000000
G1 X46.507809 Y34.798483 F100.000000
G1 X46.790875 Y34.733875 F100.000000
G1 X47.662095 F100.000000
G1 X47.945161 Y34.798483 F100.000000
G1 X48.172162 Y34.979510 F100.000000
G1 X48.298138 Y35.241102 F100.000000
G1 Y35.531448 F100.000000
G1 X48.172162 Y35.793040 F100.000000
G1 X47.945161 Y35.974067 F100.000000
G1 X47.877615 Y35.989484 F100.000000
G1 Y37.418275 F100.000000
G1 X47.846115 Y37.556284 F100.000000
G1 X47.816186 Y37.694643 F100.000000
G1 X47.813852 Y37.697638 F100.000000
G1 X47.813007 Y37.701341 F100.000000
G1 X47.724747 Y37.812016 F100.000000
G1 X47.637750 Y37.923686 F100.000000
G1 X47.634347 Y37.925373 F100.000000
G1 X47.631980 Y37.928342 F100.000000
G1 X47.504440 Y37.989762 F100.000000
G1 X47.396031 Y38.043495 F100.000000
G1 X47.524873 F100.000000
G0 Z2.000000
G0 X46.952503 Y37.992898
G1 Z-0.040000 F60.000000
G1 X46.824273 Y37.932931 F100.000000
G1 X46.821872 Y37.929990 F100.000000
G1 X46.818450 Y37.928342 F100.000000
G1 X46.730190 Y37.817667 F100.000000
G1 X46.640678 Y37.708002 F100.000000
G1 X46.620097 Y37.666479 F100.000000
G1 X46.583061 Y37.715009 F100.000000
G1 X46.503309 Y37.781441 F100.000000
G1 X46.432835 Y37.857645 F100.000000
G1 X46.288055 Y37.956705 F100.000000
G1 X46.241689 Y37.974991 F100.000000
G1 X46.202721 Y38.006067 F100.000000
G1 X46.108173 Y38.027647 F100.000000
G1 X46.067988 Y38.043495 F100.000000
G1 X47.057568 F100.000000
G1 X46.952503 Y37.992898 F100.000000
G0 Z2.000000
G0 X46.572815 Y35.988904
G1 Z-0.040000 F60.000000
G1 X46.507809 Y35.974067 F100.000000
G1 X46.431659 Y35.913339 F100.000000
G1 X46.500353 Y35.985848 F100.000000
G1 X46.572815 Y36.046206 F100.000000
G1 Y35.988904 F100.000000
G0 Z2.000000
G0 X49.368668 Y7.234787
G1 Z-0.040000 F60.000000
G1 X49.297855 Y7.250950 F100.000000
G1 X48.822875 F100.000000
G1 X48.754210 Y7.235278 F100.000000
G1 X48.683778 F100.000000
G1 X48.620322 Y7.204719 F100.000000
G1 X48.551656 Y7.189046 F100.000000
G1 X48.547277 Y7.185554 F100.000000
G1 X48.452216 Y7.217807 F100.000000
G1 X48.350786 Y7.228260 F100.000000
G1 X48.251375 Y7.250950 F100.000000
G1 X48.012615 F100.000000
G1 X48.007982 Y7.249893 F100.000000
G1 X48.003334 Y7.250881 F100.000000
G1 X47.872595 Y7.218991 F100.000000
G1 X47.741396 Y7.189046 F100.000000
G1 X47.737681 Y7.186083 F100.000000
G1 X47.733064 Y7.184957 F100.000000
G1 X47.723474 Y7.180162 F100.000000
G1 X47.712334 Y7.189046 F100.000000
G1 X47.441115 Y7.250950 F100.000000
G1 X46.963595 F100.000000
G1 X46.894930 Y7.235278 F100.000000
G1 X46.824498 F100.000000
G1 X46.761042 Y7.204719 F100.000000
G1 X46.692376 Y7.189046 F100.000000
G1 X46.662638 Y7.165331 F100.000000
G1 X46.623386 Y7.184957 F100.000000
G1 X46.618769 Y7.186083 F100.000000
G1 X46.615054 Y7.189046 F100.000000
G1 X46.483855 Y7.218991 F100.000000
G1 X46.366115 Y7.247711 F100.000000
G0 Z2.000000
G0 X45.388264 Y6.847215
G1 Z-0.040000 F60.000000
G1 X45.383971 Y6.828408 F100.000000
G1 X45.353412 Y6.764952 F100.000000
G1 Y6.694520 F100.000000
G1 X45.337740 Y6.625855 F100.000000
G1 Y5.625095 F100.000000
G1 X45.399644 Y5.353876 F100.000000
G1 X45.573095 Y5.136376 F100.000000
G1 X45.823738 Y5.015672 F100.000000
G1 X46.101932 F100.000000
G1 X46.233142 Y5.078860 F100.000000
G1 X46.493971 Y5.001305 F100.000000
G1 X46.763978 Y5.044818 F100.000000
G1 X46.824498 Y5.015672 F100.000000
G1 X46.894930 F100.000000
G1 X46.963595 Y5.000000 F100.000000
G1 X47.441115 F100.000000
G1 X47.692254 Y5.057321 F100.000000
G1 X47.763514 Y5.033143 F100.000000
G1 X47.864944 Y5.022690 F100.000000
G1 X47.964355 Y5.000000 F100.000000
G1 X48.203115 F100.000000
G1 X48.211094 Y5.001821 F100.000000
G1 X48.219116 Y5.000205 F100.000000
G1 X48.346330 Y5.032688 F100.000000
G1 X48.474334 Y5.061904 F100.000000
G1 X48.480732 Y5.067006 F100.000000
G1 X48.488661 Y5.069031 F100.000000
G1 X48.521545 Y5.085917 F100.000000
G1 X48.551656 Y5.061904 F100.000000
G1 X48.620322 Y5.046231 F100.000000
G1 X48.683778 Y5.015672 F100.000000
G1 X48.754210 F100.000000
G1 X48.822875 Y5.000000 F100.000000
G1 X49.297855 F100.000000
G1 X49.569074 Y5.061904 F100.000000
G1 X49.594572 Y5.082239 F100.000000
G1 X49.732798 Y5.015672 F100.000000
G1 X50.010992 F100.000000
G1 X50.261635 Y5.136376 F100.000000
G1 X50.435086 Y5.353876 F100.000000
G1 X50.496990 Y5.625095 F100.000000
G1 Y6.118006 F100.000000
G1 X50.645094 Y6.236115 F100.000000
G1 X50.765798 Y6.486758 F100.000000
G1 Y6.764952 F100.000000
G1 X50.726182 Y6.847215 F100.000000
G0 Z2.000000
G0 X29.189492 Y14.675495
G1 Z-0.040000 F60.000000
G1 X29.936339 Y14.675495 F100.000000
G1 X29.903673 Y14.627428 F100.000000
G1 X29.863316 Y14.559188 F100.000000
G1 X29.827323 Y14.488548 F100.000000
G1 X29.795837 Y14.415788 F100.000000
G1 X29.778379 Y14.367296 F100.000000
G1 X29.700671 Y14.416123 F100.000000
G1 X29.623166 Y14.479837 F100.000000
G1 X29.526646 Y14.528097 F100.000000
G1 X29.460880 Y14.544139 F100.000000
G1 X29.400603 Y14.574948 F100.000000
G1 X29.210103 Y14.623208 F100.000000
G1 X29.155174 Y14.624511 F100.000000
G1 X29.187276 Y14.671748 F100.000000
G1 X29.189492 Y14.675495 F100.000000
G0 Z2.000000
G0 X30.169495 Y12.975175
G1 Z-0.040000 F60.000000
G1 Y12.673215 F100.000000
G1 X30.029117 Y12.673215 F100.000000
G1 X30.026511 Y12.678626 F100.000000
G1 X30.044194 Y12.723062 F100.000000
G1 X30.095278 Y12.829138 F100.000000
G1 Y12.851434 F100.000000
G1 X30.103521 Y12.872149 F100.000000
G1 X30.095278 Y12.989596 F100.000000
G1 Y13.041296 F100.000000
G1 X30.105317 Y13.031257 F100.000000
G1 X30.164786 Y12.978827 F100.000000
G1 X30.169495 Y12.975175 F100.000000
G0 Z2.000000
G0 X26.688935 Y8.571557
G1 Z-0.040000 F60.000000
G1 Y14.622040 F100.000000
G1 X26.708102 Y14.593837 F100.000000
G1 X26.765838 Y14.519404 F100.000000
G1 X26.828134 Y14.448743 F100.000000
G1 X26.894743 Y14.382134 F100.000000
G1 X26.965404 Y14.319838 F100.000000
G1 X27.039837 Y14.262102 F100.000000
G1 X27.117748 Y14.209154 F100.000000
G1 X27.198830 Y14.161202 F100.000000
G1 X27.282763 Y14.118436 F100.000000
G1 X27.369216 Y14.081024 F100.000000
G1 X27.457847 Y14.049115 F100.000000
G1 X27.548307 Y14.022834 F100.000000
G1 X27.640239 Y14.002285 F100.000000
G1 X27.733279 Y13.987549 F100.000000
G1 X27.827061 Y13.978684 F100.000000
G1 X27.921215 Y13.975725 F100.000000
G1 X27.924134 Y13.975817 F100.000000
G1 X27.892078 Y13.879647 F100.000000
G1 X27.882326 Y13.779791 F100.000000
G1 X27.860000 Y13.681975 F100.000000
G1 Y13.587995 F100.000000
G1 X27.882690 Y13.488584 F100.000000
G1 X27.893143 Y13.387154 F100.000000
G1 X27.941403 Y13.244914 F100.000000
G1 X27.941698 Y13.244435 F100.000000
G1 X27.875672 Y13.107332 F100.000000
G1 Y12.829138 F100.000000
G1 X27.944439 Y12.686344 F100.000000
G1 X27.926756 Y12.641908 F100.000000
G1 X27.875672 Y12.535832 F100.000000
G1 Y12.513536 F100.000000
G1 X27.867429 Y12.492821 F100.000000
G1 X27.875672 Y12.375374 F100.000000
G1 Y12.257638 F100.000000
G1 X27.885346 Y12.237551 F100.000000
G1 X27.886907 Y12.215310 F100.000000
G1 X27.915967 Y12.164423 F100.000000
G1 X27.906231 Y12.121768 F100.000000
G1 X27.875672 Y12.058312 F100.000000
G1 Y11.987880 F100.000000
G1 X27.860000 Y11.919215 F100.000000
G1 Y11.680455 F100.000000
G1 X27.882690 Y11.581044 F100.000000
G1 X27.893143 Y11.479614 F100.000000
G1 X27.941403 Y11.337374 F100.000000
G1 X27.945229 Y11.331155 F100.000000
G1 X27.946143 Y11.323911 F100.000000
G1 X28.017931 Y11.212974 F100.000000
G1 X28.087167 Y11.100426 F100.000000
G1 X28.093312 Y11.096482 F100.000000
G1 X28.097278 Y11.090352 F100.000000
G1 X28.193798 Y10.996372 F100.000000
G1 X28.273159 Y10.947970 F100.000000
G1 X28.344329 Y10.888171 F100.000000
G1 X28.438309 Y10.839911 F100.000000
G1 X28.507115 Y10.822342 F100.000000
G1 X28.570347 Y10.790022 F100.000000
G1 X28.760847 Y10.741762 F100.000000
G1 X28.838565 Y10.739919 F100.000000
G1 X28.914355 Y10.722620 F100.000000
G1 X29.056595 F100.000000
G1 X29.132385 Y10.739919 F100.000000
G1 X29.210103 Y10.741762 F100.000000
G1 X29.400603 Y10.790022 F100.000000
G1 X29.460880 Y10.820831 F100.000000
G1 X29.526646 Y10.836873 F100.000000
G1 X29.623166 Y10.885133 F100.000000
G1 X29.700671 Y10.948847 F100.000000
G1 X29.707215 Y10.952959 F100.000000
G1 Y10.149215 F100.000000
G1 X30.169495 F100.000000
G1 Y8.571557 F100.000000
G0 Z2.000000
G0 X7.151467 Y25.767817
G1 Z-0.040000 F60.000000
G1 X7.078896 Y25.838818 F100.000000
G1 X7.015595 Y25.918194 F100.000000
G1 X6.980476 Y25.935106 F100.000000
G1 X6.952614 Y25.962366 F100.000000
G1 X6.913112 Y25.975705 F100.000000
G1 X6.996518 Y26.148898 F100.000000
G1 Y26.427092 F100.000000
G1 X6.875814 Y26.677735 F100.000000
G1 X6.658314 Y26.851186 F100.000000
G1 X6.585830 Y26.867730 F100.000000
G1 X6.569286 Y26.940214 F100.000000
G1 X6.395835 Y27.157714 F100.000000
G1 X6.145192 Y27.278418 F100.000000
G1 X5.866998 F100.000000
G1 X5.616355 Y27.157714 F100.000000
G1 X5.442904 Y26.940214 F100.000000
G1 X5.426360 Y26.867730 F100.000000
G1 X5.353876 Y26.851186 F100.000000
G1 X5.136376 Y26.677735 F100.000000
G1 X5.015672 Y26.427092 F100.000000
G1 Y26.148898 F100.000000
G1 X5.136376 Y25.898255 F100.000000
G1 X5.210850 Y25.838864 F100.000000
G1 X5.179717 Y25.789317 F100.000000
G1 X5.117291 Y25.715021 F100.000000
G1 X5.069031 Y25.621041 F100.000000
G1 X5.067006 Y25.613112 F100.000000
G1 X5.061904 Y25.606714 F100.000000
G1 X5.032688 Y25.478710 F100.000000
G0 Z2.000000
G0 X5.354830 Y23.647228
G1 Z-0.040000 F60.000000
G1 X5.273748 Y23.599276 F100.000000
G1 X5.195837 Y23.546328 F100.000000
G1 X5.121404 Y23.488592 F100.000000
G1 X5.050743 Y23.426296 F100.000000
G1 X4.984134 Y23.359687 F100.000000
G1 X4.921838 Y23.289026 F100.000000
G1 X4.864102 Y23.214593 F100.000000
G1 X4.811154 Y23.136682 F100.000000
G1 X4.763202 Y23.055600 F100.000000
G1 X4.720436 Y22.971667 F100.000000
G1 X4.683024 Y22.885214 F100.000000
G1 X4.651115 Y22.796583 F100.000000
G1 X4.624834 Y22.706123 F100.000000
G1 X4.604285 Y22.614191 F100.000000
G1 X4.589549 Y22.521151 F100.000000
G1 X4.580684 Y22.427369 F100.000000
G1 X4.577725 Y22.333215 F100.000000
G1 X4.580684 Y22.239061 F100.000000
G1 X4.589549 Y22.145279 F100.000000
G1 X4.604285 Y22.052239 F100.000000
G1 X4.624834 Y21.960307 F100.000000
G1 X4.651115 Y21.869847 F100.000000
G1 X4.683024 Y21.781216 F100.000000
G1 X4.720436 Y21.694763 F100.000000
G1 X4.763202 Y21.610830 F100.000000
G1 X4.811154 Y21.529748 F100.000000
G1 X4.864102 Y21.451837 F100.000000
G1 X4.921838 Y21.377404 F100.000000
G1 X4.984134 Y21.306743 F100.000000
G1 X5.050743 Y21.240134 F100.000000
G1 X5.121404 Y21.177838 F100.000000
G1 X5.195837 Y21.120102 F100.000000
G1 X5.273748 Y21.067154 F100.000000
G1 X5.354830 Y21.019202 F100.000000
G1 X5.438763 Y20.976436 F100.000000
G1 X5.525216 Y20.939024 F100.000000
G1 X5.613847 Y20.907115 F100.000000
G1 X5.704307 Y20.880834 F100.000000
G1 X5.796239 Y20.860285 F100.000000
G1 X5.889279 Y20.845549 F100.000000
G1 X5.983061 Y20.836684 F100.000000
G1 X6.077215 Y20.833725 F100.000000
G1 X6.171369 Y20.836684 F100.000000
G1 X6.265151 Y20.845549 F100.000000
G1 X6.358191 Y20.860285 F100.000000
G1 X6.450123 Y20.880834 F100.000000
G1 X6.540583 Y20.907115 F100.000000
G1 X6.629214 Y20.939024 F100.000000
G1 X6.715667 Y20.976436 F100.000000
G1 X6.799600 Y21.019202 F100.000000
G1 X6.880682 Y21.067154 F100.000000
G1 X6.958593 Y21.120102 F100.000000
G1 X7.033026 Y21.177838 F100.000000
G1 X7.103687 Y21.240134 F100.000000
G1 X7.170296 Y21.306743 F100.000000
G1 X7.232592 Y21.377404 F100.000000
G1 X7.290328 Y21.451837 F100.000000
G1 X7.343276 Y21.529748 F100.000000
G1 X7.391228 Y21.610830 F100.000000
G1 X7.433994 Y21.694763 F100.000000
G1 X7.471406 Y21.781216 F100.000000
G1 X7.503315 Y21.869847 F100.000000
G1 X7.529596 Y21.960307 F100.000000
G1 X7.550145 Y22.052239 F100.000000
G1 X7.564881 Y22.145279 F100.000000
G1 X7.573746 Y22.239061 F100.000000
G1 X7.576705 Y22.333215 F100.000000
G1 X7.573746 Y22.427369 F100.000000
G1 X7.564881 Y22.521151 F100.000000
G1 X7.550145 Y22.614191 F100.000000
G1 X7.539005 Y22.664030 F100.000000
G1 X11.648736 Y26.773761 F100.000000
G1 X11.708642 Y26.747837 F100.000000
G1 X11.783236 Y26.720982 F100.000000
G1 X11.859368 Y26.698863 F100.000000
G1 X11.936740 Y26.681568 F100.000000
G1 X12.015044 Y26.669166 F100.000000
G1 X12.093973 Y26.661705 F100.000000
G1 X12.173215 Y26.659215 F100.000000
G1 X12.252457 Y26.661705 F100.000000
G1 X12.331386 Y26.669166 F100.000000
G1 X12.409690 Y26.681568 F100.000000
G1 X12.487062 Y26.698863 F100.000000
G1 X12.563194 Y26.720982 F100.000000
G1 X12.637788 Y26.747837 F100.000000
G1 X12.710548 Y26.779323 F100.000000
G1 X12.781188 Y26.815316 F100.000000
G1 X12.849428 Y26.855673 F100.000000
G1 X12.915000 Y26.900236 F100.000000
G1 X12.977644 Y26.948827 F100.000000
G1 X13.037113 Y27.001257 F100.000000
G1 X13.093173 Y27.057317 F100.000000
G1 X13.145603 Y27.116786 F100.000000
G1 X13.194194 Y27.179430 F100.000000
G1 X13.238757 Y27.245002 F100.000000
G1 X13.279114 Y27.313242 F100.000000
G1 X13.315107 Y27.383882 F100.000000
G1 X13.346593 Y27.456642 F100.000000
G1 X13.373448 Y27.531236 F100.000000
G1 X13.395567 Y27.607368 F100.000000
G1 X13.412862 Y27.684740 F100.000000
G1 X13.425264 Y27.763044 F100.000000
G1 X13.432725 Y27.841973 F100.000000
G1 X13.435215 Y27.921215 F100.000000
G1 X13.432725 Y28.000457 F100.000000
G1 X13.425264 Y28.079386 F100.000000
G1 X13.412862 Y28.157690 F100.000000
G1 X13.395567 Y28.235062 F100.000000
G1 X13.373448 Y28.311194 F100.000000
G1 X13.346593 Y28.385788 F100.000000
G1 X13.315107 Y28.458548 F100.000000
G1 X13.279114 Y28.529188 F100.000000
G1 X13.238757 Y28.597428 F100.000000
G1 X13.194194 Y28.663000 F100.000000
G1 X13.145603 Y28.725644 F100.000000
G1 X13.093173 Y28.785113 F100.000000
G1 X13.037113 Y28.841173 F100.000000
G1 X12.977644 Y28.893603 F100.000000
G1 X12.915000 Y28.942194 F100.000000
G1 X12.849428 Y28.986757 F100.000000
G1 X12.781188 Y29.027114 F100.000000
G1 X12.710548 Y29.063107 F100.000000
G1 X12.637788 Y29.094593 F100.000000
G1 X12.563194 Y29.121448 F100.000000
G1 X12.487062 Y29.143567 F100.000000
G1 X12.409690 Y29.160862 F100.000000
G1 X12.331386 Y29.173264 F100.000000
G1 X12.252457 Y29.180725 F100.000000
G1 X12.173215 Y29.183215 F100.000000
G1 X12.093973 Y29.180725 F100.000000
G1 X12.015044 Y29.173264 F100.000000
G1 X11.936740 Y29.160862 F100.000000
G1 X11.859368 Y29.143567 F100.000000
G1 X11.783236 Y29.121448 F100.000000
G1 X11.708642 Y29.094593 F100.000000
G1 X11.635882 Y29.063107 F100.000000
G1 X11.565242 Y29.027114 F100.000000
G1 X11.497002 Y28.986757 F100.000000
G1 X11.431430 Y28.942194 F100.000000
G1 X11.368786 Y28.893603 F100.000000
G1 X11.309317 Y28.841173 F100.000000
G1 X11.253257 Y28.785113 F100.000000
G1 X11.200827 Y28.725644 F100.000000
G1 X11.152236 Y28.663000 F100.000000
G1 X11.107673 Y28.597428 F100.000000
G1 X11.067316 Y28.529188 F100.000000
G1 X11.031323 Y28.458548 F100.000000
G1 X11.000618 Y28.387593 F100.000000
G1 X7.241476 Y24.628451 F100.000000
G1 X7.248036 Y24.679499 F100.000000
G1 X7.212547 Y24.786239 F100.000000
G1 X7.250950 Y24.954495 F100.000000
G1 Y25.429475 F100.000000
G1 X7.242276 Y25.467477 F100.000000
G1 X7.246216 Y25.506256 F100.000000
G1 X7.211638 Y25.601713 F100.000000
G1 X7.189046 Y25.700694 F100.000000
G1 X7.164743 Y25.731169 F100.000000
G1 X7.151467 Y25.767817 F100.000000
G0 Z2.000000
G0 X5.032688 Y25.478710
G1 Z-0.040000 F60.000000
G1 X5.000205 Y25.351496 F100.000000
G1 X5.001821 Y25.343474 F100.000000
G1 X5.000000 Y25.335495 F100.000000
G1 Y25.096735 F100.000000
G1 X5.001057 Y25.092102 F100.000000
G1 X5.000069 Y25.087454 F100.000000
G1 X5.031959 Y24.956715 F100.000000
G1 X5.061904 Y24.825516 F100.000000
G1 X5.064867 Y24.821801 F100.000000
G1 X5.065993 Y24.817184 F100.000000
G1 X5.114253 Y24.720664 F100.000000
G1 X5.151241 Y24.675670 F100.000000
G1 X5.146398 Y24.668223 F100.000000
G1 X5.090685 Y24.610743 F100.000000
G1 X5.071509 Y24.553068 F100.000000
G1 X5.038373 Y24.502116 F100.000000
G1 X5.028170 Y24.422719 F100.000000
G1 X5.002914 Y24.346759 F100.000000
G1 X5.010661 Y24.286475 F100.000000
G1 X5.002914 Y24.226191 F100.000000
G1 X5.028170 Y24.150231 F100.000000
G1 X5.038373 Y24.070834 F100.000000
G1 X5.071509 Y24.019882 F100.000000
G1 X5.090685 Y23.962207 F100.000000
G1 X5.146398 Y23.904727 F100.000000
G1 X5.190040 Y23.837620 F100.000000
G1 X5.242002 Y23.806091 F100.000000
G1 X5.284303 Y23.762448 F100.000000
G1 X5.359438 Y23.734833 F100.000000
G1 X5.427874 Y23.693307 F100.000000
G1 X5.438398 Y23.689808 F100.000000
G1 X5.354830 Y23.647228 F100.000000
G0 Z2.000000
G0 X54.805618 Y44.474198
G1 Z-0.040000 F60.000000
G1 Y44.540828 F100.000000
G1 X54.779070 Y44.595955 F100.000000
G1 X54.767741 Y44.656083 F100.000000
G1 X54.756008 Y44.672007 F100.000000
G1 X54.751196 Y44.691193 F100.000000
G1 X54.708552 Y44.742388 F100.000000
G1 X54.679987 Y44.801704 F100.000000
G1 X54.715282 Y44.835683 F100.000000
G1 X54.811802 Y44.983003 F100.000000
G1 X54.826882 Y45.023606 F100.000000
G1 X54.853887 Y45.057469 F100.000000
G1 X54.876893 Y45.158264 F100.000000
G1 X54.912888 Y45.255183 F100.000000
G1 X54.908857 Y45.298308 F100.000000
G1 X54.918495 Y45.340535 F100.000000
G1 Y45.630095 F100.000000
G1 X54.908277 Y45.674864 F100.000000
G1 X54.912184 Y45.720618 F100.000000
G1 X54.902138 Y45.747020 F100.000000
G1 Y45.920048 F100.000000
G1 X54.866671 Y45.993695 F100.000000
G1 X54.944275 F100.000000
G1 X55.227341 Y46.058303 F100.000000
G1 X55.454342 Y46.239330 F100.000000
G1 X55.580318 Y46.500922 F100.000000
G1 Y46.791268 F100.000000
G1 X55.454342 Y47.052860 F100.000000
G1 X55.418171 Y47.081705 F100.000000
G1 X55.454342 Y47.110550 F100.000000
G1 X55.580318 Y47.372142 F100.000000
G1 Y47.662488 F100.000000
G1 X55.454342 Y47.924080 F100.000000
G1 X55.227341 Y48.105107 F100.000000
G1 X54.944275 Y48.169715 F100.000000
G1 X54.848405 Y48.169715 F100.000000
G1 X54.853887 Y48.176589 F100.000000
G1 X54.869304 Y48.244135 F100.000000
G1 X54.944275 F100.000000
G1 X55.227341 Y48.308743 F100.000000
G1 X55.454342 Y48.489770 F100.000000
G1 X55.580318 Y48.751362 F100.000000
G1 Y49.041708 F100.000000
G1 X55.454342 Y49.303300 F100.000000
G1 X55.227341 Y49.484327 F100.000000
G1 X54.944275 Y49.548935 F100.000000
G1 X52.912275 F100.000000
G1 X52.629209 Y49.484327 F100.000000
G1 X52.402208 Y49.303300 F100.000000
G1 X52.276232 Y49.041708 F100.000000
G1 Y48.751362 F100.000000
G1 X52.364113 Y48.568875 F100.000000
G1 X52.276232 Y48.386388 F100.000000
G1 Y48.096042 F100.000000
G1 X52.402208 Y47.834450 F100.000000
G1 X52.456418 Y47.791220 F100.000000
G1 X52.369445 Y47.660761 F100.000000
G1 X52.353114 Y47.617843 F100.000000
G1 X52.324483 Y47.581941 F100.000000
G1 X52.302046 Y47.483638 F100.000000
G1 X52.266186 Y47.389398 F100.000000
G1 X52.270093 Y47.343644 F100.000000
G1 X52.259875 Y47.298875 F100.000000
G1 Y47.154095 F100.000000
G1 X52.324483 Y46.871029 F100.000000
G1 X52.378562 Y46.803216 F100.000000
G1 X52.369445 Y46.789541 F100.000000
G1 X52.353114 Y46.746623 F100.000000
G1 X52.324483 Y46.710721 F100.000000
G1 X52.302046 Y46.612418 F100.000000
G1 X52.266186 Y46.518178 F100.000000
G1 X52.270093 Y46.472424 F100.000000
G1 X52.259875 Y46.427655 F100.000000
G1 Y46.427275 F100.000000
G1 X52.234095 F100.000000
G1 X51.951029 Y46.362667 F100.000000
G1 X51.724028 Y46.181640 F100.000000
G1 X51.598052 Y45.920048 F100.000000
G1 Y45.629702 F100.000000
G1 X51.724028 Y45.368110 F100.000000
G1 X51.951029 Y45.187083 F100.000000
G1 X52.234095 Y45.122475 F100.000000
G1 X52.309646 F100.000000
G1 X52.324483 Y45.057469 F100.000000
G1 X52.351488 Y45.023606 F100.000000
G1 X52.366568 Y44.983003 F100.000000
G1 X52.455255 Y44.847638 F100.000000
G1 X52.450046 Y44.840569 F100.000000
G1 X52.402208 Y44.802420 F100.000000
G1 X52.373298 Y44.742388 F100.000000
G1 X52.330654 Y44.691193 F100.000000
G1 X52.325842 Y44.672007 F100.000000
G1 X52.314109 Y44.656083 F100.000000
G1 X52.302780 Y44.595955 F100.000000
G1 X52.276232 Y44.540828 F100.000000
G1 Y44.505822 F100.000000
G1 X52.152598 Y44.479479 F100.000000
G1 X51.923003 Y44.301752 F100.000000
G1 X51.793258 Y44.042009 F100.000000
G1 X51.789059 Y43.751694 F100.000000
G1 X51.911240 Y43.488308 F100.000000
G1 X52.135600 Y43.304017 F100.000000
G1 X54.749260 Y41.998457 F100.000000
G1 X55.031362 Y41.929763 F100.000000
G1 X55.315332 Y41.990271 F100.000000
G1 X55.544927 Y42.167998 F100.000000
G1 X55.674672 Y42.427741 F100.000000
G1 X55.678871 Y42.718056 F100.000000
G1 X55.556690 Y42.981442 F100.000000
G1 X55.332330 Y43.165733 F100.000000
G1 X54.257628 Y43.702562 F100.000000
G1 X54.349225 Y43.751062 F100.000000
G1 X54.460058 Y43.799317 F100.000000
G1 X54.556578 Y43.870437 F100.000000
G1 X54.569492 Y43.885419 F100.000000
G1 X54.587126 Y43.894380 F100.000000
G1 X54.627548 Y43.947347 F100.000000
G1 X54.679642 Y43.988890 F100.000000
G1 X54.706190 Y44.044017 F100.000000
G1 X54.746136 Y44.090364 F100.000000
G1 X54.751271 Y44.109466 F100.000000
G1 X54.763271 Y44.125190 F100.000000
G1 X54.776708 Y44.190451 F100.000000
G1 X54.805618 Y44.250482 F100.000000
G1 Y44.311669 F100.000000
G1 X54.821500 Y44.370758 F100.000000
G1 X54.817837 Y44.390196 F100.000000
G1 X54.821827 Y44.409569 F100.000000
G1 X54.805618 Y44.474198 F100.000000
G0 Z2.000000
G0 X53.937553 Y30.941128
G1 Z-0.040000 F60.000000
G1 X54.225090 Y30.900841 F100.000000
G1 X54.501631 Y30.989302 F100.000000
G1 X54.712405 Y31.188989 F100.000000
G1 X54.808925 Y31.333769 F100.000000
G1 X54.825256 Y31.376687 F100.000000
G1 X54.853887 Y31.412589 F100.000000
G1 X54.876324 Y31.510892 F100.000000
G1 X54.912184 Y31.605132 F100.000000
G1 X54.908277 Y31.650886 F100.000000
G1 X54.918495 Y31.695655 F100.000000
G1 Y31.914095 F100.000000
G1 X54.908277 Y31.958864 F100.000000
G1 X54.912184 Y32.004618 F100.000000
G1 X54.876324 Y32.098858 F100.000000
G1 X54.853887 Y32.197161 F100.000000
G1 X54.825256 Y32.233063 F100.000000
G1 X54.808925 Y32.275981 F100.000000
G1 X54.752908 Y32.360006 F100.000000
G1 X54.776162 Y32.378550 F100.000000
G1 X54.902138 Y32.640142 F100.000000
G1 Y32.813170 F100.000000
G1 X54.912184 Y32.839572 F100.000000
G1 X54.908277 Y32.885326 F100.000000
G1 X54.918495 Y32.930095 F100.000000
G1 Y33.219655 F100.000000
G1 X54.908277 Y33.264424 F100.000000
G1 X54.912184 Y33.310178 F100.000000
G1 X54.876324 Y33.404418 F100.000000
G1 X54.853887 Y33.502721 F100.000000
G1 X54.825256 Y33.538623 F100.000000
G1 X54.808925 Y33.581541 F100.000000
G1 X54.712405 Y33.726321 F100.000000
G1 X54.672122 Y33.764485 F100.000000
G1 X54.712405 Y33.802649 F100.000000
G1 X54.808925 Y33.947429 F100.000000
G1 X54.825256 Y33.990347 F100.000000
G1 X54.853887 Y34.026249 F100.000000
G1 X54.876324 Y34.124552 F100.000000
G1 X54.912184 Y34.218792 F100.000000
G1 X54.908277 Y34.264546 F100.000000
G1 X54.918495 Y34.309315 F100.000000
G1 Y34.525215 F100.000000
G1 X54.908857 Y34.567442 F100.000000
G1 X54.912888 Y34.610567 F100.000000
G1 X54.876893 Y34.707486 F100.000000
G1 X54.853887 Y34.808281 F100.000000
G1 X54.826882 Y34.842144 F100.000000
G1 X54.811802 Y34.882747 F100.000000
G1 X54.715282 Y35.030067 F100.000000
G1 X54.672945 Y35.070825 F100.000000
G1 X54.712405 Y35.108209 F100.000000
G1 X54.808925 Y35.252989 F100.000000
G1 X54.825256 Y35.295907 F100.000000
G1 X54.853887 Y35.331809 F100.000000
G1 X54.876324 Y35.430112 F100.000000
G1 X54.912184 Y35.524352 F100.000000
G1 X54.908277 Y35.570106 F100.000000
G1 X54.918495 Y35.614875 F100.000000
G1 Y35.833315 F100.000000
G1 X54.908277 Y35.878084 F100.000000
G1 X54.912184 Y35.923838 F100.000000
G1 X54.876324 Y36.018078 F100.000000
G1 X54.853887 Y36.116381 F100.000000
G1 X54.825256 Y36.152283 F100.000000
G1 X54.808925 Y36.195201 F100.000000
G1 X54.807782 Y36.196915 F100.000000
G1 X54.944275 F100.000000
G1 X55.227341 Y36.261523 F100.000000
G1 X55.454342 Y36.442550 F100.000000
G1 X55.580318 Y36.704142 F100.000000
G1 Y36.994488 F100.000000
G1 X55.454342 Y37.256080 F100.000000
G1 X55.227341 Y37.437107 F100.000000
G1 X54.944275 Y37.501715 F100.000000
G1 X54.918495 F100.000000
G1 Y37.502095 F100.000000
G1 X54.908277 Y37.546864 F100.000000
G1 X54.912184 Y37.592618 F100.000000
G1 X54.896300 Y37.634361 F100.000000
G1 X54.902138 Y37.646482 F100.000000
G1 Y37.936828 F100.000000
G1 X54.776162 Y38.198420 F100.000000
G1 X54.721861 Y38.241723 F100.000000
G1 X54.811802 Y38.379003 F100.000000
G1 X54.826882 Y38.419606 F100.000000
G1 X54.853887 Y38.453469 F100.000000
G1 X54.876893 Y38.554264 F100.000000
G1 X54.912888 Y38.651183 F100.000000
G1 X54.908857 Y38.694308 F100.000000
G1 X54.918495 Y38.736535 F100.000000
G1 Y39.026095 F100.000000
G1 X54.908277 Y39.070864 F100.000000
G1 X54.912184 Y39.116618 F100.000000
G1 X54.876324 Y39.210858 F100.000000
G1 X54.853887 Y39.309161 F100.000000
G1 X54.825256 Y39.345063 F100.000000
G1 X54.808925 Y39.387981 F100.000000
G1 X54.736069 Y39.497265 F100.000000
G1 X54.808925 Y39.606549 F100.000000
G1 X54.825256 Y39.649467 F100.000000
G1 X54.853887 Y39.685369 F100.000000
G1 X54.876324 Y39.783672 F100.000000
G1 X54.912184 Y39.877912 F100.000000
G1 X54.908277 Y39.923666 F100.000000
G1 X54.918495 Y39.968435 F100.000000
G1 Y40.260535 F100.000000
G1 X54.908277 Y40.305304 F100.000000
G1 X54.912184 Y40.351058 F100.000000
G1 X54.907969 Y40.362136 F100.000000
G1 X55.030855 Y40.332111 F100.000000
G1 X55.314872 Y40.392398 F100.000000
G1 X55.544605 Y40.569946 F100.000000
G1 X55.674552 Y40.829588 F100.000000
G1 X55.678976 Y41.119900 F100.000000
G1 X55.557000 Y41.383381 F100.000000
G1 X55.332784 Y41.567846 F100.000000
G1 X52.719124 Y42.875946 F100.000000
G1 X52.437075 Y42.944859 F100.000000
G1 X52.153058 Y42.884572 F100.000000
G1 X51.923325 Y42.707024 F100.000000
G1 X51.793378 Y42.447382 F100.000000
G1 X51.788954 Y42.157070 F100.000000
G1 X51.910930 Y41.893589 F100.000000
G1 X52.135146 Y41.709124 F100.000000
G1 X53.194694 Y41.178835 F100.000000
G1 X53.182966 Y41.176158 F100.000000
G1 X53.065770 Y41.159628 F100.000000
G1 X52.872730 Y41.085968 F100.000000
G1 X52.799289 Y41.036909 F100.000000
G1 X52.718312 Y41.001653 F100.000000
G1 X52.621792 Y40.930533 F100.000000
G1 X52.548008 Y40.844928 F100.000000
G1 X52.465965 Y40.767201 F100.000000
G1 X52.369445 Y40.622421 F100.000000
G1 X52.353114 Y40.579503 F100.000000
G1 X52.324483 Y40.543601 F100.000000
G1 X52.302046 Y40.445298 F100.000000
G1 X52.266186 Y40.351058 F100.000000
G1 X52.270093 Y40.305304 F100.000000
G1 X52.259875 Y40.260535 F100.000000
G1 Y39.968435 F100.000000
G1 X52.270093 Y39.923666 F100.000000
G1 X52.266186 Y39.877912 F100.000000
G1 X52.302046 Y39.783672 F100.000000
G1 X52.324483 Y39.685369 F100.000000
G1 X52.353114 Y39.649467 F100.000000
G1 X52.369445 Y39.606549 F100.000000
G1 X52.442301 Y39.497265 F100.000000
G1 X52.369445 Y39.387981 F100.000000
G1 X52.353114 Y39.345063 F100.000000
G1 X52.324483 Y39.309161 F100.000000
G1 X52.302046 Y39.210858 F100.000000
G1 X52.266186 Y39.116618 F100.000000
G1 X52.270093 Y39.070864 F100.000000
G1 X52.259875 Y39.026095 F100.000000
G1 Y38.662875 F100.000000
G1 X52.270093 Y38.618106 F100.000000
G1 X52.266186 Y38.572352 F100.000000
G1 X52.276232 Y38.545950 F100.000000
G1 Y38.372922 F100.000000
G1 X52.381238 Y38.154875 F100.000000
G1 X52.276232 Y37.936828 F100.000000
G1 Y37.646482 F100.000000
G1 X52.402208 Y37.384890 F100.000000
G1 X52.572485 Y37.249099 F100.000000
G1 X52.534777 Y37.223910 F100.000000
G1 X52.506442 Y37.175889 F100.000000
G1 X52.465965 Y37.137541 F100.000000
G1 X52.369445 Y36.992761 F100.000000
G1 X52.266186 Y36.721398 F100.000000
G1 X52.290892 Y36.432106 F100.000000
G1 X52.402052 Y36.244112 F100.000000
G1 X52.369445 Y36.195201 F100.000000
G1 X52.353114 Y36.152283 F100.000000
G1 X52.324483 Y36.116381 F100.000000
G1 X52.302046 Y36.018078 F100.000000
G1 X52.266186 Y35.923838 F100.000000
G1 X52.270093 Y35.878084 F100.000000
G1 X52.259875 Y35.833315 F100.000000
G1 Y35.614875 F100.000000
G1 X52.270093 Y35.570106 F100.000000
G1 X52.266186 Y35.524352 F100.000000
G1 X52.302046 Y35.430112 F100.000000
G1 X52.324483 Y35.331809 F100.000000
G1 X52.353114 Y35.295907 F100.000000
G1 X52.369445 Y35.252989 F100.000000
G1 X52.465965 Y35.108209 F100.000000
G1 X52.467373 Y35.106875 F100.000000
G1 X52.465965 Y35.105541 F100.000000
G1 X52.369445 Y34.960761 F100.000000
G1 X52.353114 Y34.917843 F100.000000
G1 X52.324483 Y34.881941 F100.000000
G1 X52.302046 Y34.783638 F100.000000
G1 X52.266186 Y34.689398 F100.000000
G1 X52.270093 Y34.643644 F100.000000
G1 X52.259875 Y34.598875 F100.000000
G1 Y34.309315 F100.000000
G1 X52.270093 Y34.264546 F100.000000
G1 X52.266186 Y34.218792 F100.000000
G1 X52.302046 Y34.124552 F100.000000
G1 X52.311524 Y34.083025 F100.000000
G1 X52.275100 Y34.088129 F100.000000
G1 X51.998559 Y33.999668 F100.000000
G1 X51.787785 Y33.799981 F100.000000
G1 X51.691265 Y33.655201 F100.000000
G1 X51.674934 Y33.612283 F100.000000
G1 X51.646303 Y33.576381 F100.000000
G1 X51.623866 Y33.478078 F100.000000
G0 Z2.000000
G0 X53.942438 Y27.672851
G1 Z-0.040000 F60.000000
G1 X54.230288 Y27.634866 F100.000000
G1 X54.506113 Y27.725536 F100.000000
G1 X54.715282 Y27.926903 F100.000000
G1 X54.811802 Y28.074223 F100.000000
G1 X54.826882 Y28.114826 F100.000000
G1 X54.853887 Y28.148689 F100.000000
G1 X54.876893 Y28.249484 F100.000000
G1 X54.912888 Y28.346403 F100.000000
G1 X54.908857 Y28.389528 F100.000000
G1 X54.918495 Y28.431755 F100.000000
G1 Y28.647655 F100.000000
G1 X54.908277 Y28.692424 F100.000000
G1 X54.912184 Y28.738178 F100.000000
G1 X54.876324 Y28.832418 F100.000000
G1 X54.853887 Y28.930721 F100.000000
G1 X54.825256 Y28.966623 F100.000000
G1 X54.808925 Y29.009541 F100.000000
G1 X54.712405 Y29.154321 F100.000000
G1 X54.710997 Y29.155655 F100.000000
G1 X54.712405 Y29.156989 F100.000000
G1 X54.808925 Y29.301769 F100.000000
G1 X54.825256 Y29.344687 F100.000000
G1 X54.853887 Y29.380589 F100.000000
G1 X54.876324 Y29.478892 F100.000000
G1 X54.912184 Y29.573132 F100.000000
G1 X54.908277 Y29.618886 F100.000000
G1 X54.918495 Y29.663655 F100.000000
G1 Y29.955755 F100.000000
G1 X54.908277 Y30.000524 F100.000000
G1 X54.912184 Y30.046278 F100.000000
G1 X54.876324 Y30.140518 F100.000000
G1 X54.853887 Y30.238821 F100.000000
G1 X54.825256 Y30.274723 F100.000000
G1 X54.808925 Y30.317641 F100.000000
G1 X54.712405 Y30.462421 F100.000000
G1 X54.669214 Y30.503340 F100.000000
G1 X54.638391 Y30.554228 F100.000000
G1 X54.565116 Y30.601963 F100.000000
G1 X54.501631 Y30.662108 F100.000000
G1 X54.444964 Y30.680235 F100.000000
G1 X54.395113 Y30.712710 F100.000000
G1 X54.202073 Y30.783830 F100.000000
G1 X54.088340 Y30.798536 F100.000000
G1 X53.976535 Y30.824055 F100.000000
G1 X53.754623 Y30.824055 F100.000000
G1 X53.757567 Y30.838349 F100.000000
G1 X53.741358 Y30.902978 F100.000000
G1 Y30.952951 F100.000000
G1 X53.770344 Y30.972314 F100.000000
G1 X53.823451 Y30.989302 F100.000000
G1 X53.840733 Y31.005675 F100.000000
G1 X53.937553 Y30.941128 F100.000000
G0 Z2.000000
G0 X51.623866 Y33.478078
G1 Z-0.040000 F60.000000
G1 X51.588006 Y33.383838 F100.000000
G1 X51.591913 Y33.338084 F100.000000
G1 X51.581695 Y33.293315 F100.000000
G1 Y33.074875 F100.000000
G1 X51.591913 Y33.030106 F100.000000
G1 X51.588006 Y32.984352 F100.000000
G1 X51.623866 Y32.890112 F100.000000
G1 X51.646303 Y32.791809 F100.000000
G1 X51.674934 Y32.755907 F100.000000
G1 X51.691265 Y32.712989 F100.000000
G1 X51.787785 Y32.568209 F100.000000
G1 X51.865928 Y32.494177 F100.000000
G1 X51.934821 Y32.411469 F100.000000
G1 X52.031341 Y32.337809 F100.000000
G1 X52.119982 Y32.297428 F100.000000
G1 X52.201597 Y32.244260 F100.000000
G1 X52.309894 Y32.204361 F100.000000
G1 X52.301477 Y32.167486 F100.000000
G1 X52.265482 Y32.070567 F100.000000
G1 X52.269513 Y32.027442 F100.000000
G1 X52.259875 Y31.985215 F100.000000
G1 Y31.695655 F100.000000
G1 X52.270093 Y31.650886 F100.000000
G1 X52.266186 Y31.605132 F100.000000
G1 X52.302046 Y31.510892 F100.000000
G1 X52.324483 Y31.412589 F100.000000
G1 X52.353114 Y31.376687 F100.000000
G1 X52.369445 Y31.333769 F100.000000
G1 X52.425462 Y31.249744 F100.000000
G1 X52.402208 Y31.231200 F100.000000
G1 X52.373298 Y31.171168 F100.000000
G1 X52.330654 Y31.119973 F100.000000
G1 X52.325842 Y31.100787 F100.000000
G1 X52.314109 Y31.084863 F100.000000
G1 X52.302780 Y31.024735 F100.000000
G1 X52.276232 Y30.969608 F100.000000
G1 Y30.902978 F100.000000
G1 X52.260023 Y30.838349 F100.000000
G1 X52.264013 Y30.818976 F100.000000
G1 X52.260350 Y30.799538 F100.000000
G1 X52.276232 Y30.740449 F100.000000
G1 Y30.679262 F100.000000
G1 X52.305142 Y30.619231 F100.000000
G1 X52.318579 Y30.553970 F100.000000
G1 X52.330579 Y30.538246 F100.000000
G1 X52.335714 Y30.519144 F100.000000
G1 X52.375660 Y30.472797 F100.000000
G1 X52.402208 Y30.417670 F100.000000
G1 X52.424356 Y30.400008 F100.000000
G1 X52.369445 Y30.317641 F100.000000
G1 X52.353114 Y30.274723 F100.000000
G1 X52.324483 Y30.238821 F100.000000
G1 X52.302046 Y30.140518 F100.000000
G1 X52.266186 Y30.046278 F100.000000
G1 X52.270093 Y30.000524 F100.000000
G1 X52.259875 Y29.955755 F100.000000
G1 Y29.663655 F100.000000
G1 X52.270093 Y29.618886 F100.000000
G1 X52.266186 Y29.573132 F100.000000
G1 X52.302046 Y29.478892 F100.000000
G1 X52.324483 Y29.380589 F100.000000
G1 X52.353114 Y29.344687 F100.000000
G1 X52.369445 Y29.301769 F100.000000
G1 X52.442301 Y29.192485 F100.000000
G1 X52.369445 Y29.083201 F100.000000
G1 X52.353114 Y29.040283 F100.000000
G1 X52.324483 Y29.004381 F100.000000
G1 X52.302046 Y28.906078 F100.000000
G1 X52.266186 Y28.811838 F100.000000
G1 X52.270093 Y28.766084 F100.000000
G1 X52.259875 Y28.721315 F100.000000
G1 Y28.431755 F100.000000
G1 X52.269513 Y28.389528 F100.000000
G1 X52.265482 Y28.346403 F100.000000
G1 X52.301477 Y28.249484 F100.000000
G1 X52.324483 Y28.148689 F100.000000
G1 X52.351488 Y28.114826 F100.000000
G1 X52.366568 Y28.074223 F100.000000
G1 X52.463088 Y27.926903 F100.000000
G1 X52.507814 Y27.883844 F100.000000
G1 X52.539979 Y27.830742 F100.000000
G1 X52.611104 Y27.784408 F100.000000
G1 X52.672257 Y27.725536 F100.000000
G1 X52.731237 Y27.706148 F100.000000
G1 X52.783257 Y27.672260 F100.000000
G1 X52.976297 Y27.601140 F100.000000
G1 X53.090030 Y27.586434 F100.000000
G1 X53.201835 Y27.560915 F100.000000
G1 X53.298355 F100.000000
G1 X53.410160 Y27.586434 F100.000000
G1 X53.523893 Y27.601140 F100.000000
G1 X53.716933 Y27.672260 F100.000000
G1 X53.768953 Y27.706148 F100.000000
G1 X53.827933 Y27.725536 F100.000000
G1 X53.841739 Y27.738827 F100.000000
G1 X53.942438 Y27.672851 F100.000000
G0 Z2.000000
G0 X46.969040 Y33.366502
G1 Z-0.040000 F60.000000
G1 X46.902811 Y33.398396 F100.000000
G1 X46.845341 Y33.444227 F100.000000
G1 X46.773676 Y33.460584 F100.000000
G1 X46.707448 Y33.492478 F100.000000
G1 X46.633940 F100.000000
G1 X46.562275 Y33.508835 F100.000000
G1 X44.530275 F100.000000
G1 X44.247209 Y33.444227 F100.000000
G1 X44.020208 Y33.263200 F100.000000
G1 X43.894232 Y33.001608 F100.000000
G1 Y32.711262 F100.000000
G1 X44.020208 Y32.449670 F100.000000
G1 X44.247209 Y32.268643 F100.000000
G1 X44.530275 Y32.204035 F100.000000
G1 X44.853398 F100.000000
G1 X44.851926 Y32.186792 F100.000000
G1 X44.887786 Y32.092552 F100.000000
G1 X44.910223 Y31.994249 F100.000000
G1 X44.917731 Y31.984835 F100.000000
G1 X44.530275 Y31.984835 F100.000000
G1 X44.247209 Y31.920227 F100.000000
G1 X44.020208 Y31.739200 F100.000000
G1 X43.894232 Y31.477608 F100.000000
G1 Y31.187262 F100.000000
G1 X44.020208 Y30.925670 F100.000000
G1 X44.100970 Y30.861265 F100.000000
G1 X44.020208 Y30.796860 F100.000000
G1 X43.894232 Y30.535268 F100.000000
G1 Y30.244922 F100.000000
G1 X43.999238 Y30.026875 F100.000000
G1 X43.894232 Y29.808828 F100.000000
G1 Y29.518482 F100.000000
G1 X43.981502 Y29.337265 F100.000000
G1 X43.894232 Y29.156048 F100.000000
G1 Y28.865702 F100.000000
G1 X44.020208 Y28.604110 F100.000000
G1 X44.074418 Y28.560880 F100.000000
G1 X43.987445 Y28.430421 F100.000000
G1 X43.971114 Y28.387503 F100.000000
G1 X43.942483 Y28.351601 F100.000000
G1 X43.920046 Y28.253298 F100.000000
G1 X43.884186 Y28.159058 F100.000000
G1 X43.888093 Y28.113304 F100.000000
G1 X43.877875 Y28.068535 F100.000000
G1 Y27.921215 F100.000000
G1 X43.942483 Y27.638149 F100.000000
G1 X43.947662 Y27.631655 F100.000000
G1 X43.942483 Y27.625161 F100.000000
G1 X43.920046 Y27.526858 F100.000000
G1 X43.884186 Y27.432618 F100.000000
G1 X43.888093 Y27.386864 F100.000000
G1 X43.877875 Y27.342095 F100.000000
G1 Y27.052535 F100.000000
G1 X43.887513 Y27.010308 F100.000000
G1 X43.883482 Y26.967183 F100.000000
G1 X43.919477 Y26.870264 F100.000000
G1 X43.942483 Y26.769469 F100.000000
G1 X43.969488 Y26.735606 F100.000000
G1 X43.984568 Y26.695003 F100.000000
G1 X44.042811 Y26.606105 F100.000000
G1 X44.020208 Y26.588080 F100.000000
G1 X43.894232 Y26.326488 F100.000000
G1 Y26.036142 F100.000000
G1 X43.981502 Y25.854925 F100.000000
G1 X43.894232 Y25.673708 F100.000000
G1 Y25.383362 F100.000000
G1 X43.999238 Y25.165315 F100.000000
G1 X43.894232 Y24.947268 F100.000000
G1 Y24.656922 F100.000000
G1 X44.020208 Y24.395330 F100.000000
G1 X44.043462 Y24.376786 F100.000000
G1 X43.987445 Y24.292761 F100.000000
G1 X43.971114 Y24.249843 F100.000000
G1 X43.942483 Y24.213941 F100.000000
G1 X43.920046 Y24.115638 F100.000000
G0 Z2.000000
G0 X47.072342 Y30.796860
G1 Z-0.040000 F60.000000
G1 X47.023402 Y30.835888 F100.000000
G1 X46.986051 Y30.886119 F100.000000
G1 X46.961278 Y30.899098 F100.000000
G1 X46.942759 Y30.920055 F100.000000
G1 X46.843699 Y30.991175 F100.000000
G1 X46.735906 Y31.036530 F100.000000
G1 X46.632555 Y31.091255 F100.000000
G1 X46.603177 Y31.092376 F100.000000
G1 X46.576078 Y31.103778 F100.000000
G1 X46.527445 Y31.101319 F100.000000
G1 X46.530184 Y31.133398 F100.000000
G1 X46.514300 Y31.175141 F100.000000
G1 X46.520138 Y31.187262 F100.000000
G1 Y31.419143 F100.000000
G1 X46.599280 Y31.449342 F100.000000
G1 X46.677207 Y31.501398 F100.000000
G1 X46.762489 Y31.540249 F100.000000
G1 X46.859009 Y31.613909 F100.000000
G1 X46.925441 Y31.693661 F100.000000
G1 X47.001645 Y31.764135 F100.000000
G1 X47.100705 Y31.908915 F100.000000
G1 X47.118991 Y31.955281 F100.000000
G1 X47.150067 Y31.994249 F100.000000
G1 X47.171647 Y32.088797 F100.000000
G1 X47.207227 Y32.179014 F100.000000
G1 X47.203584 Y32.228723 F100.000000
G1 X47.214675 Y32.277315 F100.000000
G1 Y32.856435 F100.000000
G1 X47.198318 Y32.928100 F100.000000
G1 Y33.001608 F100.000000
G1 X47.166424 Y33.067836 F100.000000
G1 X47.150067 Y33.139501 F100.000000
G1 X47.104236 Y33.196971 F100.000000
G1 X47.072342 Y33.263200 F100.000000
G1 X47.014871 Y33.309031 F100.000000
G1 X46.969040 Y33.366502 F100.000000
G0 Z2.000000
G0 X47.072342 Y25.208860
G1 Z-0.040000 F60.000000
G1 X47.023402 Y25.247888 F100.000000
G1 X46.986051 Y25.298119 F100.000000
G1 X46.961278 Y25.311098 F100.000000
G1 X46.942759 Y25.332055 F100.000000
G1 X46.843699 Y25.403175 F100.000000
G1 X46.735906 Y25.448530 F100.000000
G1 X46.632555 Y25.503255 F100.000000
G1 X46.603177 Y25.504376 F100.000000
G1 X46.576078 Y25.515778 F100.000000
G1 X46.483234 Y25.511083 F100.000000
G1 X46.487304 Y25.528915 F100.000000
G1 X46.562275 F100.000000
G1 X46.845341 Y25.593523 F100.000000
G1 X47.072342 Y25.774550 F100.000000
G1 X47.198318 Y26.036142 F100.000000
G1 Y26.326488 F100.000000
G1 X47.072342 Y26.588080 F100.000000
G1 X46.845341 Y26.769107 F100.000000
G1 X46.562275 Y26.833715 F100.000000
G1 X46.486551 Y26.833715 F100.000000
G1 X46.494893 Y26.870264 F100.000000
G1 X46.530888 Y26.967183 F100.000000
G1 X46.526857 Y27.010308 F100.000000
G1 X46.536495 Y27.052535 F100.000000
G1 Y27.268435 F100.000000
G1 X46.526277 Y27.313204 F100.000000
G1 X46.530184 Y27.358958 F100.000000
G1 X46.494324 Y27.453198 F100.000000
G1 X46.471887 Y27.551501 F100.000000
G1 X46.443256 Y27.587403 F100.000000
G1 X46.439432 Y27.597452 F100.000000
G1 X46.467011 Y27.632035 F100.000000
G1 X46.562275 Y27.632035 F100.000000
G1 X46.845341 Y27.696643 F100.000000
G1 X47.072342 Y27.877670 F100.000000
G1 X47.198318 Y28.139262 F100.000000
G1 Y28.429608 F100.000000
G1 X47.072342 Y28.691200 F100.000000
G1 X46.845341 Y28.872227 F100.000000
G1 X46.562275 Y28.936835 F100.000000
G1 X46.464379 Y28.936835 F100.000000
G1 X46.471887 Y28.946249 F100.000000
G1 X46.494324 Y29.044552 F100.000000
G1 X46.530184 Y29.138792 F100.000000
G1 X46.526277 Y29.184546 F100.000000
G1 X46.536495 Y29.229315 F100.000000
G1 Y29.445215 F100.000000
G1 X46.526857 Y29.487442 F100.000000
G1 X46.530888 Y29.530567 F100.000000
G1 X46.520138 Y29.559511 F100.000000
G1 Y29.678103 F100.000000
G1 X46.586803 Y29.675848 F100.000000
G1 X46.603585 Y29.683242 F100.000000
G1 X46.621920 Y29.683633 F100.000000
G1 X46.735705 Y29.741450 F100.000000
G1 X46.852504 Y29.792909 F100.000000
G1 X46.951564 Y29.866569 F100.000000
G1 X46.969730 Y29.887832 F100.000000
G1 X46.994282 Y29.901223 F100.000000
G1 X47.027633 Y29.947676 F100.000000
G1 X47.072342 Y29.983330 F100.000000
G1 X47.099501 Y30.039728 F100.000000
G1 X47.140162 Y30.087320 F100.000000
G1 X47.147303 Y30.114360 F100.000000
G1 X47.163613 Y30.137078 F100.000000
G1 X47.173506 Y30.193400 F100.000000
G1 X47.198318 Y30.244922 F100.000000
G1 Y30.307519 F100.000000
G1 X47.214302 Y30.368040 F100.000000
G1 X47.209004 Y30.395500 F100.000000
G1 X47.213842 Y30.423045 F100.000000
G1 X47.198318 Y30.478083 F100.000000
G1 Y30.535268 F100.000000
G1 X47.171158 Y30.591665 F100.000000
G1 X47.159300 Y30.653128 F100.000000
G1 X47.142613 Y30.675570 F100.000000
G1 X47.135020 Y30.702487 F100.000000
G1 X47.097154 Y30.745338 F100.000000
G1 X47.072342 Y30.796860 F100.000000
G0 Z2.000000
G0 X43.987445 Y22.115981
G1 Z-0.040000 F60.000000
G1 X43.971114 Y22.073063 F100.000000
G1 X43.942483 Y22.037161 F100.000000
G1 X43.920046 Y21.938858 F100.000000
G1 X43.884186 Y21.844618 F100.000000
G1 X43.888093 Y21.798864 F100.000000
G1 X43.877875 Y21.754095 F100.000000
G1 Y21.464535 F100.000000
G1 X43.887513 Y21.422308 F100.000000
G1 X43.883482 Y21.379183 F100.000000
G1 X43.894232 Y21.350239 F100.000000
G1 Y21.172042 F100.000000
G1 X44.020208 Y20.910450 F100.000000
G1 X44.247209 Y20.729423 F100.000000
G1 X44.530275 Y20.664815 F100.000000
G1 X46.562275 F100.000000
G1 X46.845341 Y20.729423 F100.000000
G1 X47.072342 Y20.910450 F100.000000
G1 X47.198318 Y21.172042 F100.000000
G1 Y21.462388 F100.000000
G1 X47.072342 Y21.723980 F100.000000
G1 X46.845341 Y21.905007 F100.000000
G1 X46.562275 Y21.969615 F100.000000
G1 X46.487304 Y21.969615 F100.000000
G1 X46.471887 Y22.037161 F100.000000
G1 X46.443256 Y22.073063 F100.000000
G1 X46.426925 Y22.115981 F100.000000
G1 X46.425782 Y22.117695 F100.000000
G1 X46.562275 F100.000000
G1 X46.845341 Y22.182303 F100.000000
G1 X47.072342 Y22.363330 F100.000000
G1 X47.198318 Y22.624922 F100.000000
G1 Y22.915268 F100.000000
G1 X47.072342 Y23.176860 F100.000000
G1 X46.845341 Y23.357887 F100.000000
G1 X46.562275 Y23.422495 F100.000000
G1 X46.486551 F100.000000
G1 X46.494324 Y23.456552 F100.000000
G1 X46.530184 Y23.550792 F100.000000
G1 X46.526277 Y23.596546 F100.000000
G1 X46.536495 Y23.641315 F100.000000
G1 Y23.930875 F100.000000
G1 X46.526277 Y23.975644 F100.000000
G1 X46.530184 Y24.021398 F100.000000
G1 X46.503831 Y24.090654 F100.000000
G1 X46.586803 Y24.087848 F100.000000
G1 X46.603585 Y24.095242 F100.000000
G1 X46.621920 Y24.095633 F100.000000
G1 X46.735705 Y24.153450 F100.000000
G1 X46.852504 Y24.204909 F100.000000
G1 X46.951564 Y24.278569 F100.000000
G1 X46.969730 Y24.299832 F100.000000
G1 X46.994282 Y24.313223 F100.000000
G1 X47.027633 Y24.359676 F100.000000
G1 X47.072342 Y24.395330 F100.000000
G1 X47.099501 Y24.451728 F100.000000
G1 X47.140162 Y24.499320 F100.000000
G1 X47.147303 Y24.526360 F100.000000
G1 X47.163613 Y24.549078 F100.000000
G1 X47.173506 Y24.605400 F100.000000
G1 X47.198318 Y24.656922 F100.000000
G1 Y24.719519 F100.000000
G1 X47.214302 Y24.780040 F100.000000
G1 X47.209004 Y24.807500 F100.000000
G1 X47.213842 Y24.835045 F100.000000
G1 X47.198318 Y24.890083 F100.000000
G1 Y24.947268 F100.000000
G1 X47.171158 Y25.003665 F100.000000
G1 X47.159300 Y25.065128 F100.000000
G1 X47.142613 Y25.087570 F100.000000
G1 X47.135020 Y25.114487 F100.000000
G1 X47.097154 Y25.157338 F100.000000
G1 X47.072342 Y25.208860 F100.000000
G0 Z2.000000
G0 X43.920046 Y24.115638
G1 Z-0.040000 F60.000000
G1 X43.884186 Y24.021398 F100.000000
G1 X43.888093 Y23.975644 F100.000000
G1 X43.877875 Y23.930875 F100.000000
G1 Y23.641315 F100.000000
G1 X43.888093 Y23.596546 F100.000000
G1 X43.884186 Y23.550792 F100.000000
G1 X43.920046 Y23.456552 F100.000000
G1 X43.942483 Y23.358249 F100.000000
G1 X43.971114 Y23.322347 F100.000000
G1 X43.987445 Y23.279429 F100.000000
G1 X44.083965 Y23.134649 F100.000000
G1 X44.124248 Y23.096485 F100.000000
G1 X44.083965 Y23.058321 F100.000000
G1 X43.987445 Y22.913541 F100.000000
G1 X43.884186 Y22.642178 F100.000000
G1 X43.908892 Y22.352886 F100.000000
G1 X44.020052 Y22.164892 F100.000000
G1 X43.987445 Y22.115981 F100.000000
G0 Z2.000000
G0 X47.076931 Y18.309477
G1 Z-0.040000 F60.000000
G1 X47.073990 Y18.311878 F100.000000
G1 X47.072342 Y18.315300 F100.000000
G1 X46.961667 Y18.403560 F100.000000
G1 X46.852002 Y18.493072 F100.000000
G1 X46.613637 Y18.611219 F100.000000
G1 X46.557976 Y18.652964 F100.000000
G1 X46.523445 Y18.704761 F100.000000
G1 X46.507487 Y18.719880 F100.000000
G1 X46.536031 Y18.826272 F100.000000
G1 X46.482144 Y19.111573 F100.000000
G1 X46.406530 Y19.214095 F100.000000
G1 X46.482144 Y19.316617 F100.000000
G1 X46.536031 Y19.601918 F100.000000
G1 X46.460794 Y19.882346 F100.000000
G1 X46.271335 Y20.102359 F100.000000
G1 X46.005178 Y20.218380 F100.000000
G1 X45.715040 Y20.207431 F100.000000
G1 X44.361220 Y19.844211 F100.000000
G1 X44.254110 Y19.787558 F100.000000
G1 X44.143035 Y19.739139 F100.000000
G1 X44.126697 Y19.720166 F100.000000
G1 X44.104564 Y19.708459 F100.000000
G1 X44.032643 Y19.610944 F100.000000
G1 X43.953576 Y19.519126 F100.000000
G1 X43.947088 Y19.494943 F100.000000
G1 X43.932226 Y19.474793 F100.000000
G1 X43.909738 Y19.355729 F100.000000
G1 X43.878339 Y19.238698 F100.000000
G1 X43.882986 Y19.214095 F100.000000
G1 X43.878339 Y19.189492 F100.000000
G1 X43.909738 Y19.072461 F100.000000
G1 X43.932226 Y18.953397 F100.000000
G1 X43.947088 Y18.933247 F100.000000
G1 X43.953576 Y18.909064 F100.000000
G1 X44.032643 Y18.817246 F100.000000
G1 X44.062625 Y18.776594 F100.000000
G1 X43.942483 Y18.625941 F100.000000
G1 X43.877875 Y18.342875 F100.000000
G1 Y17.471655 F100.000000
G1 X43.942483 Y17.188589 F100.000000
G1 X43.975722 Y17.146909 F100.000000
G1 X43.948654 Y17.114413 F100.000000
G1 X43.945198 Y17.100633 F100.000000
G1 X43.936579 Y17.089340 F100.000000
G1 X43.923142 Y17.024079 F100.000000
G1 X43.894232 Y16.964048 F100.000000
G1 Y16.897418 F100.000000
G1 X43.878023 Y16.832789 F100.000000
G1 X43.880888 Y16.818875 F100.000000
G1 X43.878023 Y16.804961 F100.000000
G1 X43.894232 Y16.740332 F100.000000
G1 Y16.673702 F100.000000
G1 X43.923142 Y16.613671 F100.000000
G1 X43.936579 Y16.548410 F100.000000
G1 X43.945198 Y16.537117 F100.000000
G1 X43.948654 Y16.523337 F100.000000
G1 X43.991298 Y16.472142 F100.000000
G1 X44.020208 Y16.412110 F100.000000
G1 X44.072302 Y16.370567 F100.000000
G1 X44.104225 Y16.328736 F100.000000
G1 X44.083965 Y16.309541 F100.000000
G1 X43.987445 Y16.164761 F100.000000
G1 X43.971114 Y16.121843 F100.000000
G1 X43.942483 Y16.085941 F100.000000
G1 X43.920046 Y15.987638 F100.000000
G0 Z2.000000
G1 Z-0.040000 F60.000000
G1 X43.884186 Y15.893398 F100.000000
G1 X43.888093 Y15.847644 F100.000000
G1 X43.877875 Y15.802875 F100.000000
G1 Y15.658095 F100.000000
G1 X43.888093 Y15.613326 F100.000000
G1 X43.884186 Y15.567572 F100.000000
G1 X43.920046 Y15.473332 F100.000000
G1 X43.942483 Y15.375029 F100.000000
G1 X43.971114 Y15.339127 F100.000000
G1 X43.987445 Y15.296209 F100.000000
G1 X44.083965 Y15.151429 F100.000000
G1 X44.162108 Y15.077397 F100.000000
G1 X44.231001 Y14.994689 F100.000000
G1 X44.327521 Y14.921029 F100.000000
G1 X44.416162 Y14.880648 F100.000000
G1 X44.497777 Y14.827480 F100.000000
G1 X44.690817 Y14.756360 F100.000000
G1 X44.744505 Y14.749418 F100.000000
G1 X44.794089 Y14.727694 F100.000000
G1 X45.180169 Y14.654034 F100.000000
G1 X45.242059 Y14.656256 F100.000000
G1 X45.302435 Y14.642475 F100.000000
G1 X45.787575 F100.000000
G1 X45.847951 Y14.656256 F100.000000
G1 X45.909841 Y14.654034 F100.000000
G1 X46.295921 Y14.727694 F100.000000
G1 X46.345505 Y14.749418 F100.000000
G1 X46.399193 Y14.756360 F100.000000
G1 X46.592233 Y14.827480 F100.000000
G1 X46.673848 Y14.880648 F100.000000
G1 X46.762489 Y14.921029 F100.000000
G1 X46.859009 Y14.994689 F100.000000
G1 X46.925441 Y15.074441 F100.000000
G1 X47.001645 Y15.144915 F100.000000
G1 X47.100705 Y15.289695 F100.000000
G1 X47.118991 Y15.336061 F100.000000
G1 X47.150067 Y15.375029 F100.000000
G1 X47.171647 Y15.469577 F100.000000
G1 X47.207227 Y15.559794 F100.000000
G1 X47.203584 Y15.609503 F100.000000
G1 X47.214675 Y15.658095 F100.000000
G1 Y15.802875 F100.000000
G1 X47.203584 Y15.851467 F100.000000
G1 X47.207227 Y15.901176 F100.000000
G1 X47.171647 Y15.991393 F100.000000
G1 X47.150067 Y16.085941 F100.000000
G1 X47.118991 Y16.124909 F100.000000
G1 X47.100705 Y16.171275 F100.000000
G1 X47.001645 Y16.316055 F100.000000
G1 X46.925441 Y16.386529 F100.000000
G1 X46.859009 Y16.466281 F100.000000
G1 X46.762489 Y16.539941 F100.000000
G1 X46.673848 Y16.580322 F100.000000
G1 X46.592233 Y16.633490 F100.000000
G1 X46.399193 Y16.704610 F100.000000
G1 X46.345505 Y16.711552 F100.000000
G1 X46.295921 Y16.733276 F100.000000
G1 X45.909841 Y16.806936 F100.000000
G1 X45.847951 Y16.804714 F100.000000
G1 X45.787575 Y16.818495 F100.000000
G1 X45.372780 Y16.818495 F100.000000
G1 X45.372702 Y16.818875 F100.000000
G1 X45.375567 Y16.832789 F100.000000
G1 X45.359358 Y16.897418 F100.000000
G1 Y16.964048 F100.000000
G1 X45.330448 Y17.024079 F100.000000
G1 X45.317011 Y17.089340 F100.000000
G1 X45.308392 Y17.100633 F100.000000
G1 X45.304936 Y17.114413 F100.000000
G1 X45.262292 Y17.165608 F100.000000
G1 X45.233382 Y17.225640 F100.000000
G1 X45.195142 Y17.256135 F100.000000
G1 X46.562275 F100.000000
G1 X46.700284 Y17.287635 F100.000000
G1 X46.838643 Y17.317564 F100.000000
G1 X46.841638 Y17.319898 F100.000000
G1 X46.845341 Y17.320743 F100.000000
G1 X46.956016 Y17.409003 F100.000000
G1 X47.067686 Y17.496000 F100.000000
G1 X47.069373 Y17.499403 F100.000000
G1 X47.072342 Y17.501770 F100.000000
G1 X47.133762 Y17.629310 F100.000000
G1 X47.196627 Y17.756144 F100.000000
G1 X47.196670 Y17.759941 F100.000000
G1 X47.198318 Y17.763362 F100.000000
G1 Y17.904921 F100.000000
G1 X47.199927 Y18.046470 F100.000000
G1 X47.198318 Y18.049910 F100.000000
G1 Y18.053708 F100.000000
G1 X47.136898 Y18.181247 F100.000000
G1 X47.076931 Y18.309477 F100.000000
G0 Z2.000000
G0 X46.534715 Y46.280715
G1 Z-0.040000 F60.000000
G1 X48.931715 F100.000000
G1 Y47.688628 F100.000000
G1 X51.857053 Y50.613967 F100.000000
G1 X51.894792 Y50.619944 F100.000000
G1 X51.968270 Y50.636368 F100.000000
G1 X52.040572 Y50.657374 F100.000000
G1 X52.111412 Y50.682878 F100.000000
G1 X52.180511 Y50.712780 F100.000000
G1 X52.247597 Y50.746961 F100.000000
G1 X52.312403 Y50.785288 F100.000000
G1 X52.374676 Y50.827608 F100.000000
G1 X52.434168 Y50.873755 F100.000000
G1 X52.490645 Y50.923546 F100.000000
G1 X52.543884 Y50.976785 F100.000000
G1 X52.593675 Y51.033262 F100.000000
G1 X52.639822 Y51.092754 F100.000000
G1 X52.682142 Y51.155027 F100.000000
G1 X52.720469 Y51.219833 F100.000000
G1 X52.754650 Y51.286919 F100.000000
G1 X52.784552 Y51.356018 F100.000000
G1 X52.810056 Y51.426858 F100.000000
G1 X52.831062 Y51.499160 F100.000000
G1 X52.847486 Y51.572638 F100.000000
G1 X52.859264 Y51.647003 F100.000000
G1 X52.866350 Y51.721961 F100.000000
G1 X52.868715 Y51.797215 F100.000000
G1 X52.866350 Y51.872469 F100.000000
G1 X52.859264 Y51.947427 F100.000000
G1 X52.847486 Y52.021792 F100.000000
G1 X52.831062 Y52.095270 F100.000000
G1 X52.810056 Y52.167572 F100.000000
G1 X52.784552 Y52.238412 F100.000000
G1 X52.754650 Y52.307511 F100.000000
G1 X52.720469 Y52.374597 F100.000000
G1 X52.682142 Y52.439403 F100.000000
G1 X52.639822 Y52.501676 F100.000000
G1 X52.593675 Y52.561168 F100.000000
G1 X52.543884 Y52.617645 F100.000000
G1 X52.490645 Y52.670884 F100.000000
G1 X52.434168 Y52.720675 F100.000000
G1 X52.374676 Y52.766822 F100.000000
G1 X52.312403 Y52.809142 F100.000000
G1 X52.247597 Y52.847469 F100.000000
G1 X52.180511 Y52.881650 F100.000000
G1 X52.111412 Y52.911552 F100.000000
G1 X52.040572 Y52.937056 F100.000000
G1 X51.968270 Y52.958062 F100.000000
G1 X51.894792 Y52.974486 F100.000000
G1 X51.820427 Y52.986264 F100.000000
G1 X51.745469 Y52.993350 F100.000000
G1 X51.670215 Y52.995715 F100.000000
G1 X51.594961 Y52.993350 F100.000000
G1 X51.520003 Y52.986264 F100.000000
G1 X51.445638 Y52.974486 F100.000000
G1 X51.372160 Y52.958062 F100.000000
G1 X51.299858 Y52.937056 F100.000000
G1 X51.229018 Y52.911552 F100.000000
G1 X51.159919 Y52.881650 F100.000000
G1 X51.092833 Y52.847469 F100.000000
G1 X51.028027 Y52.809142 F100.000000
G1 X50.965754 Y52.766822 F100.000000
G1 X50.906262 Y52.720675 F100.000000
G1 X50.849785 Y52.670884 F100.000000
G1 X50.796546 Y52.617645 F100.000000
G1 X50.746755 Y52.561168 F100.000000
G1 X50.700608 Y52.501676 F100.000000
G1 X50.658288 Y52.439403 F100.000000
G1 X50.619961 Y52.374597 F100.000000
G1 X50.585780 Y52.307511 F100.000000
G1 X50.555878 Y52.238412 F100.000000
G1 X50.530374 Y52.167572 F100.000000
G1 X50.509368 Y52.095270 F100.000000
G1 X50.492944 Y52.021792 F100.000000
G1 X50.481166 Y51.947427 F100.000000
G1 X50.474080 Y51.872469 F100.000000
G1 X50.471715 Y51.797215 F100.000000
G1 X50.474080 Y51.721961 F100.000000
G1 X50.481166 Y51.647003 F100.000000
G1 X50.492944 Y51.572638 F100.000000
G1 X50.509368 Y51.499160 F100.000000
G1 X50.530374 Y51.426858 F100.000000
G1 X50.555878 Y51.356018 F100.000000
G1 X50.575526 Y51.310613 F100.000000
G1 X47.942628 Y48.677715 F100.000000
G1 X46.534715 Y48.677715 F100.000000
G1 Y46.280715 F100.000000
G0 Z2.000000
G0 X41.953825 Y53.801979
G1 Z-0.040000 F60.000000
G1 Y52.664924 F100.000000
G1 X41.906546 Y52.617645 F100.000000
G1 X41.856755 Y52.561168 F100.000000
G1 X41.810608 Y52.501676 F100.000000
G1 X41.768288 Y52.439403 F100.000000
G1 X41.729961 Y52.374597 F100.000000
G1 X41.695780 Y52.307511 F100.000000
G1 X41.665878 Y52.238412 F100.000000
G1 X41.640374 Y52.167572 F100.000000
G1 X41.619368 Y52.095270 F100.000000
G1 X41.602944 Y52.021792 F100.000000
G1 X41.591166 Y51.947427 F100.000000
G1 X41.584080 Y51.872469 F100.000000
G1 X41.581715 Y51.797215 F100.000000
G1 X41.584080 Y51.721961 F100.000000
G1 X41.591166 Y51.647003 F100.000000
G1 X41.602944 Y51.572638 F100.000000
G1 X41.619368 Y51.499160 F100.000000
G1 X41.640374 Y51.426858 F100.000000
G1 X41.665878 Y51.356018 F100.000000
G1 X41.695780 Y51.286919 F100.000000
G1 X41.729961 Y51.219833 F100.000000
G1 X41.768288 Y51.155027 F100.000000
G1 X41.810608 Y51.092754 F100.000000
G1 X41.856755 Y51.033262 F100.000000
G1 X41.906546 Y50.976785 F100.000000
G1 X41.959785 Y50.923546 F100.000000
G1 X42.016262 Y50.873755 F100.000000
G1 X42.075754 Y50.827608 F100.000000
G1 X42.138027 Y50.785288 F100.000000
G1 X42.202833 Y50.746961 F100.000000
G1 X42.269919 Y50.712780 F100.000000
G1 X42.339018 Y50.682878 F100.000000
G1 X42.409858 Y50.657374 F100.000000
G1 X42.482160 Y50.636368 F100.000000
G1 X42.555638 Y50.619944 F100.000000
G1 X42.630003 Y50.608166 F100.000000
G1 X42.704961 Y50.601080 F100.000000
G1 X42.780215 Y50.598715 F100.000000
G1 X42.855469 Y50.601080 F100.000000
G1 X42.930427 Y50.608166 F100.000000
G1 X43.004792 Y50.619944 F100.000000
G1 X43.078270 Y50.636368 F100.000000
G1 X43.150572 Y50.657374 F100.000000
G1 X43.221412 Y50.682878 F100.000000
G1 X43.290511 Y50.712780 F100.000000
G1 X43.357597 Y50.746961 F100.000000
G1 X43.422403 Y50.785288 F100.000000
G1 X43.484676 Y50.827608 F100.000000
G1 X43.544168 Y50.873755 F100.000000
G1 X43.600645 Y50.923546 F100.000000
G1 X43.653884 Y50.976785 F100.000000
G1 X43.703675 Y51.033262 F100.000000
G1 X43.749822 Y51.092754 F100.000000
G1 X43.792142 Y51.155027 F100.000000
G1 X43.830469 Y51.219833 F100.000000
G1 X43.864650 Y51.286919 F100.000000
G1 X43.894552 Y51.356018 F100.000000
G1 X43.920056 Y51.426858 F100.000000
G1 X43.941062 Y51.499160 F100.000000
G1 X43.957486 Y51.572638 F100.000000
G1 X43.969264 Y51.647003 F100.000000
G1 X43.976350 Y51.721961 F100.000000
G1 X43.978715 Y51.797215 F100.000000
G1 X43.976350 Y51.872469 F100.000000
G1 X43.969264 Y51.947427 F100.000000
G1 X43.957486 Y52.021792 F100.000000
G1 X43.941062 Y52.095270 F100.000000
G1 X43.920056 Y52.167572 F100.000000
G1 X43.894552 Y52.238412 F100.000000
G1 X43.864650 Y52.307511 F100.000000
G1 X43.830469 Y52.374597 F100.000000
G1 X43.792142 Y52.439403 F100.000000
G1 X43.749822 Y52.501676 F100.000000
G1 X43.703675 Y52.561168 F100.000000
G1 X43.653884 Y52.617645 F100.000000
G1 X43.600645 Y52.670884 F100.000000
G1 X43.544168 Y52.720675 F100.000000
G1 X43.484676 Y52.766822 F100.000000
G1 X43.422403 Y52.809142 F100.000000
G1 X43.357597 Y52.847469 F100.000000
G1 X43.352605 Y52.850012 F100.000000
G1 Y53.801979 F100.000000
G0 Z2.000000
G0 X46.754935 Y40.113215
G1 Z-0.040000 F60.000000
G1 Y44.685215 F100.000000
G1 X46.725080 Y44.816020 F100.000000
G1 X46.710057 Y44.949346 F100.000000
G1 X46.685859 Y44.987858 F100.000000
G1 X46.675738 Y45.032201 F100.000000
G1 X46.592085 Y45.137098 F100.000000
G1 X46.520702 Y45.250702 F100.000000
G1 X45.992935 Y45.778470 F100.000000
G1 Y46.587288 F100.000000
G1 X46.013645 Y46.605546 F100.000000
G1 X46.066884 Y46.658785 F100.000000
G1 X46.116675 Y46.715262 F100.000000
G1 X46.162822 Y46.774754 F100.000000
G1 X46.205142 Y46.837027 F100.000000
G1 X46.243469 Y46.901833 F100.000000
G1 X46.277650 Y46.968919 F100.000000
G1 X46.307552 Y47.038018 F100.000000
G1 X46.333056 Y47.108858 F100.000000
G1 X46.354062 Y47.181160 F100.000000
G1 X46.370486 Y47.254638 F100.000000
G1 X46.382264 Y47.329003 F100.000000
G1 X46.389350 Y47.403961 F100.000000
G1 X46.391715 Y47.479215 F100.000000
G1 X46.389350 Y47.554469 F100.000000
G1 X46.382264 Y47.629427 F100.000000
G1 X46.370486 Y47.703792 F100.000000
G1 X46.354062 Y47.777270 F100.000000
G1 X46.333056 Y47.849572 F100.000000
G1 X46.307552 Y47.920412 F100.000000
G1 X46.277650 Y47.989511 F100.000000
G1 X46.243469 Y48.056597 F100.000000
G1 X46.205142 Y48.121403 F100.000000
G1 X46.193595 Y48.138394 F100.000000
G1 Y54.080552 F100.000000
G0 Z2.000000
G0 X8.908935 Y8.571557
G1 Z-0.040000 F60.000000
G1 X8.953658 Y8.539064 F100.000000
G1 X9.130194 Y8.343000 F100.000000
G1 X9.262109 Y8.114517 F100.000000
G1 X9.343637 Y7.863600 F100.000000
G1 X9.371215 Y7.601215 F100.000000
G1 Y6.585215 F100.000000
G1 X9.343637 Y6.322830 F100.000000
G1 X9.262109 Y6.071913 F100.000000
G1 X9.130194 Y5.843430 F100.000000
G1 X8.953658 Y5.647366 F100.000000
G1 X8.740215 Y5.492291 F100.000000
G1 X8.499194 Y5.384982 F100.000000
G1 X8.241130 Y5.330128 F100.000000
G1 X7.977300 Y5.330128 F100.000000
G1 X7.719236 Y5.384982 F100.000000
G1 X7.478215 Y5.492291 F100.000000
G1 X7.264772 Y5.647366 F100.000000
G1 X7.088236 Y5.843430 F100.000000
G1 X6.956321 Y6.071913 F100.000000
G1 X6.874793 Y6.322830 F100.000000
G1 X6.847215 Y6.585215 F100.000000
G1 Y7.601215 F100.000000
G1 X6.874793 Y7.863600 F100.000000
G1 X6.956321 Y8.114517 F100.000000
G1 X7.088236 Y8.343000 F100.000000
G1 X7.264772 Y8.539064 F100.000000
G1 X7.309495 Y8.571557 F100.000000
G0 Z2.000000
G0 X11.448935
G1 Z-0.040000 F60.000000
G1 X11.493658 Y8.539064 F100.000000
G1 X11.670194 Y8.343000 F100.000000
G1 X11.802109 Y8.114517 F100.000000
G1 X11.883637 Y7.863600 F100.000000
G1 X11.911215 Y7.601215 F100.000000
G1 Y6.585215 F100.000000
G1 X11.883637 Y6.322830 F100.000000
G1 X11.802109 Y6.071913 F100.000000
G1 X11.670194 Y5.843430 F100.000000
G1 X11.493658 Y5.647366 F100.000000
G1 X11.280215 Y5.492291 F100.000000
G1 X11.039194 Y5.384982 F100.000000
G1 X10.781130 Y5.330128 F100.000000
G1 X10.517300 Y5.330128 F100.000000
G1 X10.259236 Y5.384982 F100.000000
G1 X10.018215 Y5.492291 F100.000000
G1 X9.804772 Y5.647366 F100.000000
G1 X9.628236 Y5.843430 F100.000000
G1 X9.496321 Y6.071913 F100.000000
G1 X9.414793 Y6.322830 F100.000000
G1 X9.387215 Y6.585215 F100.000000
G1 Y7.601215 F100.000000
G1 X9.414793 Y7.863600 F100.000000
G1 X9.496321 Y8.114517 F100.000000
G1 X9.628236 Y8.343000 F100.000000
G1 X9.804772 Y8.539064 F100.000000
G1 X9.849495 Y8.571557 F100.000000
G0 Z2.000000
G0 X13.988935 Y8.571557
G1 Z-0.040000 F60.000000
G1 X14.033658 Y8.539064 F100.000000
G1 X14.210194 Y8.343000 F100.000000
G1 X14.342109 Y8.114517 F100.000000
G1 X14.423637 Y7.863600 F100.000000
G1 X14.451215 Y7.601215 F100.000000
G1 Y6.585215 F100.000000
G1 X14.423637 Y6.322830 F100.000000
G1 X14.342109 Y6.071913 F100.000000
G1 X14.210194 Y5.843430 F100.000000
G1 X14.033658 Y5.647366 F100.000000
G1 X13.820215 Y5.492291 F100.000000
G1 X13.579194 Y5.384982 F100.000000
G1 X13.321130 Y5.330128 F100.000000
G1 X13.057300 Y5.330128 F100.000000
G1 X12.799236 Y5.384982 F100.000000
G1 X12.558215 Y5.492291 F100.000000
G1 X12.344772 Y5.647366 F100.000000
G1 X12.168236 Y5.843430 F100.000000
G1 X12.036321 Y6.071913 F100.000000
G1 X11.954793 Y6.322830 F100.000000
G1 X11.927215 Y6.585215 F100.000000
G1 Y7.601215 F100.000000
G1 X11.954793 Y7.863600 F100.000000
G1 X12.036321 Y8.114517 F100.000000
G1 X12.168236 Y8.343000 F100.000000
G1 X12.344772 Y8.539064 F100.000000
G1 X12.389495 Y8.571557 F100.000000
G0 Z2.000000
G0 X21.608935
G1 Z-0.040000 F60.000000
G1 X21.653658 Y8.539064 F100.000000
G1 X21.830194 Y8.343000 F100.000000
G1 X21.962109 Y8.114517 F100.000000
G1 X22.043637 Y7.863600 F100.000000
G1 X22.071215 Y7.601215 F100.000000
G1 Y6.585215 F100.000000
G1 X22.043637 Y6.322830 F100.000000
G1 X21.962109 Y6.071913 F100.000000
G1 X21.830194 Y5.843430 F100.000000
G1 X21.653658 Y5.647366 F100.000000
G1 X21.440215 Y5.492291 F100.000000
G1 X21.199194 Y5.384982 F100.000000
G1 X20.941130 Y5.330128 F100.000000
G1 X20.677300 Y5.330128 F100.000000
G1 X20.419236 Y5.384982 F100.000000
G1 X20.178215 Y5.492291 F100.000000
G1 X19.964772 Y5.647366 F100.000000
G1 X19.788236 Y5.843430 F100.000000
G1 X19.656321 Y6.071913 F100.000000
G1 X19.574793 Y6.322830 F100.000000
G1 X19.547215 Y6.585215 F100.000000
G1 Y7.601215 F100.000000
G1 X19.574793 Y7.863600 F100.000000
G1 X19.656321 Y8.114517 F100.000000
G1 X19.788236 Y8.343000 F100.000000
G1 X19.964772 Y8.539064 F100.000000
G1 X20.009495 Y8.571557 F100.000000
G0 Z2.000000
G0 X19.068935 Y8.571557
G1 Z-0.040000 F60.000000
G1 X19.113658 Y8.539064 F100.000000
G1 X19.290194 Y8.343000 F100.000000
G1 X19.422109 Y8.114517 F100.000000
G1 X19.503637 Y7.863600 F100.000000
G1 X19.531215 Y7.601215 F100.000000
G1 Y6.585215 F100.000000
G1 X19.503637 Y6.322830 F100.000000
G1 X19.422109 Y6.071913 F100.000000
G1 X19.290194 Y5.843430 F100.000000
G1 X19.113658 Y5.647366 F100.000000
G1 X18.900215 Y5.492291 F100.000000
G1 X18.659194 Y5.384982 F100.000000
G1 X18.401130 Y5.330128 F100.000000
G1 X18.137300 Y5.330128 F100.000000
G1 X17.879236 Y5.384982 F100.000000
G1 X17.638215 Y5.492291 F100.000000
G1 X17.424772 Y5.647366 F100.000000
G1 X17.248236 Y5.843430 F100.000000
G1 X17.116321 Y6.071913 F100.000000
G1 X17.034793 Y6.322830 F100.000000
G1 X17.007215 Y6.585215 F100.000000
G1 Y7.601215 F100.000000
G1 X17.034793 Y7.863600 F100.000000
G1 X17.116321 Y8.114517 F100.000000
G1 X17.248236 Y8.343000 F100.000000
G1 X17.424772 Y8.539064 F100.000000
G1 X17.469495 Y8.571557 F100.000000
G0 Z2.000000
G0 X16.528935 Y8.571557
G1 Z-0.040000 F60.000000
G1 X16.573658 Y8.539064 F100.000000
G1 X16.750194 Y8.343000 F100.000000
G1 X16.882109 Y8.114517 F100.000000
G1 X16.963637 Y7.863600 F100.000000
G1 X16.991215 Y7.601215 F100.000000
G1 Y6.585215 F100.000000
G1 X16.963637 Y6.322830 F100.000000
G1 X16.882109 Y6.071913 F100.000000
G1 X16.750194 Y5.843430 F100.000000
G1 X16.573658 Y5.647366 F100.000000
G1 X16.360215 Y5.492291 F100.000000
G1 X16.119194 Y5.384982 F100.000000
G1 X15.861130 Y5.330128 F100.000000
G1 X15.597300 Y5.330128 F100.000000
G1 X15.339236 Y5.384982 F100.000000
G1 X15.098215 Y5.492291 F100.000000
G1 X14.884772 Y5.647366 F100.000000
G1 X14.708236 Y5.843430 F100.000000
G1 X14.576321 Y6.071913 F100.000000
G1 X14.494793 Y6.322830 F100.000000
G1 X14.467215 Y6.585215 F100.000000
G1 Y7.601215 F100.000000
G1 X14.494793 Y7.863600 F100.000000
G1 X14.576321 Y8.114517 F100.000000
G1 X14.708236 Y8.343000 F100.000000
G1 X14.884772 Y8.539064 F100.000000
G1 X14.929495 Y8.571557 F100.000000
G0 Z2.000000
G0 X26.688935
G1 Z-0.040000 F60.000000
G1 X26.733658 Y8.539064 F100.000000
G1 X26.910194 Y8.343000 F100.000000
G1 X27.042109 Y8.114517 F100.000000
G1 X27.123637 Y7.863600 F100.000000
G1 X27.151215 Y7.601215 F100.000000
G1 Y6.585215 F100.000000
G1 X27.123637 Y6.322830 F100.000000
G1 X27.042109 Y6.071913 F100.000000
G1 X26.910194 Y5.843430 F100.000000
G1 X26.733658 Y5.647366 F100.000000
G1 X26.520215 Y5.492291 F100.000000
G1 X26.279194 Y5.384982 F100.000000
G1 X26.021130 Y5.330128 F100.000000
G1 X25.757300 Y5.330128 F100.000000
G1 X25.499236 Y5.384982 F100.000000
G1 X25.258215 Y5.492291 F100.000000
G1 X25.044772 Y5.647366 F100.000000
G1 X24.868236 Y5.843430 F100.000000
G1 X24.736321 Y6.071913 F100.000000
G1 X24.654793 Y6.322830 F100.000000
G1 X24.627215 Y6.585215 F100.000000
G1 Y7.601215 F100.000000
G1 X24.654793 Y7.863600 F100.000000
G1 X24.736321 Y8.114517 F100.000000
G1 X24.868236 Y8.343000 F100.000000
G1 X25.044772 Y8.539064 F100.000000
G1 X25.089495 Y8.571557 F100.000000
G0 Z2.000000
G0 X29.654106 Y6.293495
G1 Z-0.040000 F60.000000
G1 X29.582109 Y6.071913 F100.000000
G1 X29.450194 Y5.843430 F100.000000
G1 X29.273658 Y5.647366 F100.000000
G1 X29.060215 Y5.492291 F100.000000
G1 X28.819194 Y5.384982 F100.000000
G1 X28.561130 Y5.330128 F100.000000
G1 X28.297300 Y5.330128 F100.000000
G1 X28.039236 Y5.384982 F100.000000
G1 X27.798215 Y5.492291 F100.000000
G1 X27.584772 Y5.647366 F100.000000
G1 X27.408236 Y5.843430 F100.000000
G1 X27.276321 Y6.071913 F100.000000
G1 X27.194793 Y6.322830 F100.000000
G1 X27.167215 Y6.585215 F100.000000
G1 Y7.601215 F100.000000
G1 X27.194793 Y7.863600 F100.000000
G1 X27.276321 Y8.114517 F100.000000
G1 X27.408236 Y8.343000 F100.000000
G1 X27.584772 Y8.539064 F100.000000
G1 X27.798215 Y8.694139 F100.000000
G1 X28.039236 Y8.801448 F100.000000
G1 X28.297300 Y8.856302 F100.000000
G1 X28.561130 F100.000000
G1 X28.819194 Y8.801448 F100.000000
G1 X29.060215 Y8.694139 F100.000000
G1 X29.273658 Y8.539064 F100.000000
G1 X29.450194 Y8.343000 F100.000000
G1 X29.582109 Y8.114517 F100.000000
G1 X29.654106 Y7.892935 F100.000000
G0 Z2.000000
G0 X29.744324 Y7.892935
G1 Z-0.040000 F60.000000
G1 X29.816321 Y8.114517 F100.000000
G1 X29.948236 Y8.343000 F100.000000
G1 X30.124772 Y8.539064 F100.000000
G1 X30.169495 Y8.571557 F100.000000
G0 Z2.000000
G0 X31.768935 Y8.571557
G1 Z-0.040000 F60.000000
G1 X31.813658 Y8.539064 F100.000000
G1 X31.990194 Y8.343000 F100.000000
G1 X32.122109 Y8.114517 F100.000000
G1 X32.203637 Y7.863600 F100.000000
G1 X32.231215 Y7.601215 F100.000000
G1 Y6.585215 F100.000000
G1 X32.203637 Y6.322830 F100.000000
G1 X32.122109 Y6.071913 F100.000000
G1 X31.990194 Y5.843430 F100.000000
G1 X31.813658 Y5.647366 F100.000000
G1 X31.600215 Y5.492291 F100.000000
G1 X31.359194 Y5.384982 F100.000000
G1 X31.101130 Y5.330128 F100.000000
G1 X30.837300 Y5.330128 F100.000000
G1 X30.579236 Y5.384982 F100.000000
G1 X30.338215 Y5.492291 F100.000000
G1 X30.124772 Y5.647366 F100.000000
G1 X29.948236 Y5.843430 F100.000000
G1 X29.816321 Y6.071913 F100.000000
G1 X29.744324 Y6.293495 F100.000000
G0 Z2.000000
G0 X34.787215 Y7.601215
G1 Z-0.040000 F60.000000
G1 X34.814793 Y7.863600 F100.000000
G1 X34.896321 Y8.114517 F100.000000
G1 X35.028236 Y8.343000 F100.000000
G1 X35.204772 Y8.539064 F100.000000
G1 X35.418215 Y8.694139 F100.000000
G1 X35.659236 Y8.801448 F100.000000
G1 X35.917300 Y8.856302 F100.000000
G1 X36.181130 F100.000000
G1 X36.439194 Y8.801448 F100.000000
G1 X36.680215 Y8.694139 F100.000000
G1 X36.893658 Y8.539064 F100.000000
G1 X37.070194 Y8.343000 F100.000000
G1 X37.202109 Y8.114517 F100.000000
G1 X37.283637 Y7.863600 F100.000000
G1 X37.311215 Y7.601215 F100.000000
G1 Y6.585215 F100.000000
G1 X37.283637 Y6.322830 F100.000000
G1 X37.202109 Y6.071913 F100.000000
G1 X37.070194 Y5.843430 F100.000000
G1 X36.893658 Y5.647366 F100.000000
G1 X36.680215 Y5.492291 F100.000000
G1 X36.439194 Y5.384982 F100.000000
G1 X36.181130 Y5.330128 F100.000000
G1 X35.917300 Y5.330128 F100.000000
G1 X35.659236 Y5.384982 F100.000000
G1 X35.418215 Y5.492291 F100.000000
G1 X35.204772 Y5.647366 F100.000000
G1 X35.028236 Y5.843430 F100.000000
G1 X34.896321 Y6.071913 F100.000000
G1 X34.814793 Y6.322830 F100.000000
G1 X34.787215 Y6.585215 F100.000000
G1 Y7.601215 F100.000000
G0 Z2.000000
G0 X39.814106 Y6.293495
G1 Z-0.040000 F60.000000
G1 X39.742109 Y6.071913 F100.000000
G1 X39.610194 Y5.843430 F100.000000
G1 X39.433658 Y5.647366 F100.000000
G1 X39.220215 Y5.492291 F100.000000
G1 X38.979194 Y5.384982 F100.000000
G1 X38.721130 Y5.330128 F100.000000
G1 X38.457300 Y5.330128 F100.000000
G1 X38.199236 Y5.384982 F100.000000
G1 X37.958215 Y5.492291 F100.000000
G1 X37.744772 Y5.647366 F100.000000
G1 X37.568236 Y5.843430 F100.000000
G1 X37.436321 Y6.071913 F100.000000
G1 X37.354793 Y6.322830 F100.000000
G1 X37.327215 Y6.585215 F100.000000
G1 Y7.601215 F100.000000
G1 X37.354793 Y7.863600 F100.000000
G1 X37.436321 Y8.114517 F100.000000
G1 X37.568236 Y8.343000 F100.000000
G1 X37.744772 Y8.539064 F100.000000
G1 X37.958215 Y8.694139 F100.000000
G1 X38.199236 Y8.801448 F100.000000
G1 X38.457300 Y8.856302 F100.000000
G1 X38.721130 F100.000000
G1 X38.979194 Y8.801448 F100.000000
G1 X39.220215 Y8.694139 F100.000000
G1 X39.433658 Y8.539064 F100.000000
G1 X39.610194 Y8.343000 F100.000000
G1 X39.742109 Y8.114517 F100.000000
G1 X39.814106 Y7.892935 F100.000000
G0 Z2.000000
G0 X6.847215 Y55.861215
G1 Z-0.040000 F60.000000
G1 X6.874793 Y56.123600 F100.000000
G1 X6.956321 Y56.374517 F100.000000
G1 X7.088236 Y56.603000 F100.000000
G1 X7.264772 Y56.799064 F100.000000
G1 X7.478215 Y56.954139 F100.000000
G1 X7.719236 Y57.061448 F100.000000
G1 X7.977300 Y57.116302 F100.000000
G1 X8.241130 F100.000000
G1 X8.499194 Y57.061448 F100.000000
G1 X8.740215 Y56.954139 F100.000000
G1 X8.953658 Y56.799064 F100.000000
G1 X9.130194 Y56.603000 F100.000000
G1 X9.262109 Y56.374517 F100.000000
G1 X9.343637 Y56.123600 F100.000000
G1 X9.371215 Y55.861215 F100.000000
G1 Y54.845215 F100.000000
G1 X9.343637 Y54.582830 F100.000000
G1 X9.262109 Y54.331913 F100.000000
G1 X9.130194 Y54.103430 F100.000000
G1 X8.953658 Y53.907366 F100.000000
G1 X8.740215 Y53.752291 F100.000000
G1 X8.499194 Y53.644982 F100.000000
G1 X8.241130 Y53.590128 F100.000000
G1 X7.977300 F100.000000
G1 X7.719236 Y53.644982 F100.000000
G1 X7.478215 Y53.752291 F100.000000
G1 X7.264772 Y53.907366 F100.000000
G1 X7.088236 Y54.103430 F100.000000
G1 X6.956321 Y54.331913 F100.000000
G1 X6.874793 Y54.582830 F100.000000
G1 X6.847215 Y54.845215 F100.000000
G1 Y55.861215 F100.000000
G0 Z2.000000
G0 X9.387215
G1 Z-0.040000 F60.000000
G1 X9.414793 Y56.123600 F100.000000
G1 X9.496321 Y56.374517 F100.000000
G1 X9.628236 Y56.603000 F100.000000
G1 X9.804772 Y56.799064 F100.000000
G1 X10.018215 Y56.954139 F100.000000
G1 X10.259236 Y57.061448 F100.000000
G1 X10.517300 Y57.116302 F100.000000
G1 X10.781130 F100.000000
G1 X11.039194 Y57.061448 F100.000000
G1 X11.280215 Y56.954139 F100.000000
G1 X11.493658 Y56.799064 F100.000000
G1 X11.670194 Y56.603000 F100.000000
G1 X11.802109 Y56.374517 F100.000000
G1 X11.883637 Y56.123600 F100.000000
G1 X11.911215 Y55.861215 F100.000000
G1 Y54.845215 F100.000000
G1 X11.883637 Y54.582830 F100.000000
G1 X11.802109 Y54.331913 F100.000000
G1 X11.670194 Y54.103430 F100.000000
G1 X11.493658 Y53.907366 F100.000000
G1 X11.280215 Y53.752291 F100.000000
G1 X11.039194 Y53.644982 F100.000000
G1 X10.781130 Y53.590128 F100.000000
G1 X10.517300 F100.000000
G1 X10.259236 Y53.644982 F100.000000
G1 X10.018215 Y53.752291 F100.000000
G1 X9.804772 Y53.907366 F100.000000
G1 X9.628236 Y54.103430 F100.000000
G1 X9.496321 Y54.331913 F100.000000
G1 X9.414793 Y54.582830 F100.000000
G1 X9.387215 Y54.845215 F100.000000
G1 Y55.861215 F100.000000
G0 Z2.000000
G0 X12.389495 Y53.874873
G1 Z-0.040000 F60.000000
G1 X12.344772 Y53.907366 F100.000000
G1 X12.168236 Y54.103430 F100.000000
G1 X12.036321 Y54.331913 F100.000000
G1 X11.954793 Y54.582830 F100.000000
G1 X11.927215 Y54.845215 F100.000000
G1 Y55.861215 F100.000000
G1 X11.954793 Y56.123600 F100.000000
G1 X12.036321 Y56.374517 F100.000000
G1 X12.168236 Y56.603000 F100.000000
G1 X12.344772 Y56.799064 F100.000000
G1 X12.558215 Y56.954139 F100.000000
G1 X12.799236 Y57.061448 F100.000000
G1 X13.057300 Y57.116302 F100.000000
G1 X13.321130 F100.000000
G1 X13.579194 Y57.061448 F100.000000
G1 X13.820215 Y56.954139 F100.000000
G1 X14.033658 Y56.799064 F100.000000
G1 X14.210194 Y56.603000 F100.000000
G1 X14.342109 Y56.374517 F100.000000
G1 X14.423637 Y56.123600 F100.000000
G1 X14.451215 Y55.861215 F100.000000
G1 Y54.845215 F100.000000
G1 X14.423637 Y54.582830 F100.000000
G1 X14.342109 Y54.331913 F100.000000
G1 X14.210194 Y54.103430 F100.000000
G1 X14.033658 Y53.907366 F100.000000
G1 X13.988935 Y53.874873 F100.000000
G0 Z2.000000
G0 X14.929495 Y53.874873
G1 Z-0.040000 F60.000000
G1 X14.884772 Y53.907366 F100.000000
G1 X14.708236 Y54.103430 F100.000000
G1 X14.576321 Y54.331913 F100.000000
G1 X14.494793 Y54.582830 F100.000000
G1 X14.467215 Y54.845215 F100.000000
G1 Y55.861215 F100.000000
G1 X14.494793 Y56.123600 F100.000000
G1 X14.576321 Y56.374517 F100.000000
G1 X14.708236 Y56.603000 F100.000000
G1 X14.884772 Y56.799064 F100.000000
G1 X15.098215 Y56.954139 F100.000000
G1 X15.339236 Y57.061448 F100.000000
G1 X15.597300 Y57.116302 F100.000000
G1 X15.861130 F100.000000
G1 X16.119194 Y57.061448 F100.000000
G1 X16.360215 Y56.954139 F100.000000
G1 X16.573658 Y56.799064 F100.000000
G1 X16.750194 Y56.603000 F100.000000
G1 X16.882109 Y56.374517 F100.000000
G1 X16.963637 Y56.123600 F100.000000
G1 X16.991215 Y55.861215 F100.000000
G1 Y54.845215 F100.000000
G1 X16.963637 Y54.582830 F100.000000
G1 X16.882109 Y54.331913 F100.000000
G1 X16.750194 Y54.103430 F100.000000
G1 X16.573658 Y53.907366 F100.000000
G1 X16.528935 Y53.874873 F100.000000
G0 Z2.000000
G0 X17.469495
G1 Z-0.040000 F60.000000
G1 X17.424772 Y53.907366 F100.000000
G1 X17.248236 Y54.103430 F100.000000
G1 X17.116321 Y54.331913 F100.000000
G1 X17.034793 Y54.582830 F100.000000
G1 X17.007215 Y54.845215 F100.000000
G1 Y55.861215 F100.000000
G1 X17.034793 Y56.123600 F100.000000
G1 X17.116321 Y56.374517 F100.000000
G1 X17.248236 Y56.603000 F100.000000
G1 X17.424772 Y56.799064 F100.000000
G1 X17.638215 Y56.954139 F100.000000
G1 X17.879236 Y57.061448 F100.000000
G1 X18.137300 Y57.116302 F100.000000
G1 X18.401130 F100.000000
G1 X18.659194 Y57.061448 F100.000000
G1 X18.900215 Y56.954139 F100.000000
G1 X19.113658 Y56.799064 F100.000000
G1 X19.290194 Y56.603000 F100.000000
G1 X19.422109 Y56.374517 F100.000000
G1 X19.503637 Y56.123600 F100.000000
G1 X19.531215 Y55.861215 F100.000000
G1 Y54.845215 F100.000000
G1 X19.503637 Y54.582830 F100.000000
G1 X19.422109 Y54.331913 F100.000000
G1 X19.290194 Y54.103430 F100.000000
G1 X19.113658 Y53.907366 F100.000000
G1 X19.068935 Y53.874873 F100.000000
G0 Z2.000000
G0 X20.009495
G1 Z-0.040000 F60.000000
G1 X19.964772 Y53.907366 F100.000000
G1 X19.788236 Y54.103430 F100.000000
G1 X19.656321 Y54.331913 F100.000000
G1 X19.574793 Y54.582830 F100.000000
G1 X19.547215 Y54.845215 F100.000000
G1 Y55.861215 F100.000000
G1 X19.574793 Y56.123600 F100.000000
G1 X19.656321 Y56.374517 F100.000000
G1 X19.788236 Y56.603000 F100.000000
G1 X19.964772 Y56.799064 F100.000000
G1 X20.178215 Y56.954139 F100.000000
G1 X20.419236 Y57.061448 F100.000000
G1 X20.677300 Y57.116302 F100.000000
G1 X20.941130 F100.000000
G1 X21.199194 Y57.061448 F100.000000
G1 X21.440215 Y56.954139 F100.000000
G1 X21.653658 Y56.799064 F100.000000
G1 X21.830194 Y56.603000 F100.000000
G1 X21.962109 Y56.374517 F100.000000
G1 X22.043637 Y56.123600 F100.000000
G1 X22.071215 Y55.861215 F100.000000
G1 Y54.845215 F100.000000
G1 X22.043637 Y54.582830 F100.000000
G1 X21.962109 Y54.331913 F100.000000
G1 X21.830194 Y54.103430 F100.000000
G1 X21.653658 Y53.907366 F100.000000
G1 X21.608935 Y53.874873 F100.000000
G0 Z2.000000
G0 X22.803495 Y53.714322
G1 Z-0.040000 F60.000000
G1 X22.718215 Y53.752291 F100.000000
G1 X22.504772 Y53.907366 F100.000000
G1 X22.328236 Y54.103430 F100.000000
G1 X22.196321 Y54.331913 F100.000000
G1 X22.114793 Y54.582830 F100.000000
G1 X22.087215 Y54.845215 F100.000000
G1 Y55.861215 F100.000000
G1 X22.114793 Y56.123600 F100.000000
G1 X22.196321 Y56.374517 F100.000000
G1 X22.328236 Y56.603000 F100.000000
G1 X22.504772 Y56.799064 F100.000000
G1 X22.718215 Y56.954139 F100.000000
G1 X22.959236 Y57.061448 F100.000000
G1 X23.217300 Y57.116302 F100.000000
G1 X23.481130 F100.000000
G1 X23.739194 Y57.061448 F100.000000
G1 X23.980215 Y56.954139 F100.000000
G1 X24.193658 Y56.799064 F100.000000
G1 X24.370194 Y56.603000 F100.000000
G1 X24.502109 Y56.374517 F100.000000
G1 X24.583637 Y56.123600 F100.000000
G1 X24.611215 Y55.861215 F100.000000
G1 Y54.845215 F100.000000
G1 X24.583637 Y54.582830 F100.000000
G1 X24.502109 Y54.331913 F100.000000
G1 X24.402935 Y54.160138 F100.000000
G0 Z2.000000
G0 X25.089495 Y53.874873
G1 Z-0.040000 F60.000000
G1 X25.044772 Y53.907366 F100.000000
G1 X24.868236 Y54.103430 F100.000000
G1 X24.736321 Y54.331913 F100.000000
G1 X24.654793 Y54.582830 F100.000000
G1 X24.627215 Y54.845215 F100.000000
G1 Y55.861215 F100.000000
G1 X24.654793 Y56.123600 F100.000000
G1 X24.736321 Y56.374517 F100.000000
G1 X24.868236 Y56.603000 F100.000000
G1 X25.044772 Y56.799064 F100.000000
G1 X25.258215 Y56.954139 F100.000000
G1 X25.499236 Y57.061448 F100.000000
G1 X25.757300 Y57.116302 F100.000000
G1 X26.021130 F100.000000
G1 X26.279194 Y57.061448 F100.000000
G1 X26.520215 Y56.954139 F100.000000
G1 X26.733658 Y56.799064 F100.000000
G1 X26.910194 Y56.603000 F100.000000
G1 X27.042109 Y56.374517 F100.000000
G1 X27.123637 Y56.123600 F100.000000
G1 X27.151215 Y55.861215 F100.000000
G1 Y54.845215 F100.000000
G1 X27.123637 Y54.582830 F100.000000
G1 X27.042109 Y54.331913 F100.000000
G1 X26.910194 Y54.103430 F100.000000
G1 X26.733658 Y53.907366 F100.000000
G1 X26.688935 Y53.874873 F100.000000
G0 Z2.000000
G0 X29.153495
G1 Z-0.040000 F60.000000
G1 X29.108772 Y53.907366 F100.000000
G1 X28.932236 Y54.103430 F100.000000
G1 X28.800321 Y54.331913 F100.000000
G1 X28.718793 Y54.582830 F100.000000
G1 X28.691215 Y54.845215 F100.000000
G1 Y55.861215 F100.000000
G1 X28.718793 Y56.123600 F100.000000
G1 X28.800321 Y56.374517 F100.000000
G1 X28.932236 Y56.603000 F100.000000
G1 X29.108772 Y56.799064 F100.000000
G1 X29.322215 Y56.954139 F100.000000
G1 X29.563236 Y57.061448 F100.000000
G1 X29.821300 Y57.116302 F100.000000
G1 X30.085130 F100.000000
G1 X30.343194 Y57.061448 F100.000000
G1 X30.584215 Y56.954139 F100.000000
G1 X30.797658 Y56.799064 F100.000000
G1 X30.974194 Y56.603000 F100.000000
G1 X31.106109 Y56.374517 F100.000000
G1 X31.187637 Y56.123600 F100.000000
G1 X31.215215 Y55.861215 F100.000000
G1 Y54.845215 F100.000000
G1 X31.187637 Y54.582830 F100.000000
G1 X31.106109 Y54.331913 F100.000000
G1 X30.974194 Y54.103430 F100.000000
G1 X30.797658 Y53.907366 F100.000000
G1 X30.752935 Y53.874873 F100.000000
G0 Z2.000000
G0 X31.693495 Y53.874873
G1 Z-0.040000 F60.000000
G1 X31.648772 Y53.907366 F100.000000
G1 X31.472236 Y54.103430 F100.000000
G1 X31.340321 Y54.331913 F100.000000
G1 X31.258793 Y54.582830 F100.000000
G1 X31.231215 Y54.845215 F100.000000
G1 Y55.861215 F100.000000
G1 X31.258793 Y56.123600 F100.000000
G1 X31.340321 Y56.374517 F100.000000
G1 X31.472236 Y56.603000 F100.000000
G1 X31.648772 Y56.799064 F100.000000
G1 X31.862215 Y56.954139 F100.000000
G1 X32.103236 Y57.061448 F100.000000
G1 X32.361300 Y57.116302 F100.000000
G1 X32.625130 F100.000000
G1 X32.883194 Y57.061448 F100.000000
G1 X33.124215 Y56.954139 F100.000000
G1 X33.337658 Y56.799064 F100.000000
G1 X33.514194 Y56.603000 F100.000000
G1 X33.646109 Y56.374517 F100.000000
G1 X33.727637 Y56.123600 F100.000000
G1 X33.755215 Y55.861215 F100.000000
G1 Y54.845215 F100.000000
G1 X33.727637 Y54.582830 F100.000000
G1 X33.646109 Y54.331913 F100.000000
G1 X33.514194 Y54.103430 F100.000000
G1 X33.337658 Y53.907366 F100.000000
G1 X33.292935 Y53.874873 F100.000000
G0 Z2.000000
G0 X34.233495 Y53.874873
G1 Z-0.040000 F60.000000
G1 X34.188772 Y53.907366 F100.000000
G1 X34.012236 Y54.103430 F100.000000
G1 X33.880321 Y54.331913 F100.000000
G1 X33.798793 Y54.582830 F100.000000
G1 X33.771215 Y54.845215 F100.000000
G1 Y55.861215 F100.000000
G1 X33.798793 Y56.123600 F100.000000
G1 X33.880321 Y56.374517 F100.000000
G1 X34.012236 Y56.603000 F100.000000
G1 X34.188772 Y56.799064 F100.000000
G1 X34.402215 Y56.954139 F100.000000
G1 X34.643236 Y57.061448 F100.000000
G1 X34.901300 Y57.116302 F100.000000
G1 X35.165130 F100.000000
G1 X35.423194 Y57.061448 F100.000000
G1 X35.664215 Y56.954139 F100.000000
G1 X35.877658 Y56.799064 F100.000000
G1 X36.054194 Y56.603000 F100.000000
G1 X36.186109 Y56.374517 F100.000000
G1 X36.267637 Y56.123600 F100.000000
G1 X36.295215 Y55.861215 F100.000000
G1 Y54.845215 F100.000000
G1 X36.267637 Y54.582830 F100.000000
G1 X36.186109 Y54.331913 F100.000000
G1 X36.054194 Y54.103430 F100.000000
G1 X35.877658 Y53.907366 F100.000000
G1 X35.832935 Y53.874873 F100.000000
G0 Z2.000000
G0 X37.027495 Y53.714322
G1 Z-0.040000 F60.000000
G1 X36.942215 Y53.752291 F100.000000
G1 X36.728772 Y53.907366 F100.000000
G1 X36.552236 Y54.103430 F100.000000
G1 X36.420321 Y54.331913 F100.000000
G1 X36.338793 Y54.582830 F100.000000
G1 X36.311215 Y54.845215 F100.000000
G1 Y55.861215 F100.000000
G1 X36.338793 Y56.123600 F100.000000
G1 X36.420321 Y56.374517 F100.000000
G1 X36.552236 Y56.603000 F100.000000
G1 X36.728772 Y56.799064 F100.000000
G1 X36.942215 Y56.954139 F100.000000
G1 X37.183236 Y57.061448 F100.000000
G1 X37.441300 Y57.116302 F100.000000
G1 X37.705130 F100.000000
G1 X37.963194 Y57.061448 F100.000000
G1 X38.204215 Y56.954139 F100.000000
G1 X38.417658 Y56.799064 F100.000000
G1 X38.594194 Y56.603000 F100.000000
G1 X38.726109 Y56.374517 F100.000000
G1 X38.807637 Y56.123600 F100.000000
G1 X38.835215 Y55.861215 F100.000000
G1 Y54.845215 F100.000000
G1 X38.807637 Y54.582830 F100.000000
G1 X38.726109 Y54.331913 F100.000000
G1 X38.626935 Y54.160138 F100.000000
G0 Z2.000000
G0 X39.313495 Y53.874873
G1 Z-0.040000 F60.000000
G1 X39.268772 Y53.907366 F100.000000
G1 X39.092236 Y54.103430 F100.000000
G1 X38.960321 Y54.331913 F100.000000
G1 X38.878793 Y54.582830 F100.000000
G1 X38.851215 Y54.845215 F100.000000
G1 Y55.861215 F100.000000
G1 X38.878793 Y56.123600 F100.000000
G1 X38.960321 Y56.374517 F100.000000
G1 X39.092236 Y56.603000 F100.000000
G1 X39.268772 Y56.799064 F100.000000
G1 X39.482215 Y56.954139 F100.000000
G1 X39.723236 Y57.061448 F100.000000
G1 X39.981300 Y57.116302 F100.000000
G1 X40.245130 F100.000000
G1 X40.503194 Y57.061448 F100.000000
G1 X40.744215 Y56.954139 F100.000000
G1 X40.957658 Y56.799064 F100.000000
G1 X41.134194 Y56.603000 F100.000000
G1 X41.266109 Y56.374517 F100.000000
G1 X41.347637 Y56.123600 F100.000000
G1 X41.375215 Y55.861215 F100.000000
G1 Y54.845215 F100.000000
G1 X41.347637 Y54.582830 F100.000000
G1 X41.266109 Y54.331913 F100.000000
G1 X41.134194 Y54.103430 F100.000000
G1 X40.957658 Y53.907366 F100.000000
G1 X40.912935 Y53.874873 F100.000000
G0 Z2.000000
G0 X41.953825 Y53.801979
G1 Z-0.040000 F60.000000
G1 X41.808772 Y53.907366 F100.000000
G1 X41.632236 Y54.103430 F100.000000
G1 X41.500321 Y54.331913 F100.000000
G1 X41.418793 Y54.582830 F100.000000
G1 X41.391215 Y54.845215 F100.000000
G1 Y55.861215 F100.000000
G1 X41.418793 Y56.123600 F100.000000
G1 X41.500321 Y56.374517 F100.000000
G1 X41.632236 Y56.603000 F100.000000
G1 X41.808772 Y56.799064 F100.000000
G1 X42.022215 Y56.954139 F100.000000
G1 X42.263236 Y57.061448 F100.000000
G1 X42.521300 Y57.116302 F100.000000
G1 X42.785130 F100.000000
G1 X43.043194 Y57.061448 F100.000000
G1 X43.284215 Y56.954139 F100.000000
G1 X43.497658 Y56.799064 F100.000000
G1 X43.674194 Y56.603000 F100.000000
G1 X43.806109 Y56.374517 F100.000000
G1 X43.887637 Y56.123600 F100.000000
G1 X43.915215 Y55.861215 F100.000000
G1 Y54.845215 F100.000000
G1 X43.887637 Y54.582830 F100.000000
G1 X43.806109 Y54.331913 F100.000000
G1 X43.674194 Y54.103430 F100.000000
G1 X43.497658 Y53.907366 F100.000000
G1 X43.352605 Y53.801979 F100.000000
G0 Z2.000000
G0 X44.192835 Y54.080552
G1 Z-0.040000 F60.000000
G1 X44.172236 Y54.103430 F100.000000
G1 X44.040321 Y54.331913 F100.000000
G1 X43.958793 Y54.582830 F100.000000
G1 X43.931215 Y54.845215 F100.000000
G1 Y55.861215 F100.000000
G1 X43.958793 Y56.123600 F100.000000
G1 X44.040321 Y56.374517 F100.000000
G1 X44.172236 Y56.603000 F100.000000
G1 X44.348772 Y56.799064 F100.000000
G1 X44.562215 Y56.954139 F100.000000
G1 X44.803236 Y57.061448 F100.000000
G1 X45.061300 Y57.116302 F100.000000
G1 X45.325130 F100.000000
G1 X45.583194 Y57.061448 F100.000000
G1 X45.824215 Y56.954139 F100.000000
G1 X46.037658 Y56.799064 F100.000000
G1 X46.214194 Y56.603000 F100.000000
G1 X46.346109 Y56.374517 F100.000000
G1 X46.427637 Y56.123600 F100.000000
G1 X46.455215 Y55.861215 F100.000000
G1 Y54.845215 F100.000000
G1 X46.427637 Y54.582830 F100.000000
G1 X46.346109 Y54.331913 F100.000000
G1 X46.214194 Y54.103430 F100.000000
G1 X46.193595 Y54.080552 F100.000000
G0 Z2.000000
G0 X46.471215 Y55.861215
G1 Z-0.040000 F60.000000
G1 X46.498793 Y56.123600 F100.000000
G1 X46.580321 Y56.374517 F100.000000
G1 X46.712236 Y56.603000 F100.000000
G1 X46.888772 Y56.799064 F100.000000
G1 X47.102215 Y56.954139 F100.000000
G1 X47.343236 Y57.061448 F100.000000
G1 X47.601300 Y57.116302 F100.000000
G1 X47.865130 F100.000000
G1 X48.123194 Y57.061448 F100.000000
G1 X48.364215 Y56.954139 F100.000000
G1 X48.577658 Y56.799064 F100.000000
G1 X48.754194 Y56.603000 F100.000000
G1 X48.886109 Y56.374517 F100.000000
G1 X48.967637 Y56.123600 F100.000000
G1 X48.995215 Y55.861215 F100.000000
G1 Y54.845215 F100.000000
G1 X48.967637 Y54.582830 F100.000000
G1 X48.886109 Y54.331913 F100.000000
G1 X48.754194 Y54.103430 F100.000000
G1 X48.577658 Y53.907366 F100.000000
G1 X48.364215 Y53.752291 F100.000000
G1 X48.123194 Y53.644982 F100.000000
G1 X47.865130 Y53.590128 F100.000000
G1 X47.601300 F100.000000
G1 X47.343236 Y53.644982 F100.000000
G1 X47.102215 Y53.752291 F100.000000
G1 X46.888772 Y53.907366 F100.000000
G1 X46.712236 Y54.103430 F100.000000
G1 X46.580321 Y54.331913 F100.000000
G1 X46.498793 Y54.582830 F100.000000
G1 X46.471215 Y54.845215 F100.000000
G1 Y55.861215 F100.000000
G0 Z2.000000
G0 X34.308935 Y8.571557
G1 Z-0.040000 F60.000000
G1 X34.353658 Y8.539064 F100.000000
G1 X34.530194 Y8.343000 F100.000000
G1 X34.662109 Y8.114517 F100.000000
G1 X34.743637 Y7.863600 F100.000000
G1 X34.771215 Y7.601215 F100.000000
G1 Y6.585215 F100.000000
G1 X34.743637 Y6.322830 F100.000000
G1 X34.662109 Y6.071913 F100.000000
G1 X34.530194 Y5.843430 F100.000000
G1 X34.353658 Y5.647366 F100.000000
G1 X34.140215 Y5.492291 F100.000000
G1 X33.899194 Y5.384982 F100.000000
G1 X33.641130 Y5.330128 F100.000000
G1 X33.377300 Y5.330128 F100.000000
G1 X33.119236 Y5.384982 F100.000000
G1 X32.878215 Y5.492291 F100.000000
G1 X32.664772 Y5.647366 F100.000000
G1 X32.488236 Y5.843430 F100.000000
G1 X32.356321 Y6.071913 F100.000000
G1 X32.274793 Y6.322830 F100.000000
G1 X32.247215 Y6.585215 F100.000000
G1 Y7.601215 F100.000000
G1 X32.274793 Y7.863600 F100.000000
G1 X32.356321 Y8.114517 F100.000000
G1 X32.488236 Y8.343000 F100.000000
G1 X32.664772 Y8.539064 F100.000000
G1 X32.709495 Y8.571557 F100.000000
G0 Z2.000000
G0 X53.900715 Y55.353215
G1 Z-0.040000 F60.000000
G1 X53.905586 Y55.198217 F100.000000
G1 X53.920180 Y55.043830 F100.000000
G1 X53.944439 Y54.890664 F100.000000
G1 X53.978267 Y54.739324 F100.000000
G1 X54.021532 Y54.590407 F100.000000
G1 X54.074062 Y54.444500 F100.000000
G1 X54.135649 Y54.302179 F100.000000
G1 X54.206052 Y54.164006 F100.000000
G1 X54.284992 Y54.030527 F100.000000
G1 X54.372157 Y53.902267 F100.000000
G1 X54.467203 Y53.779734 F100.000000
G1 X54.569756 Y53.663410 F100.000000
G1 X54.679410 Y53.553756 F100.000000
G1 X54.795734 Y53.451203 F100.000000
G1 X54.918267 Y53.356157 F100.000000
G1 X55.046527 Y53.268992 F100.000000
G1 X55.180006 Y53.190052 F100.000000
G1 X55.318179 Y53.119649 F100.000000
G1 X55.460500 Y53.058062 F100.000000
G1 X55.606407 Y53.005532 F100.000000
G1 X55.755324 Y52.962267 F100.000000
G1 X55.906664 Y52.928439 F100.000000
G1 X56.059830 Y52.904180 F100.000000
G1 X56.214217 Y52.889586 F100.000000
G1 X56.369215 Y52.884715 F100.000000
G1 X56.524213 Y52.889586 F100.000000
G1 X56.678600 Y52.904180 F100.000000
G1 X56.831766 Y52.928439 F100.000000
G1 X56.983106 Y52.962267 F100.000000
G1 X57.132023 Y53.005532 F100.000000
G1 X57.277930 Y53.058062 F100.000000
G1 X57.420251 Y53.119649 F100.000000
G1 X57.558424 Y53.190052 F100.000000
G1 X57.691903 Y53.268992 F100.000000
G1 X57.820163 Y53.356157 F100.000000
G1 X57.942696 Y53.451203 F100.000000
G1 X58.059020 Y53.553756 F100.000000
G1 X58.168674 Y53.663410 F100.000000
G1 X58.271227 Y53.779734 F100.000000
G1 X58.366273 Y53.902267 F100.000000
G1 X58.453438 Y54.030527 F100.000000
G1 X58.532378 Y54.164006 F100.000000
G1 X58.602781 Y54.302179 F100.000000
G1 X58.664368 Y54.444500 F100.000000
G1 X58.716898 Y54.590407 F100.000000
G1 X58.760163 Y54.739324 F100.000000
G1 X58.793991 Y54.890664 F100.000000
G1 X58.818250 Y55.043830 F100.000000
G1 X58.832844 Y55.198217 F100.000000
G1 X58.837715 Y55.353215 F100.000000
G1 X58.832844 Y55.508213 F100.000000
G1 X58.818250 Y55.662600 F100.000000
G1 X58.793991 Y55.815766 F100.000000
G1 X58.760163 Y55.967106 F100.000000
G1 X58.716898 Y56.116023 F100.000000
G1 X58.664368 Y56.261930 F100.000000
G1 X58.602781 Y56.404251 F100.000000
G1 X58.532378 Y56.542424 F100.000000
G1 X58.453438 Y56.675903 F100.000000
G1 X58.366273 Y56.804163 F100.000000
G1 X58.271227 Y56.926696 F100.000000
G1 X58.168674 Y57.043020 F100.000000
G1 X58.059020 Y57.152674 F100.000000
G1 X57.942696 Y57.255227 F100.000000
G1 X57.820163 Y57.350273 F100.000000
G1 X57.691903 Y57.437438 F100.000000
G1 X57.558424 Y57.516378 F100.000000
G1 X57.420251 Y57.586781 F100.000000
G1 X57.277930 Y57.648368 F100.000000
G1 X57.132023 Y57.700898 F100.000000
G1 X56.983106 Y57.744163 F100.000000
G1 X56.831766 Y57.777991 F100.000000
G1 X56.678600 Y57.802250 F100.000000
G1 X56.524213 Y57.816844 F100.000000
G1 X56.369215 Y57.821715 F100.000000
G1 X56.214217 Y57.816844 F100.000000
G1 X56.059830 Y57.802250 F100.000000
G1 X55.906664 Y57.777991 F100.000000
G1 X55.755324 Y57.744163 F100.000000
G1 X55.606407 Y57.700898 F100.000000
G1 X55.460500 Y57.648368 F100.000000
G1 X55.318179 Y57.586781 F100.000000
G1 X55.180006 Y57.516378 F100.000000
G1 X55.046527 Y57.437438 F100.000000
G1 X54.918267 Y57.350273 F100.000000
G1 X54.795734 Y57.255227 F100.000000
G1 X54.679410 Y57.152674 F100.000000
G1 X54.569756 Y57.043020 F100.000000
G1 X54.467203 Y56.926696 F100.000000
G1 X54.372157 Y56.804163 F100.000000
G1 X54.284992 Y56.675903 F100.000000
G1 X54.206052 Y56.542424 F100.000000
G1 X54.135649 Y56.404251 F100.000000
G1 X54.074062 Y56.261930 F100.000000
G1 X54.021532 Y56.116023 F100.000000
G1 X53.978267 Y55.967106 F100.000000
G1 X53.944439 Y55.815766 F100.000000
G1 X53.920180 Y55.662600 F100.000000
G1 X53.905586 Y55.508213 F100.000000
G1 X53.900715 Y55.353215 F100.000000
G0 Z2.000000
G0 X55.170715 Y7.093215
G1 Z-0.040000 F60.000000
G1 X55.175586 Y6.938217 F100.000000
G1 X55.190180 Y6.783830 F100.000000
G1 X55.214439 Y6.630664 F100.000000
G1 X55.248267 Y6.479324 F100.000000
G1 X55.291532 Y6.330407 F100.000000
G1 X55.344062 Y6.184500 F100.000000
G1 X55.405649 Y6.042179 F100.000000
G1 X55.476052 Y5.904006 F100.000000
G1 X55.554992 Y5.770527 F100.000000
G1 X55.642157 Y5.642267 F100.000000
G1 X55.737203 Y5.519734 F100.000000
G1 X55.839756 Y5.403410 F100.000000
G1 X55.949410 Y5.293756 F100.000000
G1 X56.065734 Y5.191203 F100.000000
G1 X56.188267 Y5.096157 F100.000000
G1 X56.316527 Y5.008992 F100.000000
G1 X56.450006 Y4.930052 F100.000000
G1 X56.588179 Y4.859649 F100.000000
G1 X56.730500 Y4.798062 F100.000000
G1 X56.876407 Y4.745532 F100.000000
G1 X57.025324 Y4.702267 F100.000000
G1 X57.176664 Y4.668439 F100.000000
G1 X57.329830 Y4.644180 F100.000000
G1 X57.484217 Y4.629586 F100.000000
G1 X57.639215 Y4.624715 F100.000000
G1 X57.794213 Y4.629586 F100.000000
G1 X57.948600 Y4.644180 F100.000000
G1 X58.101766 Y4.668439 F100.000000
G1 X58.253106 Y4.702267 F100.000000
G1 X58.402023 Y4.745532 F100.000000
G1 X58.547930 Y4.798062 F100.000000
G1 X58.690251 Y4.859649 F100.000000
