(Generated by pygerber2gcode_cui_MOD.py )
( 2013-05-29 00:15:06 )
(Initialize)
G92 X0.000000 Y0.000000 Z0.000000

(Start form here)
G0 Z2.000000
G0 X58.713215 Y57.951215
G1 Z-0.271429 F30.000000
G1 X2.579215 F50.000000
G1 Y4.103215 F50.000000
G1 Y3.849215 F50.000000
G1 X59.983215 F50.000000
G1 Y57.951215 F50.000000
G1 X58.713215 F50.000000
G1 Z-0.542857 F30.000000
G1 X2.579215 F50.000000
G1 Y4.103215 F50.000000
G1 Y3.849215 F50.000000
G1 X59.983215 F50.000000
G1 Y57.951215 F50.000000
G1 X58.713215 F50.000000
G1 Z-0.814286 F30.000000
G1 X2.579215 F50.000000
G1 Y4.103215 F50.000000
G1 Y3.849215 F50.000000
G1 X59.983215 F50.000000
G1 Y57.951215 F50.000000
G1 X58.713215 F50.000000
G1 Z-1.085714 F30.000000
G1 X2.579215 F50.000000
G1 Y4.103215 F50.000000
G1 Y3.849215 F50.000000
G1 X59.983215 F50.000000
G1 Y57.951215 F50.000000
G1 X58.713215 F50.000000
G1 Z-1.357143 F30.000000
G1 X2.579215 F50.000000
G1 Y4.103215 F50.000000
G1 Y3.849215 F50.000000
G1 X59.983215 F50.000000
G1 Y57.951215 F50.000000
G1 X58.713215 F50.000000
G1 Z-1.628571 F30.000000
G1 X2.579215 F50.000000
G1 Y4.103215 F50.000000
G1 Y3.849215 F50.000000
G1 X59.983215 F50.000000
G1 Y57.951215 F50.000000
G1 X58.713215 F50.000000
G1 Z-1.900000 F30.000000
G1 X2.579215 F50.000000
G1 Y4.103215 F50.000000
G1 Y3.849215 F50.000000
G1 X59.983215 F50.000000
G1 Y57.951215 F50.000000
G1 X58.713215 F50.000000

(Goto to Initial position)
G0 Z2.000000
G0 X0.000000 Y0.000000
G0 Z0.000000
