(Generated by ./pygerber2gcode_cui_MOD.py )
( 2013-05-30 00:31:03 )
(Initialize)

(Start form here)
G0 Z2.000000
G0 X26.584337 Y13.526169
G1 Z-0.040000 F60.000000
G1 X26.505886 Y13.507033 F100.000000
G1 X26.427159 Y13.489064 F100.000000
G1 X26.424929 Y13.487286 F100.000000
G1 X26.422159 Y13.486610 F100.000000
G1 X26.325639 Y13.438350 F100.000000
G1 X26.231461 Y13.360931 F100.000000
G1 X26.229701 Y13.362410 F100.000000
G1 X26.196431 Y13.402007 F100.000000
G1 X26.166567 Y13.415457 F100.000000
G1 X26.141491 Y13.436527 F100.000000
G1 X26.047511 Y13.484787 F100.000000
G1 X26.042753 Y13.486002 F100.000000
G1 X26.038914 Y13.489064 F100.000000
G1 X25.962104 Y13.506595 F100.000000
G1 X25.885768 Y13.526087 F100.000000
G1 X25.880954 Y13.525117 F100.000000
G1 X25.876166 Y13.526210 F100.000000
G1 X25.731386 F100.000000
G1 X25.726599 Y13.525117 F100.000000
G1 X25.721785 Y13.526087 F100.000000
G1 X25.677056 Y13.514666 F100.000000
G1 X25.672613 Y13.516806 F100.000000
G1 X25.505680 F100.000000
G1 X25.355278 Y13.444376 F100.000000
G1 X25.337435 Y13.422001 F100.000000
G1 X25.276792 Y13.603012 F100.000000
G1 X25.252000 Y13.643661 F100.000000
G1 X25.235575 Y13.688351 F100.000000
G1 X25.209081 Y13.714030 F100.000000
G1 X25.189870 Y13.745529 F100.000000
G1 X25.149896 Y13.771396 F100.000000
G1 X25.115707 Y13.804533 F100.000000
G1 X25.080696 Y13.816174 F100.000000
G1 X25.049719 Y13.836219 F100.000000
G1 X25.002481 Y13.842180 F100.000000
G1 X24.957300 Y13.857202 F100.000000
G1 X24.920705 Y13.852499 F100.000000
G1 X24.884100 Y13.857118 F100.000000
G1 X24.838953 Y13.841993 F100.000000
G1 X24.791729 Y13.835924 F100.000000
G1 X24.760799 Y13.815809 F100.000000
G1 X24.725814 Y13.804088 F100.000000
G1 X24.691701 Y13.770873 F100.000000
G1 X24.651786 Y13.744915 F100.000000
G1 X24.632647 Y13.713372 F100.000000
G1 X24.606212 Y13.687632 F100.000000
G1 X24.589889 Y13.642905 F100.000000
G1 X24.565190 Y13.602199 F100.000000
G1 X24.232450 Y12.601439 F100.000000
G1 X24.216351 Y12.435285 F100.000000
G1 X24.273938 Y12.278599 F100.000000
G1 X24.393806 Y12.162417 F100.000000
G1 X24.552212 Y12.109748 F100.000000
G1 X24.717784 Y12.131026 F100.000000
G1 X24.857726 Y12.222035 F100.000000
G1 X24.922341 Y12.328523 F100.000000
G1 X24.987663 Y12.221421 F100.000000
G1 X25.127813 Y12.130731 F100.000000
G1 X25.293433 Y12.109832 F100.000000
G1 X25.427875 Y12.154873 F100.000000
G1 X25.505680 Y12.117404 F100.000000
G1 X25.672613 F100.000000
G1 X25.803776 Y12.180569 F100.000000
G1 X25.934940 Y12.117404 F100.000000
G1 X26.101873 F100.000000
G1 X26.252274 Y12.189834 F100.000000
G1 X26.282326 Y12.227518 F100.000000
G1 X26.294197 Y12.221707 F100.000000
G1 X26.325639 Y12.195860 F100.000000
G1 X26.422159 Y12.147600 F100.000000
G1 X26.424929 Y12.146924 F100.000000
G1 X26.427159 Y12.145146 F100.000000
G1 X26.505886 Y12.127177 F100.000000
G1 X26.584337 Y12.108041 F100.000000
G1 X26.587126 Y12.108635 F100.000000
G1 X26.589906 Y12.108000 F100.000000
G1 X26.828666 F100.000000
G1 X26.833454 Y12.109093 F100.000000
G1 X26.838268 Y12.108123 F100.000000
G1 X26.874617 Y12.117404 F100.000000
G1 X27.006113 F100.000000
G1 X27.156514 Y12.189834 F100.000000
G1 X27.205395 Y12.251129 F100.000000
G1 X27.218939 Y12.234654 F100.000000
G1 X27.250472 Y12.220041 F100.000000
G1 X27.277081 Y12.197683 F100.000000
G1 X27.371061 Y12.149423 F100.000000
G1 X27.532805 Y12.108123 F100.000000
G1 X27.696450 Y12.141091 F100.000000
G1 X27.787116 Y12.209673 F100.000000
G1 X27.803919 Y12.195860 F100.000000
G1 X27.900439 Y12.147600 F100.000000
G1 X27.903209 Y12.146924 F100.000000
G1 X27.905439 Y12.145146 F100.000000
G1 X27.984166 Y12.127177 F100.000000
G1 X28.062617 Y12.108041 F100.000000
G1 X28.065406 Y12.108635 F100.000000
G1 X28.068186 Y12.108000 F100.000000
G1 X28.210426 F100.000000
G1 X28.215214 Y12.109093 F100.000000
G1 X28.220028 Y12.108123 F100.000000
G1 X28.296364 Y12.127615 F100.000000
G1 X28.373174 Y12.145146 F100.000000
G1 X28.377013 Y12.148208 F100.000000
G1 X28.381771 Y12.149423 F100.000000
G1 X28.464200 Y12.191751 F100.000000
G1 X28.462479 Y12.124537 F100.000000
G1 X28.531035 Y11.972331 F100.000000
G1 X28.658841 Y11.864943 F100.000000
G0 Z2.000000
G1 Z-0.040000 F60.000000
G1 X28.752821 Y11.816683 F100.000000
G1 X28.757579 Y11.815468 F100.000000
G1 X28.761419 Y11.812406 F100.000000
G1 X28.838229 Y11.794875 F100.000000
G1 X28.914565 Y11.775383 F100.000000
G1 X28.919379 Y11.776353 F100.000000
G1 X28.924166 Y11.775260 F100.000000
G1 X29.068946 F100.000000
G1 X29.073734 Y11.776353 F100.000000
G1 X29.078548 Y11.775383 F100.000000
G1 X29.154884 Y11.794875 F100.000000
G1 X29.231694 Y11.812406 F100.000000
G1 X29.235533 Y11.815468 F100.000000
G1 X29.240291 Y11.816683 F100.000000
G1 X29.334271 Y11.864943 F100.000000
G1 X29.375049 Y11.899206 F100.000000
G1 X29.420896 Y11.926314 F100.000000
G1 X29.469156 Y11.972034 F100.000000
G1 X29.505302 Y12.026251 F100.000000
G1 X29.546681 Y12.076587 F100.000000
G1 X29.594941 Y12.173107 F100.000000
G1 X29.595617 Y12.175878 F100.000000
G1 X29.597395 Y12.178107 F100.000000
G1 X29.615364 Y12.256834 F100.000000
G1 X29.634500 Y12.335286 F100.000000
G1 X29.633907 Y12.338075 F100.000000
G1 X29.634541 Y12.340855 F100.000000
G1 Y13.151115 F100.000000
G1 X29.597395 Y13.313863 F100.000000
G1 X29.493314 Y13.444376 F100.000000
G1 X29.342913 Y13.516806 F100.000000
G1 X29.206882 F100.000000
G1 X29.168496 Y13.526169 F100.000000
G1 X29.165706 Y13.525575 F100.000000
G1 X29.162926 Y13.526210 F100.000000
G1 X28.972426 F100.000000
G1 X28.967639 Y13.525117 F100.000000
G1 X28.962825 Y13.526087 F100.000000
G1 X28.886489 Y13.506595 F100.000000
G1 X28.809679 Y13.489064 F100.000000
G1 X28.805839 Y13.486002 F100.000000
G1 X28.801081 Y13.484787 F100.000000
G1 X28.707101 Y13.436527 F100.000000
G1 X28.662519 Y13.399068 F100.000000
G1 X28.613214 Y13.368087 F100.000000
G1 X28.591426 Y13.346299 F100.000000
G1 X28.569639 Y13.368087 F100.000000
G1 X28.520333 Y13.399068 F100.000000
G1 X28.475751 Y13.436527 F100.000000
G1 X28.381771 Y13.484787 F100.000000
G1 X28.377013 Y13.486002 F100.000000
G1 X28.373174 Y13.489064 F100.000000
G1 X28.296364 Y13.506595 F100.000000
G1 X28.220028 Y13.526087 F100.000000
G1 X28.215214 Y13.525117 F100.000000
G1 X28.210426 Y13.526210 F100.000000
G1 X28.068186 F100.000000
G1 X28.065406 Y13.525575 F100.000000
G1 X28.062617 Y13.526169 F100.000000
G1 X27.984166 Y13.507033 F100.000000
G1 X27.905439 Y13.489064 F100.000000
G1 X27.903209 Y13.487286 F100.000000
G1 X27.900439 Y13.486610 F100.000000
G1 X27.803919 Y13.438350 F100.000000
G1 X27.775261 Y13.414792 F100.000000
G1 Y13.483855 F100.000000
G1 X27.738115 Y13.646603 F100.000000
G1 X27.634034 Y13.777116 F100.000000
G1 X27.483633 Y13.849546 F100.000000
G1 X27.316700 F100.000000
G1 X27.166298 Y13.777116 F100.000000
G1 X27.062217 Y13.646603 F100.000000
G1 X27.025071 Y13.483855 F100.000000
G1 Y13.448151 F100.000000
G1 X26.948154 Y13.486610 F100.000000
G1 X26.945383 Y13.487286 F100.000000
G1 X26.943154 Y13.489064 F100.000000
G1 X26.864427 Y13.507033 F100.000000
G1 X26.785976 Y13.526169 F100.000000
G1 X26.783186 Y13.525575 F100.000000
G1 X26.780406 Y13.526210 F100.000000
G1 X26.589906 F100.000000
G1 X26.587126 Y13.525575 F100.000000
G1 X26.584337 Y13.526169 F100.000000
G0 Z2.000000
G0 X41.613652 Y38.954166
G1 Z-0.040000 F60.000000
G1 X41.675002 Y38.989201 F100.000000
G1 X41.738654 Y39.019854 F100.000000
G1 X41.746996 Y39.030314 F100.000000
G1 X41.758613 Y39.036948 F100.000000
G1 X41.773023 Y39.057871 F100.000000
G1 X41.818215 Y39.021536 F100.000000
G1 X41.912195 Y38.975816 F100.000000
G1 X41.912940 Y38.975643 F100.000000
G1 X41.913539 Y38.975166 F100.000000
G1 X41.994203 Y38.956755 F100.000000
G1 X42.074794 Y38.938023 F100.000000
G1 X42.075540 Y38.938190 F100.000000
G1 X42.076286 Y38.938020 F100.000000
G1 X42.218526 F100.000000
G1 X42.274380 Y38.950768 F100.000000
G1 X42.331479 Y38.955431 F100.000000
G1 X42.476259 Y39.001151 F100.000000
G1 X42.483534 Y39.005416 F100.000000
G1 X42.491902 Y39.006472 F100.000000
G1 X42.555213 Y39.047441 F100.000000
G1 X42.620267 Y39.085581 F100.000000
G1 X42.624971 Y39.092581 F100.000000
G1 X42.632051 Y39.097162 F100.000000
G1 X42.726031 Y39.193682 F100.000000
G1 X42.756105 Y39.242991 F100.000000
G1 X42.792781 Y39.287607 F100.000000
G1 X42.841041 Y39.384127 F100.000000
G1 X42.850667 Y39.423591 F100.000000
G1 X42.869155 Y39.459761 F100.000000
G1 X42.917415 Y39.650261 F100.000000
G1 X42.918521 Y39.696896 F100.000000
G1 X42.928901 Y39.742375 F100.000000
G1 Y39.884615 F100.000000
G1 X42.918521 Y39.930094 F100.000000
G1 X42.917415 Y39.976729 F100.000000
G1 X42.869155 Y40.167229 F100.000000
G1 X42.849761 Y40.205172 F100.000000
G1 X42.839218 Y40.246460 F100.000000
G1 X42.790958 Y40.340440 F100.000000
G1 X42.755075 Y40.383146 F100.000000
G1 X42.726031 Y40.430768 F100.000000
G1 X42.632051 Y40.527288 F100.000000
G1 X42.627514 Y40.530223 F100.000000
G1 X42.624571 Y40.534756 F100.000000
G1 X42.557650 Y40.575432 F100.000000
G1 X42.491902 Y40.617978 F100.000000
G1 X42.486540 Y40.618654 F100.000000
G1 X42.481922 Y40.621461 F100.000000
G1 X42.400561 Y40.648581 F100.000000
G1 X42.487766 Y40.625215 F100.000000
G1 X42.993766 Y40.760797 F100.000000
G1 X43.320464 Y41.087495 F100.000000
G0 Z2.000000
G0 X40.780464
G1 Z-0.040000 F60.000000
G1 X41.655069 Y41.087495 F100.000000
G1 X41.981766 Y40.760797 F100.000000
G1 X42.312791 Y40.672099 F100.000000
G1 X42.277222 Y40.675573 F100.000000
G1 X42.218526 Y40.688970 F100.000000
G1 X42.124546 F100.000000
G1 X42.064894 Y40.675355 F100.000000
G1 X42.004030 Y40.669082 F100.000000
G1 X41.861790 Y40.620822 F100.000000
G1 X41.860235 Y40.619865 F100.000000
G1 X41.858420 Y40.619661 F100.000000
G1 X41.789218 Y40.576178 F100.000000
G1 X41.771858 Y40.565499 F100.000000
G1 X41.738654 Y40.607136 F100.000000
G1 X41.588253 Y40.679566 F100.000000
G1 X41.421320 F100.000000
G1 X41.270918 Y40.607136 F100.000000
G1 X41.219591 Y40.542774 F100.000000
G1 X41.211203 Y40.551901 F100.000000
G1 X41.167154 Y40.607136 F100.000000
G1 X41.155100 Y40.612941 F100.000000
G1 X41.146047 Y40.622791 F100.000000
G1 X41.080405 Y40.648912 F100.000000
G1 X41.016753 Y40.679566 F100.000000
G1 X41.003374 F100.000000
G1 X40.990944 Y40.684512 F100.000000
G1 X40.920468 Y40.679566 F100.000000
G1 X40.849820 F100.000000
G1 X40.837766 Y40.673761 F100.000000
G1 X40.824420 Y40.672824 F100.000000
G1 X40.763071 Y40.637789 F100.000000
G1 X40.699418 Y40.607136 F100.000000
G1 X40.694526 Y40.601002 F100.000000
G1 X40.689634 Y40.607136 F100.000000
G1 X40.651557 Y40.625473 F100.000000
G1 X40.618514 Y40.651824 F100.000000
G1 X40.577310 Y40.661228 F100.000000
G1 X40.539233 Y40.679566 F100.000000
G1 X40.496970 F100.000000
G1 X40.455766 Y40.688970 F100.000000
G1 X40.217006 F100.000000
G1 X40.157354 Y40.675355 F100.000000
G1 X40.120850 Y40.671593 F100.000000
G1 X40.453766 Y40.760797 F100.000000
G1 X40.780464 Y41.087495 F100.000000
G0 Z2.000000
G0 X38.240464 Y42.186935
G1 Z-0.040000 F60.000000
G1 X37.913766 Y42.513633 F100.000000
G1 X37.407766 Y42.649215 F100.000000
G1 X36.901766 Y42.513633 F100.000000
G1 X36.531349 Y42.143215 F100.000000
G1 X36.395766 Y41.637215 F100.000000
G1 X36.531349 Y41.131215 F100.000000
G1 X36.901766 Y40.760797 F100.000000
G1 X37.407766 Y40.625215 F100.000000
G1 X37.913766 Y40.760797 F100.000000
G1 X38.240464 Y41.087495 F100.000000
G1 X39.115069 Y41.087495 F100.000000
G1 X39.441766 Y40.760797 F100.000000
G1 X39.947766 Y40.625215 F100.000000
G1 X40.040184 Y40.649978 F100.000000
G1 X39.954250 Y40.620822 F100.000000
G1 X39.950518 Y40.618526 F100.000000
G1 X39.946171 Y40.617978 F100.000000
G1 X39.879602 Y40.574901 F100.000000
G1 X39.812066 Y40.533355 F100.000000
G1 X39.809700 Y40.529668 F100.000000
G1 X39.806022 Y40.527288 F100.000000
G1 X39.712042 Y40.430768 F100.000000
G1 X39.682997 Y40.383146 F100.000000
G1 X39.647114 Y40.340440 F100.000000
G1 X39.598854 Y40.246460 F100.000000
G1 X39.588312 Y40.205172 F100.000000
G1 X39.568918 Y40.167229 F100.000000
G1 X39.520658 Y39.976729 F100.000000
G1 X39.519552 Y39.930094 F100.000000
G1 X39.509171 Y39.884615 F100.000000
G1 Y39.742375 F100.000000
G1 X39.519552 Y39.696896 F100.000000
G1 X39.520658 Y39.650261 F100.000000
G1 X39.568918 Y39.459761 F100.000000
G1 X39.587405 Y39.423591 F100.000000
G1 X39.597031 Y39.384127 F100.000000
G1 X39.645291 Y39.287607 F100.000000
G1 X39.681968 Y39.242991 F100.000000
G1 X39.712042 Y39.193682 F100.000000
G1 X39.806022 Y39.097162 F100.000000
G1 X39.812283 Y39.093111 F100.000000
G1 X39.816410 Y39.086900 F100.000000
G1 X39.882074 Y39.047949 F100.000000
G1 X39.946171 Y39.006472 F100.000000
G1 X39.953570 Y39.005539 F100.000000
G1 X39.959984 Y39.001734 F100.000000
G1 X40.102224 Y38.956014 F100.000000
G1 X40.160236 Y38.950977 F100.000000
G1 X40.217006 Y38.938020 F100.000000
G1 X40.455766 F100.000000
G1 X40.496970 Y38.947424 F100.000000
G1 X40.539233 F100.000000
G1 X40.577310 Y38.965762 F100.000000
G1 X40.618514 Y38.975166 F100.000000
G1 X40.651557 Y39.001517 F100.000000
G1 X40.689634 Y39.019854 F100.000000
G1 X40.694526 Y39.025988 F100.000000
G1 X40.699418 Y39.019854 F100.000000
G1 X40.849820 Y38.947424 F100.000000
G1 X41.016753 F100.000000
G1 X41.167154 Y39.019854 F100.000000
G1 X41.218481 Y39.084216 F100.000000
G1 X41.226870 Y39.075089 F100.000000
G1 X41.270918 Y39.019854 F100.000000
G1 X41.282972 Y39.014049 F100.000000
G1 X41.292025 Y39.004199 F100.000000
G1 X41.357668 Y38.978078 F100.000000
G1 X41.421320 Y38.947424 F100.000000
G1 X41.434698 F100.000000
G1 X41.447129 Y38.942478 F100.000000
G1 X41.517604 Y38.947424 F100.000000
G1 X41.588253 F100.000000
G1 X41.600307 Y38.953229 F100.000000
G1 X41.613652 Y38.954166 F100.000000
G0 Z2.000000
G0 X46.280481 Y15.843242
G1 Z-0.040000 F60.000000
G1 X46.222762 Y15.862733 F100.000000
G1 X46.167873 Y15.889166 F100.000000
G1 X46.144483 F100.000000
G1 X46.122322 Y15.896649 F100.000000
G1 X45.822869 Y15.927074 F100.000000
G1 X45.839741 Y16.000995 F100.000000
G1 Y16.006900 F100.000000
G1 X45.845646 F100.000000
G1 X46.008394 Y16.044046 F100.000000
G1 X46.138907 Y16.148127 F100.000000
G1 X46.211337 Y16.298529 F100.000000
G1 Y16.465461 F100.000000
G1 X46.138907 Y16.615863 F100.000000
G1 X46.008394 Y16.719944 F100.000000
G1 X45.845646 Y16.757090 F100.000000
G1 X45.839741 F100.000000
G1 Y16.762995 F100.000000
G1 X45.802595 Y16.925743 F100.000000
G1 X45.698514 Y17.056256 F100.000000
G1 X45.548113 Y17.128686 F100.000000
G1 X45.381180 F100.000000
G1 X45.230778 Y17.056256 F100.000000
G1 X45.126697 Y16.925743 F100.000000
G1 X45.089551 Y16.762995 F100.000000
G1 Y16.757090 F100.000000
G1 X45.083646 F100.000000
G1 X44.920899 Y16.719944 F100.000000
G1 X44.790385 Y16.615863 F100.000000
G1 X44.717956 Y16.465461 F100.000000
G1 Y16.298529 F100.000000
G1 X44.790385 Y16.148127 F100.000000
G1 X44.920899 Y16.044046 F100.000000
G1 X45.083646 Y16.006900 F100.000000
G1 X45.089551 F100.000000
G1 Y16.000995 F100.000000
G1 X45.105454 Y15.931321 F100.000000
G1 X45.056280 Y15.925781 F100.000000
G1 X44.914934 Y15.836967 F100.000000
G0 Z2.000000
G0 X44.965302 Y14.024538
G1 Z-0.040000 F60.000000
G1 X45.966062 Y13.691798 F100.000000
G1 X46.132217 Y13.675699 F100.000000
G1 X46.288902 Y13.733287 F100.000000
G1 X46.405085 Y13.853154 F100.000000
G1 X46.457753 Y14.011561 F100.000000
G1 X46.436475 Y14.177132 F100.000000
G1 X46.345466 Y14.317075 F100.000000
G1 X46.240980 Y14.380475 F100.000000
G1 X46.345466 Y14.443875 F100.000000
G1 X46.436475 Y14.583818 F100.000000
G1 X46.457753 Y14.749389 F100.000000
G1 X46.415340 Y14.876951 F100.000000
G1 X46.422355 Y14.885747 F100.000000
G1 X46.459501 Y15.048495 F100.000000
G1 Y15.523475 F100.000000
G1 X46.454297 Y15.546278 F100.000000
G1 X46.456661 Y15.569549 F100.000000
G1 X46.435912 Y15.626828 F100.000000
G1 X46.422355 Y15.686223 F100.000000
G1 X46.407772 Y15.704510 F100.000000
G1 X46.399806 Y15.726501 F100.000000
G1 X46.356258 Y15.769105 F100.000000
G1 X46.318274 Y15.816736 F100.000000
G1 X46.297201 Y15.826885 F100.000000
G1 X46.280481 Y15.843242 F100.000000
G0 Z2.000000
G0 X44.914934 Y15.836967
G1 Z-0.040000 F60.000000
G1 X44.866674 Y15.788707 F100.000000
G1 X44.835694 Y15.739402 F100.000000
G1 X44.798234 Y15.694820 F100.000000
G1 X44.749974 Y15.600840 F100.000000
G1 X44.748759 Y15.596082 F100.000000
G1 X44.745697 Y15.592243 F100.000000
G1 X44.728166 Y15.515433 F100.000000
G1 X44.708674 Y15.439097 F100.000000
G1 X44.709644 Y15.434283 F100.000000
G1 X44.708551 Y15.429495 F100.000000
G1 Y15.190735 F100.000000
G1 X44.709186 Y15.187955 F100.000000
G1 X44.708593 Y15.185166 F100.000000
G1 X44.727729 Y15.106714 F100.000000
G1 X44.745697 Y15.027987 F100.000000
G1 X44.747475 Y15.025758 F100.000000
G1 X44.748151 Y15.022987 F100.000000
G1 X44.796411 Y14.926467 F100.000000
G1 X44.837791 Y14.876131 F100.000000
G1 X44.873937 Y14.821914 F100.000000
G1 X44.922197 Y14.776194 F100.000000
G1 X44.968043 Y14.749086 F100.000000
G1 X44.978074 Y14.740658 F100.000000
G1 X44.965302 Y14.736412 F100.000000
G1 X44.924236 Y14.711494 F100.000000
G1 X44.879150 Y14.694923 F100.000000
G1 X44.853767 Y14.668735 F100.000000
G1 X44.822587 Y14.649815 F100.000000
G1 X44.796399 Y14.609547 F100.000000
G1 X44.762968 Y14.575056 F100.000000
G1 X44.751461 Y14.540447 F100.000000
G1 X44.731577 Y14.509872 F100.000000
G1 X44.725455 Y14.462230 F100.000000
G1 X44.710300 Y14.416649 F100.000000
G1 X44.714948 Y14.380475 F100.000000
G1 X44.710300 Y14.344301 F100.000000
G1 X44.725455 Y14.298720 F100.000000
G1 X44.731577 Y14.251078 F100.000000
G1 X44.751461 Y14.220503 F100.000000
G1 X44.762968 Y14.185894 F100.000000
G1 X44.796399 Y14.151403 F100.000000
G1 X44.822587 Y14.111135 F100.000000
G1 X44.853767 Y14.092215 F100.000000
G1 X44.879150 Y14.066027 F100.000000
G1 X44.924236 Y14.049456 F100.000000
G1 X44.965302 Y14.024538 F100.000000
G0 Z2.000000
G0 X55.737486 Y36.756415
G1 Z-0.040000 F60.000000
G1 Y37.015875 F100.000000
G1 X55.780002 F100.000000
G1 X55.801366 Y36.957887 F100.000000
G1 Y36.811863 F100.000000
G1 X55.780938 Y36.756415 F100.000000
G1 X55.737486 Y36.756415 F100.000000
G0 Z2.000000
G0 X56.972465 Y37.735715
G1 Z-0.040000 F60.000000
G1 X56.970984 Y37.733900 F100.000000
G1 X56.968874 Y37.732884 F100.000000
G1 X56.914435 Y37.664620 F100.000000
G1 X56.859224 Y37.596979 F100.000000
G1 X56.730872 Y37.338022 F100.000000
G1 X56.649643 Y37.229718 F100.000000
G1 X56.576793 Y37.181151 F100.000000
G1 X56.510236 Y37.361807 F100.000000
G1 X56.477442 Y37.412147 F100.000000
G1 X56.452535 Y37.466820 F100.000000
G1 X56.378875 Y37.563340 F100.000000
G1 X56.329683 Y37.604316 F100.000000
G1 X56.286215 Y37.651319 F100.000000
G1 X56.141435 Y37.750379 F100.000000
G1 X56.112836 Y37.761657 F100.000000
G1 X56.088801 Y37.780825 F100.000000
G1 X56.030484 Y37.794135 F100.000000
G1 X55.974838 Y37.816081 F100.000000
G1 X55.944178 Y37.813834 F100.000000
G1 X55.914206 Y37.820675 F100.000000
G1 X55.335086 F100.000000
G1 X55.290883 Y37.810586 F100.000000
G1 X55.245544 F100.000000
G1 X55.204694 Y37.790914 F100.000000
G1 X55.160491 Y37.780825 F100.000000
G1 X55.125044 Y37.752556 F100.000000
G1 X55.084194 Y37.732884 F100.000000
G1 X55.055925 Y37.697436 F100.000000
G1 X55.020477 Y37.669167 F100.000000
G1 X55.000805 Y37.628318 F100.000000
G1 X54.972536 Y37.592870 F100.000000
G1 X54.962447 Y37.548667 F100.000000
G1 X54.942775 Y37.507817 F100.000000
G1 Y37.462478 F100.000000
G1 X54.932686 Y37.418275 F100.000000
G1 Y35.386275 F100.000000
G1 X54.972536 Y35.211680 F100.000000
G1 X55.084194 Y35.071666 F100.000000
G1 X55.245544 Y34.993964 F100.000000
G1 X55.424629 F100.000000
G1 X55.585979 Y35.071666 F100.000000
G1 X55.697636 Y35.211680 F100.000000
G1 X55.737486 Y35.386275 F100.000000
G1 Y35.951615 F100.000000
G1 X55.914206 F100.000000
G1 X55.941820 Y35.957918 F100.000000
G1 X55.970041 Y35.955507 F100.000000
G1 X56.028168 Y35.977626 F100.000000
G1 X56.088801 Y35.991465 F100.000000
G1 X56.110946 Y36.009125 F100.000000
G1 X56.137418 Y36.019198 F100.000000
G1 X56.282198 Y36.115718 F100.000000
G1 X56.327861 Y36.163916 F100.000000
G1 X56.378875 Y36.206410 F100.000000
G1 X56.452535 Y36.302930 F100.000000
G1 X56.477442 Y36.357603 F100.000000
G1 X56.510236 Y36.407943 F100.000000
G1 X56.551266 Y36.519311 F100.000000
G1 X56.662826 Y36.453346 F100.000000
G1 X56.817366 Y36.440148 F100.000000
G1 Y35.788675 F100.000000
G1 X56.785426 F100.000000
G1 X56.610831 Y35.748825 F100.000000
G1 X56.470817 Y35.637167 F100.000000
G1 X56.393115 Y35.475817 F100.000000
G1 Y35.296733 F100.000000
G1 X56.470817 Y35.135383 F100.000000
G1 X56.610831 Y35.023725 F100.000000
G1 X56.785426 Y34.983875 F100.000000
G1 X57.656646 F100.000000
G1 X57.831241 Y35.023725 F100.000000
G1 X57.971255 Y35.135383 F100.000000
G1 X58.048957 Y35.296733 F100.000000
G1 Y35.475817 F100.000000
G1 X57.971255 Y35.637167 F100.000000
G1 X57.831241 Y35.748825 F100.000000
G1 X57.656646 Y35.788675 F100.000000
G1 X57.622166 F100.000000
G1 Y37.418275 F100.000000
G1 X57.602737 Y37.503399 F100.000000
G1 X57.584277 Y37.588738 F100.000000
G1 X57.582837 Y37.590586 F100.000000
G1 X57.582316 Y37.592870 F100.000000
G1 X57.527877 Y37.661134 F100.000000
G1 X57.474218 Y37.730013 F100.000000
G1 X57.472119 Y37.731053 F100.000000
G1 X57.470659 Y37.732884 F100.000000
G1 X57.391992 Y37.770768 F100.000000
G1 X57.313761 Y37.809543 F100.000000
G1 X57.311419 Y37.809570 F100.000000
G1 X57.309309 Y37.810586 F100.000000
G1 X57.221996 F100.000000
G1 X57.134688 Y37.811578 F100.000000
G1 X57.132566 Y37.810586 F100.000000
G1 X57.130224 F100.000000
G1 X57.051557 Y37.772702 F100.000000
G1 X56.972465 Y37.735715 F100.000000
G0 Z2.000000
G0 X59.491351 Y5.934177
G1 Z-0.040000 F60.000000
G1 X59.462700 Y5.957026 F100.000000
G1 X59.491351 Y6.016522 F100.000000
G1 Y5.934177 F100.000000
G0 Z2.000000
G0 X58.695882 Y5.277742
G1 Z-0.040000 F60.000000
G1 X58.733960 Y5.259404 F100.000000
G1 X58.776223 F100.000000
G1 X58.817426 Y5.250000 F100.000000
G1 X59.292406 F100.000000
G1 X59.455154 Y5.287146 F100.000000
G1 X59.585390 Y5.391006 F100.000000
G1 X59.632578 Y5.331834 F100.000000
G1 X59.782980 Y5.259404 F100.000000
G1 X59.949913 F100.000000
G1 X60.100314 Y5.331834 F100.000000
G1 X60.204395 Y5.462347 F100.000000
G1 X60.241541 Y5.625095 F100.000000
G1 Y6.271442 F100.000000
G1 X60.313674 Y6.287906 F100.000000
G1 X60.444187 Y6.391987 F100.000000
G1 X60.516617 Y6.542389 F100.000000
G1 Y6.709321 F100.000000
G1 X60.444187 Y6.859723 F100.000000
G1 X60.313674 Y6.963804 F100.000000
G1 X60.150926 Y7.000950 F100.000000
G1 X59.579426 F100.000000
G1 X59.435916 Y6.968195 F100.000000
G1 X59.292406 Y7.000950 F100.000000
G1 X58.817426 F100.000000
G1 X58.776223 Y6.991546 F100.000000
G1 X58.733960 F100.000000
G1 X58.695882 Y6.973208 F100.000000
G1 X58.654679 Y6.963804 F100.000000
G1 X58.621636 Y6.937453 F100.000000
G1 X58.583558 Y6.919116 F100.000000
G1 X58.566237 Y6.897396 F100.000000
G1 X58.508683 Y6.932802 F100.000000
G1 X58.366443 Y6.981062 F100.000000
G1 X58.305579 Y6.987335 F100.000000
G1 X58.245926 Y7.000950 F100.000000
G1 X58.007166 F100.000000
G1 X58.004386 Y7.000315 F100.000000
G1 X58.001597 Y7.000909 F100.000000
G1 X57.923146 Y6.981773 F100.000000
G1 X57.844419 Y6.963804 F100.000000
G1 X57.842189 Y6.962026 F100.000000
G1 X57.839419 Y6.961350 F100.000000
G1 X57.742899 Y6.913090 F100.000000
G1 X57.703067 Y6.880346 F100.000000
G1 X57.598414 Y6.963804 F100.000000
G1 X57.435666 Y7.000950 F100.000000
G1 X56.958146 F100.000000
G1 X56.916943 Y6.991546 F100.000000
G1 X56.874680 F100.000000
G1 X56.836602 Y6.973208 F100.000000
G1 X56.795399 Y6.963804 F100.000000
G1 X56.762356 Y6.937453 F100.000000
G1 X56.724278 Y6.919116 F100.000000
G1 X56.697928 Y6.886073 F100.000000
G1 X56.668571 Y6.862662 F100.000000
G1 X56.649162 Y6.874858 F100.000000
G1 X56.602654 Y6.913090 F100.000000
G1 X56.506134 Y6.961350 F100.000000
G1 X56.503363 Y6.962026 F100.000000
G1 X56.501134 Y6.963804 F100.000000
G1 X56.422407 Y6.981773 F100.000000
G1 X56.343956 Y7.000909 F100.000000
G1 X56.341166 Y7.000315 F100.000000
G1 X56.338386 Y7.000950 F100.000000
G1 X55.957386 F100.000000
G1 X55.916183 Y6.991546 F100.000000
G1 X55.873920 F100.000000
G1 X55.835842 Y6.973208 F100.000000
G1 X55.794639 Y6.963804 F100.000000
G1 X55.761596 Y6.937453 F100.000000
G1 X55.723518 Y6.919116 F100.000000
G1 X55.697168 Y6.886073 F100.000000
G1 X55.664125 Y6.859723 F100.000000
G1 X55.645788 Y6.821645 F100.000000
G1 X55.619437 Y6.788603 F100.000000
G1 X55.610033 Y6.747399 F100.000000
G1 X55.591696 Y6.709321 F100.000000
G1 Y6.667058 F100.000000
G1 X55.582291 Y6.625855 F100.000000
G1 Y5.625095 F100.000000
G1 X55.619437 Y5.462347 F100.000000
G1 X55.723518 Y5.331834 F100.000000
G1 X55.873920 Y5.259404 F100.000000
G1 X56.040853 F100.000000
G1 X56.191254 Y5.331834 F100.000000
G1 X56.240251 Y5.393274 F100.000000
G1 X56.344656 Y5.298360 F100.000000
G1 X56.504665 Y5.250783 F100.000000
G1 X56.669472 Y5.277342 F100.000000
G1 X56.738113 Y5.325172 F100.000000
G1 X56.762356 Y5.313497 F100.000000
G1 X56.795399 Y5.287146 F100.000000
G1 X56.836602 Y5.277742 F100.000000
G1 X56.874680 Y5.259404 F100.000000
G1 X56.916943 F100.000000
G1 X56.958146 Y5.250000 F100.000000
G1 X57.435666 F100.000000
G1 X57.598414 Y5.287146 F100.000000
G1 X57.662921 Y5.338589 F100.000000
G1 X57.696150 Y5.318148 F100.000000
G1 X57.838390 Y5.269888 F100.000000
G1 X57.899254 Y5.263615 F100.000000
G1 X57.958906 Y5.250000 F100.000000
G1 X58.197666 F100.000000
G1 X58.202454 Y5.251093 F100.000000
G1 X58.207268 Y5.250123 F100.000000
G1 X58.283604 Y5.269615 F100.000000
G1 X58.360414 Y5.287146 F100.000000
G1 X58.364253 Y5.290208 F100.000000
G1 X58.369011 Y5.291423 F100.000000
G1 X58.462991 Y5.339683 F100.000000
G1 X58.507573 Y5.377142 F100.000000
G1 X58.526732 Y5.389180 F100.000000
G1 X58.557208 Y5.364877 F100.000000
G1 X58.583558 Y5.331834 F100.000000
G1 X58.621636 Y5.313497 F100.000000
G1 X58.654679 Y5.287146 F100.000000
G1 X58.695882 Y5.277742 F100.000000
G0 Z2.000000
G0 X39.839355 Y13.077101
G1 Z-0.040000 F60.000000
G1 X39.804321 Y13.138451 F100.000000
G1 X39.773667 Y13.202103 F100.000000
G1 X39.763208 Y13.210444 F100.000000
G1 X39.756573 Y13.222062 F100.000000
G1 X39.734568 Y13.237218 F100.000000
G1 X39.765818 Y13.274410 F100.000000
G1 X39.814078 Y13.368390 F100.000000
G1 X39.815293 Y13.373148 F100.000000
G1 X39.818355 Y13.376987 F100.000000
G1 X39.835887 Y13.453797 F100.000000
G1 X39.855378 Y13.530133 F100.000000
G1 X39.854409 Y13.534947 F100.000000
G1 X39.855501 Y13.539735 F100.000000
G1 Y13.681975 F100.000000
G1 X39.842104 Y13.740671 F100.000000
G1 X39.836253 Y13.800590 F100.000000
G1 X39.787993 Y13.945370 F100.000000
G1 X39.786512 Y13.947807 F100.000000
G1 X39.786192 Y13.950641 F100.000000
G1 X39.743230 Y14.019015 F100.000000
G1 X39.701287 Y14.088020 F100.000000
G1 X39.698896 Y14.089573 F100.000000
G1 X39.697379 Y14.091987 F100.000000
G1 X39.603399 Y14.185967 F100.000000
G1 X39.552422 Y14.217998 F100.000000
G1 X39.505914 Y14.256230 F100.000000
G1 X39.409394 Y14.304490 F100.000000
G1 X39.369930 Y14.314116 F100.000000
G1 X39.333760 Y14.332604 F100.000000
G1 X39.143260 Y14.380864 F100.000000
G1 X39.096625 Y14.381970 F100.000000
G1 X39.051146 Y14.392350 F100.000000
G1 X38.908906 F100.000000
G1 X38.863427 Y14.381970 F100.000000
G1 X38.816792 Y14.380864 F100.000000
G1 X38.626292 Y14.332604 F100.000000
G1 X38.588349 Y14.313210 F100.000000
G1 X38.547061 Y14.302667 F100.000000
G1 X38.453081 Y14.254407 F100.000000
G1 X38.410375 Y14.218524 F100.000000
G1 X38.362754 Y14.189480 F100.000000
G1 X38.266234 Y14.095500 F100.000000
G1 X38.263298 Y14.090963 F100.000000
G1 X38.258765 Y14.088020 F100.000000
G1 X38.218089 Y14.021099 F100.000000
G1 X38.175544 Y13.955350 F100.000000
G1 X38.174867 Y13.949989 F100.000000
G1 X38.172060 Y13.945370 F100.000000
G1 X38.123800 Y13.800590 F100.000000
G1 X38.117948 Y13.740671 F100.000000
G1 X38.104551 Y13.681975 F100.000000
G1 Y13.587995 F100.000000
G1 X38.118167 Y13.528343 F100.000000
G1 X38.124439 Y13.467478 F100.000000
G1 X38.172699 Y13.325238 F100.000000
G1 X38.173656 Y13.323683 F100.000000
G1 X38.173860 Y13.321869 F100.000000
G1 X38.217343 Y13.252667 F100.000000
G1 X38.228022 Y13.235307 F100.000000
G1 X38.186385 Y13.202103 F100.000000
G1 X38.113956 Y13.051701 F100.000000
G1 Y12.884769 F100.000000
G1 X38.186385 Y12.734367 F100.000000
G1 X38.250747 Y12.683040 F100.000000
G1 X38.241621 Y12.674652 F100.000000
G1 X38.186385 Y12.630603 F100.000000
G1 X38.180580 Y12.618549 F100.000000
G1 X38.170730 Y12.609496 F100.000000
G1 X38.144609 Y12.543854 F100.000000
G1 X38.113956 Y12.480201 F100.000000
G1 Y12.466823 F100.000000
G1 X38.109009 Y12.454392 F100.000000
G1 X38.113956 Y12.383917 F100.000000
G1 Y12.313269 F100.000000
G1 X38.119760 Y12.301215 F100.000000
G1 X38.120697 Y12.287869 F100.000000
G1 X38.155732 Y12.226519 F100.000000
G1 X38.186385 Y12.162867 F100.000000
G1 X38.192520 Y12.157975 F100.000000
G1 X38.186385 Y12.153083 F100.000000
G1 X38.168048 Y12.115005 F100.000000
G1 X38.141697 Y12.081963 F100.000000
G1 X38.132293 Y12.040759 F100.000000
G1 X38.113956 Y12.002681 F100.000000
G1 Y11.960418 F100.000000
G1 X38.104551 Y11.919215 F100.000000
G1 Y11.680455 F100.000000
G1 X38.118167 Y11.620803 F100.000000
G1 X38.124439 Y11.559938 F100.000000
G1 X38.172699 Y11.417698 F100.000000
G1 X38.174995 Y11.413967 F100.000000
G1 X38.175544 Y11.409620 F100.000000
G1 X38.218620 Y11.343050 F100.000000
G0 Z2.000000
G0 Y11.343050
G1 Z-0.040000 F60.000000
G1 X38.260166 Y11.275515 F100.000000
G1 X38.263854 Y11.273149 F100.000000
G1 X38.266234 Y11.269470 F100.000000
G1 X38.362754 Y11.175490 F100.000000
G1 X38.410375 Y11.146446 F100.000000
G1 X38.453081 Y11.110563 F100.000000
G1 X38.547061 Y11.062303 F100.000000
G1 X38.588349 Y11.051760 F100.000000
G1 X38.626292 Y11.032366 F100.000000
G1 X38.816792 Y10.984106 F100.000000
G1 X38.863427 Y10.983000 F100.000000
G1 X38.908906 Y10.972620 F100.000000
G1 X39.051146 F100.000000
G1 X39.096625 Y10.983000 F100.000000
G1 X39.143260 Y10.984106 F100.000000
G1 X39.333760 Y11.032366 F100.000000
G1 X39.369930 Y11.050854 F100.000000
G1 X39.409394 Y11.060480 F100.000000
G1 X39.505914 Y11.108740 F100.000000
G1 X39.552422 Y11.146972 F100.000000
G1 X39.603399 Y11.179003 F100.000000
G1 X39.697379 Y11.272983 F100.000000
G1 X39.698350 Y11.274529 F100.000000
G1 X39.699887 Y11.275515 F100.000000
G1 X39.742710 Y11.345127 F100.000000
G1 X39.786192 Y11.414329 F100.000000
G1 X39.786397 Y11.416143 F100.000000
G1 X39.787353 Y11.417698 F100.000000
G1 X39.835613 Y11.559938 F100.000000
G1 X39.841886 Y11.620803 F100.000000
G1 X39.855501 Y11.680455 F100.000000
G1 Y11.919215 F100.000000
G1 X39.846097 Y11.960418 F100.000000
G1 Y12.002681 F100.000000
G1 X39.827760 Y12.040759 F100.000000
G1 X39.818355 Y12.081963 F100.000000
G1 X39.792005 Y12.115005 F100.000000
G1 X39.773667 Y12.153083 F100.000000
G1 X39.767533 Y12.157975 F100.000000
G1 X39.773667 Y12.162867 F100.000000
G1 X39.846097 Y12.313269 F100.000000
G1 Y12.480201 F100.000000
G1 X39.773667 Y12.630603 F100.000000
G1 X39.709305 Y12.681930 F100.000000
G1 X39.718432 Y12.690318 F100.000000
G1 X39.773667 Y12.734367 F100.000000
G1 X39.779472 Y12.746421 F100.000000
G1 X39.789322 Y12.755474 F100.000000
G1 X39.815444 Y12.821116 F100.000000
G1 X39.846097 Y12.884769 F100.000000
G1 Y12.898147 F100.000000
G1 X39.851043 Y12.910578 F100.000000
G1 X39.846097 Y12.981053 F100.000000
G1 Y13.051701 F100.000000
G1 X39.840292 Y13.063755 F100.000000
G1 X39.839355 Y13.077101 F100.000000
G0 Z2.000000
G0 X49.537302 Y27.598298
G1 Z-0.040000 F60.000000
G1 X50.538062 Y27.265558 F100.000000
G1 X50.704217 Y27.249459 F100.000000
G1 X50.860902 Y27.307047 F100.000000
G1 X50.977085 Y27.426914 F100.000000
G1 X51.029753 Y27.585321 F100.000000
G1 X51.008475 Y27.750892 F100.000000
G1 X50.917466 Y27.890835 F100.000000
G1 X50.812980 Y27.954235 F100.000000
G1 X50.917466 Y28.017635 F100.000000
G1 X51.008475 Y28.157578 F100.000000
G1 X51.029753 Y28.323149 F100.000000
G1 X50.987340 Y28.450711 F100.000000
G1 X50.994355 Y28.459507 F100.000000
G1 X51.031501 Y28.622255 F100.000000
G1 Y29.097235 F100.000000
G1 X51.026297 Y29.120038 F100.000000
G1 X51.028661 Y29.143309 F100.000000
G1 X51.007912 Y29.200588 F100.000000
G1 X50.994355 Y29.259983 F100.000000
G1 X50.979772 Y29.278270 F100.000000
G1 X50.971806 Y29.300261 F100.000000
G1 X50.928258 Y29.342865 F100.000000
G1 X50.890274 Y29.390496 F100.000000
G1 X50.869201 Y29.400645 F100.000000
G1 X50.852481 Y29.417002 F100.000000
G1 X50.794762 Y29.436493 F100.000000
G1 X50.739873 Y29.462926 F100.000000
G1 X50.716483 F100.000000
G1 X50.694322 Y29.470409 F100.000000
G1 X50.219342 Y29.518669 F100.000000
G1 X50.184391 Y29.514343 F100.000000
G1 X50.149515 Y29.519230 F100.000000
G1 X50.102579 Y29.504217 F100.000000
G1 X50.053673 Y29.498164 F100.000000
G1 X50.024061 Y29.479102 F100.000000
G1 X49.990517 Y29.468373 F100.000000
G1 X49.967890 Y29.446936 F100.000000
G1 X49.951729 Y29.463097 F100.000000
G1 X49.794164 Y29.518231 F100.000000
G1 X49.628280 Y29.499541 F100.000000
G1 X49.486934 Y29.410727 F100.000000
G0 Z2.000000
G1 Z-0.040000 F60.000000
G1 X49.438674 Y29.362467 F100.000000
G1 X49.407694 Y29.313162 F100.000000
G1 X49.370234 Y29.268580 F100.000000
G1 X49.321974 Y29.174600 F100.000000
G1 X49.320759 Y29.169842 F100.000000
G1 X49.317697 Y29.166003 F100.000000
G1 X49.300166 Y29.089193 F100.000000
G1 X49.280674 Y29.012857 F100.000000
G1 X49.281644 Y29.008043 F100.000000
G1 X49.280551 Y29.003255 F100.000000
G1 Y28.764495 F100.000000
G1 X49.281186 Y28.761715 F100.000000
G1 X49.280593 Y28.758926 F100.000000
G1 X49.299729 Y28.680474 F100.000000
G1 X49.317697 Y28.601747 F100.000000
G1 X49.319475 Y28.599518 F100.000000
G1 X49.320151 Y28.596747 F100.000000
G1 X49.368411 Y28.500227 F100.000000
G1 X49.409791 Y28.449891 F100.000000
G1 X49.445937 Y28.395674 F100.000000
G1 X49.494197 Y28.349954 F100.000000
G1 X49.540043 Y28.322846 F100.000000
G1 X49.550074 Y28.314418 F100.000000
G1 X49.537302 Y28.310172 F100.000000
G1 X49.496236 Y28.285254 F100.000000
G1 X49.451150 Y28.268683 F100.000000
G1 X49.425767 Y28.242495 F100.000000
G1 X49.394587 Y28.223575 F100.000000
G1 X49.368399 Y28.183307 F100.000000
G1 X49.334968 Y28.148816 F100.000000
G1 X49.323461 Y28.114207 F100.000000
G1 X49.303577 Y28.083632 F100.000000
G1 X49.297455 Y28.035990 F100.000000
G1 X49.282300 Y27.990409 F100.000000
G1 X49.286948 Y27.954235 F100.000000
G1 X49.282300 Y27.918061 F100.000000
G1 X49.297455 Y27.872480 F100.000000
G1 X49.303577 Y27.824838 F100.000000
G1 X49.323461 Y27.794263 F100.000000
G1 X49.334968 Y27.759654 F100.000000
G1 X49.368399 Y27.725163 F100.000000
G1 X49.394587 Y27.684895 F100.000000
G1 X49.425767 Y27.665975 F100.000000
G1 X49.451150 Y27.639787 F100.000000
G1 X49.496236 Y27.623216 F100.000000
G1 X49.537302 Y27.598298 F100.000000
G0 Z2.000000
G0 X16.979355 Y16.633101
G1 Z-0.040000 F60.000000
G1 X16.944321 Y16.694451 F100.000000
G1 X16.913667 Y16.758103 F100.000000
G1 X16.903208 Y16.766444 F100.000000
G1 X16.896573 Y16.778062 F100.000000
G1 X16.874568 Y16.793218 F100.000000
G1 X16.905818 Y16.830410 F100.000000
G1 X16.954078 Y16.924390 F100.000000
G1 X16.955293 Y16.929148 F100.000000
G1 X16.958355 Y16.932987 F100.000000
G1 X16.975887 Y17.009797 F100.000000
G1 X16.995378 Y17.086133 F100.000000
G1 X16.994409 Y17.090947 F100.000000
G1 X16.995501 Y17.095735 F100.000000
G1 Y17.237975 F100.000000
G1 X16.982104 Y17.296671 F100.000000
G1 X16.976253 Y17.356590 F100.000000
G1 X16.927993 Y17.501370 F100.000000
G1 X16.926512 Y17.503807 F100.000000
G1 X16.926192 Y17.506641 F100.000000
G1 X16.883230 Y17.575015 F100.000000
G1 X16.841287 Y17.644020 F100.000000
G1 X16.838896 Y17.645573 F100.000000
G1 X16.837379 Y17.647987 F100.000000
G1 X16.743399 Y17.741967 F100.000000
G1 X16.692422 Y17.773998 F100.000000
G1 X16.645914 Y17.812230 F100.000000
G1 X16.549394 Y17.860490 F100.000000
G1 X16.509930 Y17.870116 F100.000000
G1 X16.487940 Y17.881356 F100.000000
G1 X16.696511 Y17.949125 F100.000000
G1 X17.082625 Y18.296783 F100.000000
G1 X17.164864 Y18.481495 F100.000000
G1 X18.103766 F100.000000
G1 X18.193681 Y18.502017 F100.000000
G1 X18.285327 Y18.512343 F100.000000
G1 X18.311800 Y18.528977 F100.000000
G1 X18.342281 Y18.535934 F100.000000
G1 X18.414387 Y18.593437 F100.000000
G1 X18.492477 Y18.642504 F100.000000
G1 X25.604477 Y25.754504 F100.000000
G1 X25.653545 Y25.832595 F100.000000
G1 X25.711047 Y25.904700 F100.000000
G1 X25.718004 Y25.935181 F100.000000
G1 X25.734638 Y25.961654 F100.000000
G1 X25.744964 Y26.053301 F100.000000
G1 X25.765486 Y26.143215 F100.000000
G1 Y27.439514 F100.000000
G0 Z2.000000
G0 X16.816481 Y25.749242
G1 Z-0.040000 F60.000000
G1 X16.758762 Y25.768733 F100.000000
G1 X16.703873 Y25.795166 F100.000000
G1 X16.680483 F100.000000
G1 X16.658322 Y25.802649 F100.000000
G1 X16.358869 Y25.833074 F100.000000
G1 X16.375741 Y25.906995 F100.000000
G1 Y25.912900 F100.000000
G1 X16.381646 F100.000000
G1 X16.544394 Y25.950046 F100.000000
G1 X16.674907 Y26.054127 F100.000000
G1 X16.747337 Y26.204529 F100.000000
G1 Y26.371461 F100.000000
G1 X16.674907 Y26.521863 F100.000000
G1 X16.544394 Y26.625944 F100.000000
G1 X16.381646 Y26.663090 F100.000000
G1 X16.375741 F100.000000
G1 Y26.668995 F100.000000
G1 X16.338595 Y26.831743 F100.000000
G1 X16.234514 Y26.962256 F100.000000
G1 X16.084113 Y27.034686 F100.000000
G1 X15.917180 F100.000000
G1 X15.766778 Y26.962256 F100.000000
G1 X15.662697 Y26.831743 F100.000000
G1 X15.625551 Y26.668995 F100.000000
G1 Y26.663090 F100.000000
G1 X15.619646 F100.000000
G1 X15.456899 Y26.625944 F100.000000
G1 X15.326385 Y26.521863 F100.000000
G1 X15.253956 Y26.371461 F100.000000
G1 Y26.204529 F100.000000
G1 X15.326385 Y26.054127 F100.000000
G1 X15.456899 Y25.950046 F100.000000
G1 X15.619646 Y25.912900 F100.000000
G1 X15.625551 F100.000000
G1 Y25.906995 F100.000000
G1 X15.641454 Y25.837321 F100.000000
G1 X15.592280 Y25.831781 F100.000000
G1 X15.450934 Y25.742967 F100.000000
G0 Z2.000000
G0 X16.454930 Y23.493800
G1 Z-0.040000 F60.000000
G1 X16.202374 Y23.575860 F100.000000
G1 X15.685653 Y23.521551 F100.000000
G1 X15.235694 Y23.261767 F100.000000
G1 X14.930300 Y22.841428 F100.000000
G1 X14.822276 Y22.333215 F100.000000
G1 X14.930300 Y21.825002 F100.000000
G1 X15.235694 Y21.404663 F100.000000
G1 X15.685653 Y21.144879 F100.000000
G1 X16.202374 Y21.090570 F100.000000
G1 X16.696511 Y21.251125 F100.000000
G1 X17.082625 Y21.598783 F100.000000
G1 X17.293952 Y22.073431 F100.000000
G1 Y22.592999 F100.000000
G1 X17.236965 Y22.720993 F100.000000
G1 X21.611268 Y27.095295 F100.000000
G1 X21.661766 Y27.044797 F100.000000
G1 X22.167766 Y26.909215 F100.000000
G1 X22.673766 Y27.044797 F100.000000
G1 X23.044184 Y27.415215 F100.000000
G1 X23.179766 Y27.921215 F100.000000
G1 X23.044184 Y28.427215 F100.000000
G1 X22.673766 Y28.797633 F100.000000
G1 X22.167766 Y28.933215 F100.000000
G1 X21.661766 Y28.797633 F100.000000
G1 X21.291349 Y28.427215 F100.000000
G1 X21.255846 Y28.294716 F100.000000
G1 X16.980650 Y24.019520 F100.000000
G1 X16.972475 Y24.083132 F100.000000
G1 X16.881466 Y24.223075 F100.000000
G1 X16.776980 Y24.286475 F100.000000
G1 X16.881466 Y24.349875 F100.000000
G1 X16.972475 Y24.489818 F100.000000
G1 X16.993753 Y24.655389 F100.000000
G1 X16.951340 Y24.782951 F100.000000
G1 X16.958355 Y24.791747 F100.000000
G1 X16.995501 Y24.954495 F100.000000
G1 Y25.429475 F100.000000
G1 X16.990297 Y25.452278 F100.000000
G1 X16.992661 Y25.475549 F100.000000
G1 X16.971912 Y25.532828 F100.000000
G1 X16.958355 Y25.592223 F100.000000
G1 X16.943772 Y25.610510 F100.000000
G1 X16.935806 Y25.632501 F100.000000
G1 X16.892258 Y25.675105 F100.000000
G1 X16.854274 Y25.722736 F100.000000
G1 X16.833201 Y25.732885 F100.000000
G1 X16.816481 Y25.749242 F100.000000
G0 Z2.000000
G0 X15.450934 Y25.742967
G1 Z-0.040000 F60.000000
G1 X15.402674 Y25.694707 F100.000000
G1 X15.371694 Y25.645402 F100.000000
G1 X15.334234 Y25.600820 F100.000000
G1 X15.285974 Y25.506840 F100.000000
G1 X15.284759 Y25.502082 F100.000000
G1 X15.281697 Y25.498243 F100.000000
G1 X15.264166 Y25.421433 F100.000000
G1 X15.244674 Y25.345097 F100.000000
G1 X15.245644 Y25.340283 F100.000000
G1 X15.244551 Y25.335495 F100.000000
G1 Y25.096735 F100.000000
G1 X15.245186 Y25.093955 F100.000000
G1 X15.244593 Y25.091166 F100.000000
G1 X15.263729 Y25.012714 F100.000000
G1 X15.281697 Y24.933987 F100.000000
G1 X15.283475 Y24.931758 F100.000000
G1 X15.284151 Y24.928987 F100.000000
G1 X15.332411 Y24.832467 F100.000000
G1 X15.373791 Y24.782131 F100.000000
G1 X15.409937 Y24.727914 F100.000000
G1 X15.458197 Y24.682194 F100.000000
G1 X15.504043 Y24.655086 F100.000000
G1 X15.514074 Y24.646658 F100.000000
G1 X15.501302 Y24.642412 F100.000000
G1 X15.460236 Y24.617494 F100.000000
G1 X15.415150 Y24.600923 F100.000000
G1 X15.389767 Y24.574735 F100.000000
G1 X15.358587 Y24.555815 F100.000000
G1 X15.332399 Y24.515547 F100.000000
G1 X15.298968 Y24.481056 F100.000000
G1 X15.287461 Y24.446447 F100.000000
G1 X15.267577 Y24.415872 F100.000000
G1 X15.261455 Y24.368230 F100.000000
G1 X15.246300 Y24.322649 F100.000000
G1 X15.250948 Y24.286475 F100.000000
G1 X15.246300 Y24.250301 F100.000000
G1 X15.261455 Y24.204720 F100.000000
G1 X15.267577 Y24.157078 F100.000000
G1 X15.287461 Y24.126503 F100.000000
G1 X15.298968 Y24.091894 F100.000000
G1 X15.332399 Y24.057403 F100.000000
G1 X15.358587 Y24.017135 F100.000000
G1 X15.389767 Y23.998215 F100.000000
G1 X15.415150 Y23.972027 F100.000000
G1 X15.460236 Y23.955456 F100.000000
G1 X15.501302 Y23.930538 F100.000000
G1 X16.502062 Y23.597798 F100.000000
G1 X16.553905 Y23.592775 F100.000000
G1 X16.454930 Y23.493800 F100.000000
G0 Z2.000000
G0 X63.285124 Y47.048495
G1 Z-0.040000 F60.000000
G1 X63.300284 Y47.114915 F100.000000
G1 X63.867189 F100.000000
G1 X63.882349 Y47.048495 F100.000000
G1 X63.285124 Y47.048495 F100.000000
G0 Z2.000000
G0 Y46.177275
G1 Z-0.040000 F60.000000
G1 X63.300284 Y46.243695 F100.000000
G1 X63.867189 Y46.243695 F100.000000
G1 X63.882349 Y46.177275 F100.000000
G1 X63.285124 Y46.177275 F100.000000
G0 Z2.000000
G0 X63.338570 Y44.071701
G1 Z-0.040000 F60.000000
G1 X63.346535 Y44.080942 F100.000000
G1 X63.357411 Y44.086469 F100.000000
G1 X63.382344 Y44.119139 F100.000000
G1 X63.414475 Y44.144763 F100.000000
G1 X63.430850 Y44.178765 F100.000000
G1 X63.455489 Y44.207352 F100.000000
G1 X63.458656 Y44.219134 F100.000000
G1 X63.466057 Y44.228832 F100.000000
G1 X63.474346 Y44.269085 F100.000000
G1 X63.492177 Y44.306113 F100.000000
G1 Y44.343852 F100.000000
G1 X63.501973 Y44.380298 F100.000000
G1 X63.499714 Y44.392288 F100.000000
G1 X63.502175 Y44.404237 F100.000000
G1 X63.492177 Y44.444100 F100.000000
G1 Y44.485197 F100.000000
G1 X63.475803 Y44.519200 F100.000000
G1 X63.468815 Y44.556287 F100.000000
G1 X63.461578 Y44.566109 F100.000000
G1 X63.458610 Y44.577942 F100.000000
G1 X63.432307 Y44.609520 F100.000000
G1 X63.414722 Y44.646035 F100.000000
G1 X63.656231 F100.000000
G1 X63.638646 Y44.609520 F100.000000
G1 X63.612343 Y44.577942 F100.000000
G1 X63.609375 Y44.566109 F100.000000
G1 X63.602138 Y44.556287 F100.000000
G1 X63.595150 Y44.519200 F100.000000
G1 X63.578775 Y44.485197 F100.000000
G1 Y44.444100 F100.000000
G1 X63.568778 Y44.404237 F100.000000
G1 X63.571238 Y44.392288 F100.000000
G1 X63.568979 Y44.380298 F100.000000
G1 X63.578775 Y44.343852 F100.000000
G1 Y44.306113 F100.000000
G1 X63.596607 Y44.269085 F100.000000
G1 X63.604895 Y44.228832 F100.000000
G1 X63.612297 Y44.219134 F100.000000
G1 X63.615463 Y44.207352 F100.000000
G1 X63.640103 Y44.178765 F100.000000
G1 X63.656477 Y44.144763 F100.000000
G1 X63.688609 Y44.119139 F100.000000
G1 X63.713541 Y44.086469 F100.000000
G1 X63.724418 Y44.080942 F100.000000
G1 X63.732383 Y44.071701 F100.000000
G1 X63.828903 Y44.000581 F100.000000
G1 X63.897265 Y43.970817 F100.000000
G1 X63.963158 Y43.935927 F100.000000
G1 X63.978773 Y43.935331 F100.000000
G1 X63.993101 Y43.929093 F100.000000
G1 X64.067606 Y43.931938 F100.000000
G1 X64.142112 Y43.929093 F100.000000
G1 X64.156440 Y43.935331 F100.000000
G1 X64.172055 Y43.935927 F100.000000
G1 X64.237948 Y43.970817 F100.000000
G1 X64.306310 Y44.000581 F100.000000
G1 X64.402830 Y44.071701 F100.000000
G1 X64.410795 Y44.080942 F100.000000
G1 X64.421671 Y44.086469 F100.000000
G1 X64.446604 Y44.119139 F100.000000
G1 X64.478735 Y44.144763 F100.000000
G1 X64.495110 Y44.178765 F100.000000
G1 X64.519749 Y44.207352 F100.000000
G1 X64.522916 Y44.219134 F100.000000
G1 X64.530317 Y44.228832 F100.000000
G1 X64.538606 Y44.269085 F100.000000
G1 X64.556437 Y44.306113 F100.000000
G1 Y44.343852 F100.000000
G1 X64.566233 Y44.380298 F100.000000
G1 X64.563974 Y44.392288 F100.000000
G1 X64.566435 Y44.404237 F100.000000
G1 X64.556437 Y44.444100 F100.000000
G1 Y44.485197 F100.000000
G1 X64.540063 Y44.519200 F100.000000
G1 X64.533075 Y44.556287 F100.000000
G1 X64.525838 Y44.566109 F100.000000
G1 X64.522870 Y44.577942 F100.000000
G1 X64.496567 Y44.609520 F100.000000
G1 X64.478735 Y44.646547 F100.000000
G1 X64.449229 Y44.670078 F100.000000
G1 X64.426842 Y44.700460 F100.000000
G1 X64.416060 Y44.706169 F100.000000
G1 X64.408252 Y44.715543 F100.000000
G1 X64.311732 Y44.789203 F100.000000
G1 X64.299051 Y44.794980 F100.000000
G1 X64.306310 Y44.798141 F100.000000
G1 X64.402830 Y44.869261 F100.000000
G1 X64.449367 Y44.923253 F100.000000
G1 X64.500718 Y44.972689 F100.000000
G1 X64.597238 Y45.120009 F100.000000
G1 X64.606539 Y45.145053 F100.000000
G1 X64.623196 Y45.165940 F100.000000
G1 X64.637386 Y45.228110 F100.000000
G1 X64.659588 Y45.287890 F100.000000
G1 X64.657102 Y45.314489 F100.000000
G1 X64.663046 Y45.340535 F100.000000
G1 Y45.630095 F100.000000
G1 X64.656744 Y45.657709 F100.000000
G1 X64.659154 Y45.685930 F100.000000
G1 X64.652957 Y45.702214 F100.000000
G1 Y45.864417 F100.000000
G1 X64.575255 Y46.025767 F100.000000
G1 X64.564338 Y46.034474 F100.000000
G1 X64.623196 Y46.108280 F100.000000
G1 X64.654104 Y46.243695 F100.000000
G1 X64.938826 Y46.243695 F100.000000
G1 X65.113421 Y46.283545 F100.000000
G1 X65.253435 Y46.395203 F100.000000
G1 X65.331137 Y46.556553 F100.000000
G1 Y46.735637 F100.000000
G1 X65.253435 Y46.896987 F100.000000
G1 X65.113421 Y47.008645 F100.000000
G1 X64.938826 Y47.048495 F100.000000
G1 X64.638944 Y47.048495 F100.000000
G1 X64.654104 Y47.114915 F100.000000
G1 X64.938826 F100.000000
G1 X65.113421 Y47.154765 F100.000000
G1 X65.253435 Y47.266423 F100.000000
G1 X65.331137 Y47.427773 F100.000000
G1 Y47.606857 F100.000000
G1 X65.253435 Y47.768207 F100.000000
G1 X65.113421 Y47.879865 F100.000000
G1 X64.938826 Y47.919715 F100.000000
G1 X64.613702 F100.000000
G1 X64.511539 Y48.047824 F100.000000
G1 X64.473013 Y48.066377 F100.000000
G1 X64.473977 Y48.068011 F100.000000
G1 X64.498943 Y48.091664 F100.000000
G1 X64.595463 Y48.236444 F100.000000
G1 X64.605537 Y48.262916 F100.000000
G1 X64.623196 Y48.285060 F100.000000
G1 X64.637035 Y48.345694 F100.000000
G1 X64.659154 Y48.403820 F100.000000
G1 X64.656744 Y48.432041 F100.000000
G1 X64.663046 Y48.459655 F100.000000
G1 Y48.494135 F100.000000
G1 X64.938826 F100.000000
G1 X65.113421 Y48.533985 F100.000000
G1 X65.253435 Y48.645643 F100.000000
G1 X65.331137 Y48.806993 F100.000000
G1 Y48.986077 F100.000000
G1 X65.253435 Y49.147427 F100.000000
G1 X65.113421 Y49.259085 F100.000000
G1 X64.938826 Y49.298935 F100.000000
G1 X62.906826 F100.000000
G1 X62.732231 Y49.259085 F100.000000
G1 X62.592217 Y49.147427 F100.000000
G1 X62.514515 Y48.986077 F100.000000
G1 Y48.806993 F100.000000
G1 X62.592217 Y48.645643 F100.000000
G1 X62.688481 Y48.568875 F100.000000
G1 X62.592217 Y48.492107 F100.000000
G1 X62.514515 Y48.330757 F100.000000
G1 Y48.151673 F100.000000
G1 X62.592217 Y47.990323 F100.000000
G1 X62.732231 Y47.878665 F100.000000
G1 X62.906826 Y47.838815 F100.000000
G1 X62.910207 F100.000000
G1 X62.859888 Y47.819614 F100.000000
G1 X62.831291 Y47.800511 F100.000000
G1 X62.798534 Y47.790033 F100.000000
G1 X62.757722 Y47.751367 F100.000000
G1 X62.710972 Y47.720139 F100.000000
G1 X62.693495 Y47.690519 F100.000000
G1 X62.668529 Y47.666866 F100.000000
G1 X62.572009 Y47.522086 F100.000000
G1 X62.561936 Y47.495614 F100.000000
G1 X62.544276 Y47.473470 F100.000000
G1 X62.530437 Y47.412836 F100.000000
G1 X62.508319 Y47.354710 F100.000000
G1 X62.510729 Y47.326489 F100.000000
G1 X62.504426 Y47.298875 F100.000000
G1 Y47.154095 F100.000000
G1 X62.544276 Y46.979500 F100.000000
G1 X62.655934 Y46.839486 F100.000000
G1 X62.694459 Y46.820933 F100.000000
G1 X62.693495 Y46.819299 F100.000000
G1 X62.668529 Y46.795646 F100.000000
G1 X62.572009 Y46.650866 F100.000000
G1 X62.561936 Y46.624394 F100.000000
G1 X62.544276 Y46.602250 F100.000000
G1 X62.530437 Y46.541616 F100.000000
G1 X62.508319 Y46.483490 F100.000000
G1 X62.510729 Y46.455269 F100.000000
G1 X62.504426 Y46.427655 F100.000000
G1 Y46.282875 F100.000000
G1 X62.528529 Y46.177275 F100.000000
G1 X62.228646 Y46.177275 F100.000000
G1 X62.054051 Y46.137425 F100.000000
G1 X61.914037 Y46.025767 F100.000000
G1 X61.836335 Y45.864417 F100.000000
G1 Y45.685333 F100.000000
G1 X61.914037 Y45.523983 F100.000000
G1 X62.054051 Y45.412325 F100.000000
G1 X62.228646 Y45.372475 F100.000000
G1 X62.504426 F100.000000
G1 Y45.340535 F100.000000
G1 X62.510371 Y45.314489 F100.000000
G1 X62.507885 Y45.287890 F100.000000
G1 X62.530086 Y45.228110 F100.000000
G1 X62.544276 Y45.165940 F100.000000
G1 X62.560933 Y45.145053 F100.000000
G1 X62.570234 Y45.120009 F100.000000
G1 X62.666754 Y44.972689 F100.000000
G1 X62.718106 Y44.923253 F100.000000
G1 X62.764643 Y44.869261 F100.000000
G1 X62.829711 Y44.821316 F100.000000
G1 X62.759221 Y44.789203 F100.000000
G1 X62.662701 Y44.715543 F100.000000
G1 X62.654893 Y44.706169 F100.000000
G1 X62.644111 Y44.700460 F100.000000
G1 X62.621723 Y44.670078 F100.000000
G1 X62.592217 Y44.646547 F100.000000
G1 X62.574386 Y44.609520 F100.000000
G1 X62.548083 Y44.577942 F100.000000
G1 X62.545115 Y44.566109 F100.000000
G1 X62.537878 Y44.556287 F100.000000
G1 X62.530890 Y44.519200 F100.000000
G1 X62.514515 Y44.485197 F100.000000
G1 Y44.444100 F100.000000
G1 X62.504518 Y44.404237 F100.000000
G1 X62.506978 Y44.392288 F100.000000
G1 X62.504719 Y44.380298 F100.000000
G1 X62.514515 Y44.343852 F100.000000
G1 Y44.306113 F100.000000
G1 X62.532347 Y44.269085 F100.000000
G1 X62.533344 Y44.264240 F100.000000
G1 X62.427505 Y44.290013 F100.000000
G1 X62.252352 Y44.252691 F100.000000
G1 X62.110738 Y44.143070 F100.000000
G1 X62.030711 Y43.982861 F100.000000
G1 X62.028122 Y43.803794 F100.000000
G1 X62.103482 Y43.641338 F100.000000
G1 X62.241868 Y43.527668 F100.000000
G1 X64.855528 Y42.222108 F100.000000
G1 X65.029528 Y42.179737 F100.000000
G1 X65.204681 Y42.217059 F100.000000
G1 X65.346295 Y42.326680 F100.000000
G1 X65.426322 Y42.486889 F100.000000
G1 X65.428911 Y42.665956 F100.000000
G1 X65.353550 Y42.828412 F100.000000
G1 X65.215165 Y42.942082 F100.000000
G1 X63.164953 Y43.966192 F100.000000
G1 X63.173688 Y43.970817 F100.000000
G0 Z2.000000
G0 X64.855248 Y40.624587
G1 Z-0.040000 F60.000000
G1 X65.029215 Y40.582082 F100.000000
G1 X65.204397 Y40.619267 F100.000000
G1 X65.346096 Y40.728778 F100.000000
G1 X65.426247 Y40.888925 F100.000000
G1 X65.428976 Y41.067989 F100.000000
G1 X65.353742 Y41.230505 F100.000000
G1 X65.215445 Y41.344283 F100.000000
G1 X62.601785 Y42.652383 F100.000000
G1 X62.427818 Y42.694888 F100.000000
G1 X62.252636 Y42.657703 F100.000000
G1 X62.110937 Y42.548192 F100.000000
G1 X62.030785 Y42.388045 F100.000000
G1 X62.028057 Y42.208981 F100.000000
G1 X62.103291 Y42.046465 F100.000000
G1 X62.241588 Y41.932687 F100.000000
G1 X64.855248 Y40.624587 F100.000000
G0 Z2.000000
G0 X63.828091 Y39.478587
G1 Z-0.040000 F60.000000
G1 X63.787278 Y39.517253 F100.000000
G1 X63.754522 Y39.527731 F100.000000
G1 X63.725925 Y39.546834 F100.000000
G1 X63.532885 Y39.620494 F100.000000
G1 X63.460598 Y39.630691 F100.000000
G1 X63.389426 Y39.646935 F100.000000
G1 X63.354614 Y39.646935 F100.000000
G1 X63.386615 Y39.701055 F100.000000
G1 X63.401854 Y39.879490 F100.000000
G1 X63.338163 Y40.046866 F100.000000
G1 X63.309226 Y40.090272 F100.000000
G1 Y40.125622 F100.000000
G1 X63.367072 Y40.147695 F100.000000
G1 X63.800401 F100.000000
G1 X63.858246 Y40.125622 F100.000000
G1 Y40.090272 F100.000000
G1 X63.829309 Y40.046866 F100.000000
G1 X63.765619 Y39.879490 F100.000000
G1 X63.780858 Y39.701055 F100.000000
G1 X63.872008 Y39.546902 F100.000000
G1 X63.946463 Y39.497265 F100.000000
G1 X63.873223 Y39.448439 F100.000000
G1 X63.828091 Y39.478587 F100.000000
G0 Z2.000000
G0 X63.370588 Y34.920203
G1 Z-0.040000 F60.000000
G1 X63.360474 Y34.910466 F100.000000
G1 X63.353112 Y34.922915 F100.000000
G1 X63.372247 F100.000000
G1 X63.370588 Y34.920203 F100.000000
G0 Z2.000000
G0 X63.820763 Y31.327664
G1 Z-0.040000 F60.000000
G1 X63.831143 Y31.343233 F100.000000
G1 X63.872008 Y31.274122 F100.000000
G1 X64.021015 Y31.174783 F100.000000
G1 X64.198368 Y31.149934 F100.000000
G1 X64.368938 Y31.204497 F100.000000
G1 X64.498943 Y31.327664 F100.000000
G1 X64.595463 Y31.472444 F100.000000
G1 X64.605537 Y31.498916 F100.000000
G1 X64.623196 Y31.521060 F100.000000
G1 X64.637035 Y31.581694 F100.000000
G1 X64.659154 Y31.639820 F100.000000
G1 X64.656744 Y31.668041 F100.000000
G1 X64.663046 Y31.695655 F100.000000
G1 Y31.914095 F100.000000
G1 X64.656744 Y31.941709 F100.000000
G1 X64.659154 Y31.969930 F100.000000
G1 X64.637035 Y32.028056 F100.000000
G1 X64.623196 Y32.088690 F100.000000
G1 X64.605537 Y32.110834 F100.000000
G1 X64.595463 Y32.137306 F100.000000
G1 X64.498943 Y32.282086 F100.000000
G1 X64.473977 Y32.305739 F100.000000
G1 X64.456500 Y32.335359 F100.000000
G1 X64.409751 Y32.366587 F100.000000
G1 X64.368938 Y32.405253 F100.000000
G1 X64.364598 Y32.406641 F100.000000
G1 X64.435241 Y32.422765 F100.000000
G1 X64.575255 Y32.534423 F100.000000
G1 X64.652957 Y32.695773 F100.000000
G1 Y32.857976 F100.000000
G1 X64.659154 Y32.874260 F100.000000
G1 X64.656744 Y32.902481 F100.000000
G1 X64.663046 Y32.930095 F100.000000
G1 Y33.219655 F100.000000
G1 X64.656744 Y33.247269 F100.000000
G1 X64.659154 Y33.275490 F100.000000
G1 X64.637035 Y33.333616 F100.000000
G1 X64.623196 Y33.394250 F100.000000
G1 X64.605537 Y33.416394 F100.000000
G1 X64.595463 Y33.442866 F100.000000
G1 X64.498943 Y33.587646 F100.000000
G1 X64.450745 Y33.633309 F100.000000
G1 X64.408252 Y33.684323 F100.000000
G1 X64.311732 Y33.757983 F100.000000
G1 X64.257731 Y33.782584 F100.000000
G1 X64.368938 Y33.818157 F100.000000
G1 X64.498943 Y33.941324 F100.000000
G1 X64.595463 Y34.086104 F100.000000
G1 X64.605537 Y34.112576 F100.000000
G1 X64.623196 Y34.134720 F100.000000
G1 X64.637035 Y34.195354 F100.000000
G1 X64.659154 Y34.253480 F100.000000
G1 X64.656744 Y34.281701 F100.000000
G1 X64.663046 Y34.309315 F100.000000
G1 Y34.525215 F100.000000
G1 X64.657102 Y34.551261 F100.000000
G1 X64.659588 Y34.577860 F100.000000
G1 X64.637386 Y34.637640 F100.000000
G1 X64.623196 Y34.699810 F100.000000
G1 X64.606539 Y34.720697 F100.000000
G1 X64.597238 Y34.745741 F100.000000
G1 X64.500718 Y34.893061 F100.000000
G1 X64.473131 Y34.919619 F100.000000
G1 X64.453292 Y34.952373 F100.000000
G1 X64.409422 Y34.980952 F100.000000
G1 X64.371703 Y35.017264 F100.000000
G1 X64.335324 Y35.029222 F100.000000
G1 X64.303238 Y35.050124 F100.000000
G1 X64.275867 Y35.060208 F100.000000
G1 X64.311732 Y35.076547 F100.000000
G1 X64.408252 Y35.150207 F100.000000
G1 X64.450745 Y35.201221 F100.000000
G1 X64.498943 Y35.246884 F100.000000
G1 X64.595463 Y35.391664 F100.000000
G1 X64.605537 Y35.418136 F100.000000
G1 X64.623196 Y35.440280 F100.000000
G1 X64.637035 Y35.500914 F100.000000
G1 X64.659154 Y35.559040 F100.000000
G1 X64.656744 Y35.587261 F100.000000
G1 X64.663046 Y35.614875 F100.000000
G1 Y35.833315 F100.000000
G1 X64.656744 Y35.860929 F100.000000
G1 X64.659154 Y35.889150 F100.000000
G1 X64.637035 Y35.947276 F100.000000
G1 X64.623196 Y36.007910 F100.000000
G1 X64.605537 Y36.030054 F100.000000
G1 X64.595463 Y36.056526 F100.000000
G1 X64.498943 Y36.201306 F100.000000
G1 X64.448340 Y36.249248 F100.000000
G1 X64.402830 Y36.302049 F100.000000
G1 X64.306310 Y36.373169 F100.000000
G1 X64.256363 Y36.394915 F100.000000
G1 X64.211065 Y36.425174 F100.000000
G1 X64.154089 Y36.446915 F100.000000
G1 X64.938826 F100.000000
G1 X65.113421 Y36.486765 F100.000000
G1 X65.253435 Y36.598423 F100.000000
G1 X65.331137 Y36.759773 F100.000000
G1 Y36.938857 F100.000000
G1 X65.253435 Y37.100207 F100.000000
G1 X65.113421 Y37.211865 F100.000000
G1 X64.938826 Y37.251715 F100.000000
G1 X64.638944 Y37.251715 F100.000000
G1 X64.663046 Y37.357315 F100.000000
G1 Y37.502095 F100.000000
G1 X64.656744 Y37.529709 F100.000000
G1 X64.659154 Y37.557930 F100.000000
G1 X64.637035 Y37.616056 F100.000000
G1 X64.628829 Y37.652010 F100.000000
G1 X64.652957 Y37.702113 F100.000000
G1 Y37.881197 F100.000000
G1 X64.575255 Y38.042547 F100.000000
G1 X64.435241 Y38.154205 F100.000000
G1 X64.260646 Y38.194055 F100.000000
G1 X64.255546 F100.000000
G1 X64.303238 Y38.211626 F100.000000
G1 X64.335324 Y38.232528 F100.000000
G1 X64.371703 Y38.244486 F100.000000
G1 X64.409422 Y38.280798 F100.000000
G1 X64.453292 Y38.309377 F100.000000
G1 X64.473131 Y38.342131 F100.000000
G1 X64.500718 Y38.368689 F100.000000
G1 X64.597238 Y38.516009 F100.000000
G1 X64.606539 Y38.541053 F100.000000
G1 X64.623196 Y38.561940 F100.000000
G1 X64.637386 Y38.624110 F100.000000
G1 X64.659588 Y38.683890 F100.000000
G1 X64.657102 Y38.710489 F100.000000
G1 X64.663046 Y38.736535 F100.000000
G1 Y39.026095 F100.000000
G1 X64.656744 Y39.053709 F100.000000
G1 X64.659154 Y39.081930 F100.000000
G1 X64.637035 Y39.140056 F100.000000
G1 X64.623196 Y39.200690 F100.000000
G1 X64.605537 Y39.222834 F100.000000
G1 X64.595463 Y39.249306 F100.000000
G1 X64.498943 Y39.394086 F100.000000
G1 X64.390036 Y39.497265 F100.000000
G1 X64.498943 Y39.600444 F100.000000
G1 X64.595463 Y39.745224 F100.000000
G1 X64.605537 Y39.771696 F100.000000
G1 X64.623196 Y39.793840 F100.000000
G1 X64.637035 Y39.854474 F100.000000
G1 X64.659154 Y39.912600 F100.000000
G1 X64.656744 Y39.940821 F100.000000
G1 X64.663046 Y39.968435 F100.000000
G1 Y40.260535 F100.000000
G1 X64.656744 Y40.288149 F100.000000
G1 X64.659154 Y40.316370 F100.000000
G1 X64.637035 Y40.374496 F100.000000
G1 X64.623196 Y40.435130 F100.000000
G1 X64.605537 Y40.457274 F100.000000
G1 X64.595463 Y40.483746 F100.000000
G1 X64.498943 Y40.628526 F100.000000
G1 X64.448340 Y40.676468 F100.000000
G1 X64.402830 Y40.729269 F100.000000
G1 X64.306310 Y40.800389 F100.000000
G1 X64.256363 Y40.822135 F100.000000
G1 X64.211065 Y40.852394 F100.000000
G1 X64.018025 Y40.926054 F100.000000
G1 X63.945738 Y40.936251 F100.000000
G1 X63.874566 Y40.952495 F100.000000
G1 X63.292906 F100.000000
G1 X63.221735 Y40.936251 F100.000000
G1 X63.149448 Y40.926054 F100.000000
G1 X62.956408 Y40.852394 F100.000000
G1 X62.911110 Y40.822135 F100.000000
G1 X62.861163 Y40.800389 F100.000000
G1 X62.764643 Y40.729269 F100.000000
G1 X62.719133 Y40.676468 F100.000000
G1 X62.668529 Y40.628526 F100.000000
G1 X62.572009 Y40.483746 F100.000000
G1 X62.561936 Y40.457274 F100.000000
G1 X62.544276 Y40.435130 F100.000000
G1 X62.530437 Y40.374496 F100.000000
G1 X62.508319 Y40.316370 F100.000000
G1 X62.510729 Y40.288149 F100.000000
G1 X62.504426 Y40.260535 F100.000000
G1 Y39.968435 F100.000000
G1 X62.510729 Y39.940821 F100.000000
G1 X62.508319 Y39.912600 F100.000000
G1 X62.530437 Y39.854474 F100.000000
G1 X62.544276 Y39.793840 F100.000000
G1 X62.561936 Y39.771696 F100.000000
G1 X62.572009 Y39.745224 F100.000000
G1 X62.668529 Y39.600444 F100.000000
G1 X62.777436 Y39.497265 F100.000000
G1 X62.757722 Y39.478587 F100.000000
G1 X62.710972 Y39.447359 F100.000000
G1 X62.693495 Y39.417739 F100.000000
G1 X62.668529 Y39.394086 F100.000000
G1 X62.572009 Y39.249306 F100.000000
G1 X62.561936 Y39.222834 F100.000000
G1 X62.544276 Y39.200690 F100.000000
G1 X62.530437 Y39.140056 F100.000000
G1 X62.508319 Y39.081930 F100.000000
G1 X62.510729 Y39.053709 F100.000000
G1 X62.504426 Y39.026095 F100.000000
G1 Y38.662875 F100.000000
G1 X62.510729 Y38.635261 F100.000000
G1 X62.508319 Y38.607040 F100.000000
G1 X62.514515 Y38.590756 F100.000000
G1 Y38.428553 F100.000000
G1 X62.592217 Y38.267203 F100.000000
G1 X62.732231 Y38.155545 F100.000000
G1 X62.735168 Y38.154875 F100.000000
G1 X62.732231 Y38.154205 F100.000000
G1 X62.592217 Y38.042547 F100.000000
G1 X62.514515 Y37.881197 F100.000000
G1 Y37.702113 F100.000000
G1 X62.592217 Y37.540763 F100.000000
G1 X62.732231 Y37.429105 F100.000000
G1 X62.906826 Y37.389255 F100.000000
G1 X63.802798 F100.000000
G1 X63.858246 Y37.368827 F100.000000
G1 Y37.357315 F100.000000
G1 X63.882349 Y37.251715 F100.000000
G1 X63.196386 Y37.251715 F100.000000
G1 X63.125215 Y37.235471 F100.000000
G1 X63.052928 Y37.225274 F100.000000
G1 X62.859888 Y37.151614 F100.000000
G1 X62.831291 Y37.132511 F100.000000
G1 X62.798534 Y37.122033 F100.000000
G1 X62.757722 Y37.083367 F100.000000
G1 X62.710972 Y37.052139 F100.000000
G1 X62.693495 Y37.022519 F100.000000
G1 X62.668529 Y36.998866 F100.000000
G1 X62.572009 Y36.854086 F100.000000
G1 X62.508319 Y36.686710 F100.000000
G1 X62.523558 Y36.508275 F100.000000
G1 X62.614708 Y36.354122 F100.000000
G1 X62.738432 Y36.271639 F100.000000
G1 X62.719133 Y36.249248 F100.000000
G1 X62.668529 Y36.201306 F100.000000
G1 X62.572009 Y36.056526 F100.000000
G1 X62.561936 Y36.030054 F100.000000
G1 X62.544276 Y36.007910 F100.000000
G1 X62.530437 Y35.947276 F100.000000
G1 X62.508319 Y35.889150 F100.000000
G1 X62.510729 Y35.860929 F100.000000
G1 X62.504426 Y35.833315 F100.000000
G1 Y35.614875 F100.000000
G1 X62.510729 Y35.587261 F100.000000
G1 X62.508319 Y35.559040 F100.000000
G1 X62.530437 Y35.500914 F100.000000
G1 X62.544276 Y35.440280 F100.000000
G1 X62.561936 Y35.418136 F100.000000
G1 X62.572009 Y35.391664 F100.000000
G1 X62.668529 Y35.246884 F100.000000
G1 X62.716727 Y35.201221 F100.000000
G1 X62.759221 Y35.150207 F100.000000
G1 X62.826392 Y35.098944 F100.000000
G1 X62.798534 Y35.090033 F100.000000
G1 X62.668529 Y34.966866 F100.000000
G1 X62.572009 Y34.822086 F100.000000
G1 X62.561936 Y34.795614 F100.000000
G1 X62.544276 Y34.773470 F100.000000
G1 X62.530437 Y34.712836 F100.000000
G1 X62.508319 Y34.654710 F100.000000
G1 X62.510729 Y34.626489 F100.000000
G1 X62.504426 Y34.598875 F100.000000
G1 Y34.309315 F100.000000
G1 X62.510729 Y34.281701 F100.000000
G1 X62.508319 Y34.253480 F100.000000
G1 X62.530437 Y34.195354 F100.000000
G1 X62.544276 Y34.134720 F100.000000
G1 X62.561936 Y34.112576 F100.000000
G1 X62.572009 Y34.086104 F100.000000
G1 X62.668529 Y33.941324 F100.000000
G1 X62.693495 Y33.917671 F100.000000
G1 X62.710972 Y33.888051 F100.000000
G1 X62.757722 Y33.856823 F100.000000
G1 X62.798534 Y33.818157 F100.000000
G1 X62.831291 Y33.807679 F100.000000
G1 X62.859888 Y33.788576 F100.000000
G1 X62.894175 Y33.775492 F100.000000
G1 X62.855741 Y33.757983 F100.000000
G1 X62.759221 Y33.684323 F100.000000
G1 X62.716727 Y33.633309 F100.000000
G1 X62.683893 Y33.602202 F100.000000
G1 X62.617285 Y33.714848 F100.000000
G1 X62.468277 Y33.814187 F100.000000
G1 X62.290925 Y33.839036 F100.000000
G1 X62.120354 Y33.784473 F100.000000
G1 X61.990349 Y33.661306 F100.000000
G0 Z2.000000
G0 X63.857915 Y33.911615
G1 Z-0.040000 F60.000000
G1 X63.792224 Y33.911615 F100.000000
G1 X63.795797 Y33.917671 F100.000000
G1 X63.820763 Y33.941324 F100.000000
G1 X63.831143 Y33.956893 F100.000000
G1 X63.857915 Y33.911615 F100.000000
G0 Z2.000000
G0 X63.387813 Y32.336623
G1 Z-0.040000 F60.000000
G1 X63.369764 Y32.306335 F100.000000
G1 X63.361405 Y32.298415 F100.000000
G1 X63.310524 Y32.382915 F100.000000
G1 X63.450596 F100.000000
G1 X63.433983 Y32.367176 F100.000000
G1 X63.387813 Y32.336623 F100.000000
G0 Z2.000000
G0 X63.693523 Y27.939706
G1 Z-0.040000 F60.000000
G1 X63.731242 Y27.976018 F100.000000
G1 X63.775112 Y28.004597 F100.000000
G1 X63.794951 Y28.037351 F100.000000
G1 X63.822538 Y28.063909 F100.000000
G1 X63.831102 Y28.076980 F100.000000
G1 X63.874231 Y28.005354 F100.000000
G1 X64.024028 Y27.907211 F100.000000
G1 X64.201574 Y27.883781 F100.000000
G1 X64.371703 Y27.939706 F100.000000
G1 X64.500718 Y28.063909 F100.000000
G1 X64.597238 Y28.211229 F100.000000
G1 X64.606539 Y28.236273 F100.000000
G1 X64.623196 Y28.257160 F100.000000
G1 X64.637386 Y28.319330 F100.000000
G1 X64.659588 Y28.379110 F100.000000
G1 X64.657102 Y28.405709 F100.000000
G1 X64.663046 Y28.431755 F100.000000
G1 Y28.647655 F100.000000
G1 X64.656744 Y28.675269 F100.000000
G1 X64.659154 Y28.703490 F100.000000
G1 X64.637035 Y28.761616 F100.000000
G1 X64.623196 Y28.822250 F100.000000
G1 X64.605537 Y28.844394 F100.000000
G1 X64.595463 Y28.870866 F100.000000
G1 X64.498943 Y29.015646 F100.000000
G1 X64.473977 Y29.039299 F100.000000
G1 X64.456500 Y29.068919 F100.000000
G1 X64.409751 Y29.100147 F100.000000
G1 X64.368938 Y29.138813 F100.000000
G1 X64.336182 Y29.149291 F100.000000
G1 X64.325984 Y29.156103 F100.000000
G1 X64.333986 Y29.161316 F100.000000
G1 X64.368938 Y29.172497 F100.000000
G1 X64.408096 Y29.209595 F100.000000
G1 X64.453292 Y29.239037 F100.000000
G1 X64.472304 Y29.270425 F100.000000
G1 X64.498943 Y29.295664 F100.000000
G1 X64.595463 Y29.440444 F100.000000
G1 X64.605537 Y29.466916 F100.000000
G1 X64.623196 Y29.489060 F100.000000
G1 X64.637035 Y29.549694 F100.000000
G1 X64.659154 Y29.607820 F100.000000
G1 X64.656744 Y29.636041 F100.000000
G1 X64.663046 Y29.663655 F100.000000
G1 Y29.955755 F100.000000
G1 X64.656744 Y29.983369 F100.000000
G1 X64.659154 Y30.011590 F100.000000
G1 X64.637035 Y30.069716 F100.000000
G1 X64.623196 Y30.130350 F100.000000
G1 X64.605537 Y30.152494 F100.000000
G1 X64.595463 Y30.178966 F100.000000
G1 X64.498943 Y30.323746 F100.000000
G1 X64.472304 Y30.348985 F100.000000
G1 X64.453292 Y30.380373 F100.000000
G1 X64.408096 Y30.409815 F100.000000
G1 X64.368938 Y30.446913 F100.000000
G1 X64.333986 Y30.458094 F100.000000
G1 X64.303238 Y30.478124 F100.000000
G1 X64.110198 Y30.549244 F100.000000
G1 X64.040047 Y30.558315 F100.000000
G1 X63.971086 Y30.574055 F100.000000
G1 X63.414722 Y30.574055 F100.000000
G1 X63.430850 Y30.607545 F100.000000
G1 X63.455489 Y30.636132 F100.000000
G1 X63.458656 Y30.647914 F100.000000
G1 X63.466057 Y30.657612 F100.000000
G1 X63.474346 Y30.697865 F100.000000
G1 X63.492177 Y30.734893 F100.000000
G1 Y30.772632 F100.000000
G1 X63.501973 Y30.809078 F100.000000
G1 X63.499714 Y30.821068 F100.000000
G1 X63.502175 Y30.833017 F100.000000
G1 X63.492177 Y30.872880 F100.000000
G1 Y30.913977 F100.000000
G1 X63.475803 Y30.947980 F100.000000
G1 X63.468815 Y30.985067 F100.000000
G1 X63.461578 Y30.994889 F100.000000
G1 X63.458610 Y31.006722 F100.000000
G1 X63.432307 Y31.038300 F100.000000
G1 X63.414475 Y31.075327 F100.000000
G1 X63.390138 Y31.094735 F100.000000
G1 X63.436365 Y31.101256 F100.000000
G1 X63.629405 Y31.174916 F100.000000
G1 X63.658002 Y31.194019 F100.000000
G1 X63.690758 Y31.204497 F100.000000
G1 X63.731571 Y31.243163 F100.000000
G1 X63.778320 Y31.274391 F100.000000
G1 X63.795797 Y31.304011 F100.000000
G1 X63.820763 Y31.327664 F100.000000
G0 Z2.000000
G0 X61.990349 Y33.661306
G1 Z-0.040000 F60.000000
G1 X61.893829 Y33.516526 F100.000000
G1 X61.883756 Y33.490054 F100.000000
G1 X61.866096 Y33.467910 F100.000000
G1 X61.852257 Y33.407276 F100.000000
G1 X61.830139 Y33.349150 F100.000000
G1 X61.832549 Y33.320929 F100.000000
G1 X61.826246 Y33.293315 F100.000000
G1 Y33.074875 F100.000000
G1 X61.832549 Y33.047261 F100.000000
G1 X61.830139 Y33.019040 F100.000000
G1 X61.852257 Y32.960914 F100.000000
G1 X61.866096 Y32.900280 F100.000000
G1 X61.883756 Y32.878136 F100.000000
G1 X61.893829 Y32.851664 F100.000000
G1 X61.990349 Y32.706884 F100.000000
G1 X62.038547 Y32.661221 F100.000000
G1 X62.081041 Y32.610207 F100.000000
G1 X62.177561 Y32.536547 F100.000000
G1 X62.232234 Y32.511639 F100.000000
G1 X62.282574 Y32.478846 F100.000000
G1 X62.475614 Y32.407726 F100.000000
G1 X62.545765 Y32.398655 F100.000000
G1 X62.614726 Y32.382915 F100.000000
G1 X62.697765 F100.000000
G1 X62.666754 Y32.353061 F100.000000
G1 X62.570234 Y32.205741 F100.000000
G1 X62.560933 Y32.180697 F100.000000
G1 X62.544276 Y32.159810 F100.000000
G1 X62.530086 Y32.097640 F100.000000
G1 X62.507885 Y32.037860 F100.000000
G1 X62.510371 Y32.011261 F100.000000
G1 X62.504426 Y31.985215 F100.000000
G1 Y31.695655 F100.000000
G1 X62.510729 Y31.668041 F100.000000
G1 X62.508319 Y31.639820 F100.000000
G1 X62.530437 Y31.581694 F100.000000
G1 X62.544276 Y31.521060 F100.000000
G1 X62.561936 Y31.498916 F100.000000
G1 X62.572009 Y31.472444 F100.000000
G1 X62.668529 Y31.327664 F100.000000
G1 X62.693495 Y31.304011 F100.000000
G1 X62.710972 Y31.274391 F100.000000
G1 X62.757722 Y31.243163 F100.000000
G1 X62.776156 Y31.225698 F100.000000
G1 X62.759221 Y31.217983 F100.000000
G1 X62.662701 Y31.144323 F100.000000
G1 X62.654893 Y31.134949 F100.000000
G1 X62.644111 Y31.129240 F100.000000
G1 X62.621723 Y31.098858 F100.000000
G1 X62.592217 Y31.075327 F100.000000
G1 X62.574386 Y31.038300 F100.000000
G1 X62.548083 Y31.006722 F100.000000
G1 X62.545115 Y30.994889 F100.000000
G1 X62.537878 Y30.985067 F100.000000
G1 X62.530890 Y30.947980 F100.000000
G1 X62.514515 Y30.913977 F100.000000
G1 Y30.872880 F100.000000
G1 X62.504518 Y30.833017 F100.000000
G1 X62.506978 Y30.821068 F100.000000
G1 X62.504719 Y30.809078 F100.000000
G1 X62.514515 Y30.772632 F100.000000
G1 Y30.734893 F100.000000
G1 X62.532347 Y30.697865 F100.000000
G1 X62.540635 Y30.657612 F100.000000
G1 X62.548037 Y30.647914 F100.000000
G1 X62.551203 Y30.636132 F100.000000
G1 X62.575843 Y30.607545 F100.000000
G1 X62.592217 Y30.573543 F100.000000
G1 X62.624349 Y30.547919 F100.000000
G1 X62.649281 Y30.515249 F100.000000
G1 X62.660158 Y30.509722 F100.000000
G1 X62.668123 Y30.500481 F100.000000
G1 X62.764643 Y30.429361 F100.000000
G1 X62.775170 Y30.424777 F100.000000
G1 X62.759377 Y30.409815 F100.000000
G1 X62.714181 Y30.380373 F100.000000
G1 X62.695169 Y30.348985 F100.000000
G1 X62.668529 Y30.323746 F100.000000
G1 X62.572009 Y30.178966 F100.000000
G1 X62.561936 Y30.152494 F100.000000
G1 X62.544276 Y30.130350 F100.000000
G1 X62.530437 Y30.069716 F100.000000
G0 Z2.000000
G1 Z-0.040000 F60.000000
G1 X62.508319 Y30.011590 F100.000000
G1 X62.510729 Y29.983369 F100.000000
G1 X62.504426 Y29.955755 F100.000000
G1 Y29.663655 F100.000000
G1 X62.510729 Y29.636041 F100.000000
G1 X62.508319 Y29.607820 F100.000000
G1 X62.530437 Y29.549694 F100.000000
G1 X62.544276 Y29.489060 F100.000000
G1 X62.561936 Y29.466916 F100.000000
G1 X62.572009 Y29.440444 F100.000000
G1 X62.668529 Y29.295664 F100.000000
G1 X62.777436 Y29.192485 F100.000000
G1 X62.668529 Y29.089306 F100.000000
G1 X62.572009 Y28.944526 F100.000000
G1 X62.561936 Y28.918054 F100.000000
G1 X62.544276 Y28.895910 F100.000000
G1 X62.530437 Y28.835276 F100.000000
G1 X62.508319 Y28.777150 F100.000000
G1 X62.510729 Y28.748929 F100.000000
G1 X62.504426 Y28.721315 F100.000000
G1 Y28.431755 F100.000000
G1 X62.510371 Y28.405709 F100.000000
G1 X62.507885 Y28.379110 F100.000000
G1 X62.530086 Y28.319330 F100.000000
G1 X62.544276 Y28.257160 F100.000000
G1 X62.560933 Y28.236273 F100.000000
G1 X62.570234 Y28.211229 F100.000000
G1 X62.666754 Y28.063909 F100.000000
G1 X62.694342 Y28.037351 F100.000000
G1 X62.714181 Y28.004597 F100.000000
G1 X62.758051 Y27.976018 F100.000000
G1 X62.795770 Y27.939706 F100.000000
G1 X62.832149 Y27.927748 F100.000000
G1 X62.864234 Y27.906846 F100.000000
G1 X63.057274 Y27.835726 F100.000000
G1 X63.127425 Y27.826655 F100.000000
G1 X63.196386 Y27.810915 F100.000000
G1 X63.292906 F100.000000
G1 X63.361867 Y27.826655 F100.000000
G1 X63.432018 Y27.835726 F100.000000
G1 X63.625058 Y27.906846 F100.000000
G1 X63.657144 Y27.927748 F100.000000
G1 X63.693523 Y27.939706 F100.000000
G0 Z2.000000
G0 X63.433983 Y29.100736
G1 Z-0.040000 F60.000000
G1 X63.387813 Y29.070183 F100.000000
G1 X63.369764 Y29.039895 F100.000000
G1 X63.361161 Y29.031744 F100.000000
G1 X63.295465 Y29.142848 F100.000000
G1 X63.221010 Y29.192485 F100.000000
G1 X63.295465 Y29.242122 F100.000000
G1 X63.377075 Y29.380140 F100.000000
G1 X63.386693 Y29.344072 F100.000000
G1 X63.425128 Y29.271139 F100.000000
G1 X63.460897 Y29.196863 F100.000000
G1 X63.466715 Y29.192223 F100.000000
G1 X63.470185 Y29.185640 F100.000000
G1 X63.513668 Y29.153467 F100.000000
G1 X63.507756 Y29.149555 F100.000000
G1 X63.474174 Y29.138813 F100.000000
G1 X63.433983 Y29.100736 F100.000000
G0 Z2.000000
G0 X55.894966 Y32.454035
G1 Z-0.040000 F60.000000
G1 X56.154426 F100.000000
G1 Y32.410657 F100.000000
G1 X56.094041 Y32.387615 F100.000000
G1 X55.952812 F100.000000
G1 X55.894966 Y32.409688 F100.000000
G1 Y32.454035 F100.000000
G0 Z2.000000
G0 X56.562215 Y30.849823
G1 Z-0.040000 F60.000000
G1 X56.544095 Y30.850515 F100.000000
G1 X56.527380 Y30.857548 F100.000000
G1 X56.455340 Y30.853905 F100.000000
G1 X56.383261 Y30.856657 F100.000000
G1 X56.366634 Y30.849419 F100.000000
G1 X56.348524 Y30.848503 F100.000000
G1 X56.285199 Y30.813964 F100.000000
G1 X56.259267 Y30.802673 F100.000000
G1 X56.281046 Y30.898095 F100.000000
G1 Y31.042875 F100.000000
G1 X56.274744 Y31.070489 F100.000000
G1 X56.277154 Y31.098710 F100.000000
G1 X56.255035 Y31.156836 F100.000000
G1 X56.246829 Y31.192790 F100.000000
G1 X56.270957 Y31.242893 F100.000000
G1 Y31.421977 F100.000000
G1 X56.193255 Y31.583327 F100.000000
G1 X56.188181 Y31.587374 F100.000000
G1 X56.239378 Y31.599059 F100.000000
G1 X56.311665 Y31.609256 F100.000000
G1 X56.504705 Y31.682916 F100.000000
G1 X56.552770 Y31.715023 F100.000000
G1 X56.605372 Y31.738987 F100.000000
G1 X56.701892 Y31.812647 F100.000000
G1 X56.742867 Y31.861838 F100.000000
G1 X56.789870 Y31.905306 F100.000000
G1 X56.888930 Y32.050086 F100.000000
G1 X56.900209 Y32.078685 F100.000000
G1 X56.919376 Y32.102720 F100.000000
G1 X56.932687 Y32.161037 F100.000000
G1 X56.954632 Y32.216683 F100.000000
G1 X56.952385 Y32.247343 F100.000000
G1 X56.959226 Y32.277315 F100.000000
G1 Y32.856435 F100.000000
G1 X56.949137 Y32.900638 F100.000000
G1 Y32.945977 F100.000000
G1 X56.929465 Y32.986827 F100.000000
G1 X56.919376 Y33.031030 F100.000000
G1 X56.891107 Y33.066478 F100.000000
G1 X56.871435 Y33.107327 F100.000000
G1 X56.835987 Y33.135596 F100.000000
G1 X56.807719 Y33.171044 F100.000000
G1 X56.766869 Y33.190716 F100.000000
G1 X56.731421 Y33.218985 F100.000000
G1 X56.687218 Y33.229074 F100.000000
G1 X56.646369 Y33.248746 F100.000000
G1 X56.601029 F100.000000
G1 X56.556826 Y33.258835 F100.000000
G1 X54.524826 F100.000000
G1 X54.350231 Y33.218985 F100.000000
G1 X54.210217 Y33.107327 F100.000000
G1 X54.132515 Y32.945977 F100.000000
G1 Y32.766893 F100.000000
G1 X54.210217 Y32.605543 F100.000000
G1 X54.350231 Y32.493885 F100.000000
G1 X54.524826 Y32.454035 F100.000000
G1 X55.090166 F100.000000
G1 Y32.277315 F100.000000
G1 X55.096469 Y32.249701 F100.000000
G1 X55.094059 Y32.221480 F100.000000
G1 X55.116177 Y32.163354 F100.000000
G1 X55.130016 Y32.102720 F100.000000
G1 X55.147676 Y32.080576 F100.000000
G1 X55.157749 Y32.054104 F100.000000
G1 X55.254269 Y31.909324 F100.000000
G1 X55.302467 Y31.863661 F100.000000
G1 X55.344961 Y31.812647 F100.000000
G1 X55.441481 Y31.738987 F100.000000
G1 X55.450594 Y31.734835 F100.000000
G1 X54.524826 F100.000000
G1 X54.350231 Y31.694985 F100.000000
G1 X54.210217 Y31.583327 F100.000000
G1 X54.132515 Y31.421977 F100.000000
G1 Y31.242893 F100.000000
G1 X54.210217 Y31.081543 F100.000000
G1 X54.350231 Y30.969885 F100.000000
G1 X54.524826 Y30.930035 F100.000000
G1 X55.420798 F100.000000
G1 X55.476246 Y30.909607 F100.000000
G1 Y30.898095 F100.000000
G1 X55.500349 Y30.792495 F100.000000
G1 X54.524826 Y30.792495 F100.000000
G1 X54.350231 Y30.752645 F100.000000
G1 X54.210217 Y30.640987 F100.000000
G1 X54.132515 Y30.479637 F100.000000
G1 Y30.300553 F100.000000
G1 X54.210217 Y30.139203 F100.000000
G1 X54.350231 Y30.027545 F100.000000
G1 X54.353168 Y30.026875 F100.000000
G1 X54.350231 Y30.026205 F100.000000
G1 X54.210217 Y29.914547 F100.000000
G1 X54.132515 Y29.753197 F100.000000
G1 Y29.574113 F100.000000
G1 X54.210217 Y29.412763 F100.000000
G1 X54.304888 Y29.337265 F100.000000
G1 X54.210217 Y29.261767 F100.000000
G1 X54.132515 Y29.100417 F100.000000
G1 Y28.921333 F100.000000
G1 X54.210217 Y28.759983 F100.000000
G1 X54.350231 Y28.648325 F100.000000
G1 X54.524826 Y28.608475 F100.000000
G1 X54.529926 F100.000000
G1 X54.482234 Y28.590904 F100.000000
G1 X54.451487 Y28.570874 F100.000000
G1 X54.416534 Y28.559693 F100.000000
G1 X54.377377 Y28.522595 F100.000000
G1 X54.332181 Y28.493153 F100.000000
G1 X54.313169 Y28.461765 F100.000000
G1 X54.286529 Y28.436526 F100.000000
G1 X54.190009 Y28.291746 F100.000000
G1 X54.179936 Y28.265274 F100.000000
G1 X54.162276 Y28.243130 F100.000000
G1 X54.148437 Y28.182496 F100.000000
G1 X54.126319 Y28.124370 F100.000000
G1 X54.128729 Y28.096149 F100.000000
G1 X54.122426 Y28.068535 F100.000000
G1 Y27.921215 F100.000000
G1 X54.162276 Y27.746620 F100.000000
G1 X54.243219 Y27.645121 F100.000000
G1 X54.190009 Y27.565306 F100.000000
G1 X54.179936 Y27.538834 F100.000000
G1 X54.162276 Y27.516690 F100.000000
G1 X54.148437 Y27.456056 F100.000000
G1 X54.126319 Y27.397930 F100.000000
G1 X54.128729 Y27.369709 F100.000000
G1 X54.122426 Y27.342095 F100.000000
G1 Y27.052535 F100.000000
G1 X54.128371 Y27.026489 F100.000000
G1 X54.125885 Y26.999890 F100.000000
G1 X54.148086 Y26.940110 F100.000000
G1 X54.162276 Y26.877940 F100.000000
G1 X54.178933 Y26.857053 F100.000000
G1 X54.188234 Y26.832009 F100.000000
G1 X54.284754 Y26.684689 F100.000000
G1 X54.312342 Y26.658131 F100.000000
G1 X54.332181 Y26.625377 F100.000000
G1 X54.376051 Y26.596798 F100.000000
G1 X54.413770 Y26.560486 F100.000000
G1 X54.417575 Y26.559236 F100.000000
G1 X54.350231 Y26.543865 F100.000000
G1 X54.210217 Y26.432207 F100.000000
G1 X54.132515 Y26.270857 F100.000000
G1 Y26.091773 F100.000000
G1 X54.210217 Y25.930423 F100.000000
G1 X54.304888 Y25.854925 F100.000000
G1 X54.210217 Y25.779427 F100.000000
G1 X54.132515 Y25.618077 F100.000000
G1 Y25.438993 F100.000000
G1 X54.210217 Y25.277643 F100.000000
G1 X54.350231 Y25.165985 F100.000000
G1 X54.353168 Y25.165315 F100.000000
G1 X54.350231 Y25.164645 F100.000000
G1 X54.210217 Y25.052987 F100.000000
G1 X54.132515 Y24.891637 F100.000000
G1 Y24.712553 F100.000000
G1 X54.210217 Y24.551203 F100.000000
G1 X54.350231 Y24.439545 F100.000000
G1 X54.420874 Y24.423421 F100.000000
G1 X54.416534 Y24.422033 F100.000000
G1 X54.375722 Y24.383367 F100.000000
G0 Z2.000000
G0 X56.241196 Y25.569840
G1 Z-0.040000 F60.000000
G1 X56.255035 Y25.630474 F100.000000
G1 X56.277154 Y25.688600 F100.000000
G1 X56.274744 Y25.716821 F100.000000
G1 X56.281046 Y25.744435 F100.000000
G1 Y25.778915 F100.000000
G1 X56.556826 F100.000000
G1 X56.731421 Y25.818765 F100.000000
G1 X56.871435 Y25.930423 F100.000000
G1 X56.949137 Y26.091773 F100.000000
G1 Y26.270857 F100.000000
G1 X56.871435 Y26.432207 F100.000000
G1 X56.731421 Y26.543865 F100.000000
G1 X56.556826 Y26.583715 F100.000000
G1 X56.013831 F100.000000
G1 X56.118718 Y26.684689 F100.000000
G1 X56.215238 Y26.832009 F100.000000
G1 X56.224539 Y26.857053 F100.000000
G1 X56.241196 Y26.877940 F100.000000
G1 X56.255386 Y26.940110 F100.000000
G1 X56.277588 Y26.999890 F100.000000
G1 X56.275102 Y27.026489 F100.000000
G1 X56.281046 Y27.052535 F100.000000
G1 Y27.268435 F100.000000
G1 X56.274744 Y27.296049 F100.000000
G1 X56.277154 Y27.324270 F100.000000
G1 X56.255035 Y27.382396 F100.000000
G1 X56.241196 Y27.443030 F100.000000
G1 X56.223537 Y27.465174 F100.000000
G1 X56.213463 Y27.491646 F100.000000
G1 X56.133507 Y27.611582 F100.000000
G1 X56.241196 Y27.746620 F100.000000
G1 X56.272104 Y27.882035 F100.000000
G1 X56.556826 Y27.882035 F100.000000
G1 X56.731421 Y27.921885 F100.000000
G1 X56.871435 Y28.033543 F100.000000
G1 X56.949137 Y28.194893 F100.000000
G1 Y28.373977 F100.000000
G1 X56.871435 Y28.535327 F100.000000
G1 X56.731421 Y28.646985 F100.000000
G1 X56.556826 Y28.686835 F100.000000
G1 X56.233728 Y28.686835 F100.000000
G1 X56.129539 Y28.817484 F100.000000
G1 X56.091013 Y28.836037 F100.000000
G1 X56.091977 Y28.837671 F100.000000
G1 X56.116943 Y28.861324 F100.000000
G1 X56.213463 Y29.006104 F100.000000
G1 X56.223537 Y29.032576 F100.000000
G1 X56.241196 Y29.054720 F100.000000
G1 X56.255035 Y29.115354 F100.000000
G1 X56.277154 Y29.173480 F100.000000
G1 X56.274744 Y29.201701 F100.000000
G1 X56.281046 Y29.229315 F100.000000
G1 Y29.445215 F100.000000
G1 X56.275102 Y29.471261 F100.000000
G1 X56.277588 Y29.497860 F100.000000
G1 X56.258712 Y29.548685 F100.000000
G1 X56.270957 Y29.574113 F100.000000
G1 Y29.753197 F100.000000
G1 X56.193255 Y29.914547 F100.000000
G1 X56.053241 Y30.026205 F100.000000
G1 X56.050305 Y30.026875 F100.000000
G1 X56.053241 Y30.027545 F100.000000
G1 X56.112976 Y30.075182 F100.000000
G1 X56.117121 Y30.070207 F100.000000
G1 X56.213641 Y29.996547 F100.000000
G1 X56.285281 Y29.963910 F100.000000
G1 X56.355013 Y29.927375 F100.000000
G1 X56.366318 Y29.926993 F100.000000
G1 X56.376611 Y29.922304 F100.000000
G1 X56.455317 Y29.923982 F100.000000
G1 X56.533995 Y29.921321 F100.000000
G1 X56.544346 Y29.925882 F100.000000
G1 X56.555655 Y29.926123 F100.000000
G1 X56.625838 Y29.961785 F100.000000
G1 X56.697879 Y29.993524 F100.000000
G1 X56.796939 Y30.067184 F100.000000
G1 X56.808144 Y30.080299 F100.000000
G1 X56.823288 Y30.088559 F100.000000
G1 X56.843859 Y30.117211 F100.000000
G1 X56.871435 Y30.139203 F100.000000
G1 X56.888187 Y30.173989 F100.000000
G1 X56.913267 Y30.203344 F100.000000
G1 X56.917671 Y30.220022 F100.000000
G1 X56.927732 Y30.234034 F100.000000
G1 X56.933833 Y30.268774 F100.000000
G1 X56.949137 Y30.300553 F100.000000
G1 Y30.339162 F100.000000
G1 X56.958996 Y30.376491 F100.000000
G1 X56.955729 Y30.393429 F100.000000
G1 X56.958713 Y30.410419 F100.000000
G1 X56.949137 Y30.444366 F100.000000
G1 Y30.479637 F100.000000
G1 X56.932385 Y30.514423 F100.000000
G1 X56.925071 Y30.552334 F100.000000
G1 X56.914778 Y30.566176 F100.000000
G1 X56.910095 Y30.582778 F100.000000
G1 X56.886739 Y30.609209 F100.000000
G1 X56.871435 Y30.640987 F100.000000
G1 X56.841249 Y30.665060 F100.000000
G1 X56.818211 Y30.696042 F100.000000
G1 X56.802931 Y30.704048 F100.000000
G1 X56.791509 Y30.716974 F100.000000
G1 X56.692449 Y30.788094 F100.000000
G1 X56.625962 Y30.816069 F100.000000
G1 X56.562215 Y30.849823 F100.000000
G0 Z2.000000
G0 X55.051983 Y27.721516
G1 Z-0.040000 F60.000000
G1 X55.005813 Y27.690963 F100.000000
G1 X54.987764 Y27.660675 F100.000000
G1 X54.979161 Y27.652524 F100.000000
G1 X54.913465 Y27.763628 F100.000000
G1 X54.894191 Y27.776478 F100.000000
G1 X54.918284 Y27.882035 F100.000000
G1 X55.460846 F100.000000
G1 X55.422225 Y27.873220 F100.000000
G1 X55.350738 Y27.863452 F100.000000
G1 X55.155158 Y27.789792 F100.000000
G1 X55.125756 Y27.770335 F100.000000
G1 X55.092174 Y27.759593 F100.000000
G1 X55.051983 Y27.721516 F100.000000
G0 Z2.000000
G0 X55.556975 Y26.583715
G1 Z-0.040000 F60.000000
G1 X55.335651 F100.000000
G1 X55.349242 Y26.596798 F100.000000
G1 X55.393112 Y26.625377 F100.000000
G1 X55.412951 Y26.658131 F100.000000
G1 X55.440538 Y26.684689 F100.000000
G1 X55.449102 Y26.697760 F100.000000
G1 X55.492231 Y26.626134 F100.000000
G1 X55.556975 Y26.583715 F100.000000
G0 Z2.000000
G0 X56.219063 Y25.197169
G1 Z-0.040000 F60.000000
G1 X56.122543 Y25.126049 F100.000000
G1 X56.114578 Y25.116808 F100.000000
G1 X56.113752 Y25.116389 F100.000000
G1 X56.053241 Y25.164645 F100.000000
G1 X55.878646 Y25.204495 F100.000000
G1 X55.873546 F100.000000
G1 X55.921238 Y25.222066 F100.000000
G1 X55.951986 Y25.242096 F100.000000
G1 X55.986938 Y25.253277 F100.000000
G1 X56.026096 Y25.290375 F100.000000
G1 X56.071292 Y25.319817 F100.000000
G1 X56.090304 Y25.351205 F100.000000
G1 X56.116943 Y25.376444 F100.000000
G1 X56.213463 Y25.521224 F100.000000
G1 X56.223537 Y25.547696 F100.000000
G1 X56.241196 Y25.569840 F100.000000
G0 Z2.000000
G0 X55.078651 Y23.172495
G1 Z-0.040000 F60.000000
G1 X54.842535 Y23.172495 F100.000000
G1 X54.913465 Y23.219782 F100.000000
G1 X54.994632 Y23.357052 F100.000000
G1 X55.004603 Y23.319530 F100.000000
G1 X55.043054 Y23.246413 F100.000000
G1 X55.078651 Y23.172495 F100.000000
G0 Z2.000000
G0 X54.375722 Y24.383367
G1 Z-0.040000 F60.000000
G1 X54.328972 Y24.352139 F100.000000
G1 X54.311495 Y24.322519 F100.000000
G1 X54.286529 Y24.298866 F100.000000
G1 X54.190009 Y24.154086 F100.000000
G1 X54.179936 Y24.127614 F100.000000
G1 X54.162276 Y24.105470 F100.000000
G1 X54.148437 Y24.044836 F100.000000
G1 X54.126319 Y23.986710 F100.000000
G1 X54.128729 Y23.958489 F100.000000
G1 X54.122426 Y23.930875 F100.000000
G1 Y23.641315 F100.000000
G1 X54.128729 Y23.613701 F100.000000
G1 X54.126319 Y23.585480 F100.000000
G1 X54.148437 Y23.527354 F100.000000
G1 X54.162276 Y23.466720 F100.000000
G1 X54.179936 Y23.444576 F100.000000
G1 X54.190009 Y23.418104 F100.000000
G1 X54.286529 Y23.273324 F100.000000
G1 X54.416534 Y23.150157 F100.000000
G1 X54.560767 Y23.104019 F100.000000
G1 X54.477888 Y23.072394 F100.000000
G1 X54.449291 Y23.053291 F100.000000
G1 X54.416534 Y23.042813 F100.000000
G1 X54.375722 Y23.004147 F100.000000
G1 X54.328972 Y22.972919 F100.000000
G1 X54.311495 Y22.943299 F100.000000
G1 X54.286529 Y22.919646 F100.000000
G1 X54.190009 Y22.774866 F100.000000
G1 X54.126319 Y22.607490 F100.000000
G1 X54.141558 Y22.429055 F100.000000
G1 X54.232708 Y22.274902 F100.000000
G1 X54.355689 Y22.192914 F100.000000
G1 X54.334727 Y22.167749 F100.000000
G1 X54.286529 Y22.122086 F100.000000
G1 X54.190009 Y21.977306 F100.000000
G1 X54.179936 Y21.950834 F100.000000
G1 X54.162276 Y21.928690 F100.000000
G1 X54.148437 Y21.868056 F100.000000
G1 X54.126319 Y21.809930 F100.000000
G1 X54.128729 Y21.781709 F100.000000
G1 X54.122426 Y21.754095 F100.000000
G1 Y21.464535 F100.000000
G1 X54.128371 Y21.438489 F100.000000
G1 X54.125885 Y21.411890 F100.000000
G1 X54.132515 Y21.394037 F100.000000
G1 Y21.227673 F100.000000
G1 X54.210217 Y21.066323 F100.000000
G1 X54.350231 Y20.954665 F100.000000
G1 X54.524826 Y20.914815 F100.000000
G1 X56.556826 F100.000000
G1 X56.731421 Y20.954665 F100.000000
G1 X56.871435 Y21.066323 F100.000000
G1 X56.949137 Y21.227673 F100.000000
G1 Y21.406757 F100.000000
G1 X56.871435 Y21.568107 F100.000000
G1 X56.731421 Y21.679765 F100.000000
G1 X56.556826 Y21.719615 F100.000000
G1 X56.281046 F100.000000
G1 Y21.754095 F100.000000
G1 X56.274744 Y21.781709 F100.000000
G1 X56.277154 Y21.809930 F100.000000
G1 X56.255035 Y21.868056 F100.000000
G1 X56.241196 Y21.928690 F100.000000
G1 X56.223537 Y21.950834 F100.000000
G1 X56.213463 Y21.977306 F100.000000
G1 X56.116943 Y22.122086 F100.000000
G1 X56.068745 Y22.167749 F100.000000
G1 X56.026252 Y22.218763 F100.000000
G1 X55.929732 Y22.292423 F100.000000
G1 X55.875058 Y22.317331 F100.000000
G1 X55.824718 Y22.350124 F100.000000
G1 X55.777026 Y22.367695 F100.000000
G1 X56.556826 F100.000000
G1 X56.731421 Y22.407545 F100.000000
G1 X56.871435 Y22.519203 F100.000000
G1 X56.949137 Y22.680553 F100.000000
G1 Y22.859637 F100.000000
G1 X56.871435 Y23.020987 F100.000000
G1 X56.731421 Y23.132645 F100.000000
G1 X56.556826 Y23.172495 F100.000000
G1 X56.010517 Y23.172495 F100.000000
G1 X56.027751 Y23.188823 F100.000000
G1 X56.074500 Y23.220051 F100.000000
G1 X56.091977 Y23.249671 F100.000000
G1 X56.116943 Y23.273324 F100.000000
G1 X56.213463 Y23.418104 F100.000000
G1 X56.223537 Y23.444576 F100.000000
G1 X56.241196 Y23.466720 F100.000000
G1 X56.255035 Y23.527354 F100.000000
G1 X56.277154 Y23.585480 F100.000000
G1 X56.274744 Y23.613701 F100.000000
G1 X56.281046 Y23.641315 F100.000000
G1 Y23.930875 F100.000000
G1 X56.274744 Y23.958489 F100.000000
G1 X56.277154 Y23.986710 F100.000000
G1 X56.255035 Y24.044836 F100.000000
G1 X56.241196 Y24.105470 F100.000000
G1 X56.223537 Y24.127614 F100.000000
G1 X56.213463 Y24.154086 F100.000000
G1 X56.116943 Y24.298866 F100.000000
G1 X56.091977 Y24.322519 F100.000000
G1 X56.074500 Y24.352139 F100.000000
G1 X56.027751 Y24.383367 F100.000000
G1 X55.986938 Y24.422033 F100.000000
G1 X55.982598 Y24.423421 F100.000000
G1 X56.053241 Y24.439545 F100.000000
G1 X56.112976 Y24.487182 F100.000000
G1 X56.117121 Y24.482207 F100.000000
G1 X56.213641 Y24.408547 F100.000000
G1 X56.285281 Y24.375910 F100.000000
G1 X56.355013 Y24.339375 F100.000000
G1 X56.366318 Y24.338993 F100.000000
G1 X56.376611 Y24.334304 F100.000000
G1 X56.455317 Y24.335982 F100.000000
G1 X56.533995 Y24.333321 F100.000000
G1 X56.544346 Y24.337882 F100.000000
G1 X56.555655 Y24.338123 F100.000000
G1 X56.625838 Y24.373785 F100.000000
G1 X56.697879 Y24.405524 F100.000000
G1 X56.796939 Y24.479184 F100.000000
G1 X56.808144 Y24.492299 F100.000000
G1 X56.823288 Y24.500559 F100.000000
G1 X56.843859 Y24.529211 F100.000000
G1 X56.871435 Y24.551203 F100.000000
G1 X56.888187 Y24.585989 F100.000000
G1 X56.913267 Y24.615344 F100.000000
G1 X56.917671 Y24.632022 F100.000000
G1 X56.927732 Y24.646034 F100.000000
G1 X56.933833 Y24.680774 F100.000000
G1 X56.949137 Y24.712553 F100.000000
G1 Y24.751162 F100.000000
G1 X56.958996 Y24.788491 F100.000000
G1 X56.955729 Y24.805429 F100.000000
G1 X56.958713 Y24.822419 F100.000000
G1 X56.949137 Y24.856366 F100.000000
G1 Y24.891637 F100.000000
G1 X56.932385 Y24.926423 F100.000000
G1 X56.925071 Y24.964334 F100.000000
G1 X56.914778 Y24.978176 F100.000000
G1 X56.910095 Y24.994778 F100.000000
G1 X56.886739 Y25.021209 F100.000000
G1 X56.871435 Y25.052987 F100.000000
G1 X56.841249 Y25.077060 F100.000000
G1 X56.818211 Y25.108042 F100.000000
G1 X56.802931 Y25.116048 F100.000000
G1 X56.791509 Y25.128974 F100.000000
G1 X56.692449 Y25.200094 F100.000000
G1 X56.625962 Y25.228069 F100.000000
G1 X56.562215 Y25.261823 F100.000000
G1 X56.544095 Y25.262515 F100.000000
G1 X56.527380 Y25.269548 F100.000000
G1 X56.455340 Y25.265905 F100.000000
G1 X56.383261 Y25.268657 F100.000000
G1 X56.366634 Y25.261419 F100.000000
G1 X56.348524 Y25.260503 F100.000000
G1 X56.285199 Y25.225964 F100.000000
G1 X56.219063 Y25.197169 F100.000000
G0 Z2.000000
G0 X56.874266 Y18.155836
G1 Z-0.040000 F60.000000
G1 X56.872452 Y18.157317 F100.000000
G1 X56.871435 Y18.159427 F100.000000
G1 X56.803171 Y18.213866 F100.000000
G1 X56.735530 Y18.269077 F100.000000
G1 X56.476573 Y18.397430 F100.000000
G1 X56.368269 Y18.478658 F100.000000
G1 X56.309983 Y18.566086 F100.000000
G1 X56.222501 Y18.648967 F100.000000
G1 X56.234354 Y18.662732 F100.000000
G1 X56.280760 Y18.835700 F100.000000
G1 X56.247523 Y19.011673 F100.000000
G1 X56.141224 Y19.155799 F100.000000
G1 X56.031008 Y19.214095 F100.000000
G1 X56.141224 Y19.272391 F100.000000
G1 X56.247523 Y19.416517 F100.000000
G1 X56.280760 Y19.592490 F100.000000
G1 X56.234354 Y19.765458 F100.000000
G1 X56.117496 Y19.901162 F100.000000
G1 X55.953330 Y19.972724 F100.000000
G1 X55.774373 Y19.965970 F100.000000
G1 X54.420553 Y19.602750 F100.000000
G1 X54.354488 Y19.567807 F100.000000
G1 X54.285977 Y19.537942 F100.000000
G1 X54.275900 Y19.526239 F100.000000
G1 X54.262248 Y19.519019 F100.000000
G1 X54.217887 Y19.458871 F100.000000
G1 X54.169119 Y19.402238 F100.000000
G1 X54.165117 Y19.387322 F100.000000
G1 X54.155950 Y19.374893 F100.000000
G1 X54.142079 Y19.301455 F100.000000
G1 X54.122713 Y19.229270 F100.000000
G1 X54.125579 Y19.214095 F100.000000
G1 X54.122713 Y19.198920 F100.000000
G1 X54.142079 Y19.126735 F100.000000
G1 X54.155950 Y19.053297 F100.000000
G1 X54.165117 Y19.040868 F100.000000
G1 X54.169119 Y19.025952 F100.000000
G1 X54.217887 Y18.969319 F100.000000
G1 X54.262248 Y18.909171 F100.000000
G1 X54.275900 Y18.901951 F100.000000
G1 X54.285977 Y18.890248 F100.000000
G1 X54.354488 Y18.860383 F100.000000
G1 X54.420553 Y18.825440 F100.000000
G1 X55.615221 Y18.504919 F100.000000
G1 X55.591898 Y18.465475 F100.000000
G1 X55.578699 Y18.310935 F100.000000
G1 X54.927226 F100.000000
G1 Y18.342875 F100.000000
G1 X54.887376 Y18.517470 F100.000000
G1 X54.775719 Y18.657484 F100.000000
G1 X54.614369 Y18.735186 F100.000000
G1 X54.435284 F100.000000
G1 X54.273934 Y18.657484 F100.000000
G1 X54.162276 Y18.517470 F100.000000
G1 X54.122426 Y18.342875 F100.000000
G1 Y17.471655 F100.000000
G1 X54.162276 Y17.297060 F100.000000
G1 X54.273934 Y17.157046 F100.000000
G1 X54.292771 Y17.147975 F100.000000
G1 X54.280701 Y17.138763 F100.000000
G1 X54.275093 Y17.132031 F100.000000
G1 X54.267281 Y17.128061 F100.000000
G1 X54.242349 Y17.095391 F100.000000
G1 X54.210217 Y17.069767 F100.000000
G1 X54.192386 Y17.032740 F100.000000
G1 X54.166083 Y17.001162 F100.000000
G1 X54.163951 Y16.992663 F100.000000
G1 X54.158635 Y16.985698 F100.000000
G1 X54.150347 Y16.945445 F100.000000
G1 X54.132515 Y16.908417 F100.000000
G1 Y16.867320 F100.000000
G1 X54.122518 Y16.827457 F100.000000
G1 X54.124285 Y16.818875 F100.000000
G1 X54.122518 Y16.810293 F100.000000
G1 X54.132515 Y16.770430 F100.000000
G1 Y16.729333 F100.000000
G1 X54.150347 Y16.692305 F100.000000
G1 X54.158635 Y16.652052 F100.000000
G1 X54.163951 Y16.645087 F100.000000
G1 X54.166083 Y16.636588 F100.000000
G1 X54.192386 Y16.605010 F100.000000
G0 Z2.000000
G0 X54.192386 Y16.605010
G1 Z-0.040000 F60.000000
G1 X54.210217 Y16.567983 F100.000000
G1 X54.242349 Y16.542359 F100.000000
G1 X54.267281 Y16.509689 F100.000000
G1 X54.275093 Y16.505719 F100.000000
G1 X54.280701 Y16.498987 F100.000000
G1 X54.377221 Y16.425327 F100.000000
G1 X54.451090 Y16.391675 F100.000000
G1 X54.514171 Y16.359622 F100.000000
G1 X54.473741 Y16.341203 F100.000000
G1 X54.377221 Y16.267543 F100.000000
G1 X54.334727 Y16.216529 F100.000000
G1 X54.286529 Y16.170866 F100.000000
G1 X54.190009 Y16.026086 F100.000000
G1 X54.179936 Y15.999614 F100.000000
G1 X54.162276 Y15.977470 F100.000000
G1 X54.148437 Y15.916836 F100.000000
G1 X54.126319 Y15.858710 F100.000000
G1 X54.128729 Y15.830489 F100.000000
G1 X54.122426 Y15.802875 F100.000000
G1 Y15.658095 F100.000000
G1 X54.128729 Y15.630481 F100.000000
G1 X54.126319 Y15.602260 F100.000000
G1 X54.148437 Y15.544134 F100.000000
G1 X54.162276 Y15.483500 F100.000000
G1 X54.179936 Y15.461356 F100.000000
G1 X54.190009 Y15.434884 F100.000000
G1 X54.286529 Y15.290104 F100.000000
G1 X54.334727 Y15.244441 F100.000000
G1 X54.377221 Y15.193427 F100.000000
G1 X54.473741 Y15.119767 F100.000000
G1 X54.528414 Y15.094859 F100.000000
G1 X54.578754 Y15.062066 F100.000000
G1 X54.771794 Y14.990946 F100.000000
G1 X54.804909 Y14.986664 F100.000000
G1 X54.835493 Y14.973265 F100.000000
G1 X55.221573 Y14.899605 F100.000000
G1 X55.259746 Y14.900975 F100.000000
G1 X55.296986 Y14.892475 F100.000000
G1 X55.782126 F100.000000
G1 X55.819366 Y14.900975 F100.000000
G1 X55.857540 Y14.899605 F100.000000
G1 X56.243620 Y14.973265 F100.000000
G1 X56.274204 Y14.986664 F100.000000
G1 X56.307318 Y14.990946 F100.000000
G1 X56.500358 Y15.062066 F100.000000
G1 X56.550698 Y15.094859 F100.000000
G1 X56.605372 Y15.119767 F100.000000
G1 X56.701892 Y15.193427 F100.000000
G1 X56.742867 Y15.242618 F100.000000
G1 X56.789870 Y15.286086 F100.000000
G1 X56.888930 Y15.430866 F100.000000
G1 X56.900209 Y15.459465 F100.000000
G1 X56.919376 Y15.483500 F100.000000
G1 X56.932687 Y15.541817 F100.000000
G1 X56.954632 Y15.597463 F100.000000
G1 X56.952385 Y15.628123 F100.000000
G1 X56.959226 Y15.658095 F100.000000
G1 Y15.802875 F100.000000
G1 X56.952385 Y15.832847 F100.000000
G1 X56.954632 Y15.863507 F100.000000
G1 X56.932687 Y15.919153 F100.000000
G1 X56.919376 Y15.977470 F100.000000
G1 X56.900209 Y16.001505 F100.000000
G1 X56.888930 Y16.030104 F100.000000
G1 X56.789870 Y16.174884 F100.000000
G1 X56.742867 Y16.218352 F100.000000
G1 X56.701892 Y16.267543 F100.000000
G1 X56.605372 Y16.341203 F100.000000
G1 X56.550698 Y16.366111 F100.000000
G1 X56.500358 Y16.398904 F100.000000
G1 X56.307318 Y16.470024 F100.000000
G1 X56.274204 Y16.474306 F100.000000
G1 X56.243620 Y16.487705 F100.000000
G1 X55.857540 Y16.561365 F100.000000
G1 X55.819366 Y16.559995 F100.000000
G1 X55.782126 Y16.568495 F100.000000
G1 X55.296986 F100.000000
G1 X55.259746 Y16.559995 F100.000000
G1 X55.221573 Y16.561365 F100.000000
G1 X54.979620 Y16.515203 F100.000000
G1 X55.000344 Y16.542359 F100.000000
G1 X55.032475 Y16.567983 F100.000000
G1 X55.050307 Y16.605010 F100.000000
G1 X55.076610 Y16.636588 F100.000000
G1 X55.078742 Y16.645087 F100.000000
G1 X55.084057 Y16.652052 F100.000000
G1 X55.092346 Y16.692305 F100.000000
G1 X55.110177 Y16.729333 F100.000000
G1 Y16.770430 F100.000000
G1 X55.120175 Y16.810293 F100.000000
G1 X55.118408 Y16.818875 F100.000000
G1 X55.120175 Y16.827457 F100.000000
G1 X55.110177 Y16.867320 F100.000000
G1 Y16.908417 F100.000000
G1 X55.092346 Y16.945445 F100.000000
G1 X55.084057 Y16.985698 F100.000000
G1 X55.078742 Y16.992663 F100.000000
G1 X55.076610 Y17.001162 F100.000000
G1 X55.050307 Y17.032740 F100.000000
G1 X55.032475 Y17.069767 F100.000000
G1 X55.000344 Y17.095391 F100.000000
G1 X54.975411 Y17.128061 F100.000000
G1 X54.967600 Y17.132031 F100.000000
G1 X54.961992 Y17.138763 F100.000000
G1 X54.865472 Y17.212423 F100.000000
G1 X54.832030 Y17.227658 F100.000000
G1 X54.887376 Y17.297060 F100.000000
G1 X54.927226 Y17.471655 F100.000000
G1 Y17.506135 F100.000000
G1 X56.556826 F100.000000
G1 X56.641950 Y17.525564 F100.000000
G1 X56.727290 Y17.544024 F100.000000
G1 X56.729138 Y17.545464 F100.000000
G1 X56.731421 Y17.545985 F100.000000
G1 X56.799685 Y17.600424 F100.000000
G1 X56.868564 Y17.654084 F100.000000
G1 X56.869604 Y17.656182 F100.000000
G1 X56.871435 Y17.657643 F100.000000
G1 X56.909319 Y17.736309 F100.000000
G1 X56.948094 Y17.814540 F100.000000
G1 X56.948121 Y17.816882 F100.000000
G1 X56.949137 Y17.818993 F100.000000
G1 Y17.906306 F100.000000
G1 X56.950130 Y17.993613 F100.000000
G1 X56.949137 Y17.995735 F100.000000
G1 Y17.998077 F100.000000
G1 X56.911254 Y18.076744 F100.000000
G1 X56.874266 Y18.155836 F100.000000
G0 Z2.000000
G0 X55.918149 Y15.730485
G1 Z-0.040000 F60.000000
G1 X55.744083 Y15.697275 F100.000000
G1 X55.335030 F100.000000
G1 X55.160964 Y15.730485 F100.000000
G1 X55.335030 Y15.763695 F100.000000
G1 X55.744083 F100.000000
G1 X55.918149 Y15.730485 F100.000000
G0 Z2.000000
G0 X56.779266 Y46.530715
G1 Z-0.040000 F60.000000
G1 X58.676266 F100.000000
G1 Y47.792182 F100.000000
G1 X61.749657 Y50.865572 F100.000000
G1 X61.799752 Y50.858369 F100.000000
G1 X62.285902 Y51.080387 F100.000000
G1 X62.574845 Y51.529992 F100.000000
G1 Y52.064438 F100.000000
G1 X62.285902 Y52.514043 F100.000000
G1 X61.799752 Y52.736061 F100.000000
G1 X61.270745 Y52.660001 F100.000000
G1 X60.866837 Y52.310013 F100.000000
G1 X60.716266 Y51.797215 F100.000000
G1 X60.866837 Y51.284417 F100.000000
G1 X60.883230 Y51.270213 F100.000000
G1 X58.040733 Y48.427715 F100.000000
G1 X56.779266 Y48.427715 F100.000000
G1 Y46.530715 F100.000000
G0 Z2.000000
G0 X52.198376 Y53.966556
G1 Z-0.040000 F60.000000
G1 Y52.501977 F100.000000
G1 X51.976837 Y52.310013 F100.000000
G1 X51.826266 Y51.797215 F100.000000
G1 X51.976837 Y51.284417 F100.000000
G1 X52.380745 Y50.934429 F100.000000
G1 X52.909752 Y50.858369 F100.000000
G1 X53.395902 Y51.080387 F100.000000
G1 X53.684845 Y51.529992 F100.000000
G1 Y52.064438 F100.000000
G1 X53.395902 Y52.514043 F100.000000
G1 X53.097156 Y52.650476 F100.000000
G1 Y53.966556 F100.000000
G0 Z2.000000
G0 X56.499486 Y40.113215
G1 Z-0.040000 F60.000000
G1 Y44.685215 F100.000000
G1 X56.478964 Y44.775129 F100.000000
G1 X56.468638 Y44.866776 F100.000000
G1 X56.452004 Y44.893249 F100.000000
G1 X56.445047 Y44.923730 F100.000000
G1 X56.387545 Y44.995835 F100.000000
G1 X56.338477 Y45.073926 F100.000000
G1 X55.737486 Y45.674916 F100.000000
G1 Y46.729772 F100.000000
G1 X55.808902 Y46.762387 F100.000000
G1 X56.097845 Y47.211992 F100.000000
G1 Y47.746438 F100.000000
G1 X55.938146 Y47.994935 F100.000000
G1 Y54.203735 F100.000000
G0 Z2.000000
G0 X18.653486 Y8.431557
G1 Z-0.040000 F60.000000
G1 X18.734738 Y8.392428 F100.000000
G1 X19.015547 Y8.040305 F100.000000
G1 X19.115766 Y7.601215 F100.000000
G1 Y6.585215 F100.000000
G1 X19.015547 Y6.146125 F100.000000
G1 X18.734738 Y5.794002 F100.000000
G1 X18.328957 Y5.598588 F100.000000
G1 X17.878575 F100.000000
G1 X17.472795 Y5.794002 F100.000000
G1 X17.191986 Y6.146125 F100.000000
G1 X17.091766 Y6.585215 F100.000000
G1 Y7.601215 F100.000000
G1 X17.191986 Y8.040305 F100.000000
G1 X17.472795 Y8.392428 F100.000000
G1 X17.554046 Y8.431557 F100.000000
G0 Z2.000000
G0 X21.193486 Y8.431557
G1 Z-0.040000 F60.000000
G1 X21.274738 Y8.392428 F100.000000
G1 X21.555547 Y8.040305 F100.000000
G1 X21.655766 Y7.601215 F100.000000
G1 Y6.585215 F100.000000
G1 X21.555547 Y6.146125 F100.000000
G1 X21.274738 Y5.794002 F100.000000
G1 X20.868957 Y5.598588 F100.000000
G1 X20.418575 F100.000000
G1 X20.012795 Y5.794002 F100.000000
G1 X19.731986 Y6.146125 F100.000000
G1 X19.631766 Y6.585215 F100.000000
G1 Y7.601215 F100.000000
G1 X19.731986 Y8.040305 F100.000000
G1 X20.012795 Y8.392428 F100.000000
G1 X20.094046 Y8.431557 F100.000000
G0 Z2.000000
G0 X23.733486 Y8.431557
G1 Z-0.040000 F60.000000
G1 X23.814738 Y8.392428 F100.000000
G1 X24.095547 Y8.040305 F100.000000
G1 X24.195766 Y7.601215 F100.000000
G1 Y6.585215 F100.000000
G1 X24.095547 Y6.146125 F100.000000
G1 X23.814738 Y5.794002 F100.000000
G1 X23.408957 Y5.598588 F100.000000
G1 X22.958575 F100.000000
