(Generated by ./pygerber2gcode_cui_MOD.py )
( 2013-05-31 00:41:27 )
(Initialize)

(Start form here)
G0 Z0.500000
G0 X51.584337 Y13.526169
G1 Z-0.040000 F60.000000
G1 X51.505886 Y13.507033 F100.000000
G1 X51.427159 Y13.489064 F100.000000
G1 X51.424929 Y13.487286 F100.000000
G1 X51.422159 Y13.486610 F100.000000
G1 X51.325639 Y13.438350 F100.000000
G1 X51.231461 Y13.360931 F100.000000
G1 X51.229701 Y13.362410 F100.000000
G1 X51.196431 Y13.402007 F100.000000
G1 X51.166567 Y13.415457 F100.000000
G1 X51.141491 Y13.436527 F100.000000
G1 X51.047511 Y13.484787 F100.000000
G1 X51.042753 Y13.486002 F100.000000
G1 X51.038914 Y13.489064 F100.000000
G1 X50.962104 Y13.506595 F100.000000
G1 X50.885768 Y13.526087 F100.000000
G1 X50.880954 Y13.525117 F100.000000
G1 X50.876166 Y13.526210 F100.000000
G1 X50.731386 F100.000000
G1 X50.726599 Y13.525117 F100.000000
G1 X50.721785 Y13.526087 F100.000000
G1 X50.677056 Y13.514666 F100.000000
G1 X50.672613 Y13.516806 F100.000000
G1 X50.505680 F100.000000
G1 X50.355278 Y13.444376 F100.000000
G1 X50.337435 Y13.422001 F100.000000
G1 X50.276792 Y13.603012 F100.000000
G1 X50.252000 Y13.643661 F100.000000
G1 X50.235575 Y13.688351 F100.000000
G1 X50.209081 Y13.714030 F100.000000
G1 X50.189870 Y13.745529 F100.000000
G1 X50.149896 Y13.771396 F100.000000
G1 X50.115707 Y13.804533 F100.000000
G1 X50.080696 Y13.816174 F100.000000
G1 X50.049719 Y13.836219 F100.000000
G1 X50.002481 Y13.842180 F100.000000
G1 X49.957300 Y13.857202 F100.000000
G1 X49.920705 Y13.852499 F100.000000
G1 X49.884100 Y13.857118 F100.000000
G1 X49.838953 Y13.841993 F100.000000
G1 X49.791729 Y13.835924 F100.000000
G1 X49.760799 Y13.815809 F100.000000
G1 X49.725814 Y13.804088 F100.000000
G1 X49.691701 Y13.770873 F100.000000
G1 X49.651786 Y13.744915 F100.000000
G1 X49.632647 Y13.713372 F100.000000
G1 X49.606212 Y13.687632 F100.000000
G1 X49.589889 Y13.642905 F100.000000
G1 X49.565190 Y13.602199 F100.000000
G1 X49.232450 Y12.601439 F100.000000
G1 X49.216351 Y12.435285 F100.000000
G1 X49.273938 Y12.278599 F100.000000
G1 X49.393806 Y12.162417 F100.000000
G1 X49.552212 Y12.109748 F100.000000
G1 X49.717784 Y12.131026 F100.000000
G1 X49.857726 Y12.222035 F100.000000
G1 X49.922341 Y12.328523 F100.000000
G1 X49.987663 Y12.221421 F100.000000
G1 X50.127813 Y12.130731 F100.000000
G1 X50.293433 Y12.109832 F100.000000
G1 X50.427875 Y12.154873 F100.000000
G1 X50.505680 Y12.117404 F100.000000
G1 X50.672613 F100.000000
G1 X50.803776 Y12.180569 F100.000000
G1 X50.934940 Y12.117404 F100.000000
G1 X51.101873 F100.000000
G1 X51.252274 Y12.189834 F100.000000
G1 X51.282326 Y12.227518 F100.000000
G1 X51.294197 Y12.221707 F100.000000
G1 X51.325639 Y12.195860 F100.000000
G1 X51.422159 Y12.147600 F100.000000
G1 X51.424929 Y12.146924 F100.000000
G1 X51.427159 Y12.145146 F100.000000
G1 X51.505886 Y12.127177 F100.000000
G1 X51.584337 Y12.108041 F100.000000
G1 X51.587126 Y12.108635 F100.000000
G1 X51.589906 Y12.108000 F100.000000
G1 X51.828666 F100.000000
G1 X51.833454 Y12.109093 F100.000000
G1 X51.838268 Y12.108123 F100.000000
G1 X51.874617 Y12.117404 F100.000000
G1 X52.006113 F100.000000
G1 X52.156514 Y12.189834 F100.000000
G1 X52.205395 Y12.251129 F100.000000
G1 X52.218939 Y12.234654 F100.000000
G1 X52.250472 Y12.220041 F100.000000
G1 X52.277081 Y12.197683 F100.000000
G1 X52.371061 Y12.149423 F100.000000
G1 X52.532805 Y12.108123 F100.000000
G1 X52.696450 Y12.141091 F100.000000
G1 X52.787116 Y12.209673 F100.000000
G1 X52.803919 Y12.195860 F100.000000
G1 X52.900439 Y12.147600 F100.000000
G1 X52.903209 Y12.146924 F100.000000
G1 X52.905439 Y12.145146 F100.000000
G1 X52.984166 Y12.127177 F100.000000
G1 X53.062617 Y12.108041 F100.000000
G1 X53.065406 Y12.108635 F100.000000
G1 X53.068186 Y12.108000 F100.000000
G1 X53.210426 F100.000000
G1 X53.215214 Y12.109093 F100.000000
G1 X53.220028 Y12.108123 F100.000000
G1 X53.296364 Y12.127615 F100.000000
G1 X53.373174 Y12.145146 F100.000000
G1 X53.377013 Y12.148208 F100.000000
G1 X53.381771 Y12.149423 F100.000000
G1 X53.464200 Y12.191751 F100.000000
G1 X53.462479 Y12.124537 F100.000000
G1 X53.531035 Y11.972331 F100.000000
G1 X53.658841 Y11.864943 F100.000000
G0 Z0.500000
G1 Z-0.040000 F60.000000
G1 X53.752821 Y11.816683 F100.000000
G1 X53.757579 Y11.815468 F100.000000
G1 X53.761419 Y11.812406 F100.000000
G1 X53.838229 Y11.794875 F100.000000
G1 X53.914565 Y11.775383 F100.000000
G1 X53.919379 Y11.776353 F100.000000
G1 X53.924166 Y11.775260 F100.000000
G1 X54.068946 F100.000000
G1 X54.073734 Y11.776353 F100.000000
G1 X54.078548 Y11.775383 F100.000000
G1 X54.154884 Y11.794875 F100.000000
G1 X54.231694 Y11.812406 F100.000000
G1 X54.235533 Y11.815468 F100.000000
G1 X54.240291 Y11.816683 F100.000000
G1 X54.334271 Y11.864943 F100.000000
G1 X54.375049 Y11.899206 F100.000000
G1 X54.420896 Y11.926314 F100.000000
G1 X54.469156 Y11.972034 F100.000000
G1 X54.505302 Y12.026251 F100.000000
G1 X54.546681 Y12.076587 F100.000000
G1 X54.594941 Y12.173107 F100.000000
G1 X54.595617 Y12.175878 F100.000000
G1 X54.597395 Y12.178107 F100.000000
G1 X54.615364 Y12.256834 F100.000000
G1 X54.634500 Y12.335286 F100.000000
G1 X54.633907 Y12.338075 F100.000000
G1 X54.634541 Y12.340855 F100.000000
G1 Y13.151115 F100.000000
G1 X54.597395 Y13.313863 F100.000000
G1 X54.493314 Y13.444376 F100.000000
G1 X54.342913 Y13.516806 F100.000000
G1 X54.206882 F100.000000
G1 X54.168496 Y13.526169 F100.000000
G1 X54.165706 Y13.525575 F100.000000
G1 X54.162926 Y13.526210 F100.000000
G1 X53.972426 F100.000000
G1 X53.967639 Y13.525117 F100.000000
G1 X53.962825 Y13.526087 F100.000000
G1 X53.886489 Y13.506595 F100.000000
G1 X53.809679 Y13.489064 F100.000000
G1 X53.805839 Y13.486002 F100.000000
G1 X53.801081 Y13.484787 F100.000000
G1 X53.707101 Y13.436527 F100.000000
G1 X53.662519 Y13.399068 F100.000000
G1 X53.613214 Y13.368087 F100.000000
G1 X53.591426 Y13.346299 F100.000000
G1 X53.569639 Y13.368087 F100.000000
G1 X53.520333 Y13.399068 F100.000000
G1 X53.475751 Y13.436527 F100.000000
G1 X53.381771 Y13.484787 F100.000000
G1 X53.377013 Y13.486002 F100.000000
G1 X53.373174 Y13.489064 F100.000000
G1 X53.296364 Y13.506595 F100.000000
G1 X53.220028 Y13.526087 F100.000000
G1 X53.215214 Y13.525117 F100.000000
G1 X53.210426 Y13.526210 F100.000000
G1 X53.068186 F100.000000
G1 X53.065406 Y13.525575 F100.000000
G1 X53.062617 Y13.526169 F100.000000
G1 X52.984166 Y13.507033 F100.000000
G1 X52.905439 Y13.489064 F100.000000
G1 X52.903209 Y13.487286 F100.000000
G1 X52.900439 Y13.486610 F100.000000
G1 X52.803919 Y13.438350 F100.000000
G1 X52.775261 Y13.414792 F100.000000
G1 Y13.483855 F100.000000
G1 X52.738115 Y13.646603 F100.000000
G1 X52.634034 Y13.777116 F100.000000
G1 X52.483633 Y13.849546 F100.000000
G1 X52.316700 F100.000000
G1 X52.166298 Y13.777116 F100.000000
G1 X52.062217 Y13.646603 F100.000000
G1 X52.025071 Y13.483855 F100.000000
G1 Y13.448151 F100.000000
G1 X51.948154 Y13.486610 F100.000000
G1 X51.945383 Y13.487286 F100.000000
G1 X51.943154 Y13.489064 F100.000000
G1 X51.864427 Y13.507033 F100.000000
G1 X51.785976 Y13.526169 F100.000000
G1 X51.783186 Y13.525575 F100.000000
G1 X51.780406 Y13.526210 F100.000000
G1 X51.589906 F100.000000
G1 X51.587126 Y13.525575 F100.000000
G1 X51.584337 Y13.526169 F100.000000
G0 Z0.500000
G0 X66.613652 Y38.954166
G1 Z-0.040000 F60.000000
G1 X66.675002 Y38.989201 F100.000000
G1 X66.738654 Y39.019854 F100.000000
G1 X66.746996 Y39.030314 F100.000000
G1 X66.758613 Y39.036948 F100.000000
G1 X66.773023 Y39.057871 F100.000000
G1 X66.818215 Y39.021536 F100.000000
G1 X66.912195 Y38.975816 F100.000000
G1 X66.912940 Y38.975643 F100.000000
G1 X66.913539 Y38.975166 F100.000000
G1 X66.994203 Y38.956755 F100.000000
G1 X67.074794 Y38.938023 F100.000000
G1 X67.075540 Y38.938190 F100.000000
G1 X67.076286 Y38.938020 F100.000000
G1 X67.218526 F100.000000
G1 X67.274380 Y38.950768 F100.000000
G1 X67.331479 Y38.955431 F100.000000
G1 X67.476259 Y39.001151 F100.000000
G1 X67.483534 Y39.005416 F100.000000
G1 X67.491902 Y39.006472 F100.000000
G1 X67.555213 Y39.047441 F100.000000
G1 X67.620267 Y39.085581 F100.000000
G1 X67.624971 Y39.092581 F100.000000
G1 X67.632051 Y39.097162 F100.000000
G1 X67.726031 Y39.193682 F100.000000
G1 X67.756105 Y39.242991 F100.000000
G1 X67.792781 Y39.287607 F100.000000
G1 X67.841041 Y39.384127 F100.000000
G1 X67.850667 Y39.423591 F100.000000
G1 X67.869155 Y39.459761 F100.000000
G1 X67.917415 Y39.650261 F100.000000
G1 X67.918521 Y39.696896 F100.000000
G1 X67.928901 Y39.742375 F100.000000
G1 Y39.884615 F100.000000
G1 X67.918521 Y39.930094 F100.000000
G1 X67.917415 Y39.976729 F100.000000
G1 X67.869155 Y40.167229 F100.000000
G1 X67.849761 Y40.205172 F100.000000
G1 X67.839218 Y40.246460 F100.000000
G1 X67.790958 Y40.340440 F100.000000
G1 X67.755075 Y40.383146 F100.000000
G1 X67.726031 Y40.430768 F100.000000
G1 X67.632051 Y40.527288 F100.000000
G1 X67.627514 Y40.530223 F100.000000
G1 X67.624571 Y40.534756 F100.000000
G1 X67.557650 Y40.575432 F100.000000
G1 X67.491902 Y40.617978 F100.000000
G1 X67.486540 Y40.618654 F100.000000
G1 X67.481922 Y40.621461 F100.000000
G1 X67.400561 Y40.648581 F100.000000
G1 X67.487766 Y40.625215 F100.000000
G1 X67.993766 Y40.760797 F100.000000
G1 X68.320464 Y41.087495 F100.000000
G0 Z0.500000
G0 X65.780464
G1 Z-0.040000 F60.000000
G1 X66.655069 Y41.087495 F100.000000
G1 X66.981766 Y40.760797 F100.000000
G1 X67.312791 Y40.672099 F100.000000
G1 X67.277222 Y40.675573 F100.000000
G1 X67.218526 Y40.688970 F100.000000
G1 X67.124546 F100.000000
G1 X67.064894 Y40.675355 F100.000000
G1 X67.004030 Y40.669082 F100.000000
G1 X66.861790 Y40.620822 F100.000000
G1 X66.860235 Y40.619865 F100.000000
G1 X66.858420 Y40.619661 F100.000000
G1 X66.789218 Y40.576178 F100.000000
G1 X66.771858 Y40.565499 F100.000000
G1 X66.738654 Y40.607136 F100.000000
G1 X66.588253 Y40.679566 F100.000000
G1 X66.421320 F100.000000
G1 X66.270918 Y40.607136 F100.000000
G1 X66.219591 Y40.542774 F100.000000
G1 X66.211203 Y40.551901 F100.000000
G1 X66.167154 Y40.607136 F100.000000
G1 X66.155100 Y40.612941 F100.000000
G1 X66.146047 Y40.622791 F100.000000
G1 X66.080405 Y40.648912 F100.000000
G1 X66.016753 Y40.679566 F100.000000
G1 X66.003374 F100.000000
G1 X65.990944 Y40.684512 F100.000000
G1 X65.920468 Y40.679566 F100.000000
G1 X65.849820 F100.000000
G1 X65.837766 Y40.673761 F100.000000
G1 X65.824420 Y40.672824 F100.000000
G1 X65.763071 Y40.637789 F100.000000
G1 X65.699418 Y40.607136 F100.000000
G1 X65.694526 Y40.601002 F100.000000
G1 X65.689634 Y40.607136 F100.000000
G1 X65.651557 Y40.625473 F100.000000
G1 X65.618514 Y40.651824 F100.000000
G1 X65.577310 Y40.661228 F100.000000
G1 X65.539233 Y40.679566 F100.000000
G1 X65.496970 F100.000000
G1 X65.455766 Y40.688970 F100.000000
G1 X65.217006 F100.000000
G1 X65.157354 Y40.675355 F100.000000
G1 X65.120850 Y40.671593 F100.000000
G1 X65.453766 Y40.760797 F100.000000
G1 X65.780464 Y41.087495 F100.000000
G0 Z0.500000
G0 X63.240464 Y42.186935
G1 Z-0.040000 F60.000000
G1 X62.913766 Y42.513633 F100.000000
G1 X62.407766 Y42.649215 F100.000000
G1 X61.901766 Y42.513633 F100.000000
G1 X61.531349 Y42.143215 F100.000000
G1 X61.395766 Y41.637215 F100.000000
G1 X61.531349 Y41.131215 F100.000000
G1 X61.901766 Y40.760797 F100.000000
G1 X62.407766 Y40.625215 F100.000000
G1 X62.913766 Y40.760797 F100.000000
G1 X63.240464 Y41.087495 F100.000000
G1 X64.115069 Y41.087495 F100.000000
G1 X64.441766 Y40.760797 F100.000000
G1 X64.947766 Y40.625215 F100.000000
G1 X65.040184 Y40.649978 F100.000000
G1 X64.954250 Y40.620822 F100.000000
G1 X64.950518 Y40.618526 F100.000000
G1 X64.946171 Y40.617978 F100.000000
G1 X64.879602 Y40.574901 F100.000000
G1 X64.812066 Y40.533355 F100.000000
G1 X64.809700 Y40.529668 F100.000000
G1 X64.806022 Y40.527288 F100.000000
G1 X64.712042 Y40.430768 F100.000000
G1 X64.682997 Y40.383146 F100.000000
G1 X64.647114 Y40.340440 F100.000000
G1 X64.598854 Y40.246460 F100.000000
G1 X64.588312 Y40.205172 F100.000000
G1 X64.568918 Y40.167229 F100.000000
G1 X64.520658 Y39.976729 F100.000000
G1 X64.519552 Y39.930094 F100.000000
G1 X64.509171 Y39.884615 F100.000000
G1 Y39.742375 F100.000000
G1 X64.519552 Y39.696896 F100.000000
G1 X64.520658 Y39.650261 F100.000000
G1 X64.568918 Y39.459761 F100.000000
G1 X64.587405 Y39.423591 F100.000000
G1 X64.597031 Y39.384127 F100.000000
G1 X64.645291 Y39.287607 F100.000000
G1 X64.681968 Y39.242991 F100.000000
G1 X64.712042 Y39.193682 F100.000000
G1 X64.806022 Y39.097162 F100.000000
G1 X64.812283 Y39.093111 F100.000000
G1 X64.816410 Y39.086900 F100.000000
G1 X64.882074 Y39.047949 F100.000000
G1 X64.946171 Y39.006472 F100.000000
G1 X64.953570 Y39.005539 F100.000000
G1 X64.959984 Y39.001734 F100.000000
G1 X65.102224 Y38.956014 F100.000000
G1 X65.160236 Y38.950977 F100.000000
G1 X65.217006 Y38.938020 F100.000000
G1 X65.455766 F100.000000
G1 X65.496970 Y38.947424 F100.000000
G1 X65.539233 F100.000000
G1 X65.577310 Y38.965762 F100.000000
G1 X65.618514 Y38.975166 F100.000000
G1 X65.651557 Y39.001517 F100.000000
G1 X65.689634 Y39.019854 F100.000000
G1 X65.694526 Y39.025988 F100.000000
G1 X65.699418 Y39.019854 F100.000000
G1 X65.849820 Y38.947424 F100.000000
G1 X66.016753 F100.000000
G1 X66.167154 Y39.019854 F100.000000
G1 X66.218481 Y39.084216 F100.000000
G1 X66.226870 Y39.075089 F100.000000
G1 X66.270918 Y39.019854 F100.000000
G1 X66.282972 Y39.014049 F100.000000
G1 X66.292025 Y39.004199 F100.000000
G1 X66.357668 Y38.978078 F100.000000
G1 X66.421320 Y38.947424 F100.000000
G1 X66.434698 F100.000000
G1 X66.447129 Y38.942478 F100.000000
G1 X66.517604 Y38.947424 F100.000000
G1 X66.588253 F100.000000
G1 X66.600307 Y38.953229 F100.000000
G1 X66.613652 Y38.954166 F100.000000
G0 Z0.500000
G0 X71.280481 Y15.843242
G1 Z-0.040000 F60.000000
G1 X71.222762 Y15.862733 F100.000000
G1 X71.167873 Y15.889166 F100.000000
G1 X71.144483 F100.000000
G1 X71.122322 Y15.896649 F100.000000
G1 X70.822869 Y15.927074 F100.000000
G1 X70.839741 Y16.000995 F100.000000
G1 Y16.006900 F100.000000
G1 X70.845646 F100.000000
G1 X71.008394 Y16.044046 F100.000000
G1 X71.138907 Y16.148127 F100.000000
G1 X71.211337 Y16.298529 F100.000000
G1 Y16.465461 F100.000000
G1 X71.138907 Y16.615863 F100.000000
G1 X71.008394 Y16.719944 F100.000000
G1 X70.845646 Y16.757090 F100.000000
G1 X70.839741 F100.000000
G1 Y16.762995 F100.000000
G1 X70.802595 Y16.925743 F100.000000
G1 X70.698514 Y17.056256 F100.000000
G1 X70.548113 Y17.128686 F100.000000
G1 X70.381180 F100.000000
G1 X70.230778 Y17.056256 F100.000000
G1 X70.126697 Y16.925743 F100.000000
G1 X70.089551 Y16.762995 F100.000000
G1 Y16.757090 F100.000000
G1 X70.083646 F100.000000
G1 X69.920899 Y16.719944 F100.000000
G1 X69.790385 Y16.615863 F100.000000
G1 X69.717956 Y16.465461 F100.000000
G1 Y16.298529 F100.000000
G1 X69.790385 Y16.148127 F100.000000
G1 X69.920899 Y16.044046 F100.000000
G1 X70.083646 Y16.006900 F100.000000
G1 X70.089551 F100.000000
G1 Y16.000995 F100.000000
G1 X70.105454 Y15.931321 F100.000000
G1 X70.056280 Y15.925781 F100.000000
G1 X69.914934 Y15.836967 F100.000000
G0 Z0.500000
G0 X69.965302 Y14.024538
G1 Z-0.040000 F60.000000
G1 X70.966062 Y13.691798 F100.000000
G1 X71.132217 Y13.675699 F100.000000
G1 X71.288902 Y13.733287 F100.000000
G1 X71.405085 Y13.853154 F100.000000
G1 X71.457753 Y14.011561 F100.000000
G1 X71.436475 Y14.177132 F100.000000
G1 X71.345466 Y14.317075 F100.000000
G1 X71.240980 Y14.380475 F100.000000
G1 X71.345466 Y14.443875 F100.000000
G1 X71.436475 Y14.583818 F100.000000
G1 X71.457753 Y14.749389 F100.000000
G1 X71.415340 Y14.876951 F100.000000
G1 X71.422355 Y14.885747 F100.000000
G1 X71.459501 Y15.048495 F100.000000
G1 Y15.523475 F100.000000
G1 X71.454297 Y15.546278 F100.000000
G1 X71.456661 Y15.569549 F100.000000
G1 X71.435912 Y15.626828 F100.000000
G1 X71.422355 Y15.686223 F100.000000
G1 X71.407772 Y15.704510 F100.000000
G1 X71.399806 Y15.726501 F100.000000
G1 X71.356258 Y15.769105 F100.000000
G1 X71.318274 Y15.816736 F100.000000
G1 X71.297201 Y15.826885 F100.000000
G1 X71.280481 Y15.843242 F100.000000
G0 Z0.500000
G0 X69.914934 Y15.836967
G1 Z-0.040000 F60.000000
G1 X69.866674 Y15.788707 F100.000000
G1 X69.835694 Y15.739402 F100.000000
G1 X69.798234 Y15.694820 F100.000000
G1 X69.749974 Y15.600840 F100.000000
G1 X69.748759 Y15.596082 F100.000000
G1 X69.745697 Y15.592243 F100.000000
G1 X69.728166 Y15.515433 F100.000000
G1 X69.708674 Y15.439097 F100.000000
G1 X69.709644 Y15.434283 F100.000000
G1 X69.708551 Y15.429495 F100.000000
G1 Y15.190735 F100.000000
G1 X69.709186 Y15.187955 F100.000000
G1 X69.708593 Y15.185166 F100.000000
G1 X69.727729 Y15.106714 F100.000000
G1 X69.745697 Y15.027987 F100.000000
G1 X69.747475 Y15.025758 F100.000000
G1 X69.748151 Y15.022987 F100.000000
G1 X69.796411 Y14.926467 F100.000000
G1 X69.837791 Y14.876131 F100.000000
G1 X69.873937 Y14.821914 F100.000000
G1 X69.922197 Y14.776194 F100.000000
G1 X69.968043 Y14.749086 F100.000000
G1 X69.978074 Y14.740658 F100.000000
G1 X69.965302 Y14.736412 F100.000000
G1 X69.924236 Y14.711494 F100.000000
G1 X69.879150 Y14.694923 F100.000000
G1 X69.853767 Y14.668735 F100.000000
G1 X69.822587 Y14.649815 F100.000000
G1 X69.796399 Y14.609547 F100.000000
G1 X69.762968 Y14.575056 F100.000000
G1 X69.751461 Y14.540447 F100.000000
G1 X69.731577 Y14.509872 F100.000000
G1 X69.725455 Y14.462230 F100.000000
G1 X69.710300 Y14.416649 F100.000000
G1 X69.714948 Y14.380475 F100.000000
G1 X69.710300 Y14.344301 F100.000000
G1 X69.725455 Y14.298720 F100.000000
G1 X69.731577 Y14.251078 F100.000000
G1 X69.751461 Y14.220503 F100.000000
G1 X69.762968 Y14.185894 F100.000000
G1 X69.796399 Y14.151403 F100.000000
G1 X69.822587 Y14.111135 F100.000000
G1 X69.853767 Y14.092215 F100.000000
G1 X69.879150 Y14.066027 F100.000000
G1 X69.924236 Y14.049456 F100.000000
G1 X69.965302 Y14.024538 F100.000000
G0 Z0.500000
G0 X80.737486 Y36.756415
G1 Z-0.040000 F60.000000
G1 Y37.015875 F100.000000
G1 X80.780002 F100.000000
G1 X80.801366 Y36.957887 F100.000000
G1 Y36.811863 F100.000000
G1 X80.780938 Y36.756415 F100.000000
G1 X80.737486 Y36.756415 F100.000000
G0 Z0.500000
G0 X81.972465 Y37.735715
G1 Z-0.040000 F60.000000
G1 X81.970984 Y37.733900 F100.000000
G1 X81.968874 Y37.732884 F100.000000
G1 X81.914435 Y37.664620 F100.000000
G1 X81.859224 Y37.596979 F100.000000
G1 X81.730872 Y37.338022 F100.000000
G1 X81.649643 Y37.229718 F100.000000
G1 X81.576793 Y37.181151 F100.000000
G1 X81.510236 Y37.361807 F100.000000
G1 X81.477442 Y37.412147 F100.000000
G1 X81.452535 Y37.466820 F100.000000
G1 X81.378875 Y37.563340 F100.000000
G1 X81.329683 Y37.604316 F100.000000
G1 X81.286215 Y37.651319 F100.000000
G1 X81.141435 Y37.750379 F100.000000
G1 X81.112836 Y37.761657 F100.000000
G1 X81.088801 Y37.780825 F100.000000
G1 X81.030484 Y37.794135 F100.000000
G1 X80.974838 Y37.816081 F100.000000
G1 X80.944178 Y37.813834 F100.000000
G1 X80.914206 Y37.820675 F100.000000
G1 X80.335086 F100.000000
G1 X80.290883 Y37.810586 F100.000000
G1 X80.245544 F100.000000
G1 X80.204694 Y37.790914 F100.000000
G1 X80.160491 Y37.780825 F100.000000
G1 X80.125044 Y37.752556 F100.000000
G1 X80.084194 Y37.732884 F100.000000
G1 X80.055925 Y37.697436 F100.000000
G1 X80.020477 Y37.669167 F100.000000
G1 X80.000805 Y37.628318 F100.000000
G1 X79.972536 Y37.592870 F100.000000
G1 X79.962447 Y37.548667 F100.000000
G1 X79.942775 Y37.507817 F100.000000
G1 Y37.462478 F100.000000
G1 X79.932686 Y37.418275 F100.000000
G1 Y35.386275 F100.000000
G1 X79.972536 Y35.211680 F100.000000
G1 X80.084194 Y35.071666 F100.000000
G1 X80.245544 Y34.993964 F100.000000
G1 X80.424629 F100.000000
G1 X80.585979 Y35.071666 F100.000000
G1 X80.697636 Y35.211680 F100.000000
G1 X80.737486 Y35.386275 F100.000000
G1 Y35.951615 F100.000000
G1 X80.914206 F100.000000
G1 X80.941820 Y35.957918 F100.000000
G1 X80.970041 Y35.955507 F100.000000
G1 X81.028168 Y35.977626 F100.000000
G1 X81.088801 Y35.991465 F100.000000
G1 X81.110946 Y36.009125 F100.000000
G1 X81.137418 Y36.019198 F100.000000
G1 X81.282198 Y36.115718 F100.000000
G1 X81.327861 Y36.163916 F100.000000
G1 X81.378875 Y36.206410 F100.000000
G1 X81.452535 Y36.302930 F100.000000
G1 X81.477442 Y36.357603 F100.000000
G1 X81.510236 Y36.407943 F100.000000
G1 X81.551266 Y36.519311 F100.000000
G1 X81.662826 Y36.453346 F100.000000
G1 X81.817366 Y36.440148 F100.000000
G1 Y35.788675 F100.000000
G1 X81.785426 F100.000000
G1 X81.610831 Y35.748825 F100.000000
G1 X81.470817 Y35.637167 F100.000000
G1 X81.393115 Y35.475817 F100.000000
G1 Y35.296733 F100.000000
G1 X81.470817 Y35.135383 F100.000000
G1 X81.610831 Y35.023725 F100.000000
G1 X81.785426 Y34.983875 F100.000000
G1 X82.656646 F100.000000
G1 X82.831241 Y35.023725 F100.000000
G1 X82.971255 Y35.135383 F100.000000
G1 X83.048957 Y35.296733 F100.000000
G1 Y35.475817 F100.000000
G1 X82.971255 Y35.637167 F100.000000
G1 X82.831241 Y35.748825 F100.000000
G1 X82.656646 Y35.788675 F100.000000
G1 X82.622166 F100.000000
G1 Y37.418275 F100.000000
G1 X82.602737 Y37.503399 F100.000000
G1 X82.584277 Y37.588738 F100.000000
G1 X82.582837 Y37.590586 F100.000000
G1 X82.582316 Y37.592870 F100.000000
G1 X82.527877 Y37.661134 F100.000000
G1 X82.474218 Y37.730013 F100.000000
G1 X82.472119 Y37.731053 F100.000000
G1 X82.470659 Y37.732884 F100.000000
G1 X82.391992 Y37.770768 F100.000000
G1 X82.313761 Y37.809543 F100.000000
G1 X82.311419 Y37.809570 F100.000000
G1 X82.309309 Y37.810586 F100.000000
G1 X82.221996 F100.000000
G1 X82.134688 Y37.811578 F100.000000
G1 X82.132566 Y37.810586 F100.000000
G1 X82.130224 F100.000000
G1 X82.051557 Y37.772702 F100.000000
G1 X81.972465 Y37.735715 F100.000000
G0 Z0.500000
G0 X84.491351 Y5.934177
G1 Z-0.040000 F60.000000
G1 X84.462700 Y5.957026 F100.000000
G1 X84.491351 Y6.016522 F100.000000
G1 Y5.934177 F100.000000
G0 Z0.500000
G0 X83.695882 Y5.277742
G1 Z-0.040000 F60.000000
G1 X83.733960 Y5.259404 F100.000000
G1 X83.776223 F100.000000
G1 X83.817426 Y5.250000 F100.000000
G1 X84.292406 F100.000000
G1 X84.455154 Y5.287146 F100.000000
G1 X84.585390 Y5.391006 F100.000000
G1 X84.632578 Y5.331834 F100.000000
G1 X84.782980 Y5.259404 F100.000000
G1 X84.949913 F100.000000
G1 X85.100314 Y5.331834 F100.000000
G1 X85.204395 Y5.462347 F100.000000
G1 X85.241541 Y5.625095 F100.000000
G1 Y6.271442 F100.000000
G1 X85.313674 Y6.287906 F100.000000
G1 X85.444187 Y6.391987 F100.000000
G1 X85.516617 Y6.542389 F100.000000
G1 Y6.709321 F100.000000
G1 X85.444187 Y6.859723 F100.000000
G1 X85.313674 Y6.963804 F100.000000
G1 X85.150926 Y7.000950 F100.000000
G1 X84.579426 F100.000000
G1 X84.435916 Y6.968195 F100.000000
G1 X84.292406 Y7.000950 F100.000000
G1 X83.817426 F100.000000
G1 X83.776223 Y6.991546 F100.000000
G1 X83.733960 F100.000000
G1 X83.695882 Y6.973208 F100.000000
G1 X83.654679 Y6.963804 F100.000000
G1 X83.621636 Y6.937453 F100.000000
G1 X83.583558 Y6.919116 F100.000000
G1 X83.566237 Y6.897396 F100.000000
G1 X83.508683 Y6.932802 F100.000000
G1 X83.366443 Y6.981062 F100.000000
G1 X83.305579 Y6.987335 F100.000000
G1 X83.245926 Y7.000950 F100.000000
G1 X83.007166 F100.000000
G1 X83.004386 Y7.000315 F100.000000
G1 X83.001597 Y7.000909 F100.000000
G1 X82.923146 Y6.981773 F100.000000
G1 X82.844419 Y6.963804 F100.000000
G1 X82.842189 Y6.962026 F100.000000
G1 X82.839419 Y6.961350 F100.000000
G1 X82.742899 Y6.913090 F100.000000
G1 X82.703067 Y6.880346 F100.000000
G1 X82.598414 Y6.963804 F100.000000
G1 X82.435666 Y7.000950 F100.000000
G1 X81.958146 F100.000000
G1 X81.916943 Y6.991546 F100.000000
G1 X81.874680 F100.000000
G1 X81.836602 Y6.973208 F100.000000
G1 X81.795399 Y6.963804 F100.000000
G1 X81.762356 Y6.937453 F100.000000
G1 X81.724278 Y6.919116 F100.000000
G1 X81.697928 Y6.886073 F100.000000
G1 X81.668571 Y6.862662 F100.000000
G1 X81.649162 Y6.874858 F100.000000
G1 X81.602654 Y6.913090 F100.000000
G1 X81.506134 Y6.961350 F100.000000
G1 X81.503363 Y6.962026 F100.000000
G1 X81.501134 Y6.963804 F100.000000
G1 X81.422407 Y6.981773 F100.000000
G1 X81.343956 Y7.000909 F100.000000
G1 X81.341166 Y7.000315 F100.000000
G1 X81.338386 Y7.000950 F100.000000
G1 X80.957386 F100.000000
G1 X80.916183 Y6.991546 F100.000000
G1 X80.873920 F100.000000
G1 X80.835842 Y6.973208 F100.000000
G1 X80.794639 Y6.963804 F100.000000
G1 X80.761596 Y6.937453 F100.000000
G1 X80.723518 Y6.919116 F100.000000
G1 X80.697168 Y6.886073 F100.000000
G1 X80.664125 Y6.859723 F100.000000
G1 X80.645788 Y6.821645 F100.000000
G1 X80.619437 Y6.788603 F100.000000
G1 X80.610033 Y6.747399 F100.000000
G1 X80.591696 Y6.709321 F100.000000
G1 Y6.667058 F100.000000
G1 X80.582291 Y6.625855 F100.000000
G1 Y5.625095 F100.000000
G1 X80.619437 Y5.462347 F100.000000
G1 X80.723518 Y5.331834 F100.000000
G1 X80.873920 Y5.259404 F100.000000
G1 X81.040853 F100.000000
G1 X81.191254 Y5.331834 F100.000000
G1 X81.240251 Y5.393274 F100.000000
G1 X81.344656 Y5.298360 F100.000000
G1 X81.504665 Y5.250783 F100.000000
G1 X81.669472 Y5.277342 F100.000000
G1 X81.738113 Y5.325172 F100.000000
G1 X81.762356 Y5.313497 F100.000000
G1 X81.795399 Y5.287146 F100.000000
G1 X81.836602 Y5.277742 F100.000000
G1 X81.874680 Y5.259404 F100.000000
G1 X81.916943 F100.000000
G1 X81.958146 Y5.250000 F100.000000
G1 X82.435666 F100.000000
G1 X82.598414 Y5.287146 F100.000000
G1 X82.662921 Y5.338589 F100.000000
G1 X82.696150 Y5.318148 F100.000000
G1 X82.838390 Y5.269888 F100.000000
G1 X82.899254 Y5.263615 F100.000000
G1 X82.958906 Y5.250000 F100.000000
G1 X83.197666 F100.000000
G1 X83.202454 Y5.251093 F100.000000
G1 X83.207268 Y5.250123 F100.000000
G1 X83.283604 Y5.269615 F100.000000
G1 X83.360414 Y5.287146 F100.000000
G1 X83.364253 Y5.290208 F100.000000
G1 X83.369011 Y5.291423 F100.000000
G1 X83.462991 Y5.339683 F100.000000
G1 X83.507573 Y5.377142 F100.000000
G1 X83.526732 Y5.389180 F100.000000
G1 X83.557208 Y5.364877 F100.000000
G1 X83.583558 Y5.331834 F100.000000
G1 X83.621636 Y5.313497 F100.000000
G1 X83.654679 Y5.287146 F100.000000
G1 X83.695882 Y5.277742 F100.000000
G0 Z0.500000
G0 X64.839355 Y13.077101
G1 Z-0.040000 F60.000000
G1 X64.804321 Y13.138451 F100.000000
G1 X64.773667 Y13.202103 F100.000000
G1 X64.763208 Y13.210444 F100.000000
G1 X64.756573 Y13.222062 F100.000000
G1 X64.734568 Y13.237218 F100.000000
G1 X64.765818 Y13.274410 F100.000000
G1 X64.814078 Y13.368390 F100.000000
G1 X64.815293 Y13.373148 F100.000000
G1 X64.818355 Y13.376987 F100.000000
G1 X64.835887 Y13.453797 F100.000000
G1 X64.855378 Y13.530133 F100.000000
G1 X64.854409 Y13.534947 F100.000000
G1 X64.855501 Y13.539735 F100.000000
G1 Y13.681975 F100.000000
G1 X64.842104 Y13.740671 F100.000000
G1 X64.836253 Y13.800590 F100.000000
G1 X64.787993 Y13.945370 F100.000000
G1 X64.786512 Y13.947807 F100.000000
G1 X64.786192 Y13.950641 F100.000000
G1 X64.743230 Y14.019015 F100.000000
G1 X64.701287 Y14.088020 F100.000000
G1 X64.698896 Y14.089573 F100.000000
G1 X64.697379 Y14.091987 F100.000000
G1 X64.603399 Y14.185967 F100.000000
G1 X64.552422 Y14.217998 F100.000000
G1 X64.505914 Y14.256230 F100.000000
G1 X64.409394 Y14.304490 F100.000000
G1 X64.369930 Y14.314116 F100.000000
G1 X64.333760 Y14.332604 F100.000000
G1 X64.143260 Y14.380864 F100.000000
G1 X64.096625 Y14.381970 F100.000000
G1 X64.051146 Y14.392350 F100.000000
G1 X63.908906 F100.000000
G1 X63.863427 Y14.381970 F100.000000
G1 X63.816792 Y14.380864 F100.000000
G1 X63.626292 Y14.332604 F100.000000
G1 X63.588349 Y14.313210 F100.000000
G1 X63.547061 Y14.302667 F100.000000
G1 X63.453081 Y14.254407 F100.000000
G1 X63.410375 Y14.218524 F100.000000
G1 X63.362754 Y14.189480 F100.000000
G1 X63.266234 Y14.095500 F100.000000
G1 X63.263298 Y14.090963 F100.000000
G1 X63.258765 Y14.088020 F100.000000
G1 X63.218089 Y14.021099 F100.000000
G1 X63.175544 Y13.955350 F100.000000
G1 X63.174867 Y13.949989 F100.000000
G1 X63.172060 Y13.945370 F100.000000
G1 X63.123800 Y13.800590 F100.000000
G1 X63.117948 Y13.740671 F100.000000
G1 X63.104551 Y13.681975 F100.000000
G1 Y13.587995 F100.000000
G1 X63.118167 Y13.528343 F100.000000
G1 X63.124439 Y13.467478 F100.000000
G1 X63.172699 Y13.325238 F100.000000
G1 X63.173656 Y13.323683 F100.000000
G1 X63.173860 Y13.321869 F100.000000
G1 X63.217343 Y13.252667 F100.000000
G1 X63.228022 Y13.235307 F100.000000
G1 X63.186385 Y13.202103 F100.000000
G1 X63.113956 Y13.051701 F100.000000
G1 Y12.884769 F100.000000
G1 X63.186385 Y12.734367 F100.000000
G1 X63.250747 Y12.683040 F100.000000
G1 X63.241621 Y12.674652 F100.000000
G1 X63.186385 Y12.630603 F100.000000
G1 X63.180580 Y12.618549 F100.000000
G1 X63.170730 Y12.609496 F100.000000
G1 X63.144609 Y12.543854 F100.000000
G1 X63.113956 Y12.480201 F100.000000
G1 Y12.466823 F100.000000
G1 X63.109009 Y12.454392 F100.000000
G1 X63.113956 Y12.383917 F100.000000
G1 Y12.313269 F100.000000
G1 X63.119760 Y12.301215 F100.000000
G1 X63.120697 Y12.287869 F100.000000
G1 X63.155732 Y12.226519 F100.000000
G1 X63.186385 Y12.162867 F100.000000
G1 X63.192520 Y12.157975 F100.000000
G1 X63.186385 Y12.153083 F100.000000
G1 X63.168048 Y12.115005 F100.000000
G1 X63.141697 Y12.081963 F100.000000
G1 X63.132293 Y12.040759 F100.000000
G1 X63.113956 Y12.002681 F100.000000
G1 Y11.960418 F100.000000
G1 X63.104551 Y11.919215 F100.000000
G1 Y11.680455 F100.000000
G1 X63.118167 Y11.620803 F100.000000
G1 X63.124439 Y11.559938 F100.000000
G1 X63.172699 Y11.417698 F100.000000
G1 X63.174995 Y11.413967 F100.000000
G1 X63.175544 Y11.409620 F100.000000
G1 X63.218620 Y11.343050 F100.000000
G0 Z0.500000
G0 Y11.343050
G1 Z-0.040000 F60.000000
G1 X63.260166 Y11.275515 F100.000000
G1 X63.263854 Y11.273149 F100.000000
G1 X63.266234 Y11.269470 F100.000000
G1 X63.362754 Y11.175490 F100.000000
G1 X63.410375 Y11.146446 F100.000000
G1 X63.453081 Y11.110563 F100.000000
G1 X63.547061 Y11.062303 F100.000000
G1 X63.588349 Y11.051760 F100.000000
G1 X63.626292 Y11.032366 F100.000000
G1 X63.816792 Y10.984106 F100.000000
G1 X63.863427 Y10.983000 F100.000000
G1 X63.908906 Y10.972620 F100.000000
G1 X64.051146 F100.000000
G1 X64.096625 Y10.983000 F100.000000
G1 X64.143260 Y10.984106 F100.000000
G1 X64.333760 Y11.032366 F100.000000
G1 X64.369930 Y11.050854 F100.000000
G1 X64.409394 Y11.060480 F100.000000
G1 X64.505914 Y11.108740 F100.000000
G1 X64.552422 Y11.146972 F100.000000
G1 X64.603399 Y11.179003 F100.000000
G1 X64.697379 Y11.272983 F100.000000
G1 X64.698350 Y11.274529 F100.000000
G1 X64.699887 Y11.275515 F100.000000
G1 X64.742710 Y11.345127 F100.000000
G1 X64.786192 Y11.414329 F100.000000
G1 X64.786397 Y11.416143 F100.000000
G1 X64.787353 Y11.417698 F100.000000
G1 X64.835613 Y11.559938 F100.000000
G1 X64.841886 Y11.620803 F100.000000
G1 X64.855501 Y11.680455 F100.000000
G1 Y11.919215 F100.000000
G1 X64.846097 Y11.960418 F100.000000
G1 Y12.002681 F100.000000
G1 X64.827760 Y12.040759 F100.000000
G1 X64.818355 Y12.081963 F100.000000
G1 X64.792005 Y12.115005 F100.000000
G1 X64.773667 Y12.153083 F100.000000
G1 X64.767533 Y12.157975 F100.000000
G1 X64.773667 Y12.162867 F100.000000
G1 X64.846097 Y12.313269 F100.000000
G1 Y12.480201 F100.000000
G1 X64.773667 Y12.630603 F100.000000
G1 X64.709305 Y12.681930 F100.000000
G1 X64.718432 Y12.690318 F100.000000
G1 X64.773667 Y12.734367 F100.000000
G1 X64.779472 Y12.746421 F100.000000
G1 X64.789322 Y12.755474 F100.000000
G1 X64.815444 Y12.821116 F100.000000
G1 X64.846097 Y12.884769 F100.000000
G1 Y12.898147 F100.000000
G1 X64.851043 Y12.910578 F100.000000
G1 X64.846097 Y12.981053 F100.000000
G1 Y13.051701 F100.000000
G1 X64.840292 Y13.063755 F100.000000
G1 X64.839355 Y13.077101 F100.000000
G0 Z0.500000
G0 X74.537302 Y27.598298
G1 Z-0.040000 F60.000000
G1 X75.538062 Y27.265558 F100.000000
G1 X75.704217 Y27.249459 F100.000000
G1 X75.860902 Y27.307047 F100.000000
G1 X75.977085 Y27.426914 F100.000000
G1 X76.029753 Y27.585321 F100.000000
G1 X76.008475 Y27.750892 F100.000000
G1 X75.917466 Y27.890835 F100.000000
G1 X75.812980 Y27.954235 F100.000000
G1 X75.917466 Y28.017635 F100.000000
G1 X76.008475 Y28.157578 F100.000000
G1 X76.029753 Y28.323149 F100.000000
G1 X75.987340 Y28.450711 F100.000000
G1 X75.994355 Y28.459507 F100.000000
G1 X76.031501 Y28.622255 F100.000000
G1 Y29.097235 F100.000000
G1 X76.026297 Y29.120038 F100.000000
G1 X76.028661 Y29.143309 F100.000000
G1 X76.007912 Y29.200588 F100.000000
G1 X75.994355 Y29.259983 F100.000000
G1 X75.979772 Y29.278270 F100.000000
G1 X75.971806 Y29.300261 F100.000000
G1 X75.928258 Y29.342865 F100.000000
G1 X75.890274 Y29.390496 F100.000000
G1 X75.869201 Y29.400645 F100.000000
G1 X75.852481 Y29.417002 F100.000000
G1 X75.794762 Y29.436493 F100.000000
G1 X75.739873 Y29.462926 F100.000000
G1 X75.716483 F100.000000
G1 X75.694322 Y29.470409 F100.000000
G1 X75.219342 Y29.518669 F100.000000
G1 X75.184391 Y29.514343 F100.000000
G1 X75.149515 Y29.519230 F100.000000
G1 X75.102579 Y29.504217 F100.000000
G1 X75.053673 Y29.498164 F100.000000
G1 X75.024061 Y29.479102 F100.000000
G1 X74.990517 Y29.468373 F100.000000
G1 X74.967890 Y29.446936 F100.000000
G1 X74.951729 Y29.463097 F100.000000
G1 X74.794164 Y29.518231 F100.000000
G1 X74.628280 Y29.499541 F100.000000
G1 X74.486934 Y29.410727 F100.000000
G0 Z0.500000
G1 Z-0.040000 F60.000000
G1 X74.438674 Y29.362467 F100.000000
G1 X74.407694 Y29.313162 F100.000000
G1 X74.370234 Y29.268580 F100.000000
G1 X74.321974 Y29.174600 F100.000000
G1 X74.320759 Y29.169842 F100.000000
G1 X74.317697 Y29.166003 F100.000000
G1 X74.300166 Y29.089193 F100.000000
G1 X74.280674 Y29.012857 F100.000000
G1 X74.281644 Y29.008043 F100.000000
G1 X74.280551 Y29.003255 F100.000000
G1 Y28.764495 F100.000000
G1 X74.281186 Y28.761715 F100.000000
G1 X74.280593 Y28.758926 F100.000000
G1 X74.299729 Y28.680474 F100.000000
G1 X74.317697 Y28.601747 F100.000000
G1 X74.319475 Y28.599518 F100.000000
G1 X74.320151 Y28.596747 F100.000000
G1 X74.368411 Y28.500227 F100.000000
G1 X74.409791 Y28.449891 F100.000000
G1 X74.445937 Y28.395674 F100.000000
G1 X74.494197 Y28.349954 F100.000000
G1 X74.540043 Y28.322846 F100.000000
G1 X74.550074 Y28.314418 F100.000000
G1 X74.537302 Y28.310172 F100.000000
G1 X74.496236 Y28.285254 F100.000000
G1 X74.451150 Y28.268683 F100.000000
G1 X74.425767 Y28.242495 F100.000000
G1 X74.394587 Y28.223575 F100.000000
G1 X74.368399 Y28.183307 F100.000000
G1 X74.334968 Y28.148816 F100.000000
G1 X74.323461 Y28.114207 F100.000000
G1 X74.303577 Y28.083632 F100.000000
G1 X74.297455 Y28.035990 F100.000000
G1 X74.282300 Y27.990409 F100.000000
G1 X74.286948 Y27.954235 F100.000000
G1 X74.282300 Y27.918061 F100.000000
G1 X74.297455 Y27.872480 F100.000000
G1 X74.303577 Y27.824838 F100.000000
G1 X74.323461 Y27.794263 F100.000000
G1 X74.334968 Y27.759654 F100.000000
G1 X74.368399 Y27.725163 F100.000000
G1 X74.394587 Y27.684895 F100.000000
G1 X74.425767 Y27.665975 F100.000000
G1 X74.451150 Y27.639787 F100.000000
G1 X74.496236 Y27.623216 F100.000000
G1 X74.537302 Y27.598298 F100.000000
G0 Z0.500000
G0 X41.979355 Y16.633101
G1 Z-0.040000 F60.000000
G1 X41.944321 Y16.694451 F100.000000
G1 X41.913667 Y16.758103 F100.000000
G1 X41.903208 Y16.766444 F100.000000
G1 X41.896573 Y16.778062 F100.000000
G1 X41.874568 Y16.793218 F100.000000
G1 X41.905818 Y16.830410 F100.000000
G1 X41.954078 Y16.924390 F100.000000
G1 X41.955293 Y16.929148 F100.000000
G1 X41.958355 Y16.932987 F100.000000
G1 X41.975887 Y17.009797 F100.000000
G1 X41.995378 Y17.086133 F100.000000
G1 X41.994409 Y17.090947 F100.000000
G1 X41.995501 Y17.095735 F100.000000
G1 Y17.237975 F100.000000
G1 X41.982104 Y17.296671 F100.000000
G1 X41.976253 Y17.356590 F100.000000
G1 X41.927993 Y17.501370 F100.000000
G1 X41.926512 Y17.503807 F100.000000
G1 X41.926192 Y17.506641 F100.000000
G1 X41.883230 Y17.575015 F100.000000
G1 X41.841287 Y17.644020 F100.000000
G1 X41.838896 Y17.645573 F100.000000
G1 X41.837379 Y17.647987 F100.000000
G1 X41.743399 Y17.741967 F100.000000
G1 X41.692422 Y17.773998 F100.000000
G1 X41.645914 Y17.812230 F100.000000
G1 X41.549394 Y17.860490 F100.000000
G1 X41.509930 Y17.870116 F100.000000
G1 X41.487940 Y17.881356 F100.000000
G1 X41.696511 Y17.949125 F100.000000
G1 X42.082625 Y18.296783 F100.000000
G1 X42.164864 Y18.481495 F100.000000
G1 X43.103766 F100.000000
G1 X43.193681 Y18.502017 F100.000000
G1 X43.285327 Y18.512343 F100.000000
G1 X43.311800 Y18.528977 F100.000000
G1 X43.342281 Y18.535934 F100.000000
G1 X43.414387 Y18.593437 F100.000000
G1 X43.492477 Y18.642504 F100.000000
G1 X50.604477 Y25.754504 F100.000000
G1 X50.653545 Y25.832595 F100.000000
G1 X50.711047 Y25.904700 F100.000000
G1 X50.718004 Y25.935181 F100.000000
G1 X50.734638 Y25.961654 F100.000000
G1 X50.744964 Y26.053301 F100.000000
G1 X50.765486 Y26.143215 F100.000000
G1 Y27.439514 F100.000000
G0 Z0.500000
G0 X41.816481 Y25.749242
G1 Z-0.040000 F60.000000
G1 X41.758762 Y25.768733 F100.000000
G1 X41.703873 Y25.795166 F100.000000
G1 X41.680483 F100.000000
G1 X41.658322 Y25.802649 F100.000000
G1 X41.358869 Y25.833074 F100.000000
G1 X41.375741 Y25.906995 F100.000000
G1 Y25.912900 F100.000000
G1 X41.381646 F100.000000
G1 X41.544394 Y25.950046 F100.000000
G1 X41.674907 Y26.054127 F100.000000
G1 X41.747337 Y26.204529 F100.000000
G1 Y26.371461 F100.000000
G1 X41.674907 Y26.521863 F100.000000
G1 X41.544394 Y26.625944 F100.000000
G1 X41.381646 Y26.663090 F100.000000
G1 X41.375741 F100.000000
G1 Y26.668995 F100.000000
G1 X41.338595 Y26.831743 F100.000000
G1 X41.234514 Y26.962256 F100.000000
G1 X41.084113 Y27.034686 F100.000000
G1 X40.917180 F100.000000
G1 X40.766778 Y26.962256 F100.000000
G1 X40.662697 Y26.831743 F100.000000
G1 X40.625551 Y26.668995 F100.000000
G1 Y26.663090 F100.000000
G1 X40.619646 F100.000000
G1 X40.456899 Y26.625944 F100.000000
G1 X40.326385 Y26.521863 F100.000000
G1 X40.253956 Y26.371461 F100.000000
G1 Y26.204529 F100.000000
G1 X40.326385 Y26.054127 F100.000000
G1 X40.456899 Y25.950046 F100.000000
G1 X40.619646 Y25.912900 F100.000000
G1 X40.625551 F100.000000
G1 Y25.906995 F100.000000
G1 X40.641454 Y25.837321 F100.000000
G1 X40.592280 Y25.831781 F100.000000
G1 X40.450934 Y25.742967 F100.000000
G0 Z0.500000
G0 X41.454930 Y23.493800
G1 Z-0.040000 F60.000000
G1 X41.202374 Y23.575860 F100.000000
G1 X40.685653 Y23.521551 F100.000000
G1 X40.235694 Y23.261767 F100.000000
G1 X39.930300 Y22.841428 F100.000000
G1 X39.822276 Y22.333215 F100.000000
G1 X39.930300 Y21.825002 F100.000000
G1 X40.235694 Y21.404663 F100.000000
G1 X40.685653 Y21.144879 F100.000000
G1 X41.202374 Y21.090570 F100.000000
G1 X41.696511 Y21.251125 F100.000000
G1 X42.082625 Y21.598783 F100.000000
G1 X42.293952 Y22.073431 F100.000000
G1 Y22.592999 F100.000000
G1 X42.236965 Y22.720993 F100.000000
G1 X46.611268 Y27.095295 F100.000000
G1 X46.661766 Y27.044797 F100.000000
G1 X47.167766 Y26.909215 F100.000000
G1 X47.673766 Y27.044797 F100.000000
G1 X48.044184 Y27.415215 F100.000000
G1 X48.179766 Y27.921215 F100.000000
G1 X48.044184 Y28.427215 F100.000000
G1 X47.673766 Y28.797633 F100.000000
G1 X47.167766 Y28.933215 F100.000000
G1 X46.661766 Y28.797633 F100.000000
G1 X46.291349 Y28.427215 F100.000000
G1 X46.255846 Y28.294716 F100.000000
G1 X41.980650 Y24.019520 F100.000000
G1 X41.972475 Y24.083132 F100.000000
G1 X41.881466 Y24.223075 F100.000000
G1 X41.776980 Y24.286475 F100.000000
G1 X41.881466 Y24.349875 F100.000000
G1 X41.972475 Y24.489818 F100.000000
G1 X41.993753 Y24.655389 F100.000000
G1 X41.951340 Y24.782951 F100.000000
G1 X41.958355 Y24.791747 F100.000000
G1 X41.995501 Y24.954495 F100.000000
G1 Y25.429475 F100.000000
G1 X41.990297 Y25.452278 F100.000000
G1 X41.992661 Y25.475549 F100.000000
G1 X41.971912 Y25.532828 F100.000000
G1 X41.958355 Y25.592223 F100.000000
G1 X41.943772 Y25.610510 F100.000000
G1 X41.935806 Y25.632501 F100.000000
G1 X41.892258 Y25.675105 F100.000000
G1 X41.854274 Y25.722736 F100.000000
G1 X41.833201 Y25.732885 F100.000000
G1 X41.816481 Y25.749242 F100.000000
G0 Z0.500000
G0 X40.450934 Y25.742967
G1 Z-0.040000 F60.000000
G1 X40.402674 Y25.694707 F100.000000
G1 X40.371694 Y25.645402 F100.000000
G1 X40.334234 Y25.600820 F100.000000
G1 X40.285974 Y25.506840 F100.000000
G1 X40.284759 Y25.502082 F100.000000
G1 X40.281697 Y25.498243 F100.000000
G1 X40.264166 Y25.421433 F100.000000
G1 X40.244674 Y25.345097 F100.000000
G1 X40.245644 Y25.340283 F100.000000
G1 X40.244551 Y25.335495 F100.000000
G1 Y25.096735 F100.000000
G1 X40.245186 Y25.093955 F100.000000
G1 X40.244593 Y25.091166 F100.000000
G1 X40.263729 Y25.012714 F100.000000
G1 X40.281697 Y24.933987 F100.000000
G1 X40.283475 Y24.931758 F100.000000
G1 X40.284151 Y24.928987 F100.000000
G1 X40.332411 Y24.832467 F100.000000
G1 X40.373791 Y24.782131 F100.000000
G1 X40.409937 Y24.727914 F100.000000
G1 X40.458197 Y24.682194 F100.000000
G1 X40.504043 Y24.655086 F100.000000
G1 X40.514074 Y24.646658 F100.000000
G1 X40.501302 Y24.642412 F100.000000
G1 X40.460236 Y24.617494 F100.000000
G1 X40.415150 Y24.600923 F100.000000
G1 X40.389767 Y24.574735 F100.000000
G1 X40.358587 Y24.555815 F100.000000
G1 X40.332399 Y24.515547 F100.000000
G1 X40.298968 Y24.481056 F100.000000
G1 X40.287461 Y24.446447 F100.000000
G1 X40.267577 Y24.415872 F100.000000
G1 X40.261455 Y24.368230 F100.000000
G1 X40.246300 Y24.322649 F100.000000
G1 X40.250948 Y24.286475 F100.000000
G1 X40.246300 Y24.250301 F100.000000
G1 X40.261455 Y24.204720 F100.000000
G1 X40.267577 Y24.157078 F100.000000
G1 X40.287461 Y24.126503 F100.000000
G1 X40.298968 Y24.091894 F100.000000
G1 X40.332399 Y24.057403 F100.000000
G1 X40.358587 Y24.017135 F100.000000
G1 X40.389767 Y23.998215 F100.000000
G1 X40.415150 Y23.972027 F100.000000
G1 X40.460236 Y23.955456 F100.000000
G1 X40.501302 Y23.930538 F100.000000
G1 X41.502062 Y23.597798 F100.000000
G1 X41.553905 Y23.592775 F100.000000
G1 X41.454930 Y23.493800 F100.000000
G0 Z0.500000
G0 X88.285124 Y47.048495
G1 Z-0.040000 F60.000000
G1 X88.300284 Y47.114915 F100.000000
G1 X88.867189 F100.000000
G1 X88.882349 Y47.048495 F100.000000
G1 X88.285124 Y47.048495 F100.000000
G0 Z0.500000
G0 Y46.177275
G1 Z-0.040000 F60.000000
G1 X88.300284 Y46.243695 F100.000000
G1 X88.867189 Y46.243695 F100.000000
G1 X88.882349 Y46.177275 F100.000000
G1 X88.285124 Y46.177275 F100.000000
G0 Z0.500000
G0 X88.338570 Y44.071701
G1 Z-0.040000 F60.000000
G1 X88.346535 Y44.080942 F100.000000
G1 X88.357411 Y44.086469 F100.000000
G1 X88.382344 Y44.119139 F100.000000
G1 X88.414475 Y44.144763 F100.000000
G1 X88.430850 Y44.178765 F100.000000
G1 X88.455489 Y44.207352 F100.000000
G1 X88.458656 Y44.219134 F100.000000
G1 X88.466057 Y44.228832 F100.000000
G1 X88.474346 Y44.269085 F100.000000
G1 X88.492177 Y44.306113 F100.000000
G1 Y44.343852 F100.000000
G1 X88.501973 Y44.380298 F100.000000
G1 X88.499714 Y44.392288 F100.000000
G1 X88.502175 Y44.404237 F100.000000
G1 X88.492177 Y44.444100 F100.000000
G1 Y44.485197 F100.000000
G1 X88.475803 Y44.519200 F100.000000
G1 X88.468815 Y44.556287 F100.000000
G1 X88.461578 Y44.566109 F100.000000
G1 X88.458610 Y44.577942 F100.000000
G1 X88.432307 Y44.609520 F100.000000
G1 X88.414722 Y44.646035 F100.000000
G1 X88.656231 F100.000000
G1 X88.638646 Y44.609520 F100.000000
G1 X88.612343 Y44.577942 F100.000000
G1 X88.609375 Y44.566109 F100.000000
G1 X88.602138 Y44.556287 F100.000000
G1 X88.595150 Y44.519200 F100.000000
G1 X88.578775 Y44.485197 F100.000000
G1 Y44.444100 F100.000000
G1 X88.568778 Y44.404237 F100.000000
G1 X88.571238 Y44.392288 F100.000000
G1 X88.568979 Y44.380298 F100.000000
G1 X88.578775 Y44.343852 F100.000000
G1 Y44.306113 F100.000000
G1 X88.596607 Y44.269085 F100.000000
G1 X88.604895 Y44.228832 F100.000000
G1 X88.612297 Y44.219134 F100.000000
G1 X88.615463 Y44.207352 F100.000000
G1 X88.640103 Y44.178765 F100.000000
G1 X88.656477 Y44.144763 F100.000000
G1 X88.688609 Y44.119139 F100.000000
G1 X88.713541 Y44.086469 F100.000000
G1 X88.724418 Y44.080942 F100.000000
G1 X88.732383 Y44.071701 F100.000000
G1 X88.828903 Y44.000581 F100.000000
G1 X88.897265 Y43.970817 F100.000000
G1 X88.963158 Y43.935927 F100.000000
G1 X88.978773 Y43.935331 F100.000000
G1 X88.993101 Y43.929093 F100.000000
G1 X89.067606 Y43.931938 F100.000000
G1 X89.142112 Y43.929093 F100.000000
G1 X89.156440 Y43.935331 F100.000000
G1 X89.172055 Y43.935927 F100.000000
G1 X89.237948 Y43.970817 F100.000000
G1 X89.306310 Y44.000581 F100.000000
G1 X89.402830 Y44.071701 F100.000000
G1 X89.410795 Y44.080942 F100.000000
G1 X89.421671 Y44.086469 F100.000000
G1 X89.446604 Y44.119139 F100.000000
G1 X89.478735 Y44.144763 F100.000000
G1 X89.495110 Y44.178765 F100.000000
G1 X89.519749 Y44.207352 F100.000000
G1 X89.522916 Y44.219134 F100.000000
G1 X89.530317 Y44.228832 F100.000000
G1 X89.538606 Y44.269085 F100.000000
G1 X89.556437 Y44.306113 F100.000000
G1 Y44.343852 F100.000000
G1 X89.566233 Y44.380298 F100.000000
G1 X89.563974 Y44.392288 F100.000000
G1 X89.566435 Y44.404237 F100.000000
G1 X89.556437 Y44.444100 F100.000000
G1 Y44.485197 F100.000000
G1 X89.540063 Y44.519200 F100.000000
G1 X89.533075 Y44.556287 F100.000000
G1 X89.525838 Y44.566109 F100.000000
G1 X89.522870 Y44.577942 F100.000000
G1 X89.496567 Y44.609520 F100.000000
G1 X89.478735 Y44.646547 F100.000000
G1 X89.449229 Y44.670078 F100.000000
G1 X89.426842 Y44.700460 F100.000000
G1 X89.416060 Y44.706169 F100.000000
G1 X89.408252 Y44.715543 F100.000000
G1 X89.311732 Y44.789203 F100.000000
G1 X89.299051 Y44.794980 F100.000000
G1 X89.306310 Y44.798141 F100.000000
G1 X89.402830 Y44.869261 F100.000000
G1 X89.449367 Y44.923253 F100.000000
G1 X89.500718 Y44.972689 F100.000000
G1 X89.597238 Y45.120009 F100.000000
G1 X89.606539 Y45.145053 F100.000000
G1 X89.623196 Y45.165940 F100.000000
G1 X89.637386 Y45.228110 F100.000000
G1 X89.659588 Y45.287890 F100.000000
G1 X89.657102 Y45.314489 F100.000000
G1 X89.663046 Y45.340535 F100.000000
G1 Y45.630095 F100.000000
G1 X89.656744 Y45.657709 F100.000000
G1 X89.659154 Y45.685930 F100.000000
G1 X89.652957 Y45.702214 F100.000000
G1 Y45.864417 F100.000000
G1 X89.575255 Y46.025767 F100.000000
G1 X89.564338 Y46.034474 F100.000000
G1 X89.623196 Y46.108280 F100.000000
G1 X89.654104 Y46.243695 F100.000000
G1 X89.938826 Y46.243695 F100.000000
G1 X90.113421 Y46.283545 F100.000000
G1 X90.253435 Y46.395203 F100.000000
G1 X90.331137 Y46.556553 F100.000000
G1 Y46.735637 F100.000000
G1 X90.253435 Y46.896987 F100.000000
G1 X90.113421 Y47.008645 F100.000000
G1 X89.938826 Y47.048495 F100.000000
G1 X89.638944 Y47.048495 F100.000000
G1 X89.654104 Y47.114915 F100.000000
G1 X89.938826 F100.000000
G1 X90.113421 Y47.154765 F100.000000
G1 X90.253435 Y47.266423 F100.000000
G1 X90.331137 Y47.427773 F100.000000
G1 Y47.606857 F100.000000
G1 X90.253435 Y47.768207 F100.000000
G1 X90.113421 Y47.879865 F100.000000
G1 X89.938826 Y47.919715 F100.000000
G1 X89.613702 F100.000000
G1 X89.511539 Y48.047824 F100.000000
G1 X89.473013 Y48.066377 F100.000000
G1 X89.473977 Y48.068011 F100.000000
G1 X89.498943 Y48.091664 F100.000000
G1 X89.595463 Y48.236444 F100.000000
G1 X89.605537 Y48.262916 F100.000000
G1 X89.623196 Y48.285060 F100.000000
G1 X89.637035 Y48.345694 F100.000000
G1 X89.659154 Y48.403820 F100.000000
G1 X89.656744 Y48.432041 F100.000000
G1 X89.663046 Y48.459655 F100.000000
G1 Y48.494135 F100.000000
G1 X89.938826 F100.000000
G1 X90.113421 Y48.533985 F100.000000
G1 X90.253435 Y48.645643 F100.000000
G1 X90.331137 Y48.806993 F100.000000
G1 Y48.986077 F100.000000
G1 X90.253435 Y49.147427 F100.000000
G1 X90.113421 Y49.259085 F100.000000
G1 X89.938826 Y49.298935 F100.000000
G1 X87.906826 F100.000000
G1 X87.732231 Y49.259085 F100.000000
G1 X87.592217 Y49.147427 F100.000000
G1 X87.514515 Y48.986077 F100.000000
G1 Y48.806993 F100.000000
G1 X87.592217 Y48.645643 F100.000000
G1 X87.688481 Y48.568875 F100.000000
G1 X87.592217 Y48.492107 F100.000000
G1 X87.514515 Y48.330757 F100.000000
G1 Y48.151673 F100.000000
G1 X87.592217 Y47.990323 F100.000000
G1 X87.732231 Y47.878665 F100.000000
G1 X87.906826 Y47.838815 F100.000000
G1 X87.910207 F100.000000
G1 X87.859888 Y47.819614 F100.000000
G1 X87.831291 Y47.800511 F100.000000
G1 X87.798534 Y47.790033 F100.000000
G1 X87.757722 Y47.751367 F100.000000
G1 X87.710972 Y47.720139 F100.000000
G1 X87.693495 Y47.690519 F100.000000
G1 X87.668529 Y47.666866 F100.000000
G1 X87.572009 Y47.522086 F100.000000
G1 X87.561936 Y47.495614 F100.000000
G1 X87.544276 Y47.473470 F100.000000
G1 X87.530437 Y47.412836 F100.000000
G1 X87.508319 Y47.354710 F100.000000
G1 X87.510729 Y47.326489 F100.000000
G1 X87.504426 Y47.298875 F100.000000
G1 Y47.154095 F100.000000
G1 X87.544276 Y46.979500 F100.000000
G1 X87.655934 Y46.839486 F100.000000
G1 X87.694459 Y46.820933 F100.000000
G1 X87.693495 Y46.819299 F100.000000
G1 X87.668529 Y46.795646 F100.000000
G1 X87.572009 Y46.650866 F100.000000
G1 X87.561936 Y46.624394 F100.000000
G1 X87.544276 Y46.602250 F100.000000
G1 X87.530437 Y46.541616 F100.000000
G1 X87.508319 Y46.483490 F100.000000
G1 X87.510729 Y46.455269 F100.000000
G1 X87.504426 Y46.427655 F100.000000
G1 Y46.282875 F100.000000
G1 X87.528529 Y46.177275 F100.000000
G1 X87.228646 Y46.177275 F100.000000
G1 X87.054051 Y46.137425 F100.000000
G1 X86.914037 Y46.025767 F100.000000
G1 X86.836335 Y45.864417 F100.000000
G1 Y45.685333 F100.000000
G1 X86.914037 Y45.523983 F100.000000
G1 X87.054051 Y45.412325 F100.000000
G1 X87.228646 Y45.372475 F100.000000
G1 X87.504426 F100.000000
G1 Y45.340535 F100.000000
G1 X87.510371 Y45.314489 F100.000000
G1 X87.507885 Y45.287890 F100.000000
G1 X87.530086 Y45.228110 F100.000000
G1 X87.544276 Y45.165940 F100.000000
G1 X87.560933 Y45.145053 F100.000000
G1 X87.570234 Y45.120009 F100.000000
G1 X87.666754 Y44.972689 F100.000000
G1 X87.718106 Y44.923253 F100.000000
G1 X87.764643 Y44.869261 F100.000000
G1 X87.829711 Y44.821316 F100.000000
G1 X87.759221 Y44.789203 F100.000000
G1 X87.662701 Y44.715543 F100.000000
G1 X87.654893 Y44.706169 F100.000000
G1 X87.644111 Y44.700460 F100.000000
G1 X87.621723 Y44.670078 F100.000000
G1 X87.592217 Y44.646547 F100.000000
G1 X87.574386 Y44.609520 F100.000000
G1 X87.548083 Y44.577942 F100.000000
G1 X87.545115 Y44.566109 F100.000000
G1 X87.537878 Y44.556287 F100.000000
G1 X87.530890 Y44.519200 F100.000000
G1 X87.514515 Y44.485197 F100.000000
G1 Y44.444100 F100.000000
G1 X87.504518 Y44.404237 F100.000000
G1 X87.506978 Y44.392288 F100.000000
G1 X87.504719 Y44.380298 F100.000000
G1 X87.514515 Y44.343852 F100.000000
G1 Y44.306113 F100.000000
G1 X87.532347 Y44.269085 F100.000000
G1 X87.533344 Y44.264240 F100.000000
G1 X87.427505 Y44.290013 F100.000000
G1 X87.252352 Y44.252691 F100.000000
G1 X87.110738 Y44.143070 F100.000000
G1 X87.030711 Y43.982861 F100.000000
G1 X87.028122 Y43.803794 F100.000000
G1 X87.103482 Y43.641338 F100.000000
G1 X87.241868 Y43.527668 F100.000000
G1 X89.855528 Y42.222108 F100.000000
G1 X90.029528 Y42.179737 F100.000000
G1 X90.204681 Y42.217059 F100.000000
G1 X90.346295 Y42.326680 F100.000000
G1 X90.426322 Y42.486889 F100.000000
G1 X90.428911 Y42.665956 F100.000000
G1 X90.353550 Y42.828412 F100.000000
G1 X90.215165 Y42.942082 F100.000000
G1 X88.164953 Y43.966192 F100.000000
G1 X88.173688 Y43.970817 F100.000000
G0 Z0.500000
G0 X89.855248 Y40.624587
G1 Z-0.040000 F60.000000
G1 X90.029215 Y40.582082 F100.000000
G1 X90.204397 Y40.619267 F100.000000
G1 X90.346096 Y40.728778 F100.000000
G1 X90.426247 Y40.888925 F100.000000
G1 X90.428976 Y41.067989 F100.000000
G1 X90.353742 Y41.230505 F100.000000
G1 X90.215445 Y41.344283 F100.000000
G1 X87.601785 Y42.652383 F100.000000
G1 X87.427818 Y42.694888 F100.000000
G1 X87.252636 Y42.657703 F100.000000
G1 X87.110937 Y42.548192 F100.000000
G1 X87.030785 Y42.388045 F100.000000
G1 X87.028057 Y42.208981 F100.000000
G1 X87.103291 Y42.046465 F100.000000
G1 X87.241588 Y41.932687 F100.000000
G1 X89.855248 Y40.624587 F100.000000
G0 Z0.500000
G0 X88.828091 Y39.478587
G1 Z-0.040000 F60.000000
G1 X88.787278 Y39.517253 F100.000000
G1 X88.754522 Y39.527731 F100.000000
G1 X88.725925 Y39.546834 F100.000000
G1 X88.532885 Y39.620494 F100.000000
G1 X88.460598 Y39.630691 F100.000000
G1 X88.389426 Y39.646935 F100.000000
G1 X88.354614 Y39.646935 F100.000000
G1 X88.386615 Y39.701055 F100.000000
G1 X88.401854 Y39.879490 F100.000000
G1 X88.338163 Y40.046866 F100.000000
G1 X88.309226 Y40.090272 F100.000000
G1 Y40.125622 F100.000000
G1 X88.367072 Y40.147695 F100.000000
G1 X88.800401 F100.000000
G1 X88.858246 Y40.125622 F100.000000
G1 Y40.090272 F100.000000
G1 X88.829309 Y40.046866 F100.000000
G1 X88.765619 Y39.879490 F100.000000
G1 X88.780858 Y39.701055 F100.000000
G1 X88.872008 Y39.546902 F100.000000
G1 X88.946463 Y39.497265 F100.000000
G1 X88.873223 Y39.448439 F100.000000
G1 X88.828091 Y39.478587 F100.000000
G0 Z0.500000
G0 X88.370588 Y34.920203
G1 Z-0.040000 F60.000000
G1 X88.360474 Y34.910466 F100.000000
G1 X88.353112 Y34.922915 F100.000000
G1 X88.372247 F100.000000
G1 X88.370588 Y34.920203 F100.000000
G0 Z0.500000
G0 X88.820763 Y31.327664
G1 Z-0.040000 F60.000000
G1 X88.831143 Y31.343233 F100.000000
G1 X88.872008 Y31.274122 F100.000000
G1 X89.021015 Y31.174783 F100.000000
G1 X89.198368 Y31.149934 F100.000000
G1 X89.368938 Y31.204497 F100.000000
G1 X89.498943 Y31.327664 F100.000000
G1 X89.595463 Y31.472444 F100.000000
G1 X89.605537 Y31.498916 F100.000000
G1 X89.623196 Y31.521060 F100.000000
G1 X89.637035 Y31.581694 F100.000000
G1 X89.659154 Y31.639820 F100.000000
G1 X89.656744 Y31.668041 F100.000000
G1 X89.663046 Y31.695655 F100.000000
G1 Y31.914095 F100.000000
G1 X89.656744 Y31.941709 F100.000000
G1 X89.659154 Y31.969930 F100.000000
G1 X89.637035 Y32.028056 F100.000000
G1 X89.623196 Y32.088690 F100.000000
G1 X89.605537 Y32.110834 F100.000000
G1 X89.595463 Y32.137306 F100.000000
G1 X89.498943 Y32.282086 F100.000000
G1 X89.473977 Y32.305739 F100.000000
G1 X89.456500 Y32.335359 F100.000000
G1 X89.409751 Y32.366587 F100.000000
G1 X89.368938 Y32.405253 F100.000000
G1 X89.364598 Y32.406641 F100.000000
G1 X89.435241 Y32.422765 F100.000000
G1 X89.575255 Y32.534423 F100.000000
G1 X89.652957 Y32.695773 F100.000000
G1 Y32.857976 F100.000000
G1 X89.659154 Y32.874260 F100.000000
G1 X89.656744 Y32.902481 F100.000000
G1 X89.663046 Y32.930095 F100.000000
G1 Y33.219655 F100.000000
G1 X89.656744 Y33.247269 F100.000000
G1 X89.659154 Y33.275490 F100.000000
G1 X89.637035 Y33.333616 F100.000000
G1 X89.623196 Y33.394250 F100.000000
G1 X89.605537 Y33.416394 F100.000000
G1 X89.595463 Y33.442866 F100.000000
G1 X89.498943 Y33.587646 F100.000000
G1 X89.450745 Y33.633309 F100.000000
G1 X89.408252 Y33.684323 F100.000000
G1 X89.311732 Y33.757983 F100.000000
G1 X89.257731 Y33.782584 F100.000000
G1 X89.368938 Y33.818157 F100.000000
G1 X89.498943 Y33.941324 F100.000000
G1 X89.595463 Y34.086104 F100.000000
G1 X89.605537 Y34.112576 F100.000000
G1 X89.623196 Y34.134720 F100.000000
G1 X89.637035 Y34.195354 F100.000000
G1 X89.659154 Y34.253480 F100.000000
G1 X89.656744 Y34.281701 F100.000000
G1 X89.663046 Y34.309315 F100.000000
G1 Y34.525215 F100.000000
G1 X89.657102 Y34.551261 F100.000000
G1 X89.659588 Y34.577860 F100.000000
G1 X89.637386 Y34.637640 F100.000000
G1 X89.623196 Y34.699810 F100.000000
G1 X89.606539 Y34.720697 F100.000000
G1 X89.597238 Y34.745741 F100.000000
G1 X89.500718 Y34.893061 F100.000000
G1 X89.473131 Y34.919619 F100.000000
G1 X89.453292 Y34.952373 F100.000000
G1 X89.409422 Y34.980952 F100.000000
G1 X89.371703 Y35.017264 F100.000000
G1 X89.335324 Y35.029222 F100.000000
G1 X89.303238 Y35.050124 F100.000000
G1 X89.275867 Y35.060208 F100.000000
G1 X89.311732 Y35.076547 F100.000000
G1 X89.408252 Y35.150207 F100.000000
G1 X89.450745 Y35.201221 F100.000000
G1 X89.498943 Y35.246884 F100.000000
G1 X89.595463 Y35.391664 F100.000000
G1 X89.605537 Y35.418136 F100.000000
G1 X89.623196 Y35.440280 F100.000000
G1 X89.637035 Y35.500914 F100.000000
G1 X89.659154 Y35.559040 F100.000000
G1 X89.656744 Y35.587261 F100.000000
G1 X89.663046 Y35.614875 F100.000000
G1 Y35.833315 F100.000000
G1 X89.656744 Y35.860929 F100.000000
G1 X89.659154 Y35.889150 F100.000000
G1 X89.637035 Y35.947276 F100.000000
G1 X89.623196 Y36.007910 F100.000000
G1 X89.605537 Y36.030054 F100.000000
G1 X89.595463 Y36.056526 F100.000000
G1 X89.498943 Y36.201306 F100.000000
G1 X89.448340 Y36.249248 F100.000000
G1 X89.402830 Y36.302049 F100.000000
G1 X89.306310 Y36.373169 F100.000000
G1 X89.256363 Y36.394915 F100.000000
G1 X89.211065 Y36.425174 F100.000000
G1 X89.154089 Y36.446915 F100.000000
G1 X89.938826 F100.000000
G1 X90.113421 Y36.486765 F100.000000
G1 X90.253435 Y36.598423 F100.000000
G1 X90.331137 Y36.759773 F100.000000
G1 Y36.938857 F100.000000
G1 X90.253435 Y37.100207 F100.000000
G1 X90.113421 Y37.211865 F100.000000
G1 X89.938826 Y37.251715 F100.000000
G1 X89.638944 Y37.251715 F100.000000
G1 X89.663046 Y37.357315 F100.000000
G1 Y37.502095 F100.000000
G1 X89.656744 Y37.529709 F100.000000
G1 X89.659154 Y37.557930 F100.000000
G1 X89.637035 Y37.616056 F100.000000
G1 X89.628829 Y37.652010 F100.000000
G1 X89.652957 Y37.702113 F100.000000
G1 Y37.881197 F100.000000
G1 X89.575255 Y38.042547 F100.000000
G1 X89.435241 Y38.154205 F100.000000
G1 X89.260646 Y38.194055 F100.000000
G1 X89.255546 F100.000000
G1 X89.303238 Y38.211626 F100.000000
G1 X89.335324 Y38.232528 F100.000000
G1 X89.371703 Y38.244486 F100.000000
G1 X89.409422 Y38.280798 F100.000000
G1 X89.453292 Y38.309377 F100.000000
G1 X89.473131 Y38.342131 F100.000000
G1 X89.500718 Y38.368689 F100.000000
G1 X89.597238 Y38.516009 F100.000000
G1 X89.606539 Y38.541053 F100.000000
G1 X89.623196 Y38.561940 F100.000000
G1 X89.637386 Y38.624110 F100.000000
G1 X89.659588 Y38.683890 F100.000000
G1 X89.657102 Y38.710489 F100.000000
G1 X89.663046 Y38.736535 F100.000000
G1 Y39.026095 F100.000000
G1 X89.656744 Y39.053709 F100.000000
G1 X89.659154 Y39.081930 F100.000000
G1 X89.637035 Y39.140056 F100.000000
G1 X89.623196 Y39.200690 F100.000000
G1 X89.605537 Y39.222834 F100.000000
G1 X89.595463 Y39.249306 F100.000000
G1 X89.498943 Y39.394086 F100.000000
G1 X89.390036 Y39.497265 F100.000000
G1 X89.498943 Y39.600444 F100.000000
G1 X89.595463 Y39.745224 F100.000000
G1 X89.605537 Y39.771696 F100.000000
G1 X89.623196 Y39.793840 F100.000000
G1 X89.637035 Y39.854474 F100.000000
G1 X89.659154 Y39.912600 F100.000000
G1 X89.656744 Y39.940821 F100.000000
G1 X89.663046 Y39.968435 F100.000000
G1 Y40.260535 F100.000000
G1 X89.656744 Y40.288149 F100.000000
G1 X89.659154 Y40.316370 F100.000000
G1 X89.637035 Y40.374496 F100.000000
G1 X89.623196 Y40.435130 F100.000000
G1 X89.605537 Y40.457274 F100.000000
G1 X89.595463 Y40.483746 F100.000000
G1 X89.498943 Y40.628526 F100.000000
G1 X89.448340 Y40.676468 F100.000000
G1 X89.402830 Y40.729269 F100.000000
G1 X89.306310 Y40.800389 F100.000000
G1 X89.256363 Y40.822135 F100.000000
G1 X89.211065 Y40.852394 F100.000000
G1 X89.018025 Y40.926054 F100.000000
G1 X88.945738 Y40.936251 F100.000000
G1 X88.874566 Y40.952495 F100.000000
G1 X88.292906 F100.000000
G1 X88.221735 Y40.936251 F100.000000
G1 X88.149448 Y40.926054 F100.000000
G1 X87.956408 Y40.852394 F100.000000
G1 X87.911110 Y40.822135 F100.000000
G1 X87.861163 Y40.800389 F100.000000
G1 X87.764643 Y40.729269 F100.000000
G1 X87.719133 Y40.676468 F100.000000
G1 X87.668529 Y40.628526 F100.000000
G1 X87.572009 Y40.483746 F100.000000
G1 X87.561936 Y40.457274 F100.000000
G1 X87.544276 Y40.435130 F100.000000
G1 X87.530437 Y40.374496 F100.000000
G1 X87.508319 Y40.316370 F100.000000
G1 X87.510729 Y40.288149 F100.000000
G1 X87.504426 Y40.260535 F100.000000
G1 Y39.968435 F100.000000
G1 X87.510729 Y39.940821 F100.000000
G1 X87.508319 Y39.912600 F100.000000
G1 X87.530437 Y39.854474 F100.000000
G1 X87.544276 Y39.793840 F100.000000
G1 X87.561936 Y39.771696 F100.000000
G1 X87.572009 Y39.745224 F100.000000
G1 X87.668529 Y39.600444 F100.000000
G1 X87.777436 Y39.497265 F100.000000
G1 X87.757722 Y39.478587 F100.000000
G1 X87.710972 Y39.447359 F100.000000
G1 X87.693495 Y39.417739 F100.000000
G1 X87.668529 Y39.394086 F100.000000
G1 X87.572009 Y39.249306 F100.000000
G1 X87.561936 Y39.222834 F100.000000
G1 X87.544276 Y39.200690 F100.000000
G1 X87.530437 Y39.140056 F100.000000
G1 X87.508319 Y39.081930 F100.000000
G1 X87.510729 Y39.053709 F100.000000
G1 X87.504426 Y39.026095 F100.000000
G1 Y38.662875 F100.000000
G1 X87.510729 Y38.635261 F100.000000
G1 X87.508319 Y38.607040 F100.000000
G1 X87.514515 Y38.590756 F100.000000
G1 Y38.428553 F100.000000
G1 X87.592217 Y38.267203 F100.000000
G1 X87.732231 Y38.155545 F100.000000
G1 X87.735168 Y38.154875 F100.000000
G1 X87.732231 Y38.154205 F100.000000
G1 X87.592217 Y38.042547 F100.000000
G1 X87.514515 Y37.881197 F100.000000
G1 Y37.702113 F100.000000
G1 X87.592217 Y37.540763 F100.000000
G1 X87.732231 Y37.429105 F100.000000
G1 X87.906826 Y37.389255 F100.000000
G1 X88.802798 F100.000000
G1 X88.858246 Y37.368827 F100.000000
G1 Y37.357315 F100.000000
G1 X88.882349 Y37.251715 F100.000000
G1 X88.196386 Y37.251715 F100.000000
G1 X88.125215 Y37.235471 F100.000000
G1 X88.052928 Y37.225274 F100.000000
G1 X87.859888 Y37.151614 F100.000000
G1 X87.831291 Y37.132511 F100.000000
G1 X87.798534 Y37.122033 F100.000000
G1 X87.757722 Y37.083367 F100.000000
G1 X87.710972 Y37.052139 F100.000000
G1 X87.693495 Y37.022519 F100.000000
G1 X87.668529 Y36.998866 F100.000000
G1 X87.572009 Y36.854086 F100.000000
G1 X87.508319 Y36.686710 F100.000000
G1 X87.523558 Y36.508275 F100.000000
G1 X87.614708 Y36.354122 F100.000000
G1 X87.738432 Y36.271639 F100.000000
G1 X87.719133 Y36.249248 F100.000000
G1 X87.668529 Y36.201306 F100.000000
G1 X87.572009 Y36.056526 F100.000000
G1 X87.561936 Y36.030054 F100.000000
G1 X87.544276 Y36.007910 F100.000000
G1 X87.530437 Y35.947276 F100.000000
G1 X87.508319 Y35.889150 F100.000000
G1 X87.510729 Y35.860929 F100.000000
G1 X87.504426 Y35.833315 F100.000000
G1 Y35.614875 F100.000000
G1 X87.510729 Y35.587261 F100.000000
G1 X87.508319 Y35.559040 F100.000000
G1 X87.530437 Y35.500914 F100.000000
G1 X87.544276 Y35.440280 F100.000000
G1 X87.561936 Y35.418136 F100.000000
G1 X87.572009 Y35.391664 F100.000000
G1 X87.668529 Y35.246884 F100.000000
G1 X87.716727 Y35.201221 F100.000000
G1 X87.759221 Y35.150207 F100.000000
G1 X87.826392 Y35.098944 F100.000000
G1 X87.798534 Y35.090033 F100.000000
G1 X87.668529 Y34.966866 F100.000000
G1 X87.572009 Y34.822086 F100.000000
G1 X87.561936 Y34.795614 F100.000000
G1 X87.544276 Y34.773470 F100.000000
G1 X87.530437 Y34.712836 F100.000000
G1 X87.508319 Y34.654710 F100.000000
G1 X87.510729 Y34.626489 F100.000000
G1 X87.504426 Y34.598875 F100.000000
G1 Y34.309315 F100.000000
G1 X87.510729 Y34.281701 F100.000000
G1 X87.508319 Y34.253480 F100.000000
G1 X87.530437 Y34.195354 F100.000000
G1 X87.544276 Y34.134720 F100.000000
G1 X87.561936 Y34.112576 F100.000000
G1 X87.572009 Y34.086104 F100.000000
G1 X87.668529 Y33.941324 F100.000000
G1 X87.693495 Y33.917671 F100.000000
G1 X87.710972 Y33.888051 F100.000000
G1 X87.757722 Y33.856823 F100.000000
G1 X87.798534 Y33.818157 F100.000000
G1 X87.831291 Y33.807679 F100.000000
G1 X87.859888 Y33.788576 F100.000000
G1 X87.894175 Y33.775492 F100.000000
G1 X87.855741 Y33.757983 F100.000000
G1 X87.759221 Y33.684323 F100.000000
G1 X87.716727 Y33.633309 F100.000000
G1 X87.683893 Y33.602202 F100.000000
G1 X87.617285 Y33.714848 F100.000000
G1 X87.468277 Y33.814187 F100.000000
G1 X87.290925 Y33.839036 F100.000000
G1 X87.120354 Y33.784473 F100.000000
G1 X86.990349 Y33.661306 F100.000000
G0 Z0.500000
G0 X88.857915 Y33.911615
G1 Z-0.040000 F60.000000
G1 X88.792224 Y33.911615 F100.000000
G1 X88.795797 Y33.917671 F100.000000
G1 X88.820763 Y33.941324 F100.000000
G1 X88.831143 Y33.956893 F100.000000
G1 X88.857915 Y33.911615 F100.000000
G0 Z0.500000
G0 X88.387813 Y32.336623
G1 Z-0.040000 F60.000000
G1 X88.369764 Y32.306335 F100.000000
G1 X88.361405 Y32.298415 F100.000000
G1 X88.310524 Y32.382915 F100.000000
G1 X88.450596 F100.000000
G1 X88.433983 Y32.367176 F100.000000
G1 X88.387813 Y32.336623 F100.000000
G0 Z0.500000
G0 X88.693523 Y27.939706
G1 Z-0.040000 F60.000000
G1 X88.731242 Y27.976018 F100.000000
G1 X88.775112 Y28.004597 F100.000000
G1 X88.794951 Y28.037351 F100.000000
G1 X88.822538 Y28.063909 F100.000000
G1 X88.831102 Y28.076980 F100.000000
G1 X88.874231 Y28.005354 F100.000000
G1 X89.024028 Y27.907211 F100.000000
G1 X89.201574 Y27.883781 F100.000000
G1 X89.371703 Y27.939706 F100.000000
G1 X89.500718 Y28.063909 F100.000000
G1 X89.597238 Y28.211229 F100.000000
G1 X89.606539 Y28.236273 F100.000000
G1 X89.623196 Y28.257160 F100.000000
G1 X89.637386 Y28.319330 F100.000000
G1 X89.659588 Y28.379110 F100.000000
G1 X89.657102 Y28.405709 F100.000000
G1 X89.663046 Y28.431755 F100.000000
G1 Y28.647655 F100.000000
G1 X89.656744 Y28.675269 F100.000000
G1 X89.659154 Y28.703490 F100.000000
G1 X89.637035 Y28.761616 F100.000000
G1 X89.623196 Y28.822250 F100.000000
G1 X89.605537 Y28.844394 F100.000000
G1 X89.595463 Y28.870866 F100.000000
G1 X89.498943 Y29.015646 F100.000000
G1 X89.473977 Y29.039299 F100.000000
G1 X89.456500 Y29.068919 F100.000000
G1 X89.409751 Y29.100147 F100.000000
G1 X89.368938 Y29.138813 F100.000000
G1 X89.336182 Y29.149291 F100.000000
G1 X89.325984 Y29.156103 F100.000000
G1 X89.333986 Y29.161316 F100.000000
G1 X89.368938 Y29.172497 F100.000000
G1 X89.408096 Y29.209595 F100.000000
G1 X89.453292 Y29.239037 F100.000000
G1 X89.472304 Y29.270425 F100.000000
G1 X89.498943 Y29.295664 F100.000000
G1 X89.595463 Y29.440444 F100.000000
G1 X89.605537 Y29.466916 F100.000000
G1 X89.623196 Y29.489060 F100.000000
G1 X89.637035 Y29.549694 F100.000000
G1 X89.659154 Y29.607820 F100.000000
G1 X89.656744 Y29.636041 F100.000000
G1 X89.663046 Y29.663655 F100.000000
G1 Y29.955755 F100.000000
G1 X89.656744 Y29.983369 F100.000000
G1 X89.659154 Y30.011590 F100.000000
G1 X89.637035 Y30.069716 F100.000000
G1 X89.623196 Y30.130350 F100.000000
G1 X89.605537 Y30.152494 F100.000000
G1 X89.595463 Y30.178966 F100.000000
G1 X89.498943 Y30.323746 F100.000000
G1 X89.472304 Y30.348985 F100.000000
G1 X89.453292 Y30.380373 F100.000000
G1 X89.408096 Y30.409815 F100.000000
G1 X89.368938 Y30.446913 F100.000000
G1 X89.333986 Y30.458094 F100.000000
G1 X89.303238 Y30.478124 F100.000000
G1 X89.110198 Y30.549244 F100.000000
G1 X89.040047 Y30.558315 F100.000000
G1 X88.971086 Y30.574055 F100.000000
G1 X88.414722 Y30.574055 F100.000000
G1 X88.430850 Y30.607545 F100.000000
G1 X88.455489 Y30.636132 F100.000000
G1 X88.458656 Y30.647914 F100.000000
G1 X88.466057 Y30.657612 F100.000000
G1 X88.474346 Y30.697865 F100.000000
G1 X88.492177 Y30.734893 F100.000000
G1 Y30.772632 F100.000000
G1 X88.501973 Y30.809078 F100.000000
G1 X88.499714 Y30.821068 F100.000000
G1 X88.502175 Y30.833017 F100.000000
G1 X88.492177 Y30.872880 F100.000000
G1 Y30.913977 F100.000000
G1 X88.475803 Y30.947980 F100.000000
G1 X88.468815 Y30.985067 F100.000000
G1 X88.461578 Y30.994889 F100.000000
G1 X88.458610 Y31.006722 F100.000000
G1 X88.432307 Y31.038300 F100.000000
G1 X88.414475 Y31.075327 F100.000000
G1 X88.390138 Y31.094735 F100.000000
G1 X88.436365 Y31.101256 F100.000000
G1 X88.629405 Y31.174916 F100.000000
G1 X88.658002 Y31.194019 F100.000000
G1 X88.690758 Y31.204497 F100.000000
G1 X88.731571 Y31.243163 F100.000000
G1 X88.778320 Y31.274391 F100.000000
G1 X88.795797 Y31.304011 F100.000000
G1 X88.820763 Y31.327664 F100.000000
G0 Z0.500000
G0 X86.990349 Y33.661306
G1 Z-0.040000 F60.000000
G1 X86.893829 Y33.516526 F100.000000
G1 X86.883756 Y33.490054 F100.000000
G1 X86.866096 Y33.467910 F100.000000
G1 X86.852257 Y33.407276 F100.000000
G1 X86.830139 Y33.349150 F100.000000
G1 X86.832549 Y33.320929 F100.000000
G1 X86.826246 Y33.293315 F100.000000
G1 Y33.074875 F100.000000
G1 X86.832549 Y33.047261 F100.000000
G1 X86.830139 Y33.019040 F100.000000
G1 X86.852257 Y32.960914 F100.000000
G1 X86.866096 Y32.900280 F100.000000
G1 X86.883756 Y32.878136 F100.000000
G1 X86.893829 Y32.851664 F100.000000
G1 X86.990349 Y32.706884 F100.000000
G1 X87.038547 Y32.661221 F100.000000
G1 X87.081041 Y32.610207 F100.000000
G1 X87.177561 Y32.536547 F100.000000
G1 X87.232234 Y32.511639 F100.000000
G1 X87.282574 Y32.478846 F100.000000
G1 X87.475614 Y32.407726 F100.000000
G1 X87.545765 Y32.398655 F100.000000
G1 X87.614726 Y32.382915 F100.000000
G1 X87.697765 F100.000000
G1 X87.666754 Y32.353061 F100.000000
G1 X87.570234 Y32.205741 F100.000000
G1 X87.560933 Y32.180697 F100.000000
G1 X87.544276 Y32.159810 F100.000000
G1 X87.530086 Y32.097640 F100.000000
G1 X87.507885 Y32.037860 F100.000000
G1 X87.510371 Y32.011261 F100.000000
G1 X87.504426 Y31.985215 F100.000000
G1 Y31.695655 F100.000000
G1 X87.510729 Y31.668041 F100.000000
G1 X87.508319 Y31.639820 F100.000000
G1 X87.530437 Y31.581694 F100.000000
G1 X87.544276 Y31.521060 F100.000000
G1 X87.561936 Y31.498916 F100.000000
G1 X87.572009 Y31.472444 F100.000000
G1 X87.668529 Y31.327664 F100.000000
G1 X87.693495 Y31.304011 F100.000000
G1 X87.710972 Y31.274391 F100.000000
G1 X87.757722 Y31.243163 F100.000000
G1 X87.776156 Y31.225698 F100.000000
G1 X87.759221 Y31.217983 F100.000000
G1 X87.662701 Y31.144323 F100.000000
G1 X87.654893 Y31.134949 F100.000000
G1 X87.644111 Y31.129240 F100.000000
G1 X87.621723 Y31.098858 F100.000000
G1 X87.592217 Y31.075327 F100.000000
G1 X87.574386 Y31.038300 F100.000000
G1 X87.548083 Y31.006722 F100.000000
G1 X87.545115 Y30.994889 F100.000000
G1 X87.537878 Y30.985067 F100.000000
G1 X87.530890 Y30.947980 F100.000000
G1 X87.514515 Y30.913977 F100.000000
G1 Y30.872880 F100.000000
G1 X87.504518 Y30.833017 F100.000000
G1 X87.506978 Y30.821068 F100.000000
G1 X87.504719 Y30.809078 F100.000000
G1 X87.514515 Y30.772632 F100.000000
G1 Y30.734893 F100.000000
G1 X87.532347 Y30.697865 F100.000000
G1 X87.540635 Y30.657612 F100.000000
G1 X87.548037 Y30.647914 F100.000000
G1 X87.551203 Y30.636132 F100.000000
G1 X87.575843 Y30.607545 F100.000000
G1 X87.592217 Y30.573543 F100.000000
G1 X87.624349 Y30.547919 F100.000000
G1 X87.649281 Y30.515249 F100.000000
G1 X87.660158 Y30.509722 F100.000000
G1 X87.668123 Y30.500481 F100.000000
G1 X87.764643 Y30.429361 F100.000000
G1 X87.775170 Y30.424777 F100.000000
G1 X87.759377 Y30.409815 F100.000000
G1 X87.714181 Y30.380373 F100.000000
G1 X87.695169 Y30.348985 F100.000000
G1 X87.668529 Y30.323746 F100.000000
G1 X87.572009 Y30.178966 F100.000000
G1 X87.561936 Y30.152494 F100.000000
G1 X87.544276 Y30.130350 F100.000000
G1 X87.530437 Y30.069716 F100.000000
G0 Z0.500000
G1 Z-0.040000 F60.000000
G1 X87.508319 Y30.011590 F100.000000
G1 X87.510729 Y29.983369 F100.000000
G1 X87.504426 Y29.955755 F100.000000
G1 Y29.663655 F100.000000
G1 X87.510729 Y29.636041 F100.000000
G1 X87.508319 Y29.607820 F100.000000
G1 X87.530437 Y29.549694 F100.000000
G1 X87.544276 Y29.489060 F100.000000
G1 X87.561936 Y29.466916 F100.000000
G1 X87.572009 Y29.440444 F100.000000
G1 X87.668529 Y29.295664 F100.000000
G1 X87.777436 Y29.192485 F100.000000
G1 X87.668529 Y29.089306 F100.000000
G1 X87.572009 Y28.944526 F100.000000
G1 X87.561936 Y28.918054 F100.000000
G1 X87.544276 Y28.895910 F100.000000
G1 X87.530437 Y28.835276 F100.000000
G1 X87.508319 Y28.777150 F100.000000
G1 X87.510729 Y28.748929 F100.000000
G1 X87.504426 Y28.721315 F100.000000
G1 Y28.431755 F100.000000
G1 X87.510371 Y28.405709 F100.000000
G1 X87.507885 Y28.379110 F100.000000
G1 X87.530086 Y28.319330 F100.000000
G1 X87.544276 Y28.257160 F100.000000
G1 X87.560933 Y28.236273 F100.000000
G1 X87.570234 Y28.211229 F100.000000
G1 X87.666754 Y28.063909 F100.000000
G1 X87.694342 Y28.037351 F100.000000
G1 X87.714181 Y28.004597 F100.000000
G1 X87.758051 Y27.976018 F100.000000
G1 X87.795770 Y27.939706 F100.000000
G1 X87.832149 Y27.927748 F100.000000
G1 X87.864234 Y27.906846 F100.000000
G1 X88.057274 Y27.835726 F100.000000
G1 X88.127425 Y27.826655 F100.000000
G1 X88.196386 Y27.810915 F100.000000
G1 X88.292906 F100.000000
G1 X88.361867 Y27.826655 F100.000000
G1 X88.432018 Y27.835726 F100.000000
G1 X88.625058 Y27.906846 F100.000000
G1 X88.657144 Y27.927748 F100.000000
G1 X88.693523 Y27.939706 F100.000000
G0 Z0.500000
G0 X88.433983 Y29.100736
G1 Z-0.040000 F60.000000
G1 X88.387813 Y29.070183 F100.000000
G1 X88.369764 Y29.039895 F100.000000
G1 X88.361161 Y29.031744 F100.000000
G1 X88.295465 Y29.142848 F100.000000
G1 X88.221010 Y29.192485 F100.000000
G1 X88.295465 Y29.242122 F100.000000
G1 X88.377075 Y29.380140 F100.000000
G1 X88.386693 Y29.344072 F100.000000
G1 X88.425128 Y29.271139 F100.000000
G1 X88.460897 Y29.196863 F100.000000
G1 X88.466715 Y29.192223 F100.000000
G1 X88.470185 Y29.185640 F100.000000
G1 X88.513668 Y29.153467 F100.000000
G1 X88.507756 Y29.149555 F100.000000
G1 X88.474174 Y29.138813 F100.000000
G1 X88.433983 Y29.100736 F100.000000
G0 Z0.500000
G0 X80.894966 Y32.454035
G1 Z-0.040000 F60.000000
G1 X81.154426 F100.000000
G1 Y32.410657 F100.000000
G1 X81.094041 Y32.387615 F100.000000
G1 X80.952812 F100.000000
G1 X80.894966 Y32.409688 F100.000000
G1 Y32.454035 F100.000000
G0 Z0.500000
G0 X81.562215 Y30.849823
G1 Z-0.040000 F60.000000
G1 X81.544095 Y30.850515 F100.000000
G1 X81.527380 Y30.857548 F100.000000
G1 X81.455340 Y30.853905 F100.000000
G1 X81.383261 Y30.856657 F100.000000
G1 X81.366634 Y30.849419 F100.000000
G1 X81.348524 Y30.848503 F100.000000
G1 X81.285199 Y30.813964 F100.000000
G1 X81.259267 Y30.802673 F100.000000
G1 X81.281046 Y30.898095 F100.000000
G1 Y31.042875 F100.000000
G1 X81.274744 Y31.070489 F100.000000
G1 X81.277154 Y31.098710 F100.000000
G1 X81.255035 Y31.156836 F100.000000
G1 X81.246829 Y31.192790 F100.000000
G1 X81.270957 Y31.242893 F100.000000
G1 Y31.421977 F100.000000
G1 X81.193255 Y31.583327 F100.000000
G1 X81.188181 Y31.587374 F100.000000
G1 X81.239378 Y31.599059 F100.000000
G1 X81.311665 Y31.609256 F100.000000
G1 X81.504705 Y31.682916 F100.000000
G1 X81.552770 Y31.715023 F100.000000
G1 X81.605372 Y31.738987 F100.000000
G1 X81.701892 Y31.812647 F100.000000
G1 X81.742867 Y31.861838 F100.000000
G1 X81.789870 Y31.905306 F100.000000
G1 X81.888930 Y32.050086 F100.000000
G1 X81.900209 Y32.078685 F100.000000
G1 X81.919376 Y32.102720 F100.000000
G1 X81.932687 Y32.161037 F100.000000
G1 X81.954632 Y32.216683 F100.000000
G1 X81.952385 Y32.247343 F100.000000
G1 X81.959226 Y32.277315 F100.000000
G1 Y32.856435 F100.000000
G1 X81.949137 Y32.900638 F100.000000
G1 Y32.945977 F100.000000
G1 X81.929465 Y32.986827 F100.000000
G1 X81.919376 Y33.031030 F100.000000
G1 X81.891107 Y33.066478 F100.000000
G1 X81.871435 Y33.107327 F100.000000
G1 X81.835987 Y33.135596 F100.000000
G1 X81.807719 Y33.171044 F100.000000
G1 X81.766869 Y33.190716 F100.000000
G1 X81.731421 Y33.218985 F100.000000
G1 X81.687218 Y33.229074 F100.000000
G1 X81.646369 Y33.248746 F100.000000
G1 X81.601029 F100.000000
G1 X81.556826 Y33.258835 F100.000000
G1 X79.524826 F100.000000
G1 X79.350231 Y33.218985 F100.000000
G1 X79.210217 Y33.107327 F100.000000
G1 X79.132515 Y32.945977 F100.000000
G1 Y32.766893 F100.000000
G1 X79.210217 Y32.605543 F100.000000
G1 X79.350231 Y32.493885 F100.000000
G1 X79.524826 Y32.454035 F100.000000
G1 X80.090166 F100.000000
G1 Y32.277315 F100.000000
G1 X80.096469 Y32.249701 F100.000000
G1 X80.094059 Y32.221480 F100.000000
G1 X80.116177 Y32.163354 F100.000000
G1 X80.130016 Y32.102720 F100.000000
G1 X80.147676 Y32.080576 F100.000000
G1 X80.157749 Y32.054104 F100.000000
G1 X80.254269 Y31.909324 F100.000000
G1 X80.302467 Y31.863661 F100.000000
G1 X80.344961 Y31.812647 F100.000000
G1 X80.441481 Y31.738987 F100.000000
G1 X80.450594 Y31.734835 F100.000000
G1 X79.524826 F100.000000
G1 X79.350231 Y31.694985 F100.000000
G1 X79.210217 Y31.583327 F100.000000
G1 X79.132515 Y31.421977 F100.000000
G1 Y31.242893 F100.000000
G1 X79.210217 Y31.081543 F100.000000
G1 X79.350231 Y30.969885 F100.000000
G1 X79.524826 Y30.930035 F100.000000
G1 X80.420798 F100.000000
G1 X80.476246 Y30.909607 F100.000000
G1 Y30.898095 F100.000000
G1 X80.500349 Y30.792495 F100.000000
G1 X79.524826 Y30.792495 F100.000000
G1 X79.350231 Y30.752645 F100.000000
G1 X79.210217 Y30.640987 F100.000000
G1 X79.132515 Y30.479637 F100.000000
G1 Y30.300553 F100.000000
G1 X79.210217 Y30.139203 F100.000000
G1 X79.350231 Y30.027545 F100.000000
G1 X79.353168 Y30.026875 F100.000000
G1 X79.350231 Y30.026205 F100.000000
G1 X79.210217 Y29.914547 F100.000000
G1 X79.132515 Y29.753197 F100.000000
G1 Y29.574113 F100.000000
G1 X79.210217 Y29.412763 F100.000000
G1 X79.304888 Y29.337265 F100.000000
G1 X79.210217 Y29.261767 F100.000000
G1 X79.132515 Y29.100417 F100.000000
G1 Y28.921333 F100.000000
G1 X79.210217 Y28.759983 F100.000000
G1 X79.350231 Y28.648325 F100.000000
G1 X79.524826 Y28.608475 F100.000000
G1 X79.529926 F100.000000
G1 X79.482234 Y28.590904 F100.000000
G1 X79.451487 Y28.570874 F100.000000
G1 X79.416534 Y28.559693 F100.000000
G1 X79.377377 Y28.522595 F100.000000
G1 X79.332181 Y28.493153 F100.000000
G1 X79.313169 Y28.461765 F100.000000
G1 X79.286529 Y28.436526 F100.000000
G1 X79.190009 Y28.291746 F100.000000
G1 X79.179936 Y28.265274 F100.000000
G1 X79.162276 Y28.243130 F100.000000
G1 X79.148437 Y28.182496 F100.000000
G1 X79.126319 Y28.124370 F100.000000
G1 X79.128729 Y28.096149 F100.000000
G1 X79.122426 Y28.068535 F100.000000
G1 Y27.921215 F100.000000
G1 X79.162276 Y27.746620 F100.000000
G1 X79.243219 Y27.645121 F100.000000
G1 X79.190009 Y27.565306 F100.000000
G1 X79.179936 Y27.538834 F100.000000
G1 X79.162276 Y27.516690 F100.000000
G1 X79.148437 Y27.456056 F100.000000
G1 X79.126319 Y27.397930 F100.000000
G1 X79.128729 Y27.369709 F100.000000
G1 X79.122426 Y27.342095 F100.000000
G1 Y27.052535 F100.000000
G1 X79.128371 Y27.026489 F100.000000
G1 X79.125885 Y26.999890 F100.000000
G1 X79.148086 Y26.940110 F100.000000
G1 X79.162276 Y26.877940 F100.000000
G1 X79.178933 Y26.857053 F100.000000
G1 X79.188234 Y26.832009 F100.000000
G1 X79.284754 Y26.684689 F100.000000
G1 X79.312342 Y26.658131 F100.000000
G1 X79.332181 Y26.625377 F100.000000
G1 X79.376051 Y26.596798 F100.000000
G1 X79.413770 Y26.560486 F100.000000
G1 X79.417575 Y26.559236 F100.000000
G1 X79.350231 Y26.543865 F100.000000
G1 X79.210217 Y26.432207 F100.000000
G1 X79.132515 Y26.270857 F100.000000
G1 Y26.091773 F100.000000
G1 X79.210217 Y25.930423 F100.000000
G1 X79.304888 Y25.854925 F100.000000
G1 X79.210217 Y25.779427 F100.000000
G1 X79.132515 Y25.618077 F100.000000
G1 Y25.438993 F100.000000
G1 X79.210217 Y25.277643 F100.000000
G1 X79.350231 Y25.165985 F100.000000
G1 X79.353168 Y25.165315 F100.000000
G1 X79.350231 Y25.164645 F100.000000
G1 X79.210217 Y25.052987 F100.000000
G1 X79.132515 Y24.891637 F100.000000
G1 Y24.712553 F100.000000
G1 X79.210217 Y24.551203 F100.000000
G1 X79.350231 Y24.439545 F100.000000
G1 X79.420874 Y24.423421 F100.000000
G1 X79.416534 Y24.422033 F100.000000
G1 X79.375722 Y24.383367 F100.000000
G0 Z0.500000
G0 X81.241196 Y25.569840
G1 Z-0.040000 F60.000000
G1 X81.255035 Y25.630474 F100.000000
G1 X81.277154 Y25.688600 F100.000000
G1 X81.274744 Y25.716821 F100.000000
G1 X81.281046 Y25.744435 F100.000000
G1 Y25.778915 F100.000000
G1 X81.556826 F100.000000
G1 X81.731421 Y25.818765 F100.000000
G1 X81.871435 Y25.930423 F100.000000
G1 X81.949137 Y26.091773 F100.000000
G1 Y26.270857 F100.000000
G1 X81.871435 Y26.432207 F100.000000
G1 X81.731421 Y26.543865 F100.000000
G1 X81.556826 Y26.583715 F100.000000
G1 X81.013831 F100.000000
G1 X81.118718 Y26.684689 F100.000000
G1 X81.215238 Y26.832009 F100.000000
G1 X81.224539 Y26.857053 F100.000000
G1 X81.241196 Y26.877940 F100.000000
G1 X81.255386 Y26.940110 F100.000000
G1 X81.277588 Y26.999890 F100.000000
G1 X81.275102 Y27.026489 F100.000000
G1 X81.281046 Y27.052535 F100.000000
G1 Y27.268435 F100.000000
G1 X81.274744 Y27.296049 F100.000000
G1 X81.277154 Y27.324270 F100.000000
G1 X81.255035 Y27.382396 F100.000000
G1 X81.241196 Y27.443030 F100.000000
G1 X81.223537 Y27.465174 F100.000000
G1 X81.213463 Y27.491646 F100.000000
G1 X81.133507 Y27.611582 F100.000000
G1 X81.241196 Y27.746620 F100.000000
G1 X81.272104 Y27.882035 F100.000000
G1 X81.556826 Y27.882035 F100.000000
G1 X81.731421 Y27.921885 F100.000000
G1 X81.871435 Y28.033543 F100.000000
G1 X81.949137 Y28.194893 F100.000000
G1 Y28.373977 F100.000000
G1 X81.871435 Y28.535327 F100.000000
G1 X81.731421 Y28.646985 F100.000000
G1 X81.556826 Y28.686835 F100.000000
G1 X81.233728 Y28.686835 F100.000000
G1 X81.129539 Y28.817484 F100.000000
G1 X81.091013 Y28.836037 F100.000000
G1 X81.091977 Y28.837671 F100.000000
G1 X81.116943 Y28.861324 F100.000000
G1 X81.213463 Y29.006104 F100.000000
G1 X81.223537 Y29.032576 F100.000000
G1 X81.241196 Y29.054720 F100.000000
G1 X81.255035 Y29.115354 F100.000000
G1 X81.277154 Y29.173480 F100.000000
G1 X81.274744 Y29.201701 F100.000000
G1 X81.281046 Y29.229315 F100.000000
G1 Y29.445215 F100.000000
G1 X81.275102 Y29.471261 F100.000000
G1 X81.277588 Y29.497860 F100.000000
G1 X81.258712 Y29.548685 F100.000000
G1 X81.270957 Y29.574113 F100.000000
G1 Y29.753197 F100.000000
G1 X81.193255 Y29.914547 F100.000000
G1 X81.053241 Y30.026205 F100.000000
G1 X81.050305 Y30.026875 F100.000000
G1 X81.053241 Y30.027545 F100.000000
G1 X81.112976 Y30.075182 F100.000000
G1 X81.117121 Y30.070207 F100.000000
G1 X81.213641 Y29.996547 F100.000000
G1 X81.285281 Y29.963910 F100.000000
G1 X81.355013 Y29.927375 F100.000000
G1 X81.366318 Y29.926993 F100.000000
G1 X81.376611 Y29.922304 F100.000000
G1 X81.455317 Y29.923982 F100.000000
G1 X81.533995 Y29.921321 F100.000000
G1 X81.544346 Y29.925882 F100.000000
G1 X81.555655 Y29.926123 F100.000000
G1 X81.625838 Y29.961785 F100.000000
G1 X81.697879 Y29.993524 F100.000000
G1 X81.796939 Y30.067184 F100.000000
G1 X81.808144 Y30.080299 F100.000000
G1 X81.823288 Y30.088559 F100.000000
G1 X81.843859 Y30.117211 F100.000000
G1 X81.871435 Y30.139203 F100.000000
G1 X81.888187 Y30.173989 F100.000000
G1 X81.913267 Y30.203344 F100.000000
G1 X81.917671 Y30.220022 F100.000000
G1 X81.927732 Y30.234034 F100.000000
G1 X81.933833 Y30.268774 F100.000000
G1 X81.949137 Y30.300553 F100.000000
G1 Y30.339162 F100.000000
G1 X81.958996 Y30.376491 F100.000000
G1 X81.955729 Y30.393429 F100.000000
G1 X81.958713 Y30.410419 F100.000000
G1 X81.949137 Y30.444366 F100.000000
G1 Y30.479637 F100.000000
G1 X81.932385 Y30.514423 F100.000000
G1 X81.925071 Y30.552334 F100.000000
G1 X81.914778 Y30.566176 F100.000000
G1 X81.910095 Y30.582778 F100.000000
G1 X81.886739 Y30.609209 F100.000000
G1 X81.871435 Y30.640987 F100.000000
G1 X81.841249 Y30.665060 F100.000000
G1 X81.818211 Y30.696042 F100.000000
G1 X81.802931 Y30.704048 F100.000000
G1 X81.791509 Y30.716974 F100.000000
G1 X81.692449 Y30.788094 F100.000000
G1 X81.625962 Y30.816069 F100.000000
G1 X81.562215 Y30.849823 F100.000000
G0 Z0.500000
G0 X80.051983 Y27.721516
G1 Z-0.040000 F60.000000
G1 X80.005813 Y27.690963 F100.000000
G1 X79.987764 Y27.660675 F100.000000
G1 X79.979161 Y27.652524 F100.000000
G1 X79.913465 Y27.763628 F100.000000
G1 X79.894191 Y27.776478 F100.000000
G1 X79.918284 Y27.882035 F100.000000
G1 X80.460846 F100.000000
G1 X80.422225 Y27.873220 F100.000000
G1 X80.350738 Y27.863452 F100.000000
G1 X80.155158 Y27.789792 F100.000000
G1 X80.125756 Y27.770335 F100.000000
G1 X80.092174 Y27.759593 F100.000000
G1 X80.051983 Y27.721516 F100.000000
G0 Z0.500000
G0 X80.556975 Y26.583715
G1 Z-0.040000 F60.000000
G1 X80.335651 F100.000000
G1 X80.349242 Y26.596798 F100.000000
G1 X80.393112 Y26.625377 F100.000000
G1 X80.412951 Y26.658131 F100.000000
G1 X80.440538 Y26.684689 F100.000000
G1 X80.449102 Y26.697760 F100.000000
G1 X80.492231 Y26.626134 F100.000000
G1 X80.556975 Y26.583715 F100.000000
G0 Z0.500000
G0 X81.219063 Y25.197169
G1 Z-0.040000 F60.000000
G1 X81.122543 Y25.126049 F100.000000
G1 X81.114578 Y25.116808 F100.000000
G1 X81.113752 Y25.116389 F100.000000
G1 X81.053241 Y25.164645 F100.000000
G1 X80.878646 Y25.204495 F100.000000
G1 X80.873546 F100.000000
G1 X80.921238 Y25.222066 F100.000000
G1 X80.951986 Y25.242096 F100.000000
G1 X80.986938 Y25.253277 F100.000000
G1 X81.026096 Y25.290375 F100.000000
G1 X81.071292 Y25.319817 F100.000000
G1 X81.090304 Y25.351205 F100.000000
G1 X81.116943 Y25.376444 F100.000000
G1 X81.213463 Y25.521224 F100.000000
G1 X81.223537 Y25.547696 F100.000000
G1 X81.241196 Y25.569840 F100.000000
G0 Z0.500000
G0 X80.078651 Y23.172495
G1 Z-0.040000 F60.000000
G1 X79.842535 Y23.172495 F100.000000
G1 X79.913465 Y23.219782 F100.000000
G1 X79.994632 Y23.357052 F100.000000
G1 X80.004603 Y23.319530 F100.000000
G1 X80.043054 Y23.246413 F100.000000
G1 X80.078651 Y23.172495 F100.000000
G0 Z0.500000
G0 X79.375722 Y24.383367
G1 Z-0.040000 F60.000000
G1 X79.328972 Y24.352139 F100.000000
G1 X79.311495 Y24.322519 F100.000000
G1 X79.286529 Y24.298866 F100.000000
G1 X79.190009 Y24.154086 F100.000000
G1 X79.179936 Y24.127614 F100.000000
G1 X79.162276 Y24.105470 F100.000000
G1 X79.148437 Y24.044836 F100.000000
G1 X79.126319 Y23.986710 F100.000000
G1 X79.128729 Y23.958489 F100.000000
G1 X79.122426 Y23.930875 F100.000000
G1 Y23.641315 F100.000000
G1 X79.128729 Y23.613701 F100.000000
G1 X79.126319 Y23.585480 F100.000000
G1 X79.148437 Y23.527354 F100.000000
G1 X79.162276 Y23.466720 F100.000000
G1 X79.179936 Y23.444576 F100.000000
G1 X79.190009 Y23.418104 F100.000000
G1 X79.286529 Y23.273324 F100.000000
G1 X79.416534 Y23.150157 F100.000000
G1 X79.560767 Y23.104019 F100.000000
G1 X79.477888 Y23.072394 F100.000000
G1 X79.449291 Y23.053291 F100.000000
G1 X79.416534 Y23.042813 F100.000000
G1 X79.375722 Y23.004147 F100.000000
G1 X79.328972 Y22.972919 F100.000000
G1 X79.311495 Y22.943299 F100.000000
G1 X79.286529 Y22.919646 F100.000000
G1 X79.190009 Y22.774866 F100.000000
G1 X79.126319 Y22.607490 F100.000000
G1 X79.141558 Y22.429055 F100.000000
G1 X79.232708 Y22.274902 F100.000000
G1 X79.355689 Y22.192914 F100.000000
G1 X79.334727 Y22.167749 F100.000000
G1 X79.286529 Y22.122086 F100.000000
G1 X79.190009 Y21.977306 F100.000000
G1 X79.179936 Y21.950834 F100.000000
G1 X79.162276 Y21.928690 F100.000000
G1 X79.148437 Y21.868056 F100.000000
G1 X79.126319 Y21.809930 F100.000000
G1 X79.128729 Y21.781709 F100.000000
G1 X79.122426 Y21.754095 F100.000000
G1 Y21.464535 F100.000000
G1 X79.128371 Y21.438489 F100.000000
G1 X79.125885 Y21.411890 F100.000000
G1 X79.132515 Y21.394037 F100.000000
G1 Y21.227673 F100.000000
G1 X79.210217 Y21.066323 F100.000000
G1 X79.350231 Y20.954665 F100.000000
G1 X79.524826 Y20.914815 F100.000000
G1 X81.556826 F100.000000
G1 X81.731421 Y20.954665 F100.000000
G1 X81.871435 Y21.066323 F100.000000
G1 X81.949137 Y21.227673 F100.000000
G1 Y21.406757 F100.000000
G1 X81.871435 Y21.568107 F100.000000
G1 X81.731421 Y21.679765 F100.000000
G1 X81.556826 Y21.719615 F100.000000
G1 X81.281046 F100.000000
G1 Y21.754095 F100.000000
G1 X81.274744 Y21.781709 F100.000000
G1 X81.277154 Y21.809930 F100.000000
G1 X81.255035 Y21.868056 F100.000000
G1 X81.241196 Y21.928690 F100.000000
G1 X81.223537 Y21.950834 F100.000000
G1 X81.213463 Y21.977306 F100.000000
G1 X81.116943 Y22.122086 F100.000000
G1 X81.068745 Y22.167749 F100.000000
G1 X81.026252 Y22.218763 F100.000000
G1 X80.929732 Y22.292423 F100.000000
G1 X80.875058 Y22.317331 F100.000000
G1 X80.824718 Y22.350124 F100.000000
G1 X80.777026 Y22.367695 F100.000000
G1 X81.556826 F100.000000
G1 X81.731421 Y22.407545 F100.000000
G1 X81.871435 Y22.519203 F100.000000
G1 X81.949137 Y22.680553 F100.000000
G1 Y22.859637 F100.000000
G1 X81.871435 Y23.020987 F100.000000
G1 X81.731421 Y23.132645 F100.000000
G1 X81.556826 Y23.172495 F100.000000
G1 X81.010517 Y23.172495 F100.000000
G1 X81.027751 Y23.188823 F100.000000
G1 X81.074500 Y23.220051 F100.000000
G1 X81.091977 Y23.249671 F100.000000
G1 X81.116943 Y23.273324 F100.000000
G1 X81.213463 Y23.418104 F100.000000
G1 X81.223537 Y23.444576 F100.000000
G1 X81.241196 Y23.466720 F100.000000
G1 X81.255035 Y23.527354 F100.000000
G1 X81.277154 Y23.585480 F100.000000
G1 X81.274744 Y23.613701 F100.000000
G1 X81.281046 Y23.641315 F100.000000
G1 Y23.930875 F100.000000
G1 X81.274744 Y23.958489 F100.000000
G1 X81.277154 Y23.986710 F100.000000
G1 X81.255035 Y24.044836 F100.000000
G1 X81.241196 Y24.105470 F100.000000
G1 X81.223537 Y24.127614 F100.000000
G1 X81.213463 Y24.154086 F100.000000
G1 X81.116943 Y24.298866 F100.000000
G1 X81.091977 Y24.322519 F100.000000
G1 X81.074500 Y24.352139 F100.000000
G1 X81.027751 Y24.383367 F100.000000
G1 X80.986938 Y24.422033 F100.000000
G1 X80.982598 Y24.423421 F100.000000
G1 X81.053241 Y24.439545 F100.000000
G1 X81.112976 Y24.487182 F100.000000
G1 X81.117121 Y24.482207 F100.000000
G1 X81.213641 Y24.408547 F100.000000
G1 X81.285281 Y24.375910 F100.000000
G1 X81.355013 Y24.339375 F100.000000
G1 X81.366318 Y24.338993 F100.000000
G1 X81.376611 Y24.334304 F100.000000
G1 X81.455317 Y24.335982 F100.000000
G1 X81.533995 Y24.333321 F100.000000
G1 X81.544346 Y24.337882 F100.000000
G1 X81.555655 Y24.338123 F100.000000
G1 X81.625838 Y24.373785 F100.000000
G1 X81.697879 Y24.405524 F100.000000
G1 X81.796939 Y24.479184 F100.000000
G1 X81.808144 Y24.492299 F100.000000
G1 X81.823288 Y24.500559 F100.000000
G1 X81.843859 Y24.529211 F100.000000
G1 X81.871435 Y24.551203 F100.000000
G1 X81.888187 Y24.585989 F100.000000
G1 X81.913267 Y24.615344 F100.000000
G1 X81.917671 Y24.632022 F100.000000
G1 X81.927732 Y24.646034 F100.000000
G1 X81.933833 Y24.680774 F100.000000
G1 X81.949137 Y24.712553 F100.000000
G1 Y24.751162 F100.000000
G1 X81.958996 Y24.788491 F100.000000
G1 X81.955729 Y24.805429 F100.000000
G1 X81.958713 Y24.822419 F100.000000
G1 X81.949137 Y24.856366 F100.000000
G1 Y24.891637 F100.000000
G1 X81.932385 Y24.926423 F100.000000
G1 X81.925071 Y24.964334 F100.000000
G1 X81.914778 Y24.978176 F100.000000
G1 X81.910095 Y24.994778 F100.000000
G1 X81.886739 Y25.021209 F100.000000
G1 X81.871435 Y25.052987 F100.000000
G1 X81.841249 Y25.077060 F100.000000
G1 X81.818211 Y25.108042 F100.000000
G1 X81.802931 Y25.116048 F100.000000
G1 X81.791509 Y25.128974 F100.000000
G1 X81.692449 Y25.200094 F100.000000
G1 X81.625962 Y25.228069 F100.000000
G1 X81.562215 Y25.261823 F100.000000
G1 X81.544095 Y25.262515 F100.000000
G1 X81.527380 Y25.269548 F100.000000
G1 X81.455340 Y25.265905 F100.000000
G1 X81.383261 Y25.268657 F100.000000
G1 X81.366634 Y25.261419 F100.000000
G1 X81.348524 Y25.260503 F100.000000
G1 X81.285199 Y25.225964 F100.000000
G1 X81.219063 Y25.197169 F100.000000
G0 Z0.500000
G0 X81.874266 Y18.155836
G1 Z-0.040000 F60.000000
G1 X81.872452 Y18.157317 F100.000000
G1 X81.871435 Y18.159427 F100.000000
G1 X81.803171 Y18.213866 F100.000000
G1 X81.735530 Y18.269077 F100.000000
G1 X81.476573 Y18.397430 F100.000000
G1 X81.368269 Y18.478658 F100.000000
G1 X81.309983 Y18.566086 F100.000000
G1 X81.222501 Y18.648967 F100.000000
G1 X81.234354 Y18.662732 F100.000000
G1 X81.280760 Y18.835700 F100.000000
G1 X81.247523 Y19.011673 F100.000000
G1 X81.141224 Y19.155799 F100.000000
G1 X81.031008 Y19.214095 F100.000000
G1 X81.141224 Y19.272391 F100.000000
G1 X81.247523 Y19.416517 F100.000000
G1 X81.280760 Y19.592490 F100.000000
G1 X81.234354 Y19.765458 F100.000000
G1 X81.117496 Y19.901162 F100.000000
G1 X80.953330 Y19.972724 F100.000000
G1 X80.774373 Y19.965970 F100.000000
G1 X79.420553 Y19.602750 F100.000000
G1 X79.354488 Y19.567807 F100.000000
G1 X79.285977 Y19.537942 F100.000000
G1 X79.275900 Y19.526239 F100.000000
G1 X79.262248 Y19.519019 F100.000000
G1 X79.217887 Y19.458871 F100.000000
G1 X79.169119 Y19.402238 F100.000000
G1 X79.165117 Y19.387322 F100.000000
G1 X79.155950 Y19.374893 F100.000000
G1 X79.142079 Y19.301455 F100.000000
G1 X79.122713 Y19.229270 F100.000000
G1 X79.125579 Y19.214095 F100.000000
G1 X79.122713 Y19.198920 F100.000000
G1 X79.142079 Y19.126735 F100.000000
G1 X79.155950 Y19.053297 F100.000000
G1 X79.165117 Y19.040868 F100.000000
G1 X79.169119 Y19.025952 F100.000000
G1 X79.217887 Y18.969319 F100.000000
G1 X79.262248 Y18.909171 F100.000000
G1 X79.275900 Y18.901951 F100.000000
G1 X79.285977 Y18.890248 F100.000000
G1 X79.354488 Y18.860383 F100.000000
G1 X79.420553 Y18.825440 F100.000000
G1 X80.615221 Y18.504919 F100.000000
G1 X80.591898 Y18.465475 F100.000000
G1 X80.578699 Y18.310935 F100.000000
G1 X79.927226 F100.000000
G1 Y18.342875 F100.000000
G1 X79.887376 Y18.517470 F100.000000
G1 X79.775719 Y18.657484 F100.000000
G1 X79.614369 Y18.735186 F100.000000
G1 X79.435284 F100.000000
G1 X79.273934 Y18.657484 F100.000000
G1 X79.162276 Y18.517470 F100.000000
G1 X79.122426 Y18.342875 F100.000000
G1 Y17.471655 F100.000000
G1 X79.162276 Y17.297060 F100.000000
G1 X79.273934 Y17.157046 F100.000000
G1 X79.292771 Y17.147975 F100.000000
G1 X79.280701 Y17.138763 F100.000000
G1 X79.275093 Y17.132031 F100.000000
G1 X79.267281 Y17.128061 F100.000000
G1 X79.242349 Y17.095391 F100.000000
G1 X79.210217 Y17.069767 F100.000000
G1 X79.192386 Y17.032740 F100.000000
G1 X79.166083 Y17.001162 F100.000000
G1 X79.163951 Y16.992663 F100.000000
G1 X79.158635 Y16.985698 F100.000000
G1 X79.150347 Y16.945445 F100.000000
G1 X79.132515 Y16.908417 F100.000000
G1 Y16.867320 F100.000000
G1 X79.122518 Y16.827457 F100.000000
G1 X79.124285 Y16.818875 F100.000000
G1 X79.122518 Y16.810293 F100.000000
G1 X79.132515 Y16.770430 F100.000000
G1 Y16.729333 F100.000000
G1 X79.150347 Y16.692305 F100.000000
G1 X79.158635 Y16.652052 F100.000000
G1 X79.163951 Y16.645087 F100.000000
G1 X79.166083 Y16.636588 F100.000000
G1 X79.192386 Y16.605010 F100.000000
G0 Z0.500000
G0 X79.192386 Y16.605010
G1 Z-0.040000 F60.000000
G1 X79.210217 Y16.567983 F100.000000
G1 X79.242349 Y16.542359 F100.000000
G1 X79.267281 Y16.509689 F100.000000
G1 X79.275093 Y16.505719 F100.000000
G1 X79.280701 Y16.498987 F100.000000
G1 X79.377221 Y16.425327 F100.000000
G1 X79.451090 Y16.391675 F100.000000
G1 X79.514171 Y16.359622 F100.000000
G1 X79.473741 Y16.341203 F100.000000
G1 X79.377221 Y16.267543 F100.000000
G1 X79.334727 Y16.216529 F100.000000
G1 X79.286529 Y16.170866 F100.000000
G1 X79.190009 Y16.026086 F100.000000
G1 X79.179936 Y15.999614 F100.000000
G1 X79.162276 Y15.977470 F100.000000
G1 X79.148437 Y15.916836 F100.000000
G1 X79.126319 Y15.858710 F100.000000
G1 X79.128729 Y15.830489 F100.000000
G1 X79.122426 Y15.802875 F100.000000
G1 Y15.658095 F100.000000
G1 X79.128729 Y15.630481 F100.000000
G1 X79.126319 Y15.602260 F100.000000
G1 X79.148437 Y15.544134 F100.000000
G1 X79.162276 Y15.483500 F100.000000
G1 X79.179936 Y15.461356 F100.000000
G1 X79.190009 Y15.434884 F100.000000
G1 X79.286529 Y15.290104 F100.000000
G1 X79.334727 Y15.244441 F100.000000
G1 X79.377221 Y15.193427 F100.000000
G1 X79.473741 Y15.119767 F100.000000
G1 X79.528414 Y15.094859 F100.000000
G1 X79.578754 Y15.062066 F100.000000
G1 X79.771794 Y14.990946 F100.000000
G1 X79.804909 Y14.986664 F100.000000
G1 X79.835493 Y14.973265 F100.000000
G1 X80.221573 Y14.899605 F100.000000
G1 X80.259746 Y14.900975 F100.000000
G1 X80.296986 Y14.892475 F100.000000
G1 X80.782126 F100.000000
G1 X80.819366 Y14.900975 F100.000000
G1 X80.857540 Y14.899605 F100.000000
G1 X81.243620 Y14.973265 F100.000000
G1 X81.274204 Y14.986664 F100.000000
G1 X81.307318 Y14.990946 F100.000000
G1 X81.500358 Y15.062066 F100.000000
G1 X81.550698 Y15.094859 F100.000000
G1 X81.605372 Y15.119767 F100.000000
G1 X81.701892 Y15.193427 F100.000000
G1 X81.742867 Y15.242618 F100.000000
G1 X81.789870 Y15.286086 F100.000000
G1 X81.888930 Y15.430866 F100.000000
G1 X81.900209 Y15.459465 F100.000000
G1 X81.919376 Y15.483500 F100.000000
G1 X81.932687 Y15.541817 F100.000000
G1 X81.954632 Y15.597463 F100.000000
G1 X81.952385 Y15.628123 F100.000000
G1 X81.959226 Y15.658095 F100.000000
G1 Y15.802875 F100.000000
G1 X81.952385 Y15.832847 F100.000000
G1 X81.954632 Y15.863507 F100.000000
G1 X81.932687 Y15.919153 F100.000000
G1 X81.919376 Y15.977470 F100.000000
G1 X81.900209 Y16.001505 F100.000000
G1 X81.888930 Y16.030104 F100.000000
G1 X81.789870 Y16.174884 F100.000000
G1 X81.742867 Y16.218352 F100.000000
G1 X81.701892 Y16.267543 F100.000000
G1 X81.605372 Y16.341203 F100.000000
G1 X81.550698 Y16.366111 F100.000000
G1 X81.500358 Y16.398904 F100.000000
G1 X81.307318 Y16.470024 F100.000000
G1 X81.274204 Y16.474306 F100.000000
G1 X81.243620 Y16.487705 F100.000000
G1 X80.857540 Y16.561365 F100.000000
G1 X80.819366 Y16.559995 F100.000000
G1 X80.782126 Y16.568495 F100.000000
G1 X80.296986 F100.000000
G1 X80.259746 Y16.559995 F100.000000
G1 X80.221573 Y16.561365 F100.000000
G1 X79.979620 Y16.515203 F100.000000
G1 X80.000344 Y16.542359 F100.000000
G1 X80.032475 Y16.567983 F100.000000
G1 X80.050307 Y16.605010 F100.000000
G1 X80.076610 Y16.636588 F100.000000
G1 X80.078742 Y16.645087 F100.000000
G1 X80.084057 Y16.652052 F100.000000
G1 X80.092346 Y16.692305 F100.000000
G1 X80.110177 Y16.729333 F100.000000
G1 Y16.770430 F100.000000
G1 X80.120175 Y16.810293 F100.000000
G1 X80.118408 Y16.818875 F100.000000
G1 X80.120175 Y16.827457 F100.000000
G1 X80.110177 Y16.867320 F100.000000
G1 Y16.908417 F100.000000
G1 X80.092346 Y16.945445 F100.000000
G1 X80.084057 Y16.985698 F100.000000
G1 X80.078742 Y16.992663 F100.000000
G1 X80.076610 Y17.001162 F100.000000
G1 X80.050307 Y17.032740 F100.000000
G1 X80.032475 Y17.069767 F100.000000
G1 X80.000344 Y17.095391 F100.000000
G1 X79.975411 Y17.128061 F100.000000
G1 X79.967600 Y17.132031 F100.000000
G1 X79.961992 Y17.138763 F100.000000
G1 X79.865472 Y17.212423 F100.000000
G1 X79.832030 Y17.227658 F100.000000
G1 X79.887376 Y17.297060 F100.000000
G1 X79.927226 Y17.471655 F100.000000
G1 Y17.506135 F100.000000
G1 X81.556826 F100.000000
G1 X81.641950 Y17.525564 F100.000000
G1 X81.727290 Y17.544024 F100.000000
G1 X81.729138 Y17.545464 F100.000000
G1 X81.731421 Y17.545985 F100.000000
G1 X81.799685 Y17.600424 F100.000000
G1 X81.868564 Y17.654084 F100.000000
G1 X81.869604 Y17.656182 F100.000000
G1 X81.871435 Y17.657643 F100.000000
G1 X81.909319 Y17.736309 F100.000000
G1 X81.948094 Y17.814540 F100.000000
G1 X81.948121 Y17.816882 F100.000000
G1 X81.949137 Y17.818993 F100.000000
G1 Y17.906306 F100.000000
G1 X81.950130 Y17.993613 F100.000000
G1 X81.949137 Y17.995735 F100.000000
G1 Y17.998077 F100.000000
G1 X81.911254 Y18.076744 F100.000000
G1 X81.874266 Y18.155836 F100.000000
G0 Z0.500000
G0 X80.918149 Y15.730485
G1 Z-0.040000 F60.000000
G1 X80.744083 Y15.697275 F100.000000
G1 X80.335030 F100.000000
G1 X80.160964 Y15.730485 F100.000000
G1 X80.335030 Y15.763695 F100.000000
G1 X80.744083 F100.000000
G1 X80.918149 Y15.730485 F100.000000
G0 Z0.500000
G0 X81.779266 Y46.530715
G1 Z-0.040000 F60.000000
G1 X83.676266 F100.000000
G1 Y47.792182 F100.000000
G1 X86.749657 Y50.865572 F100.000000
G1 X86.799752 Y50.858369 F100.000000
G1 X87.285902 Y51.080387 F100.000000
G1 X87.574845 Y51.529992 F100.000000
G1 Y52.064438 F100.000000
G1 X87.285902 Y52.514043 F100.000000
G1 X86.799752 Y52.736061 F100.000000
G1 X86.270745 Y52.660001 F100.000000
G1 X85.866837 Y52.310013 F100.000000
G1 X85.716266 Y51.797215 F100.000000
G1 X85.866837 Y51.284417 F100.000000
G1 X85.883230 Y51.270213 F100.000000
G1 X83.040733 Y48.427715 F100.000000
G1 X81.779266 Y48.427715 F100.000000
G1 Y46.530715 F100.000000
G0 Z0.500000
G0 X77.198376 Y53.966556
G1 Z-0.040000 F60.000000
G1 Y52.501977 F100.000000
G1 X76.976837 Y52.310013 F100.000000
G1 X76.826266 Y51.797215 F100.000000
G1 X76.976837 Y51.284417 F100.000000
G1 X77.380745 Y50.934429 F100.000000
G1 X77.909752 Y50.858369 F100.000000
G1 X78.395902 Y51.080387 F100.000000
G1 X78.684845 Y51.529992 F100.000000
G1 Y52.064438 F100.000000
G1 X78.395902 Y52.514043 F100.000000
G1 X78.097156 Y52.650476 F100.000000
G1 Y53.966556 F100.000000
G0 Z0.500000
G0 X81.499486 Y40.113215
G1 Z-0.040000 F60.000000
G1 Y44.685215 F100.000000
G1 X81.478964 Y44.775129 F100.000000
G1 X81.468638 Y44.866776 F100.000000
G1 X81.452004 Y44.893249 F100.000000
G1 X81.445047 Y44.923730 F100.000000
G1 X81.387545 Y44.995835 F100.000000
G1 X81.338477 Y45.073926 F100.000000
G1 X80.737486 Y45.674916 F100.000000
G1 Y46.729772 F100.000000
G1 X80.808902 Y46.762387 F100.000000
G1 X81.097845 Y47.211992 F100.000000
G1 Y47.746438 F100.000000
G1 X80.938146 Y47.994935 F100.000000
G1 Y54.203735 F100.000000
G0 Z0.500000
G0 X43.653486 Y8.431557
G1 Z-0.040000 F60.000000
G1 X43.734738 Y8.392428 F100.000000
G1 X44.015547 Y8.040305 F100.000000
G1 X44.115766 Y7.601215 F100.000000
G1 Y6.585215 F100.000000
G1 X44.015547 Y6.146125 F100.000000
G1 X43.734738 Y5.794002 F100.000000
G1 X43.328957 Y5.598588 F100.000000
G1 X42.878575 F100.000000
G1 X42.472795 Y5.794002 F100.000000
G1 X42.191986 Y6.146125 F100.000000
G1 X42.091766 Y6.585215 F100.000000
G1 Y7.601215 F100.000000
G1 X42.191986 Y8.040305 F100.000000
G1 X42.472795 Y8.392428 F100.000000
G1 X42.554046 Y8.431557 F100.000000
G0 Z0.500000
G0 X46.193486 Y8.431557
G1 Z-0.040000 F60.000000
G1 X46.274738 Y8.392428 F100.000000
G1 X46.555547 Y8.040305 F100.000000
G1 X46.655766 Y7.601215 F100.000000
G1 Y6.585215 F100.000000
G1 X46.555547 Y6.146125 F100.000000
G1 X46.274738 Y5.794002 F100.000000
G1 X45.868957 Y5.598588 F100.000000
G1 X45.418575 F100.000000
G1 X45.012795 Y5.794002 F100.000000
G1 X44.731986 Y6.146125 F100.000000
G1 X44.631766 Y6.585215 F100.000000
G1 Y7.601215 F100.000000
G1 X44.731986 Y8.040305 F100.000000
G1 X45.012795 Y8.392428 F100.000000
G1 X45.094046 Y8.431557 F100.000000
G0 Z0.500000
G0 X48.733486 Y8.431557
G1 Z-0.040000 F60.000000
G1 X48.814738 Y8.392428 F100.000000
G1 X49.095547 Y8.040305 F100.000000
G1 X49.195766 Y7.601215 F100.000000
G1 Y6.585215 F100.000000
G1 X49.095547 Y6.146125 F100.000000
G1 X48.814738 Y5.794002 F100.000000
G1 X48.408957 Y5.598588 F100.000000
G1 X47.958575 F100.000000
