(Generated by ./pygerber2gcode_cui_MOD.py )
( 2013-05-29 04:57:18 )
(Initialize)
G92 X0.000000 Y0.000000 Z0.000000

(Start form here)
G0 Z2.000000
G0 X39.476715 Y25.439215
G17
G0 Z-0.283333 F30.000000
G1 X39.476715 Y25.439215 F100.000000
G1 X39.456945 Y25.391485 F100.000000
G1 X39.409215 Y25.371715 F100.000000
G1 X39.361485 Y25.391485 F100.000000
G1 X39.341715 Y25.439215 F100.000000
G1 X39.361485 Y25.486945 F100.000000
G1 X39.409215 Y25.506715 F100.000000
G1 X39.456945 Y25.486945 F100.000000
G1 X39.476715 Y25.439215 F100.000000
G0 Z-0.566667 F30.000000
G1 X39.456945 Y25.391485 F100.000000
G1 X39.409215 Y25.371715 F100.000000
G1 X39.361485 Y25.391485 F100.000000
G1 X39.341715 Y25.439215 F100.000000
G1 X39.361485 Y25.486945 F100.000000
G1 X39.409215 Y25.506715 F100.000000
G1 X39.456945 Y25.486945 F100.000000
G1 X39.476715 Y25.439215 F100.000000
G0 Z-0.850000 F30.000000
G1 X39.456945 Y25.391485 F100.000000
G1 X39.409215 Y25.371715 F100.000000
G1 X39.361485 Y25.391485 F100.000000
G1 X39.341715 Y25.439215 F100.000000
G1 X39.361485 Y25.486945 F100.000000
G1 X39.409215 Y25.506715 F100.000000
G1 X39.456945 Y25.486945 F100.000000
G1 X39.476715 Y25.439215 F100.000000
G0 Z-1.133333 F30.000000
G1 X39.456945 Y25.391485 F100.000000
G1 X39.409215 Y25.371715 F100.000000
G1 X39.361485 Y25.391485 F100.000000
G1 X39.341715 Y25.439215 F100.000000
G1 X39.361485 Y25.486945 F100.000000
G1 X39.409215 Y25.506715 F100.000000
G1 X39.456945 Y25.486945 F100.000000
G1 X39.476715 Y25.439215 F100.000000
G0 Z-1.416667 F30.000000
G1 X39.456945 Y25.391485 F100.000000
G1 X39.409215 Y25.371715 F100.000000
G1 X39.361485 Y25.391485 F100.000000
G1 X39.341715 Y25.439215 F100.000000
G1 X39.361485 Y25.486945 F100.000000
G1 X39.409215 Y25.506715 F100.000000
G1 X39.456945 Y25.486945 F100.000000
G1 X39.476715 Y25.439215 F100.000000
G0 Z-1.700000 F30.000000
G1 X39.456945 Y25.391485 F100.000000
G1 X39.409215 Y25.371715 F100.000000
G1 X39.361485 Y25.391485 F100.000000
G1 X39.341715 Y25.439215 F100.000000
G1 X39.361485 Y25.486945 F100.000000
G1 X39.409215 Y25.506715 F100.000000
G1 X39.456945 Y25.486945 F100.000000
G1 X39.476715 Y25.439215 F100.000000
G0 Z2.000000
G0 X27.538715 Y15.025215
G17
G0 Z-0.283333 F30.000000
G1 X27.538715 Y15.025215 F100.000000
G1 X27.518945 Y14.977485 F100.000000
G1 X27.471215 Y14.957715 F100.000000
G1 X27.423485 Y14.977485 F100.000000
G1 X27.403715 Y15.025215 F100.000000
G1 X27.423485 Y15.072945 F100.000000
G1 X27.471215 Y15.092715 F100.000000
G1 X27.518945 Y15.072945 F100.000000
G1 X27.538715 Y15.025215 F100.000000
G0 Z-0.566667 F30.000000
G1 X27.518945 Y14.977485 F100.000000
G1 X27.471215 Y14.957715 F100.000000
G1 X27.423485 Y14.977485 F100.000000
G1 X27.403715 Y15.025215 F100.000000
G1 X27.423485 Y15.072945 F100.000000
G1 X27.471215 Y15.092715 F100.000000
G1 X27.518945 Y15.072945 F100.000000
G1 X27.538715 Y15.025215 F100.000000
G0 Z-0.850000 F30.000000
G1 X27.518945 Y14.977485 F100.000000
G1 X27.471215 Y14.957715 F100.000000
G1 X27.423485 Y14.977485 F100.000000
G1 X27.403715 Y15.025215 F100.000000
G1 X27.423485 Y15.072945 F100.000000
G1 X27.471215 Y15.092715 F100.000000
G1 X27.518945 Y15.072945 F100.000000
G1 X27.538715 Y15.025215 F100.000000
G0 Z-1.133333 F30.000000
G1 X27.518945 Y14.977485 F100.000000
G1 X27.471215 Y14.957715 F100.000000
G1 X27.423485 Y14.977485 F100.000000
G1 X27.403715 Y15.025215 F100.000000
G1 X27.423485 Y15.072945 F100.000000
G1 X27.471215 Y15.092715 F100.000000
G1 X27.518945 Y15.072945 F100.000000
G1 X27.538715 Y15.025215 F100.000000
G0 Z-1.416667 F30.000000
G1 X27.518945 Y14.977485 F100.000000
G1 X27.471215 Y14.957715 F100.000000
G1 X27.423485 Y14.977485 F100.000000
G1 X27.403715 Y15.025215 F100.000000
G1 X27.423485 Y15.072945 F100.000000
G1 X27.471215 Y15.092715 F100.000000
G1 X27.518945 Y15.072945 F100.000000
G1 X27.538715 Y15.025215 F100.000000
G0 Z-1.700000 F30.000000
G1 X27.518945 Y14.977485 F100.000000
G1 X27.471215 Y14.957715 F100.000000
G1 X27.423485 Y14.977485 F100.000000
G1 X27.403715 Y15.025215 F100.000000
G1 X27.423485 Y15.072945 F100.000000
G1 X27.471215 Y15.092715 F100.000000
G1 X27.518945 Y15.072945 F100.000000
G1 X27.538715 Y15.025215 F100.000000
G0 Z2.000000
G0 X5.694715 Y21.883215
G17
G0 Z-0.283333 F30.000000
G1 X5.694715 Y21.883215 F100.000000
G1 X5.674945 Y21.835485 F100.000000
G1 X5.627215 Y21.815715 F100.000000
G1 X5.579485 Y21.835485 F100.000000
G1 X5.559715 Y21.883215 F100.000000
G1 X5.579485 Y21.930945 F100.000000
G1 X5.627215 Y21.950715 F100.000000
G1 X5.674945 Y21.930945 F100.000000
G1 X5.694715 Y21.883215 F100.000000
G0 Z-0.566667 F30.000000
G1 X5.674945 Y21.835485 F100.000000
G1 X5.627215 Y21.815715 F100.000000
G1 X5.579485 Y21.835485 F100.000000
G1 X5.559715 Y21.883215 F100.000000
G1 X5.579485 Y21.930945 F100.000000
G1 X5.627215 Y21.950715 F100.000000
G1 X5.674945 Y21.930945 F100.000000
G1 X5.694715 Y21.883215 F100.000000
G0 Z-0.850000 F30.000000
G1 X5.674945 Y21.835485 F100.000000
G1 X5.627215 Y21.815715 F100.000000
G1 X5.579485 Y21.835485 F100.000000
G1 X5.559715 Y21.883215 F100.000000
G1 X5.579485 Y21.930945 F100.000000
G1 X5.627215 Y21.950715 F100.000000
G1 X5.674945 Y21.930945 F100.000000
G1 X5.694715 Y21.883215 F100.000000
G0 Z-1.133333 F30.000000
G1 X5.674945 Y21.835485 F100.000000
G1 X5.627215 Y21.815715 F100.000000
G1 X5.579485 Y21.835485 F100.000000
G1 X5.559715 Y21.883215 F100.000000
G1 X5.579485 Y21.930945 F100.000000
G1 X5.627215 Y21.950715 F100.000000
G1 X5.674945 Y21.930945 F100.000000
G1 X5.694715 Y21.883215 F100.000000
G0 Z-1.416667 F30.000000
G1 X5.674945 Y21.835485 F100.000000
G1 X5.627215 Y21.815715 F100.000000
G1 X5.579485 Y21.835485 F100.000000
G1 X5.559715 Y21.883215 F100.000000
G1 X5.579485 Y21.930945 F100.000000
G1 X5.627215 Y21.950715 F100.000000
G1 X5.674945 Y21.930945 F100.000000
G1 X5.694715 Y21.883215 F100.000000
G0 Z-1.700000 F30.000000
G1 X5.674945 Y21.835485 F100.000000
G1 X5.627215 Y21.815715 F100.000000
G1 X5.579485 Y21.835485 F100.000000
G1 X5.559715 Y21.883215 F100.000000
G1 X5.579485 Y21.930945 F100.000000
G1 X5.627215 Y21.950715 F100.000000
G1 X5.674945 Y21.930945 F100.000000
G1 X5.694715 Y21.883215 F100.000000
G0 Z2.000000
G0 X5.694715 Y18.581215
G17
G0 Z-0.283333 F30.000000
G1 Y18.581215 F100.000000
G1 X5.674945 Y18.533485 F100.000000
G1 X5.627215 Y18.513715 F100.000000
G1 X5.579485 Y18.533485 F100.000000
G1 X5.559715 Y18.581215 F100.000000
G1 X5.579485 Y18.628945 F100.000000
G1 X5.627215 Y18.648715 F100.000000
G1 X5.674945 Y18.628945 F100.000000
G1 X5.694715 Y18.581215 F100.000000
G0 Z-0.566667 F30.000000
G1 X5.674945 Y18.533485 F100.000000
G1 X5.627215 Y18.513715 F100.000000
G1 X5.579485 Y18.533485 F100.000000
G1 X5.559715 Y18.581215 F100.000000
G1 X5.579485 Y18.628945 F100.000000
G1 X5.627215 Y18.648715 F100.000000
G1 X5.674945 Y18.628945 F100.000000
G1 X5.694715 Y18.581215 F100.000000
G0 Z-0.850000 F30.000000
G1 X5.674945 Y18.533485 F100.000000
G1 X5.627215 Y18.513715 F100.000000
G1 X5.579485 Y18.533485 F100.000000
G1 X5.559715 Y18.581215 F100.000000
G1 X5.579485 Y18.628945 F100.000000
G1 X5.627215 Y18.648715 F100.000000
G1 X5.674945 Y18.628945 F100.000000
G1 X5.694715 Y18.581215 F100.000000
G0 Z-1.133333 F30.000000
G1 X5.674945 Y18.533485 F100.000000
G1 X5.627215 Y18.513715 F100.000000
G1 X5.579485 Y18.533485 F100.000000
G1 X5.559715 Y18.581215 F100.000000
G1 X5.579485 Y18.628945 F100.000000
G1 X5.627215 Y18.648715 F100.000000
G1 X5.674945 Y18.628945 F100.000000
G1 X5.694715 Y18.581215 F100.000000
G0 Z-1.416667 F30.000000
G1 X5.674945 Y18.533485 F100.000000
G1 X5.627215 Y18.513715 F100.000000
G1 X5.579485 Y18.533485 F100.000000
G1 X5.559715 Y18.581215 F100.000000
G1 X5.579485 Y18.628945 F100.000000
G1 X5.627215 Y18.648715 F100.000000
G1 X5.674945 Y18.628945 F100.000000
G1 X5.694715 Y18.581215 F100.000000
G0 Z-1.700000 F30.000000
G1 X5.674945 Y18.533485 F100.000000
G1 X5.627215 Y18.513715 F100.000000
G1 X5.579485 Y18.533485 F100.000000
G1 X5.559715 Y18.581215 F100.000000
G1 X5.579485 Y18.628945 F100.000000
G1 X5.627215 Y18.648715 F100.000000
G1 X5.674945 Y18.628945 F100.000000
G1 X5.694715 Y18.581215 F100.000000
G0 Z2.000000
G0 X51.376615 Y51.347215
G17
G0 Z-0.283333 F30.000000
G1 X51.376615 Y51.347215 F100.000000
G1 X51.368141 Y51.296432 F100.000000
G1 X51.343637 Y51.251152 F100.000000
G1 X51.305758 Y51.216282 F100.000000
G1 X51.258609 Y51.195601 F100.000000
G1 X51.207300 Y51.191349 F100.000000
G1 X51.157390 Y51.203988 F100.000000
G1 X51.114288 Y51.232148 F100.000000
G1 X51.082665 Y51.272777 F100.000000
G1 X51.065948 Y51.321472 F100.000000
G1 Y51.372958 F100.000000
G1 X51.082665 Y51.421653 F100.000000
G1 X51.114288 Y51.462282 F100.000000
G1 X51.157390 Y51.490442 F100.000000
G1 X51.207300 Y51.503081 F100.000000
G1 X51.258609 Y51.498829 F100.000000
G1 X51.305758 Y51.478148 F100.000000
G1 X51.343637 Y51.443278 F100.000000
G1 X51.368141 Y51.397998 F100.000000
G1 X51.376615 Y51.347215 F100.000000
G0 Z-0.566667 F30.000000
G1 X51.368141 Y51.296432 F100.000000
G1 X51.343637 Y51.251152 F100.000000
G1 X51.305758 Y51.216282 F100.000000
G1 X51.258609 Y51.195601 F100.000000
G1 X51.207300 Y51.191349 F100.000000
G1 X51.157390 Y51.203988 F100.000000
G1 X51.114288 Y51.232148 F100.000000
G1 X51.082665 Y51.272777 F100.000000
G1 X51.065948 Y51.321472 F100.000000
G1 Y51.372958 F100.000000
G1 X51.082665 Y51.421653 F100.000000
G1 X51.114288 Y51.462282 F100.000000
G1 X51.157390 Y51.490442 F100.000000
G1 X51.207300 Y51.503081 F100.000000
G1 X51.258609 Y51.498829 F100.000000
G1 X51.305758 Y51.478148 F100.000000
G1 X51.343637 Y51.443278 F100.000000
G1 X51.368141 Y51.397998 F100.000000
G1 X51.376615 Y51.347215 F100.000000
G0 Z-0.850000 F30.000000
G1 X51.368141 Y51.296432 F100.000000
G1 X51.343637 Y51.251152 F100.000000
G1 X51.305758 Y51.216282 F100.000000
G1 X51.258609 Y51.195601 F100.000000
G1 X51.207300 Y51.191349 F100.000000
G1 X51.157390 Y51.203988 F100.000000
G1 X51.114288 Y51.232148 F100.000000
G1 X51.082665 Y51.272777 F100.000000
G1 X51.065948 Y51.321472 F100.000000
G1 Y51.372958 F100.000000
G1 X51.082665 Y51.421653 F100.000000
G1 X51.114288 Y51.462282 F100.000000
G1 X51.157390 Y51.490442 F100.000000
G1 X51.207300 Y51.503081 F100.000000
G1 X51.258609 Y51.498829 F100.000000
G1 X51.305758 Y51.478148 F100.000000
G1 X51.343637 Y51.443278 F100.000000
G1 X51.368141 Y51.397998 F100.000000
G1 X51.376615 Y51.347215 F100.000000
G0 Z-1.133333 F30.000000
G1 X51.368141 Y51.296432 F100.000000
G1 X51.343637 Y51.251152 F100.000000
G1 X51.305758 Y51.216282 F100.000000
G1 X51.258609 Y51.195601 F100.000000
G1 X51.207300 Y51.191349 F100.000000
G1 X51.157390 Y51.203988 F100.000000
G1 X51.114288 Y51.232148 F100.000000
G1 X51.082665 Y51.272777 F100.000000
G1 X51.065948 Y51.321472 F100.000000
G1 Y51.372958 F100.000000
G1 X51.082665 Y51.421653 F100.000000
G1 X51.114288 Y51.462282 F100.000000
G1 X51.157390 Y51.490442 F100.000000
G1 X51.207300 Y51.503081 F100.000000
G1 X51.258609 Y51.498829 F100.000000
G1 X51.305758 Y51.478148 F100.000000
G1 X51.343637 Y51.443278 F100.000000
G1 X51.368141 Y51.397998 F100.000000
G1 X51.376615 Y51.347215 F100.000000
G0 Z-1.416667 F30.000000
G1 X51.368141 Y51.296432 F100.000000
G1 X51.343637 Y51.251152 F100.000000
G1 X51.305758 Y51.216282 F100.000000
G1 X51.258609 Y51.195601 F100.000000
G1 X51.207300 Y51.191349 F100.000000
G1 X51.157390 Y51.203988 F100.000000
G1 X51.114288 Y51.232148 F100.000000
G1 X51.082665 Y51.272777 F100.000000
G1 X51.065948 Y51.321472 F100.000000
G1 Y51.372958 F100.000000
G1 X51.082665 Y51.421653 F100.000000
G1 X51.114288 Y51.462282 F100.000000
G1 X51.157390 Y51.490442 F100.000000
G1 X51.207300 Y51.503081 F100.000000
G1 X51.258609 Y51.498829 F100.000000
G1 X51.305758 Y51.478148 F100.000000
G1 X51.343637 Y51.443278 F100.000000
G1 X51.368141 Y51.397998 F100.000000
G1 X51.376615 Y51.347215 F100.000000
G0 Z-1.700000 F30.000000
G1 X51.368141 Y51.296432 F100.000000
G1 X51.343637 Y51.251152 F100.000000
G1 X51.305758 Y51.216282 F100.000000
G1 X51.258609 Y51.195601 F100.000000
G1 X51.207300 Y51.191349 F100.000000
G1 X51.157390 Y51.203988 F100.000000
G1 X51.114288 Y51.232148 F100.000000
G1 X51.082665 Y51.272777 F100.000000
G1 X51.065948 Y51.321472 F100.000000
G1 Y51.372958 F100.000000
G1 X51.082665 Y51.421653 F100.000000
G1 X51.114288 Y51.462282 F100.000000
G1 X51.157390 Y51.490442 F100.000000
G1 X51.207300 Y51.503081 F100.000000
G1 X51.258609 Y51.498829 F100.000000
G1 X51.305758 Y51.478148 F100.000000
G1 X51.343637 Y51.443278 F100.000000
G1 X51.368141 Y51.397998 F100.000000
G1 X51.376615 Y51.347215 F100.000000
G0 Z2.000000
G0 X47.439615 Y54.903215
G17
G0 Z-0.283333 F30.000000
G1 X47.439615 Y54.903215 F100.000000
G1 X47.431141 Y54.852432 F100.000000
G1 X47.406637 Y54.807152 F100.000000
G1 X47.368758 Y54.772282 F100.000000
G1 X47.321609 Y54.751601 F100.000000
G1 X47.270300 Y54.747349 F100.000000
G1 X47.220390 Y54.759988 F100.000000
G1 X47.177288 Y54.788148 F100.000000
G1 X47.145665 Y54.828777 F100.000000
G1 X47.128948 Y54.877472 F100.000000
G1 Y54.928958 F100.000000
G1 X47.145665 Y54.977653 F100.000000
G1 X47.177288 Y55.018282 F100.000000
G1 X47.220390 Y55.046442 F100.000000
G1 X47.270300 Y55.059081 F100.000000
G1 X47.321609 Y55.054829 F100.000000
G1 X47.368758 Y55.034148 F100.000000
G1 X47.406637 Y54.999278 F100.000000
G1 X47.431141 Y54.953998 F100.000000
G1 X47.439615 Y54.903215 F100.000000
G0 Z-0.566667 F30.000000
G1 X47.431141 Y54.852432 F100.000000
G1 X47.406637 Y54.807152 F100.000000
G1 X47.368758 Y54.772282 F100.000000
G1 X47.321609 Y54.751601 F100.000000
G1 X47.270300 Y54.747349 F100.000000
G1 X47.220390 Y54.759988 F100.000000
G1 X47.177288 Y54.788148 F100.000000
G1 X47.145665 Y54.828777 F100.000000
G1 X47.128948 Y54.877472 F100.000000
G1 Y54.928958 F100.000000
G1 X47.145665 Y54.977653 F100.000000
G1 X47.177288 Y55.018282 F100.000000
G1 X47.220390 Y55.046442 F100.000000
G1 X47.270300 Y55.059081 F100.000000
G1 X47.321609 Y55.054829 F100.000000
G1 X47.368758 Y55.034148 F100.000000
G1 X47.406637 Y54.999278 F100.000000
G1 X47.431141 Y54.953998 F100.000000
G1 X47.439615 Y54.903215 F100.000000
G0 Z-0.850000 F30.000000
G1 X47.431141 Y54.852432 F100.000000
G1 X47.406637 Y54.807152 F100.000000
G1 X47.368758 Y54.772282 F100.000000
G1 X47.321609 Y54.751601 F100.000000
G1 X47.270300 Y54.747349 F100.000000
G1 X47.220390 Y54.759988 F100.000000
G1 X47.177288 Y54.788148 F100.000000
G1 X47.145665 Y54.828777 F100.000000
G1 X47.128948 Y54.877472 F100.000000
G1 Y54.928958 F100.000000
G1 X47.145665 Y54.977653 F100.000000
G1 X47.177288 Y55.018282 F100.000000
G1 X47.220390 Y55.046442 F100.000000
G1 X47.270300 Y55.059081 F100.000000
G1 X47.321609 Y55.054829 F100.000000
G1 X47.368758 Y55.034148 F100.000000
G1 X47.406637 Y54.999278 F100.000000
G1 X47.431141 Y54.953998 F100.000000
G1 X47.439615 Y54.903215 F100.000000
G0 Z-1.133333 F30.000000
G1 X47.431141 Y54.852432 F100.000000
G1 X47.406637 Y54.807152 F100.000000
G1 X47.368758 Y54.772282 F100.000000
G1 X47.321609 Y54.751601 F100.000000
G1 X47.270300 Y54.747349 F100.000000
G1 X47.220390 Y54.759988 F100.000000
G1 X47.177288 Y54.788148 F100.000000
G1 X47.145665 Y54.828777 F100.000000
G1 X47.128948 Y54.877472 F100.000000
G1 Y54.928958 F100.000000
G1 X47.145665 Y54.977653 F100.000000
G1 X47.177288 Y55.018282 F100.000000
G1 X47.220390 Y55.046442 F100.000000
G1 X47.270300 Y55.059081 F100.000000
G1 X47.321609 Y55.054829 F100.000000
G1 X47.368758 Y55.034148 F100.000000
G1 X47.406637 Y54.999278 F100.000000
G1 X47.431141 Y54.953998 F100.000000
G1 X47.439615 Y54.903215 F100.000000
G0 Z-1.416667 F30.000000
G1 X47.431141 Y54.852432 F100.000000
G1 X47.406637 Y54.807152 F100.000000
G1 X47.368758 Y54.772282 F100.000000
G1 X47.321609 Y54.751601 F100.000000
G1 X47.270300 Y54.747349 F100.000000
G1 X47.220390 Y54.759988 F100.000000
G1 X47.177288 Y54.788148 F100.000000
G1 X47.145665 Y54.828777 F100.000000
G1 X47.128948 Y54.877472 F100.000000
G1 Y54.928958 F100.000000
G1 X47.145665 Y54.977653 F100.000000
G1 X47.177288 Y55.018282 F100.000000
G1 X47.220390 Y55.046442 F100.000000
G1 X47.270300 Y55.059081 F100.000000
G1 X47.321609 Y55.054829 F100.000000
G1 X47.368758 Y55.034148 F100.000000
G1 X47.406637 Y54.999278 F100.000000
G1 X47.431141 Y54.953998 F100.000000
G1 X47.439615 Y54.903215 F100.000000
G0 Z-1.700000 F30.000000
G1 X47.431141 Y54.852432 F100.000000
G1 X47.406637 Y54.807152 F100.000000
G1 X47.368758 Y54.772282 F100.000000
G1 X47.321609 Y54.751601 F100.000000
G1 X47.270300 Y54.747349 F100.000000
G1 X47.220390 Y54.759988 F100.000000
G1 X47.177288 Y54.788148 F100.000000
G1 X47.145665 Y54.828777 F100.000000
G1 X47.128948 Y54.877472 F100.000000
G1 Y54.928958 F100.000000
G1 X47.145665 Y54.977653 F100.000000
G1 X47.177288 Y55.018282 F100.000000
G1 X47.220390 Y55.046442 F100.000000
G1 X47.270300 Y55.059081 F100.000000
G1 X47.321609 Y55.054829 F100.000000
G1 X47.368758 Y55.034148 F100.000000
G1 X47.406637 Y54.999278 F100.000000
G1 X47.431141 Y54.953998 F100.000000
G1 X47.439615 Y54.903215 F100.000000
G0 Z2.000000
G0 X47.439615 Y47.029215
G17
G0 Z-0.283333 F30.000000
G1 Y47.029215 F100.000000
G1 X47.431141 Y46.978432 F100.000000
G1 X47.406637 Y46.933152 F100.000000
G1 X47.368758 Y46.898282 F100.000000
G1 X47.321609 Y46.877601 F100.000000
G1 X47.270300 Y46.873349 F100.000000
G1 X47.220390 Y46.885988 F100.000000
G1 X47.177288 Y46.914148 F100.000000
G1 X47.145665 Y46.954777 F100.000000
G1 X47.128948 Y47.003472 F100.000000
G1 Y47.054958 F100.000000
G1 X47.145665 Y47.103653 F100.000000
G1 X47.177288 Y47.144282 F100.000000
G1 X47.220390 Y47.172442 F100.000000
G1 X47.270300 Y47.185081 F100.000000
G1 X47.321609 Y47.180829 F100.000000
G1 X47.368758 Y47.160148 F100.000000
G1 X47.406637 Y47.125278 F100.000000
G1 X47.431141 Y47.079998 F100.000000
G1 X47.439615 Y47.029215 F100.000000
G0 Z-0.566667 F30.000000
G1 X47.431141 Y46.978432 F100.000000
G1 X47.406637 Y46.933152 F100.000000
G1 X47.368758 Y46.898282 F100.000000
G1 X47.321609 Y46.877601 F100.000000
G1 X47.270300 Y46.873349 F100.000000
G1 X47.220390 Y46.885988 F100.000000
G1 X47.177288 Y46.914148 F100.000000
G1 X47.145665 Y46.954777 F100.000000
G1 X47.128948 Y47.003472 F100.000000
G1 Y47.054958 F100.000000
G1 X47.145665 Y47.103653 F100.000000
G1 X47.177288 Y47.144282 F100.000000
G1 X47.220390 Y47.172442 F100.000000
G1 X47.270300 Y47.185081 F100.000000
G1 X47.321609 Y47.180829 F100.000000
G1 X47.368758 Y47.160148 F100.000000
G1 X47.406637 Y47.125278 F100.000000
G1 X47.431141 Y47.079998 F100.000000
G1 X47.439615 Y47.029215 F100.000000
G0 Z-0.850000 F30.000000
G1 X47.431141 Y46.978432 F100.000000
G1 X47.406637 Y46.933152 F100.000000
G1 X47.368758 Y46.898282 F100.000000
G1 X47.321609 Y46.877601 F100.000000
G1 X47.270300 Y46.873349 F100.000000
G1 X47.220390 Y46.885988 F100.000000
G1 X47.177288 Y46.914148 F100.000000
G1 X47.145665 Y46.954777 F100.000000
G1 X47.128948 Y47.003472 F100.000000
G1 Y47.054958 F100.000000
G1 X47.145665 Y47.103653 F100.000000
G1 X47.177288 Y47.144282 F100.000000
G1 X47.220390 Y47.172442 F100.000000
G1 X47.270300 Y47.185081 F100.000000
G1 X47.321609 Y47.180829 F100.000000
G1 X47.368758 Y47.160148 F100.000000
G1 X47.406637 Y47.125278 F100.000000
G1 X47.431141 Y47.079998 F100.000000
G1 X47.439615 Y47.029215 F100.000000
G0 Z-1.133333 F30.000000
G1 X47.431141 Y46.978432 F100.000000
G1 X47.406637 Y46.933152 F100.000000
G1 X47.368758 Y46.898282 F100.000000
G1 X47.321609 Y46.877601 F100.000000
G1 X47.270300 Y46.873349 F100.000000
G1 X47.220390 Y46.885988 F100.000000
G1 X47.177288 Y46.914148 F100.000000
G1 X47.145665 Y46.954777 F100.000000
G1 X47.128948 Y47.003472 F100.000000
G1 Y47.054958 F100.000000
G1 X47.145665 Y47.103653 F100.000000
G1 X47.177288 Y47.144282 F100.000000
G1 X47.220390 Y47.172442 F100.000000
G1 X47.270300 Y47.185081 F100.000000
G1 X47.321609 Y47.180829 F100.000000
G1 X47.368758 Y47.160148 F100.000000
G1 X47.406637 Y47.125278 F100.000000
G1 X47.431141 Y47.079998 F100.000000
G1 X47.439615 Y47.029215 F100.000000
G0 Z-1.416667 F30.000000
G1 X47.431141 Y46.978432 F100.000000
G1 X47.406637 Y46.933152 F100.000000
G1 X47.368758 Y46.898282 F100.000000
G1 X47.321609 Y46.877601 F100.000000
G1 X47.270300 Y46.873349 F100.000000
G1 X47.220390 Y46.885988 F100.000000
G1 X47.177288 Y46.914148 F100.000000
G1 X47.145665 Y46.954777 F100.000000
G1 X47.128948 Y47.003472 F100.000000
G1 Y47.054958 F100.000000
G1 X47.145665 Y47.103653 F100.000000
G1 X47.177288 Y47.144282 F100.000000
G1 X47.220390 Y47.172442 F100.000000
G1 X47.270300 Y47.185081 F100.000000
G1 X47.321609 Y47.180829 F100.000000
G1 X47.368758 Y47.160148 F100.000000
G1 X47.406637 Y47.125278 F100.000000
G1 X47.431141 Y47.079998 F100.000000
G1 X47.439615 Y47.029215 F100.000000
G0 Z-1.700000 F30.000000
G1 X47.431141 Y46.978432 F100.000000
G1 X47.406637 Y46.933152 F100.000000
G1 X47.368758 Y46.898282 F100.000000
G1 X47.321609 Y46.877601 F100.000000
G1 X47.270300 Y46.873349 F100.000000
G1 X47.220390 Y46.885988 F100.000000
G1 X47.177288 Y46.914148 F100.000000
G1 X47.145665 Y46.954777 F100.000000
G1 X47.128948 Y47.003472 F100.000000
G1 Y47.054958 F100.000000
G1 X47.145665 Y47.103653 F100.000000
G1 X47.177288 Y47.144282 F100.000000
G1 X47.220390 Y47.172442 F100.000000
G1 X47.270300 Y47.185081 F100.000000
G1 X47.321609 Y47.180829 F100.000000
G1 X47.368758 Y47.160148 F100.000000
G1 X47.406637 Y47.125278 F100.000000
G1 X47.431141 Y47.079998 F100.000000
G1 X47.439615 Y47.029215 F100.000000
G0 Z2.000000
G0 X44.899615 Y54.903215
G17
G0 Z-0.283333 F30.000000
G1 X44.899615 Y54.903215 F100.000000
G1 X44.891141 Y54.852432 F100.000000
G1 X44.866637 Y54.807152 F100.000000
G1 X44.828758 Y54.772282 F100.000000
G1 X44.781609 Y54.751601 F100.000000
G1 X44.730300 Y54.747349 F100.000000
G1 X44.680390 Y54.759988 F100.000000
G1 X44.637288 Y54.788148 F100.000000
G1 X44.605665 Y54.828777 F100.000000
G1 X44.588948 Y54.877472 F100.000000
G1 Y54.928958 F100.000000
G1 X44.605665 Y54.977653 F100.000000
G1 X44.637288 Y55.018282 F100.000000
G1 X44.680390 Y55.046442 F100.000000
G1 X44.730300 Y55.059081 F100.000000
G1 X44.781609 Y55.054829 F100.000000
G1 X44.828758 Y55.034148 F100.000000
G1 X44.866637 Y54.999278 F100.000000
G1 X44.891141 Y54.953998 F100.000000
G1 X44.899615 Y54.903215 F100.000000
G0 Z-0.566667 F30.000000
G1 X44.891141 Y54.852432 F100.000000
G1 X44.866637 Y54.807152 F100.000000
G1 X44.828758 Y54.772282 F100.000000
G1 X44.781609 Y54.751601 F100.000000
G1 X44.730300 Y54.747349 F100.000000
G1 X44.680390 Y54.759988 F100.000000
G1 X44.637288 Y54.788148 F100.000000
G1 X44.605665 Y54.828777 F100.000000
G1 X44.588948 Y54.877472 F100.000000
G1 Y54.928958 F100.000000
G1 X44.605665 Y54.977653 F100.000000
G1 X44.637288 Y55.018282 F100.000000
G1 X44.680390 Y55.046442 F100.000000
G1 X44.730300 Y55.059081 F100.000000
G1 X44.781609 Y55.054829 F100.000000
G1 X44.828758 Y55.034148 F100.000000
G1 X44.866637 Y54.999278 F100.000000
G1 X44.891141 Y54.953998 F100.000000
G1 X44.899615 Y54.903215 F100.000000
G0 Z-0.850000 F30.000000
G1 X44.891141 Y54.852432 F100.000000
G1 X44.866637 Y54.807152 F100.000000
G1 X44.828758 Y54.772282 F100.000000
G1 X44.781609 Y54.751601 F100.000000
G1 X44.730300 Y54.747349 F100.000000
G1 X44.680390 Y54.759988 F100.000000
G1 X44.637288 Y54.788148 F100.000000
G1 X44.605665 Y54.828777 F100.000000
G1 X44.588948 Y54.877472 F100.000000
G1 Y54.928958 F100.000000
G1 X44.605665 Y54.977653 F100.000000
G1 X44.637288 Y55.018282 F100.000000
G1 X44.680390 Y55.046442 F100.000000
G1 X44.730300 Y55.059081 F100.000000
G1 X44.781609 Y55.054829 F100.000000
G1 X44.828758 Y55.034148 F100.000000
G1 X44.866637 Y54.999278 F100.000000
G1 X44.891141 Y54.953998 F100.000000
G1 X44.899615 Y54.903215 F100.000000
G0 Z-1.133333 F30.000000
G1 X44.891141 Y54.852432 F100.000000
G1 X44.866637 Y54.807152 F100.000000
G1 X44.828758 Y54.772282 F100.000000
G1 X44.781609 Y54.751601 F100.000000
G1 X44.730300 Y54.747349 F100.000000
G1 X44.680390 Y54.759988 F100.000000
G1 X44.637288 Y54.788148 F100.000000
G1 X44.605665 Y54.828777 F100.000000
G1 X44.588948 Y54.877472 F100.000000
G1 Y54.928958 F100.000000
G1 X44.605665 Y54.977653 F100.000000
G1 X44.637288 Y55.018282 F100.000000
G1 X44.680390 Y55.046442 F100.000000
G1 X44.730300 Y55.059081 F100.000000
G1 X44.781609 Y55.054829 F100.000000
G1 X44.828758 Y55.034148 F100.000000
G1 X44.866637 Y54.999278 F100.000000
G1 X44.891141 Y54.953998 F100.000000
G1 X44.899615 Y54.903215 F100.000000
G0 Z-1.416667 F30.000000
G1 X44.891141 Y54.852432 F100.000000
G1 X44.866637 Y54.807152 F100.000000
G1 X44.828758 Y54.772282 F100.000000
G1 X44.781609 Y54.751601 F100.000000
G1 X44.730300 Y54.747349 F100.000000
G1 X44.680390 Y54.759988 F100.000000
G1 X44.637288 Y54.788148 F100.000000
G1 X44.605665 Y54.828777 F100.000000
G1 X44.588948 Y54.877472 F100.000000
G1 Y54.928958 F100.000000
G1 X44.605665 Y54.977653 F100.000000
G1 X44.637288 Y55.018282 F100.000000
G1 X44.680390 Y55.046442 F100.000000
G1 X44.730300 Y55.059081 F100.000000
G1 X44.781609 Y55.054829 F100.000000
G1 X44.828758 Y55.034148 F100.000000
G1 X44.866637 Y54.999278 F100.000000
G1 X44.891141 Y54.953998 F100.000000
G1 X44.899615 Y54.903215 F100.000000
G0 Z-1.700000 F30.000000
G1 X44.891141 Y54.852432 F100.000000
G1 X44.866637 Y54.807152 F100.000000
G1 X44.828758 Y54.772282 F100.000000
G1 X44.781609 Y54.751601 F100.000000
G1 X44.730300 Y54.747349 F100.000000
G1 X44.680390 Y54.759988 F100.000000
G1 X44.637288 Y54.788148 F100.000000
G1 X44.605665 Y54.828777 F100.000000
G1 X44.588948 Y54.877472 F100.000000
G1 Y54.928958 F100.000000
G1 X44.605665 Y54.977653 F100.000000
G1 X44.637288 Y55.018282 F100.000000
G1 X44.680390 Y55.046442 F100.000000
G1 X44.730300 Y55.059081 F100.000000
G1 X44.781609 Y55.054829 F100.000000
G1 X44.828758 Y55.034148 F100.000000
G1 X44.866637 Y54.999278 F100.000000
G1 X44.891141 Y54.953998 F100.000000
G1 X44.899615 Y54.903215 F100.000000
G0 Z2.000000
G0 X44.899615 Y47.029215
G17
G0 Z-0.283333 F30.000000
G1 Y47.029215 F100.000000
G1 X44.891141 Y46.978432 F100.000000
G1 X44.866637 Y46.933152 F100.000000
G1 X44.828758 Y46.898282 F100.000000
G1 X44.781609 Y46.877601 F100.000000
G1 X44.730300 Y46.873349 F100.000000
G1 X44.680390 Y46.885988 F100.000000
G1 X44.637288 Y46.914148 F100.000000
G1 X44.605665 Y46.954777 F100.000000
G1 X44.588948 Y47.003472 F100.000000
G1 Y47.054958 F100.000000
G1 X44.605665 Y47.103653 F100.000000
G1 X44.637288 Y47.144282 F100.000000
G1 X44.680390 Y47.172442 F100.000000
G1 X44.730300 Y47.185081 F100.000000
G1 X44.781609 Y47.180829 F100.000000
G1 X44.828758 Y47.160148 F100.000000
G1 X44.866637 Y47.125278 F100.000000
G1 X44.891141 Y47.079998 F100.000000
G1 X44.899615 Y47.029215 F100.000000
G0 Z-0.566667 F30.000000
G1 X44.891141 Y46.978432 F100.000000
G1 X44.866637 Y46.933152 F100.000000
G1 X44.828758 Y46.898282 F100.000000
G1 X44.781609 Y46.877601 F100.000000
G1 X44.730300 Y46.873349 F100.000000
G1 X44.680390 Y46.885988 F100.000000
G1 X44.637288 Y46.914148 F100.000000
G1 X44.605665 Y46.954777 F100.000000
G1 X44.588948 Y47.003472 F100.000000
G1 Y47.054958 F100.000000
G1 X44.605665 Y47.103653 F100.000000
G1 X44.637288 Y47.144282 F100.000000
G1 X44.680390 Y47.172442 F100.000000
G1 X44.730300 Y47.185081 F100.000000
G1 X44.781609 Y47.180829 F100.000000
G1 X44.828758 Y47.160148 F100.000000
G1 X44.866637 Y47.125278 F100.000000
G1 X44.891141 Y47.079998 F100.000000
G1 X44.899615 Y47.029215 F100.000000
G0 Z-0.850000 F30.000000
G1 X44.891141 Y46.978432 F100.000000
G1 X44.866637 Y46.933152 F100.000000
G1 X44.828758 Y46.898282 F100.000000
G1 X44.781609 Y46.877601 F100.000000
G1 X44.730300 Y46.873349 F100.000000
G1 X44.680390 Y46.885988 F100.000000
G1 X44.637288 Y46.914148 F100.000000
G1 X44.605665 Y46.954777 F100.000000
G1 X44.588948 Y47.003472 F100.000000
G1 Y47.054958 F100.000000
G1 X44.605665 Y47.103653 F100.000000
G1 X44.637288 Y47.144282 F100.000000
G1 X44.680390 Y47.172442 F100.000000
G1 X44.730300 Y47.185081 F100.000000
G1 X44.781609 Y47.180829 F100.000000
G1 X44.828758 Y47.160148 F100.000000
G1 X44.866637 Y47.125278 F100.000000
G1 X44.891141 Y47.079998 F100.000000
G1 X44.899615 Y47.029215 F100.000000
G0 Z-1.133333 F30.000000
G1 X44.891141 Y46.978432 F100.000000
G1 X44.866637 Y46.933152 F100.000000
G1 X44.828758 Y46.898282 F100.000000
G1 X44.781609 Y46.877601 F100.000000
G1 X44.730300 Y46.873349 F100.000000
G1 X44.680390 Y46.885988 F100.000000
G1 X44.637288 Y46.914148 F100.000000
G1 X44.605665 Y46.954777 F100.000000
G1 X44.588948 Y47.003472 F100.000000
G1 Y47.054958 F100.000000
G1 X44.605665 Y47.103653 F100.000000
G1 X44.637288 Y47.144282 F100.000000
G1 X44.680390 Y47.172442 F100.000000
G1 X44.730300 Y47.185081 F100.000000
G1 X44.781609 Y47.180829 F100.000000
G1 X44.828758 Y47.160148 F100.000000
G1 X44.866637 Y47.125278 F100.000000
G1 X44.891141 Y47.079998 F100.000000
G1 X44.899615 Y47.029215 F100.000000
G0 Z-1.416667 F30.000000
G1 X44.891141 Y46.978432 F100.000000
G1 X44.866637 Y46.933152 F100.000000
G1 X44.828758 Y46.898282 F100.000000
G1 X44.781609 Y46.877601 F100.000000
G1 X44.730300 Y46.873349 F100.000000
G1 X44.680390 Y46.885988 F100.000000
G1 X44.637288 Y46.914148 F100.000000
G1 X44.605665 Y46.954777 F100.000000
G1 X44.588948 Y47.003472 F100.000000
G1 Y47.054958 F100.000000
G1 X44.605665 Y47.103653 F100.000000
G1 X44.637288 Y47.144282 F100.000000
G1 X44.680390 Y47.172442 F100.000000
G1 X44.730300 Y47.185081 F100.000000
G1 X44.781609 Y47.180829 F100.000000
G1 X44.828758 Y47.160148 F100.000000
G1 X44.866637 Y47.125278 F100.000000
G1 X44.891141 Y47.079998 F100.000000
G1 X44.899615 Y47.029215 F100.000000
G0 Z-1.700000 F30.000000
G1 X44.891141 Y46.978432 F100.000000
G1 X44.866637 Y46.933152 F100.000000
G1 X44.828758 Y46.898282 F100.000000
G1 X44.781609 Y46.877601 F100.000000
G1 X44.730300 Y46.873349 F100.000000
G1 X44.680390 Y46.885988 F100.000000
G1 X44.637288 Y46.914148 F100.000000
G1 X44.605665 Y46.954777 F100.000000
G1 X44.588948 Y47.003472 F100.000000
G1 Y47.054958 F100.000000
G1 X44.605665 Y47.103653 F100.000000
G1 X44.637288 Y47.144282 F100.000000
G1 X44.680390 Y47.172442 F100.000000
G1 X44.730300 Y47.185081 F100.000000
G1 X44.781609 Y47.180829 F100.000000
G1 X44.828758 Y47.160148 F100.000000
G1 X44.866637 Y47.125278 F100.000000
G1 X44.891141 Y47.079998 F100.000000
G1 X44.899615 Y47.029215 F100.000000
G0 Z2.000000
G0 X42.486615 Y51.347215
G17
G0 Z-0.283333 F30.000000
G1 X42.486615 Y51.347215 F100.000000
G1 X42.478141 Y51.296432 F100.000000
G1 X42.453637 Y51.251152 F100.000000
G1 X42.415758 Y51.216282 F100.000000
G1 X42.368609 Y51.195601 F100.000000
G1 X42.317300 Y51.191349 F100.000000
G1 X42.267390 Y51.203988 F100.000000
G1 X42.224288 Y51.232148 F100.000000
G1 X42.192665 Y51.272777 F100.000000
G1 X42.175948 Y51.321472 F100.000000
G1 Y51.372958 F100.000000
G1 X42.192665 Y51.421653 F100.000000
G1 X42.224288 Y51.462282 F100.000000
G1 X42.267390 Y51.490442 F100.000000
G1 X42.317300 Y51.503081 F100.000000
G1 X42.368609 Y51.498829 F100.000000
G1 X42.415758 Y51.478148 F100.000000
G1 X42.453637 Y51.443278 F100.000000
G1 X42.478141 Y51.397998 F100.000000
G1 X42.486615 Y51.347215 F100.000000
G0 Z-0.566667 F30.000000
G1 X42.478141 Y51.296432 F100.000000
G1 X42.453637 Y51.251152 F100.000000
G1 X42.415758 Y51.216282 F100.000000
G1 X42.368609 Y51.195601 F100.000000
G1 X42.317300 Y51.191349 F100.000000
G1 X42.267390 Y51.203988 F100.000000
G1 X42.224288 Y51.232148 F100.000000
G1 X42.192665 Y51.272777 F100.000000
G1 X42.175948 Y51.321472 F100.000000
G1 Y51.372958 F100.000000
G1 X42.192665 Y51.421653 F100.000000
G1 X42.224288 Y51.462282 F100.000000
G1 X42.267390 Y51.490442 F100.000000
G1 X42.317300 Y51.503081 F100.000000
G1 X42.368609 Y51.498829 F100.000000
G1 X42.415758 Y51.478148 F100.000000
G1 X42.453637 Y51.443278 F100.000000
G1 X42.478141 Y51.397998 F100.000000
G1 X42.486615 Y51.347215 F100.000000
G0 Z-0.850000 F30.000000
G1 X42.478141 Y51.296432 F100.000000
G1 X42.453637 Y51.251152 F100.000000
G1 X42.415758 Y51.216282 F100.000000
G1 X42.368609 Y51.195601 F100.000000
G1 X42.317300 Y51.191349 F100.000000
G1 X42.267390 Y51.203988 F100.000000
G1 X42.224288 Y51.232148 F100.000000
G1 X42.192665 Y51.272777 F100.000000
G1 X42.175948 Y51.321472 F100.000000
G1 Y51.372958 F100.000000
G1 X42.192665 Y51.421653 F100.000000
G1 X42.224288 Y51.462282 F100.000000
G1 X42.267390 Y51.490442 F100.000000
G1 X42.317300 Y51.503081 F100.000000
G1 X42.368609 Y51.498829 F100.000000
G1 X42.415758 Y51.478148 F100.000000
G1 X42.453637 Y51.443278 F100.000000
G1 X42.478141 Y51.397998 F100.000000
G1 X42.486615 Y51.347215 F100.000000
G0 Z-1.133333 F30.000000
G1 X42.478141 Y51.296432 F100.000000
G1 X42.453637 Y51.251152 F100.000000
G1 X42.415758 Y51.216282 F100.000000
G1 X42.368609 Y51.195601 F100.000000
G1 X42.317300 Y51.191349 F100.000000
G1 X42.267390 Y51.203988 F100.000000
G1 X42.224288 Y51.232148 F100.000000
G1 X42.192665 Y51.272777 F100.000000
G1 X42.175948 Y51.321472 F100.000000
G1 Y51.372958 F100.000000
G1 X42.192665 Y51.421653 F100.000000
G1 X42.224288 Y51.462282 F100.000000
G1 X42.267390 Y51.490442 F100.000000
G1 X42.317300 Y51.503081 F100.000000
G1 X42.368609 Y51.498829 F100.000000
G1 X42.415758 Y51.478148 F100.000000
G1 X42.453637 Y51.443278 F100.000000
G1 X42.478141 Y51.397998 F100.000000
G1 X42.486615 Y51.347215 F100.000000
G0 Z-1.416667 F30.000000
G1 X42.478141 Y51.296432 F100.000000
G1 X42.453637 Y51.251152 F100.000000
G1 X42.415758 Y51.216282 F100.000000
G1 X42.368609 Y51.195601 F100.000000
G1 X42.317300 Y51.191349 F100.000000
G1 X42.267390 Y51.203988 F100.000000
G1 X42.224288 Y51.232148 F100.000000
G1 X42.192665 Y51.272777 F100.000000
G1 X42.175948 Y51.321472 F100.000000
G1 Y51.372958 F100.000000
G1 X42.192665 Y51.421653 F100.000000
G1 X42.224288 Y51.462282 F100.000000
G1 X42.267390 Y51.490442 F100.000000
G1 X42.317300 Y51.503081 F100.000000
G1 X42.368609 Y51.498829 F100.000000
G1 X42.415758 Y51.478148 F100.000000
G1 X42.453637 Y51.443278 F100.000000
G1 X42.478141 Y51.397998 F100.000000
G1 X42.486615 Y51.347215 F100.000000
G0 Z-1.700000 F30.000000
G1 X42.478141 Y51.296432 F100.000000
G1 X42.453637 Y51.251152 F100.000000
G1 X42.415758 Y51.216282 F100.000000
G1 X42.368609 Y51.195601 F100.000000
G1 X42.317300 Y51.191349 F100.000000
G1 X42.267390 Y51.203988 F100.000000
G1 X42.224288 Y51.232148 F100.000000
G1 X42.192665 Y51.272777 F100.000000
G1 X42.175948 Y51.321472 F100.000000
G1 Y51.372958 F100.000000
G1 X42.192665 Y51.421653 F100.000000
G1 X42.224288 Y51.462282 F100.000000
G1 X42.267390 Y51.490442 F100.000000
G1 X42.317300 Y51.503081 F100.000000
G1 X42.368609 Y51.498829 F100.000000
G1 X42.415758 Y51.478148 F100.000000
G1 X42.453637 Y51.443278 F100.000000
G1 X42.478141 Y51.397998 F100.000000
G1 X42.486615 Y51.347215 F100.000000
G0 Z2.000000
G0 X42.359615 Y54.903215
G17
G0 Z-0.283333 F30.000000
G1 X42.359615 Y54.903215 F100.000000
G1 X42.351141 Y54.852432 F100.000000
G1 X42.326637 Y54.807152 F100.000000
G1 X42.288758 Y54.772282 F100.000000
G1 X42.241609 Y54.751601 F100.000000
G1 X42.190300 Y54.747349 F100.000000
G1 X42.140390 Y54.759988 F100.000000
G1 X42.097288 Y54.788148 F100.000000
G1 X42.065665 Y54.828777 F100.000000
G1 X42.048948 Y54.877472 F100.000000
G1 Y54.928958 F100.000000
G1 X42.065665 Y54.977653 F100.000000
G1 X42.097288 Y55.018282 F100.000000
G1 X42.140390 Y55.046442 F100.000000
G1 X42.190300 Y55.059081 F100.000000
G1 X42.241609 Y55.054829 F100.000000
G1 X42.288758 Y55.034148 F100.000000
G1 X42.326637 Y54.999278 F100.000000
G1 X42.351141 Y54.953998 F100.000000
G1 X42.359615 Y54.903215 F100.000000
G0 Z-0.566667 F30.000000
G1 X42.351141 Y54.852432 F100.000000
G1 X42.326637 Y54.807152 F100.000000
G1 X42.288758 Y54.772282 F100.000000
G1 X42.241609 Y54.751601 F100.000000
G1 X42.190300 Y54.747349 F100.000000
G1 X42.140390 Y54.759988 F100.000000
G1 X42.097288 Y54.788148 F100.000000
G1 X42.065665 Y54.828777 F100.000000
G1 X42.048948 Y54.877472 F100.000000
G1 Y54.928958 F100.000000
G1 X42.065665 Y54.977653 F100.000000
G1 X42.097288 Y55.018282 F100.000000
G1 X42.140390 Y55.046442 F100.000000
G1 X42.190300 Y55.059081 F100.000000
G1 X42.241609 Y55.054829 F100.000000
G1 X42.288758 Y55.034148 F100.000000
G1 X42.326637 Y54.999278 F100.000000
G1 X42.351141 Y54.953998 F100.000000
G1 X42.359615 Y54.903215 F100.000000
G0 Z-0.850000 F30.000000
G1 X42.351141 Y54.852432 F100.000000
G1 X42.326637 Y54.807152 F100.000000
G1 X42.288758 Y54.772282 F100.000000
G1 X42.241609 Y54.751601 F100.000000
G1 X42.190300 Y54.747349 F100.000000
G1 X42.140390 Y54.759988 F100.000000
G1 X42.097288 Y54.788148 F100.000000
G1 X42.065665 Y54.828777 F100.000000
G1 X42.048948 Y54.877472 F100.000000
G1 Y54.928958 F100.000000
G1 X42.065665 Y54.977653 F100.000000
G1 X42.097288 Y55.018282 F100.000000
G1 X42.140390 Y55.046442 F100.000000
G1 X42.190300 Y55.059081 F100.000000
G1 X42.241609 Y55.054829 F100.000000
G1 X42.288758 Y55.034148 F100.000000
G1 X42.326637 Y54.999278 F100.000000
G1 X42.351141 Y54.953998 F100.000000
G1 X42.359615 Y54.903215 F100.000000
G0 Z-1.133333 F30.000000
G1 X42.351141 Y54.852432 F100.000000
G1 X42.326637 Y54.807152 F100.000000
G1 X42.288758 Y54.772282 F100.000000
G1 X42.241609 Y54.751601 F100.000000
G1 X42.190300 Y54.747349 F100.000000
G1 X42.140390 Y54.759988 F100.000000
G1 X42.097288 Y54.788148 F100.000000
G1 X42.065665 Y54.828777 F100.000000
G1 X42.048948 Y54.877472 F100.000000
G1 Y54.928958 F100.000000
G1 X42.065665 Y54.977653 F100.000000
G1 X42.097288 Y55.018282 F100.000000
G1 X42.140390 Y55.046442 F100.000000
G1 X42.190300 Y55.059081 F100.000000
G1 X42.241609 Y55.054829 F100.000000
G1 X42.288758 Y55.034148 F100.000000
G1 X42.326637 Y54.999278 F100.000000
G1 X42.351141 Y54.953998 F100.000000
G1 X42.359615 Y54.903215 F100.000000
G0 Z-1.416667 F30.000000
G1 X42.351141 Y54.852432 F100.000000
G1 X42.326637 Y54.807152 F100.000000
G1 X42.288758 Y54.772282 F100.000000
G1 X42.241609 Y54.751601 F100.000000
G1 X42.190300 Y54.747349 F100.000000
G1 X42.140390 Y54.759988 F100.000000
G1 X42.097288 Y54.788148 F100.000000
G1 X42.065665 Y54.828777 F100.000000
G1 X42.048948 Y54.877472 F100.000000
G1 Y54.928958 F100.000000
G1 X42.065665 Y54.977653 F100.000000
G1 X42.097288 Y55.018282 F100.000000
G1 X42.140390 Y55.046442 F100.000000
G1 X42.190300 Y55.059081 F100.000000
G1 X42.241609 Y55.054829 F100.000000
G1 X42.288758 Y55.034148 F100.000000
G1 X42.326637 Y54.999278 F100.000000
G1 X42.351141 Y54.953998 F100.000000
G1 X42.359615 Y54.903215 F100.000000
G0 Z-1.700000 F30.000000
G1 X42.351141 Y54.852432 F100.000000
G1 X42.326637 Y54.807152 F100.000000
G1 X42.288758 Y54.772282 F100.000000
G1 X42.241609 Y54.751601 F100.000000
G1 X42.190300 Y54.747349 F100.000000
G1 X42.140390 Y54.759988 F100.000000
G1 X42.097288 Y54.788148 F100.000000
G1 X42.065665 Y54.828777 F100.000000
G1 X42.048948 Y54.877472 F100.000000
G1 Y54.928958 F100.000000
G1 X42.065665 Y54.977653 F100.000000
G1 X42.097288 Y55.018282 F100.000000
G1 X42.140390 Y55.046442 F100.000000
G1 X42.190300 Y55.059081 F100.000000
G1 X42.241609 Y55.054829 F100.000000
G1 X42.288758 Y55.034148 F100.000000
G1 X42.326637 Y54.999278 F100.000000
G1 X42.351141 Y54.953998 F100.000000
G1 X42.359615 Y54.903215 F100.000000
G0 Z2.000000
G0 X39.819615 Y54.903215
G17
G0 Z-0.283333 F30.000000
G1 X39.819615 F100.000000
G1 X39.811141 Y54.852432 F100.000000
G1 X39.786637 Y54.807152 F100.000000
G1 X39.748758 Y54.772282 F100.000000
G1 X39.701609 Y54.751601 F100.000000
G1 X39.650300 Y54.747349 F100.000000
G1 X39.600390 Y54.759988 F100.000000
G1 X39.557288 Y54.788148 F100.000000
G1 X39.525665 Y54.828777 F100.000000
G1 X39.508948 Y54.877472 F100.000000
G1 Y54.928958 F100.000000
G1 X39.525665 Y54.977653 F100.000000
G1 X39.557288 Y55.018282 F100.000000
G1 X39.600390 Y55.046442 F100.000000
G1 X39.650300 Y55.059081 F100.000000
G1 X39.701609 Y55.054829 F100.000000
G1 X39.748758 Y55.034148 F100.000000
G1 X39.786637 Y54.999278 F100.000000
G1 X39.811141 Y54.953998 F100.000000
G1 X39.819615 Y54.903215 F100.000000
G0 Z-0.566667 F30.000000
G1 X39.811141 Y54.852432 F100.000000
G1 X39.786637 Y54.807152 F100.000000
G1 X39.748758 Y54.772282 F100.000000
G1 X39.701609 Y54.751601 F100.000000
G1 X39.650300 Y54.747349 F100.000000
G1 X39.600390 Y54.759988 F100.000000
G1 X39.557288 Y54.788148 F100.000000
G1 X39.525665 Y54.828777 F100.000000
G1 X39.508948 Y54.877472 F100.000000
G1 Y54.928958 F100.000000
G1 X39.525665 Y54.977653 F100.000000
G1 X39.557288 Y55.018282 F100.000000
G1 X39.600390 Y55.046442 F100.000000
G1 X39.650300 Y55.059081 F100.000000
G1 X39.701609 Y55.054829 F100.000000
G1 X39.748758 Y55.034148 F100.000000
G1 X39.786637 Y54.999278 F100.000000
G1 X39.811141 Y54.953998 F100.000000
G1 X39.819615 Y54.903215 F100.000000
G0 Z-0.850000 F30.000000
G1 X39.811141 Y54.852432 F100.000000
G1 X39.786637 Y54.807152 F100.000000
G1 X39.748758 Y54.772282 F100.000000
G1 X39.701609 Y54.751601 F100.000000
G1 X39.650300 Y54.747349 F100.000000
G1 X39.600390 Y54.759988 F100.000000
G1 X39.557288 Y54.788148 F100.000000
G1 X39.525665 Y54.828777 F100.000000
G1 X39.508948 Y54.877472 F100.000000
G1 Y54.928958 F100.000000
G1 X39.525665 Y54.977653 F100.000000
G1 X39.557288 Y55.018282 F100.000000
G1 X39.600390 Y55.046442 F100.000000
G1 X39.650300 Y55.059081 F100.000000
G1 X39.701609 Y55.054829 F100.000000
G1 X39.748758 Y55.034148 F100.000000
G1 X39.786637 Y54.999278 F100.000000
G1 X39.811141 Y54.953998 F100.000000
G1 X39.819615 Y54.903215 F100.000000
G0 Z-1.133333 F30.000000
G1 X39.811141 Y54.852432 F100.000000
G1 X39.786637 Y54.807152 F100.000000
G1 X39.748758 Y54.772282 F100.000000
G1 X39.701609 Y54.751601 F100.000000
G1 X39.650300 Y54.747349 F100.000000
G1 X39.600390 Y54.759988 F100.000000
G1 X39.557288 Y54.788148 F100.000000
G1 X39.525665 Y54.828777 F100.000000
G1 X39.508948 Y54.877472 F100.000000
G1 Y54.928958 F100.000000
G1 X39.525665 Y54.977653 F100.000000
G1 X39.557288 Y55.018282 F100.000000
G1 X39.600390 Y55.046442 F100.000000
G1 X39.650300 Y55.059081 F100.000000
G1 X39.701609 Y55.054829 F100.000000
G1 X39.748758 Y55.034148 F100.000000
G1 X39.786637 Y54.999278 F100.000000
G1 X39.811141 Y54.953998 F100.000000
G1 X39.819615 Y54.903215 F100.000000
G0 Z-1.416667 F30.000000
G1 X39.811141 Y54.852432 F100.000000
G1 X39.786637 Y54.807152 F100.000000
G1 X39.748758 Y54.772282 F100.000000
G1 X39.701609 Y54.751601 F100.000000
G1 X39.650300 Y54.747349 F100.000000
G1 X39.600390 Y54.759988 F100.000000
G1 X39.557288 Y54.788148 F100.000000
G1 X39.525665 Y54.828777 F100.000000
G1 X39.508948 Y54.877472 F100.000000
G1 Y54.928958 F100.000000
G1 X39.525665 Y54.977653 F100.000000
G1 X39.557288 Y55.018282 F100.000000
G1 X39.600390 Y55.046442 F100.000000
G1 X39.650300 Y55.059081 F100.000000
G1 X39.701609 Y55.054829 F100.000000
G1 X39.748758 Y55.034148 F100.000000
G1 X39.786637 Y54.999278 F100.000000
G1 X39.811141 Y54.953998 F100.000000
G1 X39.819615 Y54.903215 F100.000000
G0 Z-1.700000 F30.000000
G1 X39.811141 Y54.852432 F100.000000
G1 X39.786637 Y54.807152 F100.000000
G1 X39.748758 Y54.772282 F100.000000
G1 X39.701609 Y54.751601 F100.000000
G1 X39.650300 Y54.747349 F100.000000
G1 X39.600390 Y54.759988 F100.000000
G1 X39.557288 Y54.788148 F100.000000
G1 X39.525665 Y54.828777 F100.000000
G1 X39.508948 Y54.877472 F100.000000
G1 Y54.928958 F100.000000
G1 X39.525665 Y54.977653 F100.000000
G1 X39.557288 Y55.018282 F100.000000
G1 X39.600390 Y55.046442 F100.000000
G1 X39.650300 Y55.059081 F100.000000
G1 X39.701609 Y55.054829 F100.000000
G1 X39.748758 Y55.034148 F100.000000
G1 X39.786637 Y54.999278 F100.000000
G1 X39.811141 Y54.953998 F100.000000
G1 X39.819615 Y54.903215 F100.000000
G0 Z2.000000
G0 X38.295615 Y6.643215
G17
G0 Z-0.283333 F30.000000
G1 X38.295615 Y6.643215 F100.000000
G1 X38.287141 Y6.592432 F100.000000
G1 X38.262637 Y6.547152 F100.000000
G1 X38.224758 Y6.512282 F100.000000
G1 X38.177609 Y6.491601 F100.000000
G1 X38.126300 Y6.487349 F100.000000
G1 X38.076390 Y6.499988 F100.000000
G1 X38.033288 Y6.528148 F100.000000
G1 X38.001665 Y6.568777 F100.000000
G1 X37.984948 Y6.617472 F100.000000
G1 Y6.668958 F100.000000
G1 X38.001665 Y6.717653 F100.000000
G1 X38.033288 Y6.758282 F100.000000
G1 X38.076390 Y6.786442 F100.000000
G1 X38.126300 Y6.799081 F100.000000
G1 X38.177609 Y6.794829 F100.000000
G1 X38.224758 Y6.774148 F100.000000
G1 X38.262637 Y6.739278 F100.000000
G1 X38.287141 Y6.693998 F100.000000
G1 X38.295615 Y6.643215 F100.000000
G0 Z-0.566667 F30.000000
G1 X38.287141 Y6.592432 F100.000000
G1 X38.262637 Y6.547152 F100.000000
G1 X38.224758 Y6.512282 F100.000000
G1 X38.177609 Y6.491601 F100.000000
G1 X38.126300 Y6.487349 F100.000000
G1 X38.076390 Y6.499988 F100.000000
G1 X38.033288 Y6.528148 F100.000000
G1 X38.001665 Y6.568777 F100.000000
G1 X37.984948 Y6.617472 F100.000000
G1 Y6.668958 F100.000000
G1 X38.001665 Y6.717653 F100.000000
G1 X38.033288 Y6.758282 F100.000000
G1 X38.076390 Y6.786442 F100.000000
G1 X38.126300 Y6.799081 F100.000000
G1 X38.177609 Y6.794829 F100.000000
G1 X38.224758 Y6.774148 F100.000000
G1 X38.262637 Y6.739278 F100.000000
G1 X38.287141 Y6.693998 F100.000000
G1 X38.295615 Y6.643215 F100.000000
G0 Z-0.850000 F30.000000
G1 X38.287141 Y6.592432 F100.000000
G1 X38.262637 Y6.547152 F100.000000
G1 X38.224758 Y6.512282 F100.000000
G1 X38.177609 Y6.491601 F100.000000
G1 X38.126300 Y6.487349 F100.000000
G1 X38.076390 Y6.499988 F100.000000
G1 X38.033288 Y6.528148 F100.000000
G1 X38.001665 Y6.568777 F100.000000
G1 X37.984948 Y6.617472 F100.000000
G1 Y6.668958 F100.000000
G1 X38.001665 Y6.717653 F100.000000
G1 X38.033288 Y6.758282 F100.000000
G1 X38.076390 Y6.786442 F100.000000
G1 X38.126300 Y6.799081 F100.000000
G1 X38.177609 Y6.794829 F100.000000
G1 X38.224758 Y6.774148 F100.000000
G1 X38.262637 Y6.739278 F100.000000
G1 X38.287141 Y6.693998 F100.000000
G1 X38.295615 Y6.643215 F100.000000
G0 Z-1.133333 F30.000000
G1 X38.287141 Y6.592432 F100.000000
G1 X38.262637 Y6.547152 F100.000000
G1 X38.224758 Y6.512282 F100.000000
G1 X38.177609 Y6.491601 F100.000000
G1 X38.126300 Y6.487349 F100.000000
G1 X38.076390 Y6.499988 F100.000000
G1 X38.033288 Y6.528148 F100.000000
G1 X38.001665 Y6.568777 F100.000000
G1 X37.984948 Y6.617472 F100.000000
G1 Y6.668958 F100.000000
G1 X38.001665 Y6.717653 F100.000000
G1 X38.033288 Y6.758282 F100.000000
G1 X38.076390 Y6.786442 F100.000000
G1 X38.126300 Y6.799081 F100.000000
G1 X38.177609 Y6.794829 F100.000000
G1 X38.224758 Y6.774148 F100.000000
G1 X38.262637 Y6.739278 F100.000000
G1 X38.287141 Y6.693998 F100.000000
G1 X38.295615 Y6.643215 F100.000000
G0 Z-1.416667 F30.000000
G1 X38.287141 Y6.592432 F100.000000
G1 X38.262637 Y6.547152 F100.000000
G1 X38.224758 Y6.512282 F100.000000
G1 X38.177609 Y6.491601 F100.000000
G1 X38.126300 Y6.487349 F100.000000
G1 X38.076390 Y6.499988 F100.000000
G1 X38.033288 Y6.528148 F100.000000
G1 X38.001665 Y6.568777 F100.000000
G1 X37.984948 Y6.617472 F100.000000
G1 Y6.668958 F100.000000
G1 X38.001665 Y6.717653 F100.000000
G1 X38.033288 Y6.758282 F100.000000
G1 X38.076390 Y6.786442 F100.000000
G1 X38.126300 Y6.799081 F100.000000
G1 X38.177609 Y6.794829 F100.000000
G1 X38.224758 Y6.774148 F100.000000
G1 X38.262637 Y6.739278 F100.000000
G1 X38.287141 Y6.693998 F100.000000
G1 X38.295615 Y6.643215 F100.000000
G0 Z-1.700000 F30.000000
G1 X38.287141 Y6.592432 F100.000000
G1 X38.262637 Y6.547152 F100.000000
G1 X38.224758 Y6.512282 F100.000000
G1 X38.177609 Y6.491601 F100.000000
G1 X38.126300 Y6.487349 F100.000000
G1 X38.076390 Y6.499988 F100.000000
G1 X38.033288 Y6.528148 F100.000000
G1 X38.001665 Y6.568777 F100.000000
G1 X37.984948 Y6.617472 F100.000000
G1 Y6.668958 F100.000000
G1 X38.001665 Y6.717653 F100.000000
G1 X38.033288 Y6.758282 F100.000000
G1 X38.076390 Y6.786442 F100.000000
G1 X38.126300 Y6.799081 F100.000000
G1 X38.177609 Y6.794829 F100.000000
G1 X38.224758 Y6.774148 F100.000000
G1 X38.262637 Y6.739278 F100.000000
G1 X38.287141 Y6.693998 F100.000000
G1 X38.295615 Y6.643215 F100.000000
G0 Z2.000000
G0 X37.279615 Y54.903215
G17
G0 Z-0.283333 F30.000000
G1 X37.279615 Y54.903215 F100.000000
G1 X37.271141 Y54.852432 F100.000000
G1 X37.246637 Y54.807152 F100.000000
G1 X37.208758 Y54.772282 F100.000000
G1 X37.161609 Y54.751601 F100.000000
G1 X37.110300 Y54.747349 F100.000000
G1 X37.060390 Y54.759988 F100.000000
G1 X37.017288 Y54.788148 F100.000000
G1 X36.985665 Y54.828777 F100.000000
G1 X36.968948 Y54.877472 F100.000000
G1 Y54.928958 F100.000000
G1 X36.985665 Y54.977653 F100.000000
G1 X37.017288 Y55.018282 F100.000000
G1 X37.060390 Y55.046442 F100.000000
G1 X37.110300 Y55.059081 F100.000000
G1 X37.161609 Y55.054829 F100.000000
G1 X37.208758 Y55.034148 F100.000000
G1 X37.246637 Y54.999278 F100.000000
G1 X37.271141 Y54.953998 F100.000000
G1 X37.279615 Y54.903215 F100.000000
G0 Z-0.566667 F30.000000
G1 X37.271141 Y54.852432 F100.000000
G1 X37.246637 Y54.807152 F100.000000
G1 X37.208758 Y54.772282 F100.000000
G1 X37.161609 Y54.751601 F100.000000
G1 X37.110300 Y54.747349 F100.000000
G1 X37.060390 Y54.759988 F100.000000
G1 X37.017288 Y54.788148 F100.000000
G1 X36.985665 Y54.828777 F100.000000
G1 X36.968948 Y54.877472 F100.000000
G1 Y54.928958 F100.000000
G1 X36.985665 Y54.977653 F100.000000
G1 X37.017288 Y55.018282 F100.000000
G1 X37.060390 Y55.046442 F100.000000
G1 X37.110300 Y55.059081 F100.000000
G1 X37.161609 Y55.054829 F100.000000
G1 X37.208758 Y55.034148 F100.000000
G1 X37.246637 Y54.999278 F100.000000
G1 X37.271141 Y54.953998 F100.000000
G1 X37.279615 Y54.903215 F100.000000
G0 Z-0.850000 F30.000000
G1 X37.271141 Y54.852432 F100.000000
G1 X37.246637 Y54.807152 F100.000000
G1 X37.208758 Y54.772282 F100.000000
G1 X37.161609 Y54.751601 F100.000000
G1 X37.110300 Y54.747349 F100.000000
G1 X37.060390 Y54.759988 F100.000000
G1 X37.017288 Y54.788148 F100.000000
G1 X36.985665 Y54.828777 F100.000000
G1 X36.968948 Y54.877472 F100.000000
G1 Y54.928958 F100.000000
G1 X36.985665 Y54.977653 F100.000000
G1 X37.017288 Y55.018282 F100.000000
G1 X37.060390 Y55.046442 F100.000000
G1 X37.110300 Y55.059081 F100.000000
G1 X37.161609 Y55.054829 F100.000000
G1 X37.208758 Y55.034148 F100.000000
G1 X37.246637 Y54.999278 F100.000000
G1 X37.271141 Y54.953998 F100.000000
G1 X37.279615 Y54.903215 F100.000000
G0 Z-1.133333 F30.000000
G1 X37.271141 Y54.852432 F100.000000
G1 X37.246637 Y54.807152 F100.000000
G1 X37.208758 Y54.772282 F100.000000
G1 X37.161609 Y54.751601 F100.000000
G1 X37.110300 Y54.747349 F100.000000
G1 X37.060390 Y54.759988 F100.000000
G1 X37.017288 Y54.788148 F100.000000
G1 X36.985665 Y54.828777 F100.000000
G1 X36.968948 Y54.877472 F100.000000
G1 Y54.928958 F100.000000
G1 X36.985665 Y54.977653 F100.000000
G1 X37.017288 Y55.018282 F100.000000
G1 X37.060390 Y55.046442 F100.000000
G1 X37.110300 Y55.059081 F100.000000
G1 X37.161609 Y55.054829 F100.000000
G1 X37.208758 Y55.034148 F100.000000
G1 X37.246637 Y54.999278 F100.000000
G1 X37.271141 Y54.953998 F100.000000
G1 X37.279615 Y54.903215 F100.000000
G0 Z-1.416667 F30.000000
G1 X37.271141 Y54.852432 F100.000000
G1 X37.246637 Y54.807152 F100.000000
G1 X37.208758 Y54.772282 F100.000000
G1 X37.161609 Y54.751601 F100.000000
G1 X37.110300 Y54.747349 F100.000000
G1 X37.060390 Y54.759988 F100.000000
G1 X37.017288 Y54.788148 F100.000000
G1 X36.985665 Y54.828777 F100.000000
G1 X36.968948 Y54.877472 F100.000000
G1 Y54.928958 F100.000000
G1 X36.985665 Y54.977653 F100.000000
G1 X37.017288 Y55.018282 F100.000000
G1 X37.060390 Y55.046442 F100.000000
G1 X37.110300 Y55.059081 F100.000000
G1 X37.161609 Y55.054829 F100.000000
G1 X37.208758 Y55.034148 F100.000000
G1 X37.246637 Y54.999278 F100.000000
G1 X37.271141 Y54.953998 F100.000000
G1 X37.279615 Y54.903215 F100.000000
G0 Z-1.700000 F30.000000
G1 X37.271141 Y54.852432 F100.000000
G1 X37.246637 Y54.807152 F100.000000
G1 X37.208758 Y54.772282 F100.000000
G1 X37.161609 Y54.751601 F100.000000
G1 X37.110300 Y54.747349 F100.000000
G1 X37.060390 Y54.759988 F100.000000
G1 X37.017288 Y54.788148 F100.000000
G1 X36.985665 Y54.828777 F100.000000
G1 X36.968948 Y54.877472 F100.000000
G1 Y54.928958 F100.000000
G1 X36.985665 Y54.977653 F100.000000
G1 X37.017288 Y55.018282 F100.000000
G1 X37.060390 Y55.046442 F100.000000
G1 X37.110300 Y55.059081 F100.000000
G1 X37.161609 Y55.054829 F100.000000
G1 X37.208758 Y55.034148 F100.000000
G1 X37.246637 Y54.999278 F100.000000
G1 X37.271141 Y54.953998 F100.000000
G1 X37.279615 Y54.903215 F100.000000
G0 Z2.000000
G0 X35.755615 Y6.643215
G17
G0 Z-0.283333 F30.000000
G1 X35.755615 Y6.643215 F100.000000
G1 X35.747141 Y6.592432 F100.000000
G1 X35.722637 Y6.547152 F100.000000
G1 X35.684758 Y6.512282 F100.000000
G1 X35.637609 Y6.491601 F100.000000
G1 X35.586300 Y6.487349 F100.000000
G1 X35.536390 Y6.499988 F100.000000
G1 X35.493288 Y6.528148 F100.000000
G1 X35.461665 Y6.568777 F100.000000
G1 X35.444948 Y6.617472 F100.000000
G1 Y6.668958 F100.000000
G1 X35.461665 Y6.717653 F100.000000
G1 X35.493288 Y6.758282 F100.000000
G1 X35.536390 Y6.786442 F100.000000
G1 X35.586300 Y6.799081 F100.000000
G1 X35.637609 Y6.794829 F100.000000
G1 X35.684758 Y6.774148 F100.000000
G1 X35.722637 Y6.739278 F100.000000
G1 X35.747141 Y6.693998 F100.000000
G1 X35.755615 Y6.643215 F100.000000
G0 Z-0.566667 F30.000000
G1 X35.747141 Y6.592432 F100.000000
G1 X35.722637 Y6.547152 F100.000000
G1 X35.684758 Y6.512282 F100.000000
G1 X35.637609 Y6.491601 F100.000000
G1 X35.586300 Y6.487349 F100.000000
G1 X35.536390 Y6.499988 F100.000000
G1 X35.493288 Y6.528148 F100.000000
G1 X35.461665 Y6.568777 F100.000000
G1 X35.444948 Y6.617472 F100.000000
G1 Y6.668958 F100.000000
G1 X35.461665 Y6.717653 F100.000000
G1 X35.493288 Y6.758282 F100.000000
G1 X35.536390 Y6.786442 F100.000000
G1 X35.586300 Y6.799081 F100.000000
G1 X35.637609 Y6.794829 F100.000000
G1 X35.684758 Y6.774148 F100.000000
G1 X35.722637 Y6.739278 F100.000000
G1 X35.747141 Y6.693998 F100.000000
G1 X35.755615 Y6.643215 F100.000000
G0 Z-0.850000 F30.000000
G1 X35.747141 Y6.592432 F100.000000
G1 X35.722637 Y6.547152 F100.000000
G1 X35.684758 Y6.512282 F100.000000
G1 X35.637609 Y6.491601 F100.000000
G1 X35.586300 Y6.487349 F100.000000
G1 X35.536390 Y6.499988 F100.000000
G1 X35.493288 Y6.528148 F100.000000
G1 X35.461665 Y6.568777 F100.000000
G1 X35.444948 Y6.617472 F100.000000
G1 Y6.668958 F100.000000
G1 X35.461665 Y6.717653 F100.000000
G1 X35.493288 Y6.758282 F100.000000
G1 X35.536390 Y6.786442 F100.000000
G1 X35.586300 Y6.799081 F100.000000
G1 X35.637609 Y6.794829 F100.000000
G1 X35.684758 Y6.774148 F100.000000
G1 X35.722637 Y6.739278 F100.000000
G1 X35.747141 Y6.693998 F100.000000
G1 X35.755615 Y6.643215 F100.000000
G0 Z-1.133333 F30.000000
G1 X35.747141 Y6.592432 F100.000000
G1 X35.722637 Y6.547152 F100.000000
G1 X35.684758 Y6.512282 F100.000000
G1 X35.637609 Y6.491601 F100.000000
G1 X35.586300 Y6.487349 F100.000000
G1 X35.536390 Y6.499988 F100.000000
G1 X35.493288 Y6.528148 F100.000000
G1 X35.461665 Y6.568777 F100.000000
G1 X35.444948 Y6.617472 F100.000000
G1 Y6.668958 F100.000000
G1 X35.461665 Y6.717653 F100.000000
G1 X35.493288 Y6.758282 F100.000000
G1 X35.536390 Y6.786442 F100.000000
G1 X35.586300 Y6.799081 F100.000000
G1 X35.637609 Y6.794829 F100.000000
G1 X35.684758 Y6.774148 F100.000000
G1 X35.722637 Y6.739278 F100.000000
G1 X35.747141 Y6.693998 F100.000000
G1 X35.755615 Y6.643215 F100.000000
G0 Z-1.416667 F30.000000
G1 X35.747141 Y6.592432 F100.000000
G1 X35.722637 Y6.547152 F100.000000
G1 X35.684758 Y6.512282 F100.000000
G1 X35.637609 Y6.491601 F100.000000
G1 X35.586300 Y6.487349 F100.000000
G1 X35.536390 Y6.499988 F100.000000
G1 X35.493288 Y6.528148 F100.000000
G1 X35.461665 Y6.568777 F100.000000
G1 X35.444948 Y6.617472 F100.000000
G1 Y6.668958 F100.000000
G1 X35.461665 Y6.717653 F100.000000
G1 X35.493288 Y6.758282 F100.000000
G1 X35.536390 Y6.786442 F100.000000
G1 X35.586300 Y6.799081 F100.000000
G1 X35.637609 Y6.794829 F100.000000
G1 X35.684758 Y6.774148 F100.000000
G1 X35.722637 Y6.739278 F100.000000
G1 X35.747141 Y6.693998 F100.000000
G1 X35.755615 Y6.643215 F100.000000
G0 Z-1.700000 F30.000000
G1 X35.747141 Y6.592432 F100.000000
G1 X35.722637 Y6.547152 F100.000000
G1 X35.684758 Y6.512282 F100.000000
G1 X35.637609 Y6.491601 F100.000000
G1 X35.586300 Y6.487349 F100.000000
G1 X35.536390 Y6.499988 F100.000000
G1 X35.493288 Y6.528148 F100.000000
G1 X35.461665 Y6.568777 F100.000000
G1 X35.444948 Y6.617472 F100.000000
G1 Y6.668958 F100.000000
G1 X35.461665 Y6.717653 F100.000000
G1 X35.493288 Y6.758282 F100.000000
G1 X35.536390 Y6.786442 F100.000000
G1 X35.586300 Y6.799081 F100.000000
G1 X35.637609 Y6.794829 F100.000000
G1 X35.684758 Y6.774148 F100.000000
G1 X35.722637 Y6.739278 F100.000000
G1 X35.747141 Y6.693998 F100.000000
G1 X35.755615 Y6.643215 F100.000000
G0 Z2.000000
G0 X34.739615 Y54.903215
G17
G0 Z-0.283333 F30.000000
G1 X34.739615 Y54.903215 F100.000000
G1 X34.731141 Y54.852432 F100.000000
G1 X34.706637 Y54.807152 F100.000000
G1 X34.668758 Y54.772282 F100.000000
G1 X34.621609 Y54.751601 F100.000000
G1 X34.570300 Y54.747349 F100.000000
G1 X34.520390 Y54.759988 F100.000000
G1 X34.477288 Y54.788148 F100.000000
G1 X34.445665 Y54.828777 F100.000000
G1 X34.428948 Y54.877472 F100.000000
G1 Y54.928958 F100.000000
G1 X34.445665 Y54.977653 F100.000000
G1 X34.477288 Y55.018282 F100.000000
G1 X34.520390 Y55.046442 F100.000000
G1 X34.570300 Y55.059081 F100.000000
G1 X34.621609 Y55.054829 F100.000000
G1 X34.668758 Y55.034148 F100.000000
G1 X34.706637 Y54.999278 F100.000000
G1 X34.731141 Y54.953998 F100.000000
G1 X34.739615 Y54.903215 F100.000000
G0 Z-0.566667 F30.000000
G1 X34.731141 Y54.852432 F100.000000
G1 X34.706637 Y54.807152 F100.000000
G1 X34.668758 Y54.772282 F100.000000
G1 X34.621609 Y54.751601 F100.000000
G1 X34.570300 Y54.747349 F100.000000
G1 X34.520390 Y54.759988 F100.000000
G1 X34.477288 Y54.788148 F100.000000
G1 X34.445665 Y54.828777 F100.000000
G1 X34.428948 Y54.877472 F100.000000
G1 Y54.928958 F100.000000
G1 X34.445665 Y54.977653 F100.000000
G1 X34.477288 Y55.018282 F100.000000
G1 X34.520390 Y55.046442 F100.000000
G1 X34.570300 Y55.059081 F100.000000
G1 X34.621609 Y55.054829 F100.000000
G1 X34.668758 Y55.034148 F100.000000
G1 X34.706637 Y54.999278 F100.000000
G1 X34.731141 Y54.953998 F100.000000
G1 X34.739615 Y54.903215 F100.000000
G0 Z-0.850000 F30.000000
G1 X34.731141 Y54.852432 F100.000000
G1 X34.706637 Y54.807152 F100.000000
G1 X34.668758 Y54.772282 F100.000000
G1 X34.621609 Y54.751601 F100.000000
G1 X34.570300 Y54.747349 F100.000000
G1 X34.520390 Y54.759988 F100.000000
G1 X34.477288 Y54.788148 F100.000000
G1 X34.445665 Y54.828777 F100.000000
G1 X34.428948 Y54.877472 F100.000000
G1 Y54.928958 F100.000000
G1 X34.445665 Y54.977653 F100.000000
G1 X34.477288 Y55.018282 F100.000000
G1 X34.520390 Y55.046442 F100.000000
G1 X34.570300 Y55.059081 F100.000000
G1 X34.621609 Y55.054829 F100.000000
G1 X34.668758 Y55.034148 F100.000000
G1 X34.706637 Y54.999278 F100.000000
G1 X34.731141 Y54.953998 F100.000000
G1 X34.739615 Y54.903215 F100.000000
G0 Z-1.133333 F30.000000
G1 X34.731141 Y54.852432 F100.000000
G1 X34.706637 Y54.807152 F100.000000
G1 X34.668758 Y54.772282 F100.000000
G1 X34.621609 Y54.751601 F100.000000
G1 X34.570300 Y54.747349 F100.000000
G1 X34.520390 Y54.759988 F100.000000
G1 X34.477288 Y54.788148 F100.000000
G1 X34.445665 Y54.828777 F100.000000
G1 X34.428948 Y54.877472 F100.000000
G1 Y54.928958 F100.000000
G1 X34.445665 Y54.977653 F100.000000
G1 X34.477288 Y55.018282 F100.000000
G1 X34.520390 Y55.046442 F100.000000
G1 X34.570300 Y55.059081 F100.000000
G1 X34.621609 Y55.054829 F100.000000
G1 X34.668758 Y55.034148 F100.000000
G1 X34.706637 Y54.999278 F100.000000
G1 X34.731141 Y54.953998 F100.000000
G1 X34.739615 Y54.903215 F100.000000
G0 Z-1.416667 F30.000000
G1 X34.731141 Y54.852432 F100.000000
G1 X34.706637 Y54.807152 F100.000000
G1 X34.668758 Y54.772282 F100.000000
G1 X34.621609 Y54.751601 F100.000000
G1 X34.570300 Y54.747349 F100.000000
G1 X34.520390 Y54.759988 F100.000000
G1 X34.477288 Y54.788148 F100.000000
G1 X34.445665 Y54.828777 F100.000000
G1 X34.428948 Y54.877472 F100.000000
G1 Y54.928958 F100.000000
G1 X34.445665 Y54.977653 F100.000000
G1 X34.477288 Y55.018282 F100.000000
G1 X34.520390 Y55.046442 F100.000000
G1 X34.570300 Y55.059081 F100.000000
G1 X34.621609 Y55.054829 F100.000000
G1 X34.668758 Y55.034148 F100.000000
G1 X34.706637 Y54.999278 F100.000000
G1 X34.731141 Y54.953998 F100.000000
G1 X34.739615 Y54.903215 F100.000000
G0 Z-1.700000 F30.000000
G1 X34.731141 Y54.852432 F100.000000
G1 X34.706637 Y54.807152 F100.000000
G1 X34.668758 Y54.772282 F100.000000
G1 X34.621609 Y54.751601 F100.000000
G1 X34.570300 Y54.747349 F100.000000
G1 X34.520390 Y54.759988 F100.000000
G1 X34.477288 Y54.788148 F100.000000
G1 X34.445665 Y54.828777 F100.000000
G1 X34.428948 Y54.877472 F100.000000
G1 Y54.928958 F100.000000
G1 X34.445665 Y54.977653 F100.000000
G1 X34.477288 Y55.018282 F100.000000
G1 X34.520390 Y55.046442 F100.000000
G1 X34.570300 Y55.059081 F100.000000
G1 X34.621609 Y55.054829 F100.000000
G1 X34.668758 Y55.034148 F100.000000
G1 X34.706637 Y54.999278 F100.000000
G1 X34.731141 Y54.953998 F100.000000
G1 X34.739615 Y54.903215 F100.000000
G0 Z2.000000
G0 X34.485615 Y25.185215
G17
G0 Z-0.283333 F30.000000
G1 X34.485615 Y25.185215 F100.000000
G1 X34.477141 Y25.134432 F100.000000
G1 X34.452637 Y25.089152 F100.000000
G1 X34.414758 Y25.054282 F100.000000
G1 X34.367609 Y25.033601 F100.000000
G1 X34.316300 Y25.029349 F100.000000
G1 X34.266390 Y25.041988 F100.000000
G1 X34.223288 Y25.070148 F100.000000
G1 X34.191665 Y25.110777 F100.000000
G1 X34.174948 Y25.159472 F100.000000
G1 Y25.210958 F100.000000
G1 X34.191665 Y25.259653 F100.000000
G1 X34.223288 Y25.300282 F100.000000
G1 X34.266390 Y25.328442 F100.000000
G1 X34.316300 Y25.341081 F100.000000
G1 X34.367609 Y25.336829 F100.000000
G1 X34.414758 Y25.316148 F100.000000
G1 X34.452637 Y25.281278 F100.000000
G1 X34.477141 Y25.235998 F100.000000
G1 X34.485615 Y25.185215 F100.000000
G0 Z-0.566667 F30.000000
G1 X34.477141 Y25.134432 F100.000000
G1 X34.452637 Y25.089152 F100.000000
G1 X34.414758 Y25.054282 F100.000000
G1 X34.367609 Y25.033601 F100.000000
G1 X34.316300 Y25.029349 F100.000000
G1 X34.266390 Y25.041988 F100.000000
G1 X34.223288 Y25.070148 F100.000000
G1 X34.191665 Y25.110777 F100.000000
G1 X34.174948 Y25.159472 F100.000000
G1 Y25.210958 F100.000000
G1 X34.191665 Y25.259653 F100.000000
G1 X34.223288 Y25.300282 F100.000000
G1 X34.266390 Y25.328442 F100.000000
G1 X34.316300 Y25.341081 F100.000000
G1 X34.367609 Y25.336829 F100.000000
G1 X34.414758 Y25.316148 F100.000000
G1 X34.452637 Y25.281278 F100.000000
G1 X34.477141 Y25.235998 F100.000000
G1 X34.485615 Y25.185215 F100.000000
G0 Z-0.850000 F30.000000
G1 X34.477141 Y25.134432 F100.000000
G1 X34.452637 Y25.089152 F100.000000
G1 X34.414758 Y25.054282 F100.000000
G1 X34.367609 Y25.033601 F100.000000
G1 X34.316300 Y25.029349 F100.000000
G1 X34.266390 Y25.041988 F100.000000
G1 X34.223288 Y25.070148 F100.000000
G1 X34.191665 Y25.110777 F100.000000
G1 X34.174948 Y25.159472 F100.000000
G1 Y25.210958 F100.000000
G1 X34.191665 Y25.259653 F100.000000
G1 X34.223288 Y25.300282 F100.000000
G1 X34.266390 Y25.328442 F100.000000
G1 X34.316300 Y25.341081 F100.000000
G1 X34.367609 Y25.336829 F100.000000
G1 X34.414758 Y25.316148 F100.000000
G1 X34.452637 Y25.281278 F100.000000
G1 X34.477141 Y25.235998 F100.000000
G1 X34.485615 Y25.185215 F100.000000
G0 Z-1.133333 F30.000000
G1 X34.477141 Y25.134432 F100.000000
G1 X34.452637 Y25.089152 F100.000000
G1 X34.414758 Y25.054282 F100.000000
G1 X34.367609 Y25.033601 F100.000000
G1 X34.316300 Y25.029349 F100.000000
G1 X34.266390 Y25.041988 F100.000000
G1 X34.223288 Y25.070148 F100.000000
G1 X34.191665 Y25.110777 F100.000000
G1 X34.174948 Y25.159472 F100.000000
G1 Y25.210958 F100.000000
G1 X34.191665 Y25.259653 F100.000000
G1 X34.223288 Y25.300282 F100.000000
G1 X34.266390 Y25.328442 F100.000000
G1 X34.316300 Y25.341081 F100.000000
G1 X34.367609 Y25.336829 F100.000000
G1 X34.414758 Y25.316148 F100.000000
G1 X34.452637 Y25.281278 F100.000000
G1 X34.477141 Y25.235998 F100.000000
G1 X34.485615 Y25.185215 F100.000000
G0 Z-1.416667 F30.000000
G1 X34.477141 Y25.134432 F100.000000
G1 X34.452637 Y25.089152 F100.000000
G1 X34.414758 Y25.054282 F100.000000
G1 X34.367609 Y25.033601 F100.000000
G1 X34.316300 Y25.029349 F100.000000
G1 X34.266390 Y25.041988 F100.000000
G1 X34.223288 Y25.070148 F100.000000
G1 X34.191665 Y25.110777 F100.000000
G1 X34.174948 Y25.159472 F100.000000
G1 Y25.210958 F100.000000
G1 X34.191665 Y25.259653 F100.000000
G1 X34.223288 Y25.300282 F100.000000
G1 X34.266390 Y25.328442 F100.000000
G1 X34.316300 Y25.341081 F100.000000
G1 X34.367609 Y25.336829 F100.000000
G1 X34.414758 Y25.316148 F100.000000
G1 X34.452637 Y25.281278 F100.000000
G1 X34.477141 Y25.235998 F100.000000
G1 X34.485615 Y25.185215 F100.000000
G0 Z-1.700000 F30.000000
G1 X34.477141 Y25.134432 F100.000000
G1 X34.452637 Y25.089152 F100.000000
G1 X34.414758 Y25.054282 F100.000000
G1 X34.367609 Y25.033601 F100.000000
G1 X34.316300 Y25.029349 F100.000000
G1 X34.266390 Y25.041988 F100.000000
G1 X34.223288 Y25.070148 F100.000000
G1 X34.191665 Y25.110777 F100.000000
G1 X34.174948 Y25.159472 F100.000000
G1 Y25.210958 F100.000000
G1 X34.191665 Y25.259653 F100.000000
G1 X34.223288 Y25.300282 F100.000000
G1 X34.266390 Y25.328442 F100.000000
G1 X34.316300 Y25.341081 F100.000000
G1 X34.367609 Y25.336829 F100.000000
G1 X34.414758 Y25.316148 F100.000000
G1 X34.452637 Y25.281278 F100.000000
G1 X34.477141 Y25.235998 F100.000000
G1 X34.485615 Y25.185215 F100.000000
G0 Z2.000000
G0 X34.485615 Y22.137215
G17
G0 Z-0.283333 F30.000000
G1 Y22.137215 F100.000000
G1 X34.477141 Y22.086432 F100.000000
G1 X34.452637 Y22.041152 F100.000000
G1 X34.414758 Y22.006282 F100.000000
G1 X34.367609 Y21.985601 F100.000000
G1 X34.316300 Y21.981349 F100.000000
G1 X34.266390 Y21.993988 F100.000000
G1 X34.223288 Y22.022148 F100.000000
G1 X34.191665 Y22.062777 F100.000000
G1 X34.174948 Y22.111472 F100.000000
G1 Y22.162958 F100.000000
G1 X34.191665 Y22.211653 F100.000000
G1 X34.223288 Y22.252282 F100.000000
G1 X34.266390 Y22.280442 F100.000000
G1 X34.316300 Y22.293081 F100.000000
G1 X34.367609 Y22.288829 F100.000000
G1 X34.414758 Y22.268148 F100.000000
G1 X34.452637 Y22.233278 F100.000000
G1 X34.477141 Y22.187998 F100.000000
G1 X34.485615 Y22.137215 F100.000000
G0 Z-0.566667 F30.000000
G1 X34.477141 Y22.086432 F100.000000
G1 X34.452637 Y22.041152 F100.000000
G1 X34.414758 Y22.006282 F100.000000
G1 X34.367609 Y21.985601 F100.000000
G1 X34.316300 Y21.981349 F100.000000
G1 X34.266390 Y21.993988 F100.000000
G1 X34.223288 Y22.022148 F100.000000
G1 X34.191665 Y22.062777 F100.000000
G1 X34.174948 Y22.111472 F100.000000
G1 Y22.162958 F100.000000
G1 X34.191665 Y22.211653 F100.000000
G1 X34.223288 Y22.252282 F100.000000
G1 X34.266390 Y22.280442 F100.000000
G1 X34.316300 Y22.293081 F100.000000
G1 X34.367609 Y22.288829 F100.000000
G1 X34.414758 Y22.268148 F100.000000
G1 X34.452637 Y22.233278 F100.000000
G1 X34.477141 Y22.187998 F100.000000
G1 X34.485615 Y22.137215 F100.000000
G0 Z-0.850000 F30.000000
G1 X34.477141 Y22.086432 F100.000000
G1 X34.452637 Y22.041152 F100.000000
G1 X34.414758 Y22.006282 F100.000000
G1 X34.367609 Y21.985601 F100.000000
G1 X34.316300 Y21.981349 F100.000000
G1 X34.266390 Y21.993988 F100.000000
G1 X34.223288 Y22.022148 F100.000000
G1 X34.191665 Y22.062777 F100.000000
G1 X34.174948 Y22.111472 F100.000000
G1 Y22.162958 F100.000000
G1 X34.191665 Y22.211653 F100.000000
G1 X34.223288 Y22.252282 F100.000000
G1 X34.266390 Y22.280442 F100.000000
G1 X34.316300 Y22.293081 F100.000000
G1 X34.367609 Y22.288829 F100.000000
G1 X34.414758 Y22.268148 F100.000000
G1 X34.452637 Y22.233278 F100.000000
G1 X34.477141 Y22.187998 F100.000000
G1 X34.485615 Y22.137215 F100.000000
G0 Z-1.133333 F30.000000
G1 X34.477141 Y22.086432 F100.000000
G1 X34.452637 Y22.041152 F100.000000
G1 X34.414758 Y22.006282 F100.000000
G1 X34.367609 Y21.985601 F100.000000
G1 X34.316300 Y21.981349 F100.000000
G1 X34.266390 Y21.993988 F100.000000
G1 X34.223288 Y22.022148 F100.000000
G1 X34.191665 Y22.062777 F100.000000
G1 X34.174948 Y22.111472 F100.000000
G1 Y22.162958 F100.000000
G1 X34.191665 Y22.211653 F100.000000
G1 X34.223288 Y22.252282 F100.000000
G1 X34.266390 Y22.280442 F100.000000
G1 X34.316300 Y22.293081 F100.000000
G1 X34.367609 Y22.288829 F100.000000
G1 X34.414758 Y22.268148 F100.000000
G1 X34.452637 Y22.233278 F100.000000
G1 X34.477141 Y22.187998 F100.000000
G1 X34.485615 Y22.137215 F100.000000
G0 Z-1.416667 F30.000000
G1 X34.477141 Y22.086432 F100.000000
G1 X34.452637 Y22.041152 F100.000000
G1 X34.414758 Y22.006282 F100.000000
G1 X34.367609 Y21.985601 F100.000000
G1 X34.316300 Y21.981349 F100.000000
G1 X34.266390 Y21.993988 F100.000000
G1 X34.223288 Y22.022148 F100.000000
G1 X34.191665 Y22.062777 F100.000000
G1 X34.174948 Y22.111472 F100.000000
G1 Y22.162958 F100.000000
G1 X34.191665 Y22.211653 F100.000000
G1 X34.223288 Y22.252282 F100.000000
G1 X34.266390 Y22.280442 F100.000000
G1 X34.316300 Y22.293081 F100.000000
G1 X34.367609 Y22.288829 F100.000000
G1 X34.414758 Y22.268148 F100.000000
G1 X34.452637 Y22.233278 F100.000000
G1 X34.477141 Y22.187998 F100.000000
G1 X34.485615 Y22.137215 F100.000000
G0 Z-1.700000 F30.000000
G1 X34.477141 Y22.086432 F100.000000
G1 X34.452637 Y22.041152 F100.000000
G1 X34.414758 Y22.006282 F100.000000
G1 X34.367609 Y21.985601 F100.000000
G1 X34.316300 Y21.981349 F100.000000
G1 X34.266390 Y21.993988 F100.000000
G1 X34.223288 Y22.022148 F100.000000
G1 X34.191665 Y22.062777 F100.000000
G1 X34.174948 Y22.111472 F100.000000
G1 Y22.162958 F100.000000
G1 X34.191665 Y22.211653 F100.000000
G1 X34.223288 Y22.252282 F100.000000
G1 X34.266390 Y22.280442 F100.000000
G1 X34.316300 Y22.293081 F100.000000
G1 X34.367609 Y22.288829 F100.000000
G1 X34.414758 Y22.268148 F100.000000
G1 X34.452637 Y22.233278 F100.000000
G1 X34.477141 Y22.187998 F100.000000
G1 X34.485615 Y22.137215 F100.000000
G0 Z2.000000
G0 X33.469615 Y37.123215
G17
G0 Z-0.283333 F30.000000
G1 X33.469615 Y37.123215 F100.000000
G1 X33.461141 Y37.072432 F100.000000
G1 X33.436637 Y37.027152 F100.000000
G1 X33.398758 Y36.992282 F100.000000
G1 X33.351609 Y36.971601 F100.000000
G1 X33.300300 Y36.967349 F100.000000
G1 X33.250390 Y36.979988 F100.000000
G1 X33.207288 Y37.008148 F100.000000
G1 X33.175665 Y37.048777 F100.000000
G1 X33.158948 Y37.097472 F100.000000
G1 Y37.148958 F100.000000
G1 X33.175665 Y37.197653 F100.000000
G1 X33.207288 Y37.238282 F100.000000
G1 X33.250390 Y37.266442 F100.000000
G1 X33.300300 Y37.279081 F100.000000
G1 X33.351609 Y37.274829 F100.000000
G1 X33.398758 Y37.254148 F100.000000
G1 X33.436637 Y37.219278 F100.000000
G1 X33.461141 Y37.173998 F100.000000
G1 X33.469615 Y37.123215 F100.000000
G0 Z-0.566667 F30.000000
G1 X33.461141 Y37.072432 F100.000000
G1 X33.436637 Y37.027152 F100.000000
G1 X33.398758 Y36.992282 F100.000000
G1 X33.351609 Y36.971601 F100.000000
G1 X33.300300 Y36.967349 F100.000000
G1 X33.250390 Y36.979988 F100.000000
G1 X33.207288 Y37.008148 F100.000000
G1 X33.175665 Y37.048777 F100.000000
G1 X33.158948 Y37.097472 F100.000000
G1 Y37.148958 F100.000000
G1 X33.175665 Y37.197653 F100.000000
G1 X33.207288 Y37.238282 F100.000000
G1 X33.250390 Y37.266442 F100.000000
G1 X33.300300 Y37.279081 F100.000000
G1 X33.351609 Y37.274829 F100.000000
G1 X33.398758 Y37.254148 F100.000000
G1 X33.436637 Y37.219278 F100.000000
G1 X33.461141 Y37.173998 F100.000000
G1 X33.469615 Y37.123215 F100.000000
G0 Z-0.850000 F30.000000
G1 X33.461141 Y37.072432 F100.000000
G1 X33.436637 Y37.027152 F100.000000
G1 X33.398758 Y36.992282 F100.000000
G1 X33.351609 Y36.971601 F100.000000
G1 X33.300300 Y36.967349 F100.000000
G1 X33.250390 Y36.979988 F100.000000
G1 X33.207288 Y37.008148 F100.000000
G1 X33.175665 Y37.048777 F100.000000
G1 X33.158948 Y37.097472 F100.000000
G1 Y37.148958 F100.000000
G1 X33.175665 Y37.197653 F100.000000
G1 X33.207288 Y37.238282 F100.000000
G1 X33.250390 Y37.266442 F100.000000
G1 X33.300300 Y37.279081 F100.000000
G1 X33.351609 Y37.274829 F100.000000
G1 X33.398758 Y37.254148 F100.000000
G1 X33.436637 Y37.219278 F100.000000
G1 X33.461141 Y37.173998 F100.000000
G1 X33.469615 Y37.123215 F100.000000
G0 Z-1.133333 F30.000000
G1 X33.461141 Y37.072432 F100.000000
G1 X33.436637 Y37.027152 F100.000000
G1 X33.398758 Y36.992282 F100.000000
G1 X33.351609 Y36.971601 F100.000000
G1 X33.300300 Y36.967349 F100.000000
G1 X33.250390 Y36.979988 F100.000000
G1 X33.207288 Y37.008148 F100.000000
G1 X33.175665 Y37.048777 F100.000000
G1 X33.158948 Y37.097472 F100.000000
G1 Y37.148958 F100.000000
G1 X33.175665 Y37.197653 F100.000000
G1 X33.207288 Y37.238282 F100.000000
G1 X33.250390 Y37.266442 F100.000000
G1 X33.300300 Y37.279081 F100.000000
G1 X33.351609 Y37.274829 F100.000000
G1 X33.398758 Y37.254148 F100.000000
G1 X33.436637 Y37.219278 F100.000000
G1 X33.461141 Y37.173998 F100.000000
G1 X33.469615 Y37.123215 F100.000000
G0 Z-1.416667 F30.000000
G1 X33.461141 Y37.072432 F100.000000
G1 X33.436637 Y37.027152 F100.000000
G1 X33.398758 Y36.992282 F100.000000
G1 X33.351609 Y36.971601 F100.000000
G1 X33.300300 Y36.967349 F100.000000
G1 X33.250390 Y36.979988 F100.000000
G1 X33.207288 Y37.008148 F100.000000
G1 X33.175665 Y37.048777 F100.000000
G1 X33.158948 Y37.097472 F100.000000
G1 Y37.148958 F100.000000
G1 X33.175665 Y37.197653 F100.000000
G1 X33.207288 Y37.238282 F100.000000
G1 X33.250390 Y37.266442 F100.000000
G1 X33.300300 Y37.279081 F100.000000
G1 X33.351609 Y37.274829 F100.000000
G1 X33.398758 Y37.254148 F100.000000
G1 X33.436637 Y37.219278 F100.000000
G1 X33.461141 Y37.173998 F100.000000
G1 X33.469615 Y37.123215 F100.000000
G0 Z-1.700000 F30.000000
G1 X33.461141 Y37.072432 F100.000000
G1 X33.436637 Y37.027152 F100.000000
G1 X33.398758 Y36.992282 F100.000000
G1 X33.351609 Y36.971601 F100.000000
G1 X33.300300 Y36.967349 F100.000000
G1 X33.250390 Y36.979988 F100.000000
G1 X33.207288 Y37.008148 F100.000000
G1 X33.175665 Y37.048777 F100.000000
G1 X33.158948 Y37.097472 F100.000000
G1 Y37.148958 F100.000000
G1 X33.175665 Y37.197653 F100.000000
G1 X33.207288 Y37.238282 F100.000000
G1 X33.250390 Y37.266442 F100.000000
G1 X33.300300 Y37.279081 F100.000000
G1 X33.351609 Y37.274829 F100.000000
G1 X33.398758 Y37.254148 F100.000000
G1 X33.436637 Y37.219278 F100.000000
G1 X33.461141 Y37.173998 F100.000000
G1 X33.469615 Y37.123215 F100.000000
G0 Z2.000000
G0 X33.215615 Y6.643215
G17
G0 Z-0.283333 F30.000000
G1 X33.215615 Y6.643215 F100.000000
G1 X33.207141 Y6.592432 F100.000000
G1 X33.182637 Y6.547152 F100.000000
G1 X33.144758 Y6.512282 F100.000000
G1 X33.097609 Y6.491601 F100.000000
G1 X33.046300 Y6.487349 F100.000000
G1 X32.996390 Y6.499988 F100.000000
G1 X32.953288 Y6.528148 F100.000000
G1 X32.921665 Y6.568777 F100.000000
G1 X32.904948 Y6.617472 F100.000000
G1 Y6.668958 F100.000000
G1 X32.921665 Y6.717653 F100.000000
G1 X32.953288 Y6.758282 F100.000000
G1 X32.996390 Y6.786442 F100.000000
G1 X33.046300 Y6.799081 F100.000000
G1 X33.097609 Y6.794829 F100.000000
G1 X33.144758 Y6.774148 F100.000000
G1 X33.182637 Y6.739278 F100.000000
G1 X33.207141 Y6.693998 F100.000000
G1 X33.215615 Y6.643215 F100.000000
G0 Z-0.566667 F30.000000
G1 X33.207141 Y6.592432 F100.000000
G1 X33.182637 Y6.547152 F100.000000
G1 X33.144758 Y6.512282 F100.000000
G1 X33.097609 Y6.491601 F100.000000
G1 X33.046300 Y6.487349 F100.000000
G1 X32.996390 Y6.499988 F100.000000
G1 X32.953288 Y6.528148 F100.000000
G1 X32.921665 Y6.568777 F100.000000
G1 X32.904948 Y6.617472 F100.000000
G1 Y6.668958 F100.000000
G1 X32.921665 Y6.717653 F100.000000
G1 X32.953288 Y6.758282 F100.000000
G1 X32.996390 Y6.786442 F100.000000
G1 X33.046300 Y6.799081 F100.000000
G1 X33.097609 Y6.794829 F100.000000
G1 X33.144758 Y6.774148 F100.000000
G1 X33.182637 Y6.739278 F100.000000
G1 X33.207141 Y6.693998 F100.000000
G1 X33.215615 Y6.643215 F100.000000
G0 Z-0.850000 F30.000000
G1 X33.207141 Y6.592432 F100.000000
G1 X33.182637 Y6.547152 F100.000000
G1 X33.144758 Y6.512282 F100.000000
G1 X33.097609 Y6.491601 F100.000000
G1 X33.046300 Y6.487349 F100.000000
G1 X32.996390 Y6.499988 F100.000000
G1 X32.953288 Y6.528148 F100.000000
G1 X32.921665 Y6.568777 F100.000000
G1 X32.904948 Y6.617472 F100.000000
G1 Y6.668958 F100.000000
G1 X32.921665 Y6.717653 F100.000000
G1 X32.953288 Y6.758282 F100.000000
G1 X32.996390 Y6.786442 F100.000000
G1 X33.046300 Y6.799081 F100.000000
G1 X33.097609 Y6.794829 F100.000000
G1 X33.144758 Y6.774148 F100.000000
G1 X33.182637 Y6.739278 F100.000000
G1 X33.207141 Y6.693998 F100.000000
G1 X33.215615 Y6.643215 F100.000000
G0 Z-1.133333 F30.000000
G1 X33.207141 Y6.592432 F100.000000
G1 X33.182637 Y6.547152 F100.000000
G1 X33.144758 Y6.512282 F100.000000
G1 X33.097609 Y6.491601 F100.000000
G1 X33.046300 Y6.487349 F100.000000
G1 X32.996390 Y6.499988 F100.000000
G1 X32.953288 Y6.528148 F100.000000
G1 X32.921665 Y6.568777 F100.000000
G1 X32.904948 Y6.617472 F100.000000
G1 Y6.668958 F100.000000
G1 X32.921665 Y6.717653 F100.000000
G1 X32.953288 Y6.758282 F100.000000
G1 X32.996390 Y6.786442 F100.000000
G1 X33.046300 Y6.799081 F100.000000
G1 X33.097609 Y6.794829 F100.000000
G1 X33.144758 Y6.774148 F100.000000
G1 X33.182637 Y6.739278 F100.000000
G1 X33.207141 Y6.693998 F100.000000
G1 X33.215615 Y6.643215 F100.000000
G0 Z-1.416667 F30.000000
G1 X33.207141 Y6.592432 F100.000000
G1 X33.182637 Y6.547152 F100.000000
G1 X33.144758 Y6.512282 F100.000000
G1 X33.097609 Y6.491601 F100.000000
G1 X33.046300 Y6.487349 F100.000000
G1 X32.996390 Y6.499988 F100.000000
G1 X32.953288 Y6.528148 F100.000000
G1 X32.921665 Y6.568777 F100.000000
G1 X32.904948 Y6.617472 F100.000000
G1 Y6.668958 F100.000000
G1 X32.921665 Y6.717653 F100.000000
G1 X32.953288 Y6.758282 F100.000000
G1 X32.996390 Y6.786442 F100.000000
G1 X33.046300 Y6.799081 F100.000000
G1 X33.097609 Y6.794829 F100.000000
G1 X33.144758 Y6.774148 F100.000000
G1 X33.182637 Y6.739278 F100.000000
G1 X33.207141 Y6.693998 F100.000000
G1 X33.215615 Y6.643215 F100.000000
G0 Z-1.700000 F30.000000
G1 X33.207141 Y6.592432 F100.000000
G1 X33.182637 Y6.547152 F100.000000
G1 X33.144758 Y6.512282 F100.000000
G1 X33.097609 Y6.491601 F100.000000
G1 X33.046300 Y6.487349 F100.000000
G1 X32.996390 Y6.499988 F100.000000
G1 X32.953288 Y6.528148 F100.000000
G1 X32.921665 Y6.568777 F100.000000
G1 X32.904948 Y6.617472 F100.000000
G1 Y6.668958 F100.000000
G1 X32.921665 Y6.717653 F100.000000
G1 X32.953288 Y6.758282 F100.000000
G1 X32.996390 Y6.786442 F100.000000
G1 X33.046300 Y6.799081 F100.000000
G1 X33.097609 Y6.794829 F100.000000
G1 X33.144758 Y6.774148 F100.000000
G1 X33.182637 Y6.739278 F100.000000
G1 X33.207141 Y6.693998 F100.000000
G1 X33.215615 Y6.643215 F100.000000
G0 Z2.000000
G0 X32.199615 Y54.903215
G17
G0 Z-0.283333 F30.000000
G1 X32.199615 Y54.903215 F100.000000
G1 X32.191141 Y54.852432 F100.000000
G1 X32.166637 Y54.807152 F100.000000
G1 X32.128758 Y54.772282 F100.000000
G1 X32.081609 Y54.751601 F100.000000
G1 X32.030300 Y54.747349 F100.000000
G1 X31.980390 Y54.759988 F100.000000
G1 X31.937288 Y54.788148 F100.000000
G1 X31.905665 Y54.828777 F100.000000
G1 X31.888948 Y54.877472 F100.000000
G1 Y54.928958 F100.000000
G1 X31.905665 Y54.977653 F100.000000
G1 X31.937288 Y55.018282 F100.000000
G1 X31.980390 Y55.046442 F100.000000
G1 X32.030300 Y55.059081 F100.000000
G1 X32.081609 Y55.054829 F100.000000
G1 X32.128758 Y55.034148 F100.000000
G1 X32.166637 Y54.999278 F100.000000
G1 X32.191141 Y54.953998 F100.000000
G1 X32.199615 Y54.903215 F100.000000
G0 Z-0.566667 F30.000000
G1 X32.191141 Y54.852432 F100.000000
G1 X32.166637 Y54.807152 F100.000000
G1 X32.128758 Y54.772282 F100.000000
G1 X32.081609 Y54.751601 F100.000000
G1 X32.030300 Y54.747349 F100.000000
G1 X31.980390 Y54.759988 F100.000000
G1 X31.937288 Y54.788148 F100.000000
G1 X31.905665 Y54.828777 F100.000000
G1 X31.888948 Y54.877472 F100.000000
G1 Y54.928958 F100.000000
G1 X31.905665 Y54.977653 F100.000000
G1 X31.937288 Y55.018282 F100.000000
G1 X31.980390 Y55.046442 F100.000000
G1 X32.030300 Y55.059081 F100.000000
G1 X32.081609 Y55.054829 F100.000000
G1 X32.128758 Y55.034148 F100.000000
G1 X32.166637 Y54.999278 F100.000000
G1 X32.191141 Y54.953998 F100.000000
G1 X32.199615 Y54.903215 F100.000000
G0 Z-0.850000 F30.000000
G1 X32.191141 Y54.852432 F100.000000
G1 X32.166637 Y54.807152 F100.000000
G1 X32.128758 Y54.772282 F100.000000
G1 X32.081609 Y54.751601 F100.000000
G1 X32.030300 Y54.747349 F100.000000
G1 X31.980390 Y54.759988 F100.000000
G1 X31.937288 Y54.788148 F100.000000
G1 X31.905665 Y54.828777 F100.000000
G1 X31.888948 Y54.877472 F100.000000
G1 Y54.928958 F100.000000
G1 X31.905665 Y54.977653 F100.000000
G1 X31.937288 Y55.018282 F100.000000
G1 X31.980390 Y55.046442 F100.000000
G1 X32.030300 Y55.059081 F100.000000
G1 X32.081609 Y55.054829 F100.000000
G1 X32.128758 Y55.034148 F100.000000
G1 X32.166637 Y54.999278 F100.000000
G1 X32.191141 Y54.953998 F100.000000
G1 X32.199615 Y54.903215 F100.000000
G0 Z-1.133333 F30.000000
G1 X32.191141 Y54.852432 F100.000000
G1 X32.166637 Y54.807152 F100.000000
G1 X32.128758 Y54.772282 F100.000000
G1 X32.081609 Y54.751601 F100.000000
G1 X32.030300 Y54.747349 F100.000000
G1 X31.980390 Y54.759988 F100.000000
G1 X31.937288 Y54.788148 F100.000000
G1 X31.905665 Y54.828777 F100.000000
G1 X31.888948 Y54.877472 F100.000000
G1 Y54.928958 F100.000000
G1 X31.905665 Y54.977653 F100.000000
G1 X31.937288 Y55.018282 F100.000000
G1 X31.980390 Y55.046442 F100.000000
G1 X32.030300 Y55.059081 F100.000000
G1 X32.081609 Y55.054829 F100.000000
G1 X32.128758 Y55.034148 F100.000000
G1 X32.166637 Y54.999278 F100.000000
G1 X32.191141 Y54.953998 F100.000000
G1 X32.199615 Y54.903215 F100.000000
G0 Z-1.416667 F30.000000
G1 X32.191141 Y54.852432 F100.000000
G1 X32.166637 Y54.807152 F100.000000
G1 X32.128758 Y54.772282 F100.000000
G1 X32.081609 Y54.751601 F100.000000
G1 X32.030300 Y54.747349 F100.000000
G1 X31.980390 Y54.759988 F100.000000
G1 X31.937288 Y54.788148 F100.000000
G1 X31.905665 Y54.828777 F100.000000
G1 X31.888948 Y54.877472 F100.000000
G1 Y54.928958 F100.000000
G1 X31.905665 Y54.977653 F100.000000
G1 X31.937288 Y55.018282 F100.000000
G1 X31.980390 Y55.046442 F100.000000
G1 X32.030300 Y55.059081 F100.000000
G1 X32.081609 Y55.054829 F100.000000
G1 X32.128758 Y55.034148 F100.000000
G1 X32.166637 Y54.999278 F100.000000
G1 X32.191141 Y54.953998 F100.000000
G1 X32.199615 Y54.903215 F100.000000
G0 Z-1.700000 F30.000000
G1 X32.191141 Y54.852432 F100.000000
G1 X32.166637 Y54.807152 F100.000000
G1 X32.128758 Y54.772282 F100.000000
G1 X32.081609 Y54.751601 F100.000000
G1 X32.030300 Y54.747349 F100.000000
G1 X31.980390 Y54.759988 F100.000000
G1 X31.937288 Y54.788148 F100.000000
G1 X31.905665 Y54.828777 F100.000000
G1 X31.888948 Y54.877472 F100.000000
G1 Y54.928958 F100.000000
G1 X31.905665 Y54.977653 F100.000000
G1 X31.937288 Y55.018282 F100.000000
G1 X31.980390 Y55.046442 F100.000000
G1 X32.030300 Y55.059081 F100.000000
G1 X32.081609 Y55.054829 F100.000000
G1 X32.128758 Y55.034148 F100.000000
G1 X32.166637 Y54.999278 F100.000000
G1 X32.191141 Y54.953998 F100.000000
G1 X32.199615 Y54.903215 F100.000000
G0 Z2.000000
G0 X30.675615 Y6.643215
G17
G0 Z-0.283333 F30.000000
G1 X30.675615 Y6.643215 F100.000000
G1 X30.667141 Y6.592432 F100.000000
G1 X30.642637 Y6.547152 F100.000000
G1 X30.604758 Y6.512282 F100.000000
G1 X30.557609 Y6.491601 F100.000000
G1 X30.506300 Y6.487349 F100.000000
G1 X30.456390 Y6.499988 F100.000000
G1 X30.413288 Y6.528148 F100.000000
G1 X30.381665 Y6.568777 F100.000000
G1 X30.364948 Y6.617472 F100.000000
G1 Y6.668958 F100.000000
G1 X30.381665 Y6.717653 F100.000000
G1 X30.413288 Y6.758282 F100.000000
G1 X30.456390 Y6.786442 F100.000000
G1 X30.506300 Y6.799081 F100.000000
G1 X30.557609 Y6.794829 F100.000000
G1 X30.604758 Y6.774148 F100.000000
G1 X30.642637 Y6.739278 F100.000000
G1 X30.667141 Y6.693998 F100.000000
G1 X30.675615 Y6.643215 F100.000000
G0 Z-0.566667 F30.000000
G1 X30.667141 Y6.592432 F100.000000
G1 X30.642637 Y6.547152 F100.000000
G1 X30.604758 Y6.512282 F100.000000
G1 X30.557609 Y6.491601 F100.000000
G1 X30.506300 Y6.487349 F100.000000
G1 X30.456390 Y6.499988 F100.000000
G1 X30.413288 Y6.528148 F100.000000
G1 X30.381665 Y6.568777 F100.000000
G1 X30.364948 Y6.617472 F100.000000
G1 Y6.668958 F100.000000
G1 X30.381665 Y6.717653 F100.000000
G1 X30.413288 Y6.758282 F100.000000
G1 X30.456390 Y6.786442 F100.000000
G1 X30.506300 Y6.799081 F100.000000
G1 X30.557609 Y6.794829 F100.000000
G1 X30.604758 Y6.774148 F100.000000
G1 X30.642637 Y6.739278 F100.000000
G1 X30.667141 Y6.693998 F100.000000
G1 X30.675615 Y6.643215 F100.000000
G0 Z-0.850000 F30.000000
G1 X30.667141 Y6.592432 F100.000000
G1 X30.642637 Y6.547152 F100.000000
G1 X30.604758 Y6.512282 F100.000000
G1 X30.557609 Y6.491601 F100.000000
G1 X30.506300 Y6.487349 F100.000000
G1 X30.456390 Y6.499988 F100.000000
G1 X30.413288 Y6.528148 F100.000000
G1 X30.381665 Y6.568777 F100.000000
G1 X30.364948 Y6.617472 F100.000000
G1 Y6.668958 F100.000000
G1 X30.381665 Y6.717653 F100.000000
G1 X30.413288 Y6.758282 F100.000000
G1 X30.456390 Y6.786442 F100.000000
G1 X30.506300 Y6.799081 F100.000000
G1 X30.557609 Y6.794829 F100.000000
G1 X30.604758 Y6.774148 F100.000000
G1 X30.642637 Y6.739278 F100.000000
G1 X30.667141 Y6.693998 F100.000000
G1 X30.675615 Y6.643215 F100.000000
G0 Z-1.133333 F30.000000
G1 X30.667141 Y6.592432 F100.000000
G1 X30.642637 Y6.547152 F100.000000
G1 X30.604758 Y6.512282 F100.000000
G1 X30.557609 Y6.491601 F100.000000
G1 X30.506300 Y6.487349 F100.000000
G1 X30.456390 Y6.499988 F100.000000
G1 X30.413288 Y6.528148 F100.000000
G1 X30.381665 Y6.568777 F100.000000
G1 X30.364948 Y6.617472 F100.000000
G1 Y6.668958 F100.000000
G1 X30.381665 Y6.717653 F100.000000
G1 X30.413288 Y6.758282 F100.000000
G1 X30.456390 Y6.786442 F100.000000
G1 X30.506300 Y6.799081 F100.000000
G1 X30.557609 Y6.794829 F100.000000
G1 X30.604758 Y6.774148 F100.000000
G1 X30.642637 Y6.739278 F100.000000
G1 X30.667141 Y6.693998 F100.000000
G1 X30.675615 Y6.643215 F100.000000
G0 Z-1.416667 F30.000000
G1 X30.667141 Y6.592432 F100.000000
G1 X30.642637 Y6.547152 F100.000000
G1 X30.604758 Y6.512282 F100.000000
G1 X30.557609 Y6.491601 F100.000000
G1 X30.506300 Y6.487349 F100.000000
G1 X30.456390 Y6.499988 F100.000000
G1 X30.413288 Y6.528148 F100.000000
G1 X30.381665 Y6.568777 F100.000000
G1 X30.364948 Y6.617472 F100.000000
G1 Y6.668958 F100.000000
G1 X30.381665 Y6.717653 F100.000000
G1 X30.413288 Y6.758282 F100.000000
G1 X30.456390 Y6.786442 F100.000000
G1 X30.506300 Y6.799081 F100.000000
G1 X30.557609 Y6.794829 F100.000000
G1 X30.604758 Y6.774148 F100.000000
G1 X30.642637 Y6.739278 F100.000000
G1 X30.667141 Y6.693998 F100.000000
G1 X30.675615 Y6.643215 F100.000000
G0 Z-1.700000 F30.000000
G1 X30.667141 Y6.592432 F100.000000
G1 X30.642637 Y6.547152 F100.000000
G1 X30.604758 Y6.512282 F100.000000
G1 X30.557609 Y6.491601 F100.000000
G1 X30.506300 Y6.487349 F100.000000
G1 X30.456390 Y6.499988 F100.000000
G1 X30.413288 Y6.528148 F100.000000
G1 X30.381665 Y6.568777 F100.000000
G1 X30.364948 Y6.617472 F100.000000
G1 Y6.668958 F100.000000
G1 X30.381665 Y6.717653 F100.000000
G1 X30.413288 Y6.758282 F100.000000
G1 X30.456390 Y6.786442 F100.000000
G1 X30.506300 Y6.799081 F100.000000
G1 X30.557609 Y6.794829 F100.000000
G1 X30.604758 Y6.774148 F100.000000
G1 X30.642637 Y6.739278 F100.000000
G1 X30.667141 Y6.693998 F100.000000
G1 X30.675615 Y6.643215 F100.000000
G0 Z2.000000
G0 X29.659615 Y54.903215
G17
G0 Z-0.283333 F30.000000
G1 X29.659615 Y54.903215 F100.000000
G1 X29.651141 Y54.852432 F100.000000
G1 X29.626637 Y54.807152 F100.000000
G1 X29.588758 Y54.772282 F100.000000
G1 X29.541609 Y54.751601 F100.000000
G1 X29.490300 Y54.747349 F100.000000
G1 X29.440390 Y54.759988 F100.000000
G1 X29.397288 Y54.788148 F100.000000
G1 X29.365665 Y54.828777 F100.000000
G1 X29.348948 Y54.877472 F100.000000
G1 Y54.928958 F100.000000
G1 X29.365665 Y54.977653 F100.000000
G1 X29.397288 Y55.018282 F100.000000
G1 X29.440390 Y55.046442 F100.000000
G1 X29.490300 Y55.059081 F100.000000
G1 X29.541609 Y55.054829 F100.000000
G1 X29.588758 Y55.034148 F100.000000
G1 X29.626637 Y54.999278 F100.000000
G1 X29.651141 Y54.953998 F100.000000
G1 X29.659615 Y54.903215 F100.000000
G0 Z-0.566667 F30.000000
G1 X29.651141 Y54.852432 F100.000000
G1 X29.626637 Y54.807152 F100.000000
G1 X29.588758 Y54.772282 F100.000000
G1 X29.541609 Y54.751601 F100.000000
G1 X29.490300 Y54.747349 F100.000000
G1 X29.440390 Y54.759988 F100.000000
G1 X29.397288 Y54.788148 F100.000000
G1 X29.365665 Y54.828777 F100.000000
G1 X29.348948 Y54.877472 F100.000000
G1 Y54.928958 F100.000000
G1 X29.365665 Y54.977653 F100.000000
G1 X29.397288 Y55.018282 F100.000000
G1 X29.440390 Y55.046442 F100.000000
G1 X29.490300 Y55.059081 F100.000000
G1 X29.541609 Y55.054829 F100.000000
G1 X29.588758 Y55.034148 F100.000000
G1 X29.626637 Y54.999278 F100.000000
G1 X29.651141 Y54.953998 F100.000000
G1 X29.659615 Y54.903215 F100.000000
G0 Z-0.850000 F30.000000
G1 X29.651141 Y54.852432 F100.000000
G1 X29.626637 Y54.807152 F100.000000
G1 X29.588758 Y54.772282 F100.000000
G1 X29.541609 Y54.751601 F100.000000
G1 X29.490300 Y54.747349 F100.000000
G1 X29.440390 Y54.759988 F100.000000
G1 X29.397288 Y54.788148 F100.000000
G1 X29.365665 Y54.828777 F100.000000
G1 X29.348948 Y54.877472 F100.000000
G1 Y54.928958 F100.000000
G1 X29.365665 Y54.977653 F100.000000
G1 X29.397288 Y55.018282 F100.000000
G1 X29.440390 Y55.046442 F100.000000
G1 X29.490300 Y55.059081 F100.000000
G1 X29.541609 Y55.054829 F100.000000
G1 X29.588758 Y55.034148 F100.000000
G1 X29.626637 Y54.999278 F100.000000
G1 X29.651141 Y54.953998 F100.000000
G1 X29.659615 Y54.903215 F100.000000
G0 Z-1.133333 F30.000000
G1 X29.651141 Y54.852432 F100.000000
G1 X29.626637 Y54.807152 F100.000000
G1 X29.588758 Y54.772282 F100.000000
G1 X29.541609 Y54.751601 F100.000000
G1 X29.490300 Y54.747349 F100.000000
G1 X29.440390 Y54.759988 F100.000000
G1 X29.397288 Y54.788148 F100.000000
G1 X29.365665 Y54.828777 F100.000000
G1 X29.348948 Y54.877472 F100.000000
G1 Y54.928958 F100.000000
G1 X29.365665 Y54.977653 F100.000000
G1 X29.397288 Y55.018282 F100.000000
G1 X29.440390 Y55.046442 F100.000000
G1 X29.490300 Y55.059081 F100.000000
G1 X29.541609 Y55.054829 F100.000000
G1 X29.588758 Y55.034148 F100.000000
G1 X29.626637 Y54.999278 F100.000000
G1 X29.651141 Y54.953998 F100.000000
G1 X29.659615 Y54.903215 F100.000000
G0 Z-1.416667 F30.000000
G1 X29.651141 Y54.852432 F100.000000
G1 X29.626637 Y54.807152 F100.000000
G1 X29.588758 Y54.772282 F100.000000
G1 X29.541609 Y54.751601 F100.000000
G1 X29.490300 Y54.747349 F100.000000
G1 X29.440390 Y54.759988 F100.000000
G1 X29.397288 Y54.788148 F100.000000
G1 X29.365665 Y54.828777 F100.000000
G1 X29.348948 Y54.877472 F100.000000
G1 Y54.928958 F100.000000
G1 X29.365665 Y54.977653 F100.000000
G1 X29.397288 Y55.018282 F100.000000
G1 X29.440390 Y55.046442 F100.000000
G1 X29.490300 Y55.059081 F100.000000
G1 X29.541609 Y55.054829 F100.000000
G1 X29.588758 Y55.034148 F100.000000
G1 X29.626637 Y54.999278 F100.000000
G1 X29.651141 Y54.953998 F100.000000
G1 X29.659615 Y54.903215 F100.000000
G0 Z-1.700000 F30.000000
G1 X29.651141 Y54.852432 F100.000000
G1 X29.626637 Y54.807152 F100.000000
G1 X29.588758 Y54.772282 F100.000000
G1 X29.541609 Y54.751601 F100.000000
G1 X29.490300 Y54.747349 F100.000000
G1 X29.440390 Y54.759988 F100.000000
G1 X29.397288 Y54.788148 F100.000000
G1 X29.365665 Y54.828777 F100.000000
G1 X29.348948 Y54.877472 F100.000000
G1 Y54.928958 F100.000000
G1 X29.365665 Y54.977653 F100.000000
G1 X29.397288 Y55.018282 F100.000000
G1 X29.440390 Y55.046442 F100.000000
G1 X29.490300 Y55.059081 F100.000000
G1 X29.541609 Y55.054829 F100.000000
G1 X29.588758 Y55.034148 F100.000000
G1 X29.626637 Y54.999278 F100.000000
G1 X29.651141 Y54.953998 F100.000000
G1 X29.659615 Y54.903215 F100.000000
G0 Z2.000000
G0 X28.135615 Y6.643215
G17
G0 Z-0.283333 F30.000000
G1 X28.135615 Y6.643215 F100.000000
G1 X28.127141 Y6.592432 F100.000000
G1 X28.102637 Y6.547152 F100.000000
G1 X28.064758 Y6.512282 F100.000000
G1 X28.017609 Y6.491601 F100.000000
G1 X27.966300 Y6.487349 F100.000000
G1 X27.916390 Y6.499988 F100.000000
G1 X27.873288 Y6.528148 F100.000000
G1 X27.841665 Y6.568777 F100.000000
G1 X27.824948 Y6.617472 F100.000000
G1 Y6.668958 F100.000000
G1 X27.841665 Y6.717653 F100.000000
G1 X27.873288 Y6.758282 F100.000000
G1 X27.916390 Y6.786442 F100.000000
G1 X27.966300 Y6.799081 F100.000000
G1 X28.017609 Y6.794829 F100.000000
G1 X28.064758 Y6.774148 F100.000000
G1 X28.102637 Y6.739278 F100.000000
G1 X28.127141 Y6.693998 F100.000000
G1 X28.135615 Y6.643215 F100.000000
G0 Z-0.566667 F30.000000
G1 X28.127141 Y6.592432 F100.000000
G1 X28.102637 Y6.547152 F100.000000
G1 X28.064758 Y6.512282 F100.000000
G1 X28.017609 Y6.491601 F100.000000
G1 X27.966300 Y6.487349 F100.000000
G1 X27.916390 Y6.499988 F100.000000
G1 X27.873288 Y6.528148 F100.000000
G1 X27.841665 Y6.568777 F100.000000
G1 X27.824948 Y6.617472 F100.000000
G1 Y6.668958 F100.000000
G1 X27.841665 Y6.717653 F100.000000
G1 X27.873288 Y6.758282 F100.000000
G1 X27.916390 Y6.786442 F100.000000
G1 X27.966300 Y6.799081 F100.000000
G1 X28.017609 Y6.794829 F100.000000
G1 X28.064758 Y6.774148 F100.000000
G1 X28.102637 Y6.739278 F100.000000
G1 X28.127141 Y6.693998 F100.000000
G1 X28.135615 Y6.643215 F100.000000
G0 Z-0.850000 F30.000000
G1 X28.127141 Y6.592432 F100.000000
G1 X28.102637 Y6.547152 F100.000000
G1 X28.064758 Y6.512282 F100.000000
G1 X28.017609 Y6.491601 F100.000000
G1 X27.966300 Y6.487349 F100.000000
G1 X27.916390 Y6.499988 F100.000000
G1 X27.873288 Y6.528148 F100.000000
G1 X27.841665 Y6.568777 F100.000000
G1 X27.824948 Y6.617472 F100.000000
G1 Y6.668958 F100.000000
G1 X27.841665 Y6.717653 F100.000000
G1 X27.873288 Y6.758282 F100.000000
G1 X27.916390 Y6.786442 F100.000000
G1 X27.966300 Y6.799081 F100.000000
G1 X28.017609 Y6.794829 F100.000000
G1 X28.064758 Y6.774148 F100.000000
G1 X28.102637 Y6.739278 F100.000000
G1 X28.127141 Y6.693998 F100.000000
G1 X28.135615 Y6.643215 F100.000000
G0 Z-1.133333 F30.000000
G1 X28.127141 Y6.592432 F100.000000
G1 X28.102637 Y6.547152 F100.000000
G1 X28.064758 Y6.512282 F100.000000
G1 X28.017609 Y6.491601 F100.000000
G1 X27.966300 Y6.487349 F100.000000
G1 X27.916390 Y6.499988 F100.000000
G1 X27.873288 Y6.528148 F100.000000
G1 X27.841665 Y6.568777 F100.000000
G1 X27.824948 Y6.617472 F100.000000
G1 Y6.668958 F100.000000
G1 X27.841665 Y6.717653 F100.000000
G1 X27.873288 Y6.758282 F100.000000
G1 X27.916390 Y6.786442 F100.000000
G1 X27.966300 Y6.799081 F100.000000
G1 X28.017609 Y6.794829 F100.000000
G1 X28.064758 Y6.774148 F100.000000
G1 X28.102637 Y6.739278 F100.000000
G1 X28.127141 Y6.693998 F100.000000
G1 X28.135615 Y6.643215 F100.000000
G0 Z-1.416667 F30.000000
G1 X28.127141 Y6.592432 F100.000000
G1 X28.102637 Y6.547152 F100.000000
G1 X28.064758 Y6.512282 F100.000000
G1 X28.017609 Y6.491601 F100.000000
G1 X27.966300 Y6.487349 F100.000000
G1 X27.916390 Y6.499988 F100.000000
G1 X27.873288 Y6.528148 F100.000000
G1 X27.841665 Y6.568777 F100.000000
G1 X27.824948 Y6.617472 F100.000000
G1 Y6.668958 F100.000000
G1 X27.841665 Y6.717653 F100.000000
G1 X27.873288 Y6.758282 F100.000000
G1 X27.916390 Y6.786442 F100.000000
G1 X27.966300 Y6.799081 F100.000000
G1 X28.017609 Y6.794829 F100.000000
G1 X28.064758 Y6.774148 F100.000000
G1 X28.102637 Y6.739278 F100.000000
G1 X28.127141 Y6.693998 F100.000000
G1 X28.135615 Y6.643215 F100.000000
G0 Z-1.700000 F30.000000
G1 X28.127141 Y6.592432 F100.000000
G1 X28.102637 Y6.547152 F100.000000
G1 X28.064758 Y6.512282 F100.000000
G1 X28.017609 Y6.491601 F100.000000
G1 X27.966300 Y6.487349 F100.000000
G1 X27.916390 Y6.499988 F100.000000
G1 X27.873288 Y6.528148 F100.000000
G1 X27.841665 Y6.568777 F100.000000
G1 X27.824948 Y6.617472 F100.000000
G1 Y6.668958 F100.000000
G1 X27.841665 Y6.717653 F100.000000
G1 X27.873288 Y6.758282 F100.000000
G1 X27.916390 Y6.786442 F100.000000
G1 X27.966300 Y6.799081 F100.000000
G1 X28.017609 Y6.794829 F100.000000
G1 X28.064758 Y6.774148 F100.000000
G1 X28.102637 Y6.739278 F100.000000
G1 X28.127141 Y6.693998 F100.000000
G1 X28.135615 Y6.643215 F100.000000
G0 Z2.000000
G0 X26.865615 Y25.185215
G17
G0 Z-0.283333 F30.000000
G1 X26.865615 Y25.185215 F100.000000
G1 X26.857141 Y25.134432 F100.000000
G1 X26.832637 Y25.089152 F100.000000
G1 X26.794758 Y25.054282 F100.000000
G1 X26.747609 Y25.033601 F100.000000
G1 X26.696300 Y25.029349 F100.000000
G1 X26.646390 Y25.041988 F100.000000
G1 X26.603288 Y25.070148 F100.000000
G1 X26.571665 Y25.110777 F100.000000
G1 X26.554948 Y25.159472 F100.000000
G1 Y25.210958 F100.000000
G1 X26.571665 Y25.259653 F100.000000
G1 X26.603288 Y25.300282 F100.000000
G1 X26.646390 Y25.328442 F100.000000
G1 X26.696300 Y25.341081 F100.000000
G1 X26.747609 Y25.336829 F100.000000
G1 X26.794758 Y25.316148 F100.000000
G1 X26.832637 Y25.281278 F100.000000
G1 X26.857141 Y25.235998 F100.000000
G1 X26.865615 Y25.185215 F100.000000
G0 Z-0.566667 F30.000000
G1 X26.857141 Y25.134432 F100.000000
G1 X26.832637 Y25.089152 F100.000000
G1 X26.794758 Y25.054282 F100.000000
G1 X26.747609 Y25.033601 F100.000000
G1 X26.696300 Y25.029349 F100.000000
G1 X26.646390 Y25.041988 F100.000000
G1 X26.603288 Y25.070148 F100.000000
G1 X26.571665 Y25.110777 F100.000000
G1 X26.554948 Y25.159472 F100.000000
G1 Y25.210958 F100.000000
G1 X26.571665 Y25.259653 F100.000000
G1 X26.603288 Y25.300282 F100.000000
G1 X26.646390 Y25.328442 F100.000000
G1 X26.696300 Y25.341081 F100.000000
G1 X26.747609 Y25.336829 F100.000000
G1 X26.794758 Y25.316148 F100.000000
G1 X26.832637 Y25.281278 F100.000000
G1 X26.857141 Y25.235998 F100.000000
G1 X26.865615 Y25.185215 F100.000000
G0 Z-0.850000 F30.000000
G1 X26.857141 Y25.134432 F100.000000
G1 X26.832637 Y25.089152 F100.000000
G1 X26.794758 Y25.054282 F100.000000
G1 X26.747609 Y25.033601 F100.000000
G1 X26.696300 Y25.029349 F100.000000
G1 X26.646390 Y25.041988 F100.000000
G1 X26.603288 Y25.070148 F100.000000
G1 X26.571665 Y25.110777 F100.000000
G1 X26.554948 Y25.159472 F100.000000
G1 Y25.210958 F100.000000
G1 X26.571665 Y25.259653 F100.000000
G1 X26.603288 Y25.300282 F100.000000
G1 X26.646390 Y25.328442 F100.000000
G1 X26.696300 Y25.341081 F100.000000
G1 X26.747609 Y25.336829 F100.000000
G1 X26.794758 Y25.316148 F100.000000
G1 X26.832637 Y25.281278 F100.000000
G1 X26.857141 Y25.235998 F100.000000
G1 X26.865615 Y25.185215 F100.000000
G0 Z-1.133333 F30.000000
G1 X26.857141 Y25.134432 F100.000000
G1 X26.832637 Y25.089152 F100.000000
G1 X26.794758 Y25.054282 F100.000000
G1 X26.747609 Y25.033601 F100.000000
G1 X26.696300 Y25.029349 F100.000000
G1 X26.646390 Y25.041988 F100.000000
G1 X26.603288 Y25.070148 F100.000000
G1 X26.571665 Y25.110777 F100.000000
G1 X26.554948 Y25.159472 F100.000000
G1 Y25.210958 F100.000000
G1 X26.571665 Y25.259653 F100.000000
G1 X26.603288 Y25.300282 F100.000000
G1 X26.646390 Y25.328442 F100.000000
G1 X26.696300 Y25.341081 F100.000000
G1 X26.747609 Y25.336829 F100.000000
G1 X26.794758 Y25.316148 F100.000000
G1 X26.832637 Y25.281278 F100.000000
G1 X26.857141 Y25.235998 F100.000000
G1 X26.865615 Y25.185215 F100.000000
G0 Z-1.416667 F30.000000
G1 X26.857141 Y25.134432 F100.000000
G1 X26.832637 Y25.089152 F100.000000
G1 X26.794758 Y25.054282 F100.000000
G1 X26.747609 Y25.033601 F100.000000
G1 X26.696300 Y25.029349 F100.000000
G1 X26.646390 Y25.041988 F100.000000
G1 X26.603288 Y25.070148 F100.000000
G1 X26.571665 Y25.110777 F100.000000
G1 X26.554948 Y25.159472 F100.000000
G1 Y25.210958 F100.000000
G1 X26.571665 Y25.259653 F100.000000
G1 X26.603288 Y25.300282 F100.000000
G1 X26.646390 Y25.328442 F100.000000
G1 X26.696300 Y25.341081 F100.000000
G1 X26.747609 Y25.336829 F100.000000
G1 X26.794758 Y25.316148 F100.000000
G1 X26.832637 Y25.281278 F100.000000
G1 X26.857141 Y25.235998 F100.000000
G1 X26.865615 Y25.185215 F100.000000
G0 Z-1.700000 F30.000000
G1 X26.857141 Y25.134432 F100.000000
G1 X26.832637 Y25.089152 F100.000000
G1 X26.794758 Y25.054282 F100.000000
G1 X26.747609 Y25.033601 F100.000000
G1 X26.696300 Y25.029349 F100.000000
G1 X26.646390 Y25.041988 F100.000000
G1 X26.603288 Y25.070148 F100.000000
G1 X26.571665 Y25.110777 F100.000000
G1 X26.554948 Y25.159472 F100.000000
G1 Y25.210958 F100.000000
G1 X26.571665 Y25.259653 F100.000000
G1 X26.603288 Y25.300282 F100.000000
G1 X26.646390 Y25.328442 F100.000000
G1 X26.696300 Y25.341081 F100.000000
G1 X26.747609 Y25.336829 F100.000000
G1 X26.794758 Y25.316148 F100.000000
G1 X26.832637 Y25.281278 F100.000000
G1 X26.857141 Y25.235998 F100.000000
G1 X26.865615 Y25.185215 F100.000000
G0 Z2.000000
G0 X26.865615 Y22.137215
G17
G0 Z-0.283333 F30.000000
G1 Y22.137215 F100.000000
G1 X26.857141 Y22.086432 F100.000000
G1 X26.832637 Y22.041152 F100.000000
G1 X26.794758 Y22.006282 F100.000000
G1 X26.747609 Y21.985601 F100.000000
G1 X26.696300 Y21.981349 F100.000000
G1 X26.646390 Y21.993988 F100.000000
G1 X26.603288 Y22.022148 F100.000000
G1 X26.571665 Y22.062777 F100.000000
G1 X26.554948 Y22.111472 F100.000000
G1 Y22.162958 F100.000000
G1 X26.571665 Y22.211653 F100.000000
G1 X26.603288 Y22.252282 F100.000000
G1 X26.646390 Y22.280442 F100.000000
