(Generated by pygerber2gcode_cui_MOD.py )
( 2013-05-29 00:15:06 )
(Initialize)
G92 X0.000000 Y0.000000 Z0.000000

(Start form here)
G0 Z2.000000
G0 X39.476715 Y25.439215
G17
G0 Z-0.283333 F30.000000
G1 X39.476715 Y25.439215 F100.000000
G1 X39.463824 Y25.399539 F100.000000
G1 X39.430074 Y25.375019 F100.000000
G1 X39.388356 F100.000000
G1 X39.354606 Y25.399539 F100.000000
G1 X39.341715 Y25.439215 F100.000000
G1 X39.354606 Y25.478891 F100.000000
G1 X39.388356 Y25.503411 F100.000000
G1 X39.430074 F100.000000
G1 X39.463824 Y25.478891 F100.000000
G1 X39.476715 Y25.439215 F100.000000
G0 Z-0.566667 F30.000000
G1 X39.463824 Y25.399539 F100.000000
G1 X39.430074 Y25.375019 F100.000000
G1 X39.388356 F100.000000
G1 X39.354606 Y25.399539 F100.000000
G1 X39.341715 Y25.439215 F100.000000
G1 X39.354606 Y25.478891 F100.000000
G1 X39.388356 Y25.503411 F100.000000
G1 X39.430074 F100.000000
G1 X39.463824 Y25.478891 F100.000000
G1 X39.476715 Y25.439215 F100.000000
G0 Z-0.850000 F30.000000
G1 X39.463824 Y25.399539 F100.000000
G1 X39.430074 Y25.375019 F100.000000
G1 X39.388356 F100.000000
G1 X39.354606 Y25.399539 F100.000000
G1 X39.341715 Y25.439215 F100.000000
G1 X39.354606 Y25.478891 F100.000000
G1 X39.388356 Y25.503411 F100.000000
G1 X39.430074 F100.000000
G1 X39.463824 Y25.478891 F100.000000
G1 X39.476715 Y25.439215 F100.000000
G0 Z-1.133333 F30.000000
G1 X39.463824 Y25.399539 F100.000000
G1 X39.430074 Y25.375019 F100.000000
G1 X39.388356 F100.000000
G1 X39.354606 Y25.399539 F100.000000
G1 X39.341715 Y25.439215 F100.000000
G1 X39.354606 Y25.478891 F100.000000
G1 X39.388356 Y25.503411 F100.000000
G1 X39.430074 F100.000000
G1 X39.463824 Y25.478891 F100.000000
G1 X39.476715 Y25.439215 F100.000000
G0 Z-1.416667 F30.000000
G1 X39.463824 Y25.399539 F100.000000
G1 X39.430074 Y25.375019 F100.000000
G1 X39.388356 F100.000000
G1 X39.354606 Y25.399539 F100.000000
G1 X39.341715 Y25.439215 F100.000000
G1 X39.354606 Y25.478891 F100.000000
G1 X39.388356 Y25.503411 F100.000000
G1 X39.430074 F100.000000
G1 X39.463824 Y25.478891 F100.000000
G1 X39.476715 Y25.439215 F100.000000
G0 Z-1.700000 F30.000000
G1 X39.463824 Y25.399539 F100.000000
G1 X39.430074 Y25.375019 F100.000000
G1 X39.388356 F100.000000
G1 X39.354606 Y25.399539 F100.000000
G1 X39.341715 Y25.439215 F100.000000
G1 X39.354606 Y25.478891 F100.000000
G1 X39.388356 Y25.503411 F100.000000
G1 X39.430074 F100.000000
G1 X39.463824 Y25.478891 F100.000000
G1 X39.476715 Y25.439215 F100.000000
G0 Z2.000000
G0 X27.538715 Y15.025215
G17
G0 Z-0.283333 F30.000000
G1 X27.538715 Y15.025215 F100.000000
G1 X27.525824 Y14.985539 F100.000000
G1 X27.492074 Y14.961019 F100.000000
G1 X27.450356 F100.000000
G1 X27.416606 Y14.985539 F100.000000
G1 X27.403715 Y15.025215 F100.000000
G1 X27.416606 Y15.064891 F100.000000
G1 X27.450356 Y15.089411 F100.000000
G1 X27.492074 F100.000000
G1 X27.525824 Y15.064891 F100.000000
G1 X27.538715 Y15.025215 F100.000000
G0 Z-0.566667 F30.000000
G1 X27.525824 Y14.985539 F100.000000
G1 X27.492074 Y14.961019 F100.000000
G1 X27.450356 F100.000000
G1 X27.416606 Y14.985539 F100.000000
G1 X27.403715 Y15.025215 F100.000000
G1 X27.416606 Y15.064891 F100.000000
G1 X27.450356 Y15.089411 F100.000000
G1 X27.492074 F100.000000
G1 X27.525824 Y15.064891 F100.000000
G1 X27.538715 Y15.025215 F100.000000
G0 Z-0.850000 F30.000000
G1 X27.525824 Y14.985539 F100.000000
G1 X27.492074 Y14.961019 F100.000000
G1 X27.450356 F100.000000
G1 X27.416606 Y14.985539 F100.000000
G1 X27.403715 Y15.025215 F100.000000
G1 X27.416606 Y15.064891 F100.000000
G1 X27.450356 Y15.089411 F100.000000
G1 X27.492074 F100.000000
G1 X27.525824 Y15.064891 F100.000000
G1 X27.538715 Y15.025215 F100.000000
G0 Z-1.133333 F30.000000
G1 X27.525824 Y14.985539 F100.000000
G1 X27.492074 Y14.961019 F100.000000
G1 X27.450356 F100.000000
G1 X27.416606 Y14.985539 F100.000000
G1 X27.403715 Y15.025215 F100.000000
G1 X27.416606 Y15.064891 F100.000000
G1 X27.450356 Y15.089411 F100.000000
G1 X27.492074 F100.000000
G1 X27.525824 Y15.064891 F100.000000
G1 X27.538715 Y15.025215 F100.000000
G0 Z-1.416667 F30.000000
G1 X27.525824 Y14.985539 F100.000000
G1 X27.492074 Y14.961019 F100.000000
G1 X27.450356 F100.000000
G1 X27.416606 Y14.985539 F100.000000
G1 X27.403715 Y15.025215 F100.000000
G1 X27.416606 Y15.064891 F100.000000
G1 X27.450356 Y15.089411 F100.000000
G1 X27.492074 F100.000000
G1 X27.525824 Y15.064891 F100.000000
G1 X27.538715 Y15.025215 F100.000000
G0 Z-1.700000 F30.000000
G1 X27.525824 Y14.985539 F100.000000
G1 X27.492074 Y14.961019 F100.000000
G1 X27.450356 F100.000000
G1 X27.416606 Y14.985539 F100.000000
G1 X27.403715 Y15.025215 F100.000000
G1 X27.416606 Y15.064891 F100.000000
G1 X27.450356 Y15.089411 F100.000000
G1 X27.492074 F100.000000
G1 X27.525824 Y15.064891 F100.000000
G1 X27.538715 Y15.025215 F100.000000
G0 Z2.000000
G0 X5.694715 Y21.883215
G17
G0 Z-0.283333 F30.000000
G1 X5.694715 Y21.883215 F100.000000
G1 X5.681824 Y21.843539 F100.000000
G1 X5.648074 Y21.819019 F100.000000
G1 X5.606356 F100.000000
G1 X5.572606 Y21.843539 F100.000000
G1 X5.559715 Y21.883215 F100.000000
G1 X5.572606 Y21.922891 F100.000000
G1 X5.606356 Y21.947411 F100.000000
G1 X5.648074 F100.000000
G1 X5.681824 Y21.922891 F100.000000
G1 X5.694715 Y21.883215 F100.000000
G0 Z-0.566667 F30.000000
G1 X5.681824 Y21.843539 F100.000000
G1 X5.648074 Y21.819019 F100.000000
G1 X5.606356 F100.000000
G1 X5.572606 Y21.843539 F100.000000
G1 X5.559715 Y21.883215 F100.000000
G1 X5.572606 Y21.922891 F100.000000
G1 X5.606356 Y21.947411 F100.000000
G1 X5.648074 F100.000000
G1 X5.681824 Y21.922891 F100.000000
G1 X5.694715 Y21.883215 F100.000000
G0 Z-0.850000 F30.000000
G1 X5.681824 Y21.843539 F100.000000
G1 X5.648074 Y21.819019 F100.000000
G1 X5.606356 F100.000000
G1 X5.572606 Y21.843539 F100.000000
G1 X5.559715 Y21.883215 F100.000000
G1 X5.572606 Y21.922891 F100.000000
G1 X5.606356 Y21.947411 F100.000000
G1 X5.648074 F100.000000
G1 X5.681824 Y21.922891 F100.000000
G1 X5.694715 Y21.883215 F100.000000
G0 Z-1.133333 F30.000000
G1 X5.681824 Y21.843539 F100.000000
G1 X5.648074 Y21.819019 F100.000000
G1 X5.606356 F100.000000
G1 X5.572606 Y21.843539 F100.000000
G1 X5.559715 Y21.883215 F100.000000
G1 X5.572606 Y21.922891 F100.000000
G1 X5.606356 Y21.947411 F100.000000
G1 X5.648074 F100.000000
G1 X5.681824 Y21.922891 F100.000000
G1 X5.694715 Y21.883215 F100.000000
G0 Z-1.416667 F30.000000
G1 X5.681824 Y21.843539 F100.000000
G1 X5.648074 Y21.819019 F100.000000
G1 X5.606356 F100.000000
G1 X5.572606 Y21.843539 F100.000000
G1 X5.559715 Y21.883215 F100.000000
G1 X5.572606 Y21.922891 F100.000000
G1 X5.606356 Y21.947411 F100.000000
G1 X5.648074 F100.000000
G1 X5.681824 Y21.922891 F100.000000
G1 X5.694715 Y21.883215 F100.000000
G0 Z-1.700000 F30.000000
G1 X5.681824 Y21.843539 F100.000000
G1 X5.648074 Y21.819019 F100.000000
G1 X5.606356 F100.000000
G1 X5.572606 Y21.843539 F100.000000
G1 X5.559715 Y21.883215 F100.000000
G1 X5.572606 Y21.922891 F100.000000
G1 X5.606356 Y21.947411 F100.000000
G1 X5.648074 F100.000000
G1 X5.681824 Y21.922891 F100.000000
G1 X5.694715 Y21.883215 F100.000000
G0 Z2.000000
G0 X5.694715 Y18.581215
G17
G0 Z-0.283333 F30.000000
G1 Y18.581215 F100.000000
G1 X5.681824 Y18.541539 F100.000000
G1 X5.648074 Y18.517019 F100.000000
G1 X5.606356 F100.000000
G1 X5.572606 Y18.541539 F100.000000
G1 X5.559715 Y18.581215 F100.000000
G1 X5.572606 Y18.620891 F100.000000
G1 X5.606356 Y18.645411 F100.000000
G1 X5.648074 F100.000000
G1 X5.681824 Y18.620891 F100.000000
G1 X5.694715 Y18.581215 F100.000000
G0 Z-0.566667 F30.000000
G1 X5.681824 Y18.541539 F100.000000
G1 X5.648074 Y18.517019 F100.000000
G1 X5.606356 F100.000000
G1 X5.572606 Y18.541539 F100.000000
G1 X5.559715 Y18.581215 F100.000000
G1 X5.572606 Y18.620891 F100.000000
G1 X5.606356 Y18.645411 F100.000000
G1 X5.648074 F100.000000
G1 X5.681824 Y18.620891 F100.000000
G1 X5.694715 Y18.581215 F100.000000
G0 Z-0.850000 F30.000000
G1 X5.681824 Y18.541539 F100.000000
G1 X5.648074 Y18.517019 F100.000000
G1 X5.606356 F100.000000
G1 X5.572606 Y18.541539 F100.000000
G1 X5.559715 Y18.581215 F100.000000
G1 X5.572606 Y18.620891 F100.000000
G1 X5.606356 Y18.645411 F100.000000
G1 X5.648074 F100.000000
G1 X5.681824 Y18.620891 F100.000000
G1 X5.694715 Y18.581215 F100.000000
G0 Z-1.133333 F30.000000
G1 X5.681824 Y18.541539 F100.000000
G1 X5.648074 Y18.517019 F100.000000
G1 X5.606356 F100.000000
G1 X5.572606 Y18.541539 F100.000000
G1 X5.559715 Y18.581215 F100.000000
G1 X5.572606 Y18.620891 F100.000000
G1 X5.606356 Y18.645411 F100.000000
G1 X5.648074 F100.000000
G1 X5.681824 Y18.620891 F100.000000
G1 X5.694715 Y18.581215 F100.000000
G0 Z-1.416667 F30.000000
G1 X5.681824 Y18.541539 F100.000000
G1 X5.648074 Y18.517019 F100.000000
G1 X5.606356 F100.000000
G1 X5.572606 Y18.541539 F100.000000
G1 X5.559715 Y18.581215 F100.000000
G1 X5.572606 Y18.620891 F100.000000
G1 X5.606356 Y18.645411 F100.000000
G1 X5.648074 F100.000000
G1 X5.681824 Y18.620891 F100.000000
G1 X5.694715 Y18.581215 F100.000000
G0 Z-1.700000 F30.000000
G1 X5.681824 Y18.541539 F100.000000
G1 X5.648074 Y18.517019 F100.000000
G1 X5.606356 F100.000000
G1 X5.572606 Y18.541539 F100.000000
G1 X5.559715 Y18.581215 F100.000000
G1 X5.572606 Y18.620891 F100.000000
G1 X5.606356 Y18.645411 F100.000000
G1 X5.648074 F100.000000
G1 X5.681824 Y18.620891 F100.000000
G1 X5.694715 Y18.581215 F100.000000
G0 Z2.000000
G0 X51.376615 Y51.347215
G17
G0 Z-0.283333 F30.000000
G1 X51.376615 Y51.347215 F100.000000
G1 X51.346745 Y51.255285 F100.000000
G1 X51.268545 Y51.198470 F100.000000
G1 X51.171885 F100.000000
G1 X51.093685 Y51.255285 F100.000000
G1 X51.063815 Y51.347215 F100.000000
G1 X51.093685 Y51.439145 F100.000000
G1 X51.171885 Y51.495960 F100.000000
G1 X51.268545 F100.000000
G1 X51.346745 Y51.439145 F100.000000
G1 X51.376615 Y51.347215 F100.000000
G0 Z-0.566667 F30.000000
G1 X51.346745 Y51.255285 F100.000000
G1 X51.268545 Y51.198470 F100.000000
G1 X51.171885 F100.000000
G1 X51.093685 Y51.255285 F100.000000
G1 X51.063815 Y51.347215 F100.000000
G1 X51.093685 Y51.439145 F100.000000
G1 X51.171885 Y51.495960 F100.000000
G1 X51.268545 F100.000000
G1 X51.346745 Y51.439145 F100.000000
G1 X51.376615 Y51.347215 F100.000000
G0 Z-0.850000 F30.000000
G1 X51.346745 Y51.255285 F100.000000
G1 X51.268545 Y51.198470 F100.000000
G1 X51.171885 F100.000000
G1 X51.093685 Y51.255285 F100.000000
G1 X51.063815 Y51.347215 F100.000000
G1 X51.093685 Y51.439145 F100.000000
G1 X51.171885 Y51.495960 F100.000000
G1 X51.268545 F100.000000
G1 X51.346745 Y51.439145 F100.000000
G1 X51.376615 Y51.347215 F100.000000
G0 Z-1.133333 F30.000000
G1 X51.346745 Y51.255285 F100.000000
G1 X51.268545 Y51.198470 F100.000000
G1 X51.171885 F100.000000
G1 X51.093685 Y51.255285 F100.000000
G1 X51.063815 Y51.347215 F100.000000
G1 X51.093685 Y51.439145 F100.000000
G1 X51.171885 Y51.495960 F100.000000
G1 X51.268545 F100.000000
G1 X51.346745 Y51.439145 F100.000000
G1 X51.376615 Y51.347215 F100.000000
G0 Z-1.416667 F30.000000
G1 X51.346745 Y51.255285 F100.000000
G1 X51.268545 Y51.198470 F100.000000
G1 X51.171885 F100.000000
G1 X51.093685 Y51.255285 F100.000000
G1 X51.063815 Y51.347215 F100.000000
G1 X51.093685 Y51.439145 F100.000000
G1 X51.171885 Y51.495960 F100.000000
G1 X51.268545 F100.000000
G1 X51.346745 Y51.439145 F100.000000
G1 X51.376615 Y51.347215 F100.000000
G0 Z-1.700000 F30.000000
G1 X51.346745 Y51.255285 F100.000000
G1 X51.268545 Y51.198470 F100.000000
G1 X51.171885 F100.000000
G1 X51.093685 Y51.255285 F100.000000
G1 X51.063815 Y51.347215 F100.000000
G1 X51.093685 Y51.439145 F100.000000
G1 X51.171885 Y51.495960 F100.000000
G1 X51.268545 F100.000000
G1 X51.346745 Y51.439145 F100.000000
G1 X51.376615 Y51.347215 F100.000000
G0 Z2.000000
G0 X47.439615 Y54.903215
G17
G0 Z-0.283333 F30.000000
G1 X47.439615 Y54.903215 F100.000000
G1 X47.409745 Y54.811285 F100.000000
G1 X47.331545 Y54.754470 F100.000000
G1 X47.234885 F100.000000
G1 X47.156685 Y54.811285 F100.000000
G1 X47.126815 Y54.903215 F100.000000
G1 X47.156685 Y54.995145 F100.000000
G1 X47.234885 Y55.051960 F100.000000
G1 X47.331545 F100.000000
G1 X47.409745 Y54.995145 F100.000000
G1 X47.439615 Y54.903215 F100.000000
G0 Z-0.566667 F30.000000
G1 X47.409745 Y54.811285 F100.000000
G1 X47.331545 Y54.754470 F100.000000
G1 X47.234885 F100.000000
G1 X47.156685 Y54.811285 F100.000000
G1 X47.126815 Y54.903215 F100.000000
G1 X47.156685 Y54.995145 F100.000000
G1 X47.234885 Y55.051960 F100.000000
G1 X47.331545 F100.000000
G1 X47.409745 Y54.995145 F100.000000
G1 X47.439615 Y54.903215 F100.000000
G0 Z-0.850000 F30.000000
G1 X47.409745 Y54.811285 F100.000000
G1 X47.331545 Y54.754470 F100.000000
G1 X47.234885 F100.000000
G1 X47.156685 Y54.811285 F100.000000
G1 X47.126815 Y54.903215 F100.000000
G1 X47.156685 Y54.995145 F100.000000
G1 X47.234885 Y55.051960 F100.000000
G1 X47.331545 F100.000000
G1 X47.409745 Y54.995145 F100.000000
G1 X47.439615 Y54.903215 F100.000000
G0 Z-1.133333 F30.000000
G1 X47.409745 Y54.811285 F100.000000
G1 X47.331545 Y54.754470 F100.000000
G1 X47.234885 F100.000000
G1 X47.156685 Y54.811285 F100.000000
G1 X47.126815 Y54.903215 F100.000000
G1 X47.156685 Y54.995145 F100.000000
G1 X47.234885 Y55.051960 F100.000000
G1 X47.331545 F100.000000
G1 X47.409745 Y54.995145 F100.000000
G1 X47.439615 Y54.903215 F100.000000
G0 Z-1.416667 F30.000000
G1 X47.409745 Y54.811285 F100.000000
G1 X47.331545 Y54.754470 F100.000000
G1 X47.234885 F100.000000
G1 X47.156685 Y54.811285 F100.000000
G1 X47.126815 Y54.903215 F100.000000
G1 X47.156685 Y54.995145 F100.000000
G1 X47.234885 Y55.051960 F100.000000
G1 X47.331545 F100.000000
G1 X47.409745 Y54.995145 F100.000000
G1 X47.439615 Y54.903215 F100.000000
G0 Z-1.700000 F30.000000
G1 X47.409745 Y54.811285 F100.000000
G1 X47.331545 Y54.754470 F100.000000
G1 X47.234885 F100.000000
G1 X47.156685 Y54.811285 F100.000000
G1 X47.126815 Y54.903215 F100.000000
G1 X47.156685 Y54.995145 F100.000000
G1 X47.234885 Y55.051960 F100.000000
G1 X47.331545 F100.000000
G1 X47.409745 Y54.995145 F100.000000
G1 X47.439615 Y54.903215 F100.000000
G0 Z2.000000
G0 X47.439615 Y47.029215
G17
G0 Z-0.283333 F30.000000
G1 Y47.029215 F100.000000
G1 X47.409745 Y46.937285 F100.000000
G1 X47.331545 Y46.880470 F100.000000
G1 X47.234885 F100.000000
G1 X47.156685 Y46.937285 F100.000000
G1 X47.126815 Y47.029215 F100.000000
G1 X47.156685 Y47.121145 F100.000000
G1 X47.234885 Y47.177960 F100.000000
G1 X47.331545 F100.000000
G1 X47.409745 Y47.121145 F100.000000
G1 X47.439615 Y47.029215 F100.000000
G0 Z-0.566667 F30.000000
G1 X47.409745 Y46.937285 F100.000000
G1 X47.331545 Y46.880470 F100.000000
G1 X47.234885 F100.000000
G1 X47.156685 Y46.937285 F100.000000
G1 X47.126815 Y47.029215 F100.000000
G1 X47.156685 Y47.121145 F100.000000
G1 X47.234885 Y47.177960 F100.000000
G1 X47.331545 F100.000000
G1 X47.409745 Y47.121145 F100.000000
G1 X47.439615 Y47.029215 F100.000000
G0 Z-0.850000 F30.000000
G1 X47.409745 Y46.937285 F100.000000
G1 X47.331545 Y46.880470 F100.000000
G1 X47.234885 F100.000000
G1 X47.156685 Y46.937285 F100.000000
G1 X47.126815 Y47.029215 F100.000000
G1 X47.156685 Y47.121145 F100.000000
G1 X47.234885 Y47.177960 F100.000000
G1 X47.331545 F100.000000
G1 X47.409745 Y47.121145 F100.000000
G1 X47.439615 Y47.029215 F100.000000
G0 Z-1.133333 F30.000000
G1 X47.409745 Y46.937285 F100.000000
G1 X47.331545 Y46.880470 F100.000000
G1 X47.234885 F100.000000
G1 X47.156685 Y46.937285 F100.000000
G1 X47.126815 Y47.029215 F100.000000
G1 X47.156685 Y47.121145 F100.000000
G1 X47.234885 Y47.177960 F100.000000
G1 X47.331545 F100.000000
G1 X47.409745 Y47.121145 F100.000000
G1 X47.439615 Y47.029215 F100.000000
G0 Z-1.416667 F30.000000
G1 X47.409745 Y46.937285 F100.000000
G1 X47.331545 Y46.880470 F100.000000
G1 X47.234885 F100.000000
G1 X47.156685 Y46.937285 F100.000000
G1 X47.126815 Y47.029215 F100.000000
G1 X47.156685 Y47.121145 F100.000000
G1 X47.234885 Y47.177960 F100.000000
G1 X47.331545 F100.000000
G1 X47.409745 Y47.121145 F100.000000
G1 X47.439615 Y47.029215 F100.000000
G0 Z-1.700000 F30.000000
G1 X47.409745 Y46.937285 F100.000000
G1 X47.331545 Y46.880470 F100.000000
G1 X47.234885 F100.000000
G1 X47.156685 Y46.937285 F100.000000
G1 X47.126815 Y47.029215 F100.000000
G1 X47.156685 Y47.121145 F100.000000
G1 X47.234885 Y47.177960 F100.000000
G1 X47.331545 F100.000000
G1 X47.409745 Y47.121145 F100.000000
G1 X47.439615 Y47.029215 F100.000000
G0 Z2.000000
G0 X44.899615 Y54.903215
G17
G0 Z-0.283333 F30.000000
G1 X44.899615 Y54.903215 F100.000000
G1 X44.869745 Y54.811285 F100.000000
G1 X44.791545 Y54.754470 F100.000000
G1 X44.694885 F100.000000
G1 X44.616685 Y54.811285 F100.000000
G1 X44.586815 Y54.903215 F100.000000
G1 X44.616685 Y54.995145 F100.000000
G1 X44.694885 Y55.051960 F100.000000
G1 X44.791545 F100.000000
G1 X44.869745 Y54.995145 F100.000000
G1 X44.899615 Y54.903215 F100.000000
G0 Z-0.566667 F30.000000
G1 X44.869745 Y54.811285 F100.000000
G1 X44.791545 Y54.754470 F100.000000
G1 X44.694885 F100.000000
G1 X44.616685 Y54.811285 F100.000000
G1 X44.586815 Y54.903215 F100.000000
G1 X44.616685 Y54.995145 F100.000000
G1 X44.694885 Y55.051960 F100.000000
G1 X44.791545 F100.000000
G1 X44.869745 Y54.995145 F100.000000
G1 X44.899615 Y54.903215 F100.000000
G0 Z-0.850000 F30.000000
G1 X44.869745 Y54.811285 F100.000000
G1 X44.791545 Y54.754470 F100.000000
G1 X44.694885 F100.000000
G1 X44.616685 Y54.811285 F100.000000
G1 X44.586815 Y54.903215 F100.000000
G1 X44.616685 Y54.995145 F100.000000
G1 X44.694885 Y55.051960 F100.000000
G1 X44.791545 F100.000000
G1 X44.869745 Y54.995145 F100.000000
G1 X44.899615 Y54.903215 F100.000000
G0 Z-1.133333 F30.000000
G1 X44.869745 Y54.811285 F100.000000
G1 X44.791545 Y54.754470 F100.000000
G1 X44.694885 F100.000000
G1 X44.616685 Y54.811285 F100.000000
G1 X44.586815 Y54.903215 F100.000000
G1 X44.616685 Y54.995145 F100.000000
G1 X44.694885 Y55.051960 F100.000000
G1 X44.791545 F100.000000
G1 X44.869745 Y54.995145 F100.000000
G1 X44.899615 Y54.903215 F100.000000
G0 Z-1.416667 F30.000000
G1 X44.869745 Y54.811285 F100.000000
G1 X44.791545 Y54.754470 F100.000000
G1 X44.694885 F100.000000
G1 X44.616685 Y54.811285 F100.000000
G1 X44.586815 Y54.903215 F100.000000
G1 X44.616685 Y54.995145 F100.000000
G1 X44.694885 Y55.051960 F100.000000
G1 X44.791545 F100.000000
G1 X44.869745 Y54.995145 F100.000000
G1 X44.899615 Y54.903215 F100.000000
G0 Z-1.700000 F30.000000
G1 X44.869745 Y54.811285 F100.000000
G1 X44.791545 Y54.754470 F100.000000
G1 X44.694885 F100.000000
G1 X44.616685 Y54.811285 F100.000000
G1 X44.586815 Y54.903215 F100.000000
G1 X44.616685 Y54.995145 F100.000000
G1 X44.694885 Y55.051960 F100.000000
G1 X44.791545 F100.000000
G1 X44.869745 Y54.995145 F100.000000
G1 X44.899615 Y54.903215 F100.000000
G0 Z2.000000
G0 X44.899615 Y47.029215
G17
G0 Z-0.283333 F30.000000
G1 Y47.029215 F100.000000
G1 X44.869745 Y46.937285 F100.000000
G1 X44.791545 Y46.880470 F100.000000
G1 X44.694885 F100.000000
G1 X44.616685 Y46.937285 F100.000000
G1 X44.586815 Y47.029215 F100.000000
G1 X44.616685 Y47.121145 F100.000000
G1 X44.694885 Y47.177960 F100.000000
G1 X44.791545 F100.000000
G1 X44.869745 Y47.121145 F100.000000
G1 X44.899615 Y47.029215 F100.000000
G0 Z-0.566667 F30.000000
G1 X44.869745 Y46.937285 F100.000000
G1 X44.791545 Y46.880470 F100.000000
G1 X44.694885 F100.000000
G1 X44.616685 Y46.937285 F100.000000
G1 X44.586815 Y47.029215 F100.000000
G1 X44.616685 Y47.121145 F100.000000
G1 X44.694885 Y47.177960 F100.000000
G1 X44.791545 F100.000000
G1 X44.869745 Y47.121145 F100.000000
G1 X44.899615 Y47.029215 F100.000000
G0 Z-0.850000 F30.000000
G1 X44.869745 Y46.937285 F100.000000
G1 X44.791545 Y46.880470 F100.000000
G1 X44.694885 F100.000000
G1 X44.616685 Y46.937285 F100.000000
G1 X44.586815 Y47.029215 F100.000000
G1 X44.616685 Y47.121145 F100.000000
G1 X44.694885 Y47.177960 F100.000000
G1 X44.791545 F100.000000
G1 X44.869745 Y47.121145 F100.000000
G1 X44.899615 Y47.029215 F100.000000
G0 Z-1.133333 F30.000000
G1 X44.869745 Y46.937285 F100.000000
G1 X44.791545 Y46.880470 F100.000000
G1 X44.694885 F100.000000
G1 X44.616685 Y46.937285 F100.000000
G1 X44.586815 Y47.029215 F100.000000
G1 X44.616685 Y47.121145 F100.000000
G1 X44.694885 Y47.177960 F100.000000
G1 X44.791545 F100.000000
G1 X44.869745 Y47.121145 F100.000000
G1 X44.899615 Y47.029215 F100.000000
G0 Z-1.416667 F30.000000
G1 X44.869745 Y46.937285 F100.000000
G1 X44.791545 Y46.880470 F100.000000
G1 X44.694885 F100.000000
G1 X44.616685 Y46.937285 F100.000000
G1 X44.586815 Y47.029215 F100.000000
G1 X44.616685 Y47.121145 F100.000000
G1 X44.694885 Y47.177960 F100.000000
G1 X44.791545 F100.000000
G1 X44.869745 Y47.121145 F100.000000
G1 X44.899615 Y47.029215 F100.000000
G0 Z-1.700000 F30.000000
G1 X44.869745 Y46.937285 F100.000000
G1 X44.791545 Y46.880470 F100.000000
G1 X44.694885 F100.000000
G1 X44.616685 Y46.937285 F100.000000
G1 X44.586815 Y47.029215 F100.000000
G1 X44.616685 Y47.121145 F100.000000
G1 X44.694885 Y47.177960 F100.000000
G1 X44.791545 F100.000000
G1 X44.869745 Y47.121145 F100.000000
G1 X44.899615 Y47.029215 F100.000000
G0 Z2.000000
G0 X42.486615 Y51.347215
G17
G0 Z-0.283333 F30.000000
G1 X42.486615 Y51.347215 F100.000000
G1 X42.456745 Y51.255285 F100.000000
G1 X42.378545 Y51.198470 F100.000000
G1 X42.281885 F100.000000
G1 X42.203685 Y51.255285 F100.000000
G1 X42.173815 Y51.347215 F100.000000
G1 X42.203685 Y51.439145 F100.000000
G1 X42.281885 Y51.495960 F100.000000
G1 X42.378545 F100.000000
G1 X42.456745 Y51.439145 F100.000000
G1 X42.486615 Y51.347215 F100.000000
G0 Z-0.566667 F30.000000
G1 X42.456745 Y51.255285 F100.000000
G1 X42.378545 Y51.198470 F100.000000
G1 X42.281885 F100.000000
G1 X42.203685 Y51.255285 F100.000000
G1 X42.173815 Y51.347215 F100.000000
G1 X42.203685 Y51.439145 F100.000000
G1 X42.281885 Y51.495960 F100.000000
G1 X42.378545 F100.000000
G1 X42.456745 Y51.439145 F100.000000
G1 X42.486615 Y51.347215 F100.000000
G0 Z-0.850000 F30.000000
G1 X42.456745 Y51.255285 F100.000000
G1 X42.378545 Y51.198470 F100.000000
G1 X42.281885 F100.000000
G1 X42.203685 Y51.255285 F100.000000
G1 X42.173815 Y51.347215 F100.000000
G1 X42.203685 Y51.439145 F100.000000
G1 X42.281885 Y51.495960 F100.000000
G1 X42.378545 F100.000000
G1 X42.456745 Y51.439145 F100.000000
G1 X42.486615 Y51.347215 F100.000000
G0 Z-1.133333 F30.000000
G1 X42.456745 Y51.255285 F100.000000
G1 X42.378545 Y51.198470 F100.000000
G1 X42.281885 F100.000000
G1 X42.203685 Y51.255285 F100.000000
G1 X42.173815 Y51.347215 F100.000000
G1 X42.203685 Y51.439145 F100.000000
G1 X42.281885 Y51.495960 F100.000000
G1 X42.378545 F100.000000
G1 X42.456745 Y51.439145 F100.000000
G1 X42.486615 Y51.347215 F100.000000
G0 Z-1.416667 F30.000000
G1 X42.456745 Y51.255285 F100.000000
G1 X42.378545 Y51.198470 F100.000000
G1 X42.281885 F100.000000
G1 X42.203685 Y51.255285 F100.000000
G1 X42.173815 Y51.347215 F100.000000
G1 X42.203685 Y51.439145 F100.000000
G1 X42.281885 Y51.495960 F100.000000
G1 X42.378545 F100.000000
G1 X42.456745 Y51.439145 F100.000000
G1 X42.486615 Y51.347215 F100.000000
G0 Z-1.700000 F30.000000
G1 X42.456745 Y51.255285 F100.000000
G1 X42.378545 Y51.198470 F100.000000
G1 X42.281885 F100.000000
G1 X42.203685 Y51.255285 F100.000000
G1 X42.173815 Y51.347215 F100.000000
G1 X42.203685 Y51.439145 F100.000000
G1 X42.281885 Y51.495960 F100.000000
G1 X42.378545 F100.000000
G1 X42.456745 Y51.439145 F100.000000
G1 X42.486615 Y51.347215 F100.000000
G0 Z2.000000
G0 X42.359615 Y54.903215
G17
G0 Z-0.283333 F30.000000
G1 X42.359615 Y54.903215 F100.000000
G1 X42.329745 Y54.811285 F100.000000
G1 X42.251545 Y54.754470 F100.000000
G1 X42.154885 F100.000000
G1 X42.076685 Y54.811285 F100.000000
G1 X42.046815 Y54.903215 F100.000000
G1 X42.076685 Y54.995145 F100.000000
G1 X42.154885 Y55.051960 F100.000000
G1 X42.251545 F100.000000
G1 X42.329745 Y54.995145 F100.000000
G1 X42.359615 Y54.903215 F100.000000
G0 Z-0.566667 F30.000000
G1 X42.329745 Y54.811285 F100.000000
G1 X42.251545 Y54.754470 F100.000000
G1 X42.154885 F100.000000
G1 X42.076685 Y54.811285 F100.000000
G1 X42.046815 Y54.903215 F100.000000
G1 X42.076685 Y54.995145 F100.000000
G1 X42.154885 Y55.051960 F100.000000
G1 X42.251545 F100.000000
G1 X42.329745 Y54.995145 F100.000000
G1 X42.359615 Y54.903215 F100.000000
G0 Z-0.850000 F30.000000
G1 X42.329745 Y54.811285 F100.000000
G1 X42.251545 Y54.754470 F100.000000
G1 X42.154885 F100.000000
G1 X42.076685 Y54.811285 F100.000000
G1 X42.046815 Y54.903215 F100.000000
G1 X42.076685 Y54.995145 F100.000000
G1 X42.154885 Y55.051960 F100.000000
G1 X42.251545 F100.000000
G1 X42.329745 Y54.995145 F100.000000
G1 X42.359615 Y54.903215 F100.000000
G0 Z-1.133333 F30.000000
G1 X42.329745 Y54.811285 F100.000000
G1 X42.251545 Y54.754470 F100.000000
G1 X42.154885 F100.000000
G1 X42.076685 Y54.811285 F100.000000
G1 X42.046815 Y54.903215 F100.000000
G1 X42.076685 Y54.995145 F100.000000
G1 X42.154885 Y55.051960 F100.000000
G1 X42.251545 F100.000000
G1 X42.329745 Y54.995145 F100.000000
G1 X42.359615 Y54.903215 F100.000000
G0 Z-1.416667 F30.000000
G1 X42.329745 Y54.811285 F100.000000
G1 X42.251545 Y54.754470 F100.000000
G1 X42.154885 F100.000000
G1 X42.076685 Y54.811285 F100.000000
G1 X42.046815 Y54.903215 F100.000000
G1 X42.076685 Y54.995145 F100.000000
G1 X42.154885 Y55.051960 F100.000000
G1 X42.251545 F100.000000
G1 X42.329745 Y54.995145 F100.000000
G1 X42.359615 Y54.903215 F100.000000
G0 Z-1.700000 F30.000000
G1 X42.329745 Y54.811285 F100.000000
G1 X42.251545 Y54.754470 F100.000000
G1 X42.154885 F100.000000
G1 X42.076685 Y54.811285 F100.000000
G1 X42.046815 Y54.903215 F100.000000
G1 X42.076685 Y54.995145 F100.000000
G1 X42.154885 Y55.051960 F100.000000
G1 X42.251545 F100.000000
G1 X42.329745 Y54.995145 F100.000000
G1 X42.359615 Y54.903215 F100.000000
G0 Z2.000000
G0 X39.819615 Y54.903215
G17
G0 Z-0.283333 F30.000000
G1 X39.819615 F100.000000
G1 X39.789745 Y54.811285 F100.000000
G1 X39.711545 Y54.754470 F100.000000
G1 X39.614885 F100.000000
G1 X39.536685 Y54.811285 F100.000000
G1 X39.506815 Y54.903215 F100.000000
G1 X39.536685 Y54.995145 F100.000000
G1 X39.614885 Y55.051960 F100.000000
G1 X39.711545 F100.000000
G1 X39.789745 Y54.995145 F100.000000
G1 X39.819615 Y54.903215 F100.000000
G0 Z-0.566667 F30.000000
G1 X39.789745 Y54.811285 F100.000000
G1 X39.711545 Y54.754470 F100.000000
G1 X39.614885 F100.000000
G1 X39.536685 Y54.811285 F100.000000
G1 X39.506815 Y54.903215 F100.000000
G1 X39.536685 Y54.995145 F100.000000
G1 X39.614885 Y55.051960 F100.000000
G1 X39.711545 F100.000000
G1 X39.789745 Y54.995145 F100.000000
G1 X39.819615 Y54.903215 F100.000000
G0 Z-0.850000 F30.000000
G1 X39.789745 Y54.811285 F100.000000
G1 X39.711545 Y54.754470 F100.000000
G1 X39.614885 F100.000000
G1 X39.536685 Y54.811285 F100.000000
G1 X39.506815 Y54.903215 F100.000000
G1 X39.536685 Y54.995145 F100.000000
G1 X39.614885 Y55.051960 F100.000000
G1 X39.711545 F100.000000
G1 X39.789745 Y54.995145 F100.000000
G1 X39.819615 Y54.903215 F100.000000
G0 Z-1.133333 F30.000000
G1 X39.789745 Y54.811285 F100.000000
G1 X39.711545 Y54.754470 F100.000000
G1 X39.614885 F100.000000
G1 X39.536685 Y54.811285 F100.000000
G1 X39.506815 Y54.903215 F100.000000
G1 X39.536685 Y54.995145 F100.000000
G1 X39.614885 Y55.051960 F100.000000
G1 X39.711545 F100.000000
G1 X39.789745 Y54.995145 F100.000000
G1 X39.819615 Y54.903215 F100.000000
G0 Z-1.416667 F30.000000
G1 X39.789745 Y54.811285 F100.000000
G1 X39.711545 Y54.754470 F100.000000
G1 X39.614885 F100.000000
G1 X39.536685 Y54.811285 F100.000000
G1 X39.506815 Y54.903215 F100.000000
G1 X39.536685 Y54.995145 F100.000000
G1 X39.614885 Y55.051960 F100.000000
G1 X39.711545 F100.000000
G1 X39.789745 Y54.995145 F100.000000
G1 X39.819615 Y54.903215 F100.000000
G0 Z-1.700000 F30.000000
G1 X39.789745 Y54.811285 F100.000000
G1 X39.711545 Y54.754470 F100.000000
G1 X39.614885 F100.000000
G1 X39.536685 Y54.811285 F100.000000
G1 X39.506815 Y54.903215 F100.000000
G1 X39.536685 Y54.995145 F100.000000
G1 X39.614885 Y55.051960 F100.000000
G1 X39.711545 F100.000000
G1 X39.789745 Y54.995145 F100.000000
G1 X39.819615 Y54.903215 F100.000000
G0 Z2.000000
G0 X38.295615 Y6.643215
G17
G0 Z-0.283333 F30.000000
G1 X38.295615 Y6.643215 F100.000000
G1 X38.265745 Y6.551285 F100.000000
G1 X38.187545 Y6.494470 F100.000000
G1 X38.090885 F100.000000
G1 X38.012685 Y6.551285 F100.000000
G1 X37.982815 Y6.643215 F100.000000
G1 X38.012685 Y6.735145 F100.000000
G1 X38.090885 Y6.791960 F100.000000
G1 X38.187545 F100.000000
G1 X38.265745 Y6.735145 F100.000000
G1 X38.295615 Y6.643215 F100.000000
G0 Z-0.566667 F30.000000
G1 X38.265745 Y6.551285 F100.000000
G1 X38.187545 Y6.494470 F100.000000
G1 X38.090885 F100.000000
G1 X38.012685 Y6.551285 F100.000000
G1 X37.982815 Y6.643215 F100.000000
G1 X38.012685 Y6.735145 F100.000000
G1 X38.090885 Y6.791960 F100.000000
G1 X38.187545 F100.000000
G1 X38.265745 Y6.735145 F100.000000
G1 X38.295615 Y6.643215 F100.000000
G0 Z-0.850000 F30.000000
G1 X38.265745 Y6.551285 F100.000000
G1 X38.187545 Y6.494470 F100.000000
G1 X38.090885 F100.000000
G1 X38.012685 Y6.551285 F100.000000
G1 X37.982815 Y6.643215 F100.000000
G1 X38.012685 Y6.735145 F100.000000
G1 X38.090885 Y6.791960 F100.000000
G1 X38.187545 F100.000000
G1 X38.265745 Y6.735145 F100.000000
G1 X38.295615 Y6.643215 F100.000000
G0 Z-1.133333 F30.000000
G1 X38.265745 Y6.551285 F100.000000
G1 X38.187545 Y6.494470 F100.000000
G1 X38.090885 F100.000000
G1 X38.012685 Y6.551285 F100.000000
G1 X37.982815 Y6.643215 F100.000000
G1 X38.012685 Y6.735145 F100.000000
G1 X38.090885 Y6.791960 F100.000000
G1 X38.187545 F100.000000
G1 X38.265745 Y6.735145 F100.000000
G1 X38.295615 Y6.643215 F100.000000
G0 Z-1.416667 F30.000000
G1 X38.265745 Y6.551285 F100.000000
G1 X38.187545 Y6.494470 F100.000000
G1 X38.090885 F100.000000
G1 X38.012685 Y6.551285 F100.000000
G1 X37.982815 Y6.643215 F100.000000
G1 X38.012685 Y6.735145 F100.000000
G1 X38.090885 Y6.791960 F100.000000
G1 X38.187545 F100.000000
G1 X38.265745 Y6.735145 F100.000000
G1 X38.295615 Y6.643215 F100.000000
G0 Z-1.700000 F30.000000
G1 X38.265745 Y6.551285 F100.000000
G1 X38.187545 Y6.494470 F100.000000
G1 X38.090885 F100.000000
G1 X38.012685 Y6.551285 F100.000000
G1 X37.982815 Y6.643215 F100.000000
G1 X38.012685 Y6.735145 F100.000000
G1 X38.090885 Y6.791960 F100.000000
G1 X38.187545 F100.000000
G1 X38.265745 Y6.735145 F100.000000
G1 X38.295615 Y6.643215 F100.000000
G0 Z2.000000
G0 X37.279615 Y54.903215
G17
G0 Z-0.283333 F30.000000
G1 X37.279615 Y54.903215 F100.000000
G1 X37.249745 Y54.811285 F100.000000
G1 X37.171545 Y54.754470 F100.000000
G1 X37.074885 F100.000000
G1 X36.996685 Y54.811285 F100.000000
G1 X36.966815 Y54.903215 F100.000000
G1 X36.996685 Y54.995145 F100.000000
G1 X37.074885 Y55.051960 F100.000000
G1 X37.171545 F100.000000
G1 X37.249745 Y54.995145 F100.000000
G1 X37.279615 Y54.903215 F100.000000
G0 Z-0.566667 F30.000000
G1 X37.249745 Y54.811285 F100.000000
G1 X37.171545 Y54.754470 F100.000000
G1 X37.074885 F100.000000
G1 X36.996685 Y54.811285 F100.000000
G1 X36.966815 Y54.903215 F100.000000
G1 X36.996685 Y54.995145 F100.000000
G1 X37.074885 Y55.051960 F100.000000
G1 X37.171545 F100.000000
G1 X37.249745 Y54.995145 F100.000000
G1 X37.279615 Y54.903215 F100.000000
G0 Z-0.850000 F30.000000
G1 X37.249745 Y54.811285 F100.000000
G1 X37.171545 Y54.754470 F100.000000
G1 X37.074885 F100.000000
G1 X36.996685 Y54.811285 F100.000000
G1 X36.966815 Y54.903215 F100.000000
G1 X36.996685 Y54.995145 F100.000000
G1 X37.074885 Y55.051960 F100.000000
G1 X37.171545 F100.000000
G1 X37.249745 Y54.995145 F100.000000
G1 X37.279615 Y54.903215 F100.000000
G0 Z-1.133333 F30.000000
G1 X37.249745 Y54.811285 F100.000000
G1 X37.171545 Y54.754470 F100.000000
G1 X37.074885 F100.000000
G1 X36.996685 Y54.811285 F100.000000
G1 X36.966815 Y54.903215 F100.000000
G1 X36.996685 Y54.995145 F100.000000
G1 X37.074885 Y55.051960 F100.000000
G1 X37.171545 F100.000000
G1 X37.249745 Y54.995145 F100.000000
G1 X37.279615 Y54.903215 F100.000000
G0 Z-1.416667 F30.000000
G1 X37.249745 Y54.811285 F100.000000
G1 X37.171545 Y54.754470 F100.000000
G1 X37.074885 F100.000000
G1 X36.996685 Y54.811285 F100.000000
G1 X36.966815 Y54.903215 F100.000000
G1 X36.996685 Y54.995145 F100.000000
G1 X37.074885 Y55.051960 F100.000000
G1 X37.171545 F100.000000
G1 X37.249745 Y54.995145 F100.000000
G1 X37.279615 Y54.903215 F100.000000
G0 Z-1.700000 F30.000000
G1 X37.249745 Y54.811285 F100.000000
G1 X37.171545 Y54.754470 F100.000000
G1 X37.074885 F100.000000
G1 X36.996685 Y54.811285 F100.000000
G1 X36.966815 Y54.903215 F100.000000
G1 X36.996685 Y54.995145 F100.000000
G1 X37.074885 Y55.051960 F100.000000
G1 X37.171545 F100.000000
G1 X37.249745 Y54.995145 F100.000000
G1 X37.279615 Y54.903215 F100.000000
G0 Z2.000000
G0 X35.755615 Y6.643215
G17
G0 Z-0.283333 F30.000000
G1 X35.755615 Y6.643215 F100.000000
G1 X35.725745 Y6.551285 F100.000000
G1 X35.647545 Y6.494470 F100.000000
G1 X35.550885 F100.000000
G1 X35.472685 Y6.551285 F100.000000
G1 X35.442815 Y6.643215 F100.000000
G1 X35.472685 Y6.735145 F100.000000
G1 X35.550885 Y6.791960 F100.000000
G1 X35.647545 F100.000000
G1 X35.725745 Y6.735145 F100.000000
G1 X35.755615 Y6.643215 F100.000000
G0 Z-0.566667 F30.000000
G1 X35.725745 Y6.551285 F100.000000
G1 X35.647545 Y6.494470 F100.000000
G1 X35.550885 F100.000000
G1 X35.472685 Y6.551285 F100.000000
G1 X35.442815 Y6.643215 F100.000000
G1 X35.472685 Y6.735145 F100.000000
G1 X35.550885 Y6.791960 F100.000000
G1 X35.647545 F100.000000
G1 X35.725745 Y6.735145 F100.000000
G1 X35.755615 Y6.643215 F100.000000
G0 Z-0.850000 F30.000000
G1 X35.725745 Y6.551285 F100.000000
G1 X35.647545 Y6.494470 F100.000000
G1 X35.550885 F100.000000
G1 X35.472685 Y6.551285 F100.000000
G1 X35.442815 Y6.643215 F100.000000
G1 X35.472685 Y6.735145 F100.000000
G1 X35.550885 Y6.791960 F100.000000
G1 X35.647545 F100.000000
G1 X35.725745 Y6.735145 F100.000000
G1 X35.755615 Y6.643215 F100.000000
G0 Z-1.133333 F30.000000
G1 X35.725745 Y6.551285 F100.000000
G1 X35.647545 Y6.494470 F100.000000
G1 X35.550885 F100.000000
G1 X35.472685 Y6.551285 F100.000000
G1 X35.442815 Y6.643215 F100.000000
G1 X35.472685 Y6.735145 F100.000000
G1 X35.550885 Y6.791960 F100.000000
G1 X35.647545 F100.000000
G1 X35.725745 Y6.735145 F100.000000
G1 X35.755615 Y6.643215 F100.000000
G0 Z-1.416667 F30.000000
G1 X35.725745 Y6.551285 F100.000000
G1 X35.647545 Y6.494470 F100.000000
G1 X35.550885 F100.000000
G1 X35.472685 Y6.551285 F100.000000
G1 X35.442815 Y6.643215 F100.000000
G1 X35.472685 Y6.735145 F100.000000
G1 X35.550885 Y6.791960 F100.000000
G1 X35.647545 F100.000000
G1 X35.725745 Y6.735145 F100.000000
G1 X35.755615 Y6.643215 F100.000000
G0 Z-1.700000 F30.000000
G1 X35.725745 Y6.551285 F100.000000
G1 X35.647545 Y6.494470 F100.000000
G1 X35.550885 F100.000000
G1 X35.472685 Y6.551285 F100.000000
G1 X35.442815 Y6.643215 F100.000000
G1 X35.472685 Y6.735145 F100.000000
G1 X35.550885 Y6.791960 F100.000000
G1 X35.647545 F100.000000
G1 X35.725745 Y6.735145 F100.000000
G1 X35.755615 Y6.643215 F100.000000
G0 Z2.000000
G0 X34.739615 Y54.903215
G17
G0 Z-0.283333 F30.000000
G1 X34.739615 Y54.903215 F100.000000
G1 X34.709745 Y54.811285 F100.000000
G1 X34.631545 Y54.754470 F100.000000
G1 X34.534885 F100.000000
G1 X34.456685 Y54.811285 F100.000000
G1 X34.426815 Y54.903215 F100.000000
G1 X34.456685 Y54.995145 F100.000000
G1 X34.534885 Y55.051960 F100.000000
G1 X34.631545 F100.000000
G1 X34.709745 Y54.995145 F100.000000
G1 X34.739615 Y54.903215 F100.000000
G0 Z-0.566667 F30.000000
G1 X34.709745 Y54.811285 F100.000000
G1 X34.631545 Y54.754470 F100.000000
G1 X34.534885 F100.000000
G1 X34.456685 Y54.811285 F100.000000
G1 X34.426815 Y54.903215 F100.000000
G1 X34.456685 Y54.995145 F100.000000
G1 X34.534885 Y55.051960 F100.000000
G1 X34.631545 F100.000000
G1 X34.709745 Y54.995145 F100.000000
G1 X34.739615 Y54.903215 F100.000000
G0 Z-0.850000 F30.000000
G1 X34.709745 Y54.811285 F100.000000
G1 X34.631545 Y54.754470 F100.000000
G1 X34.534885 F100.000000
G1 X34.456685 Y54.811285 F100.000000
G1 X34.426815 Y54.903215 F100.000000
G1 X34.456685 Y54.995145 F100.000000
G1 X34.534885 Y55.051960 F100.000000
G1 X34.631545 F100.000000
G1 X34.709745 Y54.995145 F100.000000
G1 X34.739615 Y54.903215 F100.000000
G0 Z-1.133333 F30.000000
G1 X34.709745 Y54.811285 F100.000000
G1 X34.631545 Y54.754470 F100.000000
G1 X34.534885 F100.000000
G1 X34.456685 Y54.811285 F100.000000
G1 X34.426815 Y54.903215 F100.000000
G1 X34.456685 Y54.995145 F100.000000
G1 X34.534885 Y55.051960 F100.000000
G1 X34.631545 F100.000000
G1 X34.709745 Y54.995145 F100.000000
G1 X34.739615 Y54.903215 F100.000000
G0 Z-1.416667 F30.000000
G1 X34.709745 Y54.811285 F100.000000
G1 X34.631545 Y54.754470 F100.000000
G1 X34.534885 F100.000000
G1 X34.456685 Y54.811285 F100.000000
G1 X34.426815 Y54.903215 F100.000000
G1 X34.456685 Y54.995145 F100.000000
G1 X34.534885 Y55.051960 F100.000000
G1 X34.631545 F100.000000
G1 X34.709745 Y54.995145 F100.000000
G1 X34.739615 Y54.903215 F100.000000
G0 Z-1.700000 F30.000000
G1 X34.709745 Y54.811285 F100.000000
G1 X34.631545 Y54.754470 F100.000000
G1 X34.534885 F100.000000
G1 X34.456685 Y54.811285 F100.000000
G1 X34.426815 Y54.903215 F100.000000
G1 X34.456685 Y54.995145 F100.000000
G1 X34.534885 Y55.051960 F100.000000
G1 X34.631545 F100.000000
G1 X34.709745 Y54.995145 F100.000000
G1 X34.739615 Y54.903215 F100.000000
G0 Z2.000000
G0 X34.485615 Y25.185215
G17
G0 Z-0.283333 F30.000000
G1 X34.485615 Y25.185215 F100.000000
G1 X34.455745 Y25.093285 F100.000000
G1 X34.377545 Y25.036470 F100.000000
G1 X34.280885 F100.000000
G1 X34.202685 Y25.093285 F100.000000
G1 X34.172815 Y25.185215 F100.000000
G1 X34.202685 Y25.277145 F100.000000
G1 X34.280885 Y25.333960 F100.000000
G1 X34.377545 F100.000000
G1 X34.455745 Y25.277145 F100.000000
G1 X34.485615 Y25.185215 F100.000000
G0 Z-0.566667 F30.000000
G1 X34.455745 Y25.093285 F100.000000
G1 X34.377545 Y25.036470 F100.000000
G1 X34.280885 F100.000000
G1 X34.202685 Y25.093285 F100.000000
G1 X34.172815 Y25.185215 F100.000000
G1 X34.202685 Y25.277145 F100.000000
G1 X34.280885 Y25.333960 F100.000000
G1 X34.377545 F100.000000
G1 X34.455745 Y25.277145 F100.000000
G1 X34.485615 Y25.185215 F100.000000
G0 Z-0.850000 F30.000000
G1 X34.455745 Y25.093285 F100.000000
G1 X34.377545 Y25.036470 F100.000000
G1 X34.280885 F100.000000
G1 X34.202685 Y25.093285 F100.000000
G1 X34.172815 Y25.185215 F100.000000
G1 X34.202685 Y25.277145 F100.000000
G1 X34.280885 Y25.333960 F100.000000
G1 X34.377545 F100.000000
G1 X34.455745 Y25.277145 F100.000000
G1 X34.485615 Y25.185215 F100.000000
G0 Z-1.133333 F30.000000
G1 X34.455745 Y25.093285 F100.000000
G1 X34.377545 Y25.036470 F100.000000
G1 X34.280885 F100.000000
G1 X34.202685 Y25.093285 F100.000000
G1 X34.172815 Y25.185215 F100.000000
G1 X34.202685 Y25.277145 F100.000000
G1 X34.280885 Y25.333960 F100.000000
G1 X34.377545 F100.000000
G1 X34.455745 Y25.277145 F100.000000
G1 X34.485615 Y25.185215 F100.000000
G0 Z-1.416667 F30.000000
G1 X34.455745 Y25.093285 F100.000000
G1 X34.377545 Y25.036470 F100.000000
G1 X34.280885 F100.000000
G1 X34.202685 Y25.093285 F100.000000
G1 X34.172815 Y25.185215 F100.000000
G1 X34.202685 Y25.277145 F100.000000
G1 X34.280885 Y25.333960 F100.000000
G1 X34.377545 F100.000000
G1 X34.455745 Y25.277145 F100.000000
G1 X34.485615 Y25.185215 F100.000000
G0 Z-1.700000 F30.000000
G1 X34.455745 Y25.093285 F100.000000
G1 X34.377545 Y25.036470 F100.000000
G1 X34.280885 F100.000000
G1 X34.202685 Y25.093285 F100.000000
G1 X34.172815 Y25.185215 F100.000000
G1 X34.202685 Y25.277145 F100.000000
G1 X34.280885 Y25.333960 F100.000000
G1 X34.377545 F100.000000
G1 X34.455745 Y25.277145 F100.000000
G1 X34.485615 Y25.185215 F100.000000
G0 Z2.000000
G0 X34.485615 Y22.137215
G17
G0 Z-0.283333 F30.000000
G1 Y22.137215 F100.000000
G1 X34.455745 Y22.045285 F100.000000
G1 X34.377545 Y21.988470 F100.000000
G1 X34.280885 F100.000000
G1 X34.202685 Y22.045285 F100.000000
G1 X34.172815 Y22.137215 F100.000000
G1 X34.202685 Y22.229145 F100.000000
G1 X34.280885 Y22.285960 F100.000000
G1 X34.377545 F100.000000
G1 X34.455745 Y22.229145 F100.000000
G1 X34.485615 Y22.137215 F100.000000
G0 Z-0.566667 F30.000000
G1 X34.455745 Y22.045285 F100.000000
G1 X34.377545 Y21.988470 F100.000000
G1 X34.280885 F100.000000
G1 X34.202685 Y22.045285 F100.000000
G1 X34.172815 Y22.137215 F100.000000
G1 X34.202685 Y22.229145 F100.000000
G1 X34.280885 Y22.285960 F100.000000
G1 X34.377545 F100.000000
G1 X34.455745 Y22.229145 F100.000000
G1 X34.485615 Y22.137215 F100.000000
G0 Z-0.850000 F30.000000
G1 X34.455745 Y22.045285 F100.000000
G1 X34.377545 Y21.988470 F100.000000
G1 X34.280885 F100.000000
G1 X34.202685 Y22.045285 F100.000000
G1 X34.172815 Y22.137215 F100.000000
G1 X34.202685 Y22.229145 F100.000000
G1 X34.280885 Y22.285960 F100.000000
G1 X34.377545 F100.000000
G1 X34.455745 Y22.229145 F100.000000
G1 X34.485615 Y22.137215 F100.000000
G0 Z-1.133333 F30.000000
G1 X34.455745 Y22.045285 F100.000000
G1 X34.377545 Y21.988470 F100.000000
G1 X34.280885 F100.000000
G1 X34.202685 Y22.045285 F100.000000
G1 X34.172815 Y22.137215 F100.000000
G1 X34.202685 Y22.229145 F100.000000
G1 X34.280885 Y22.285960 F100.000000
G1 X34.377545 F100.000000
G1 X34.455745 Y22.229145 F100.000000
G1 X34.485615 Y22.137215 F100.000000
G0 Z-1.416667 F30.000000
G1 X34.455745 Y22.045285 F100.000000
G1 X34.377545 Y21.988470 F100.000000
G1 X34.280885 F100.000000
G1 X34.202685 Y22.045285 F100.000000
G1 X34.172815 Y22.137215 F100.000000
G1 X34.202685 Y22.229145 F100.000000
G1 X34.280885 Y22.285960 F100.000000
G1 X34.377545 F100.000000
G1 X34.455745 Y22.229145 F100.000000
G1 X34.485615 Y22.137215 F100.000000
G0 Z-1.700000 F30.000000
G1 X34.455745 Y22.045285 F100.000000
G1 X34.377545 Y21.988470 F100.000000
G1 X34.280885 F100.000000
G1 X34.202685 Y22.045285 F100.000000
G1 X34.172815 Y22.137215 F100.000000
G1 X34.202685 Y22.229145 F100.000000
G1 X34.280885 Y22.285960 F100.000000
G1 X34.377545 F100.000000
G1 X34.455745 Y22.229145 F100.000000
G1 X34.485615 Y22.137215 F100.000000
G0 Z2.000000
G0 X33.469615 Y37.123215
G17
G0 Z-0.283333 F30.000000
G1 X33.469615 Y37.123215 F100.000000
G1 X33.439745 Y37.031285 F100.000000
G1 X33.361545 Y36.974470 F100.000000
G1 X33.264885 F100.000000
G1 X33.186685 Y37.031285 F100.000000
G1 X33.156815 Y37.123215 F100.000000
G1 X33.186685 Y37.215145 F100.000000
G1 X33.264885 Y37.271960 F100.000000
G1 X33.361545 F100.000000
G1 X33.439745 Y37.215145 F100.000000
G1 X33.469615 Y37.123215 F100.000000
G0 Z-0.566667 F30.000000
G1 X33.439745 Y37.031285 F100.000000
G1 X33.361545 Y36.974470 F100.000000
G1 X33.264885 F100.000000
G1 X33.186685 Y37.031285 F100.000000
G1 X33.156815 Y37.123215 F100.000000
G1 X33.186685 Y37.215145 F100.000000
G1 X33.264885 Y37.271960 F100.000000
G1 X33.361545 F100.000000
G1 X33.439745 Y37.215145 F100.000000
G1 X33.469615 Y37.123215 F100.000000
G0 Z-0.850000 F30.000000
G1 X33.439745 Y37.031285 F100.000000
G1 X33.361545 Y36.974470 F100.000000
G1 X33.264885 F100.000000
G1 X33.186685 Y37.031285 F100.000000
G1 X33.156815 Y37.123215 F100.000000
G1 X33.186685 Y37.215145 F100.000000
G1 X33.264885 Y37.271960 F100.000000
G1 X33.361545 F100.000000
G1 X33.439745 Y37.215145 F100.000000
G1 X33.469615 Y37.123215 F100.000000
G0 Z-1.133333 F30.000000
G1 X33.439745 Y37.031285 F100.000000
G1 X33.361545 Y36.974470 F100.000000
G1 X33.264885 F100.000000
G1 X33.186685 Y37.031285 F100.000000
G1 X33.156815 Y37.123215 F100.000000
G1 X33.186685 Y37.215145 F100.000000
G1 X33.264885 Y37.271960 F100.000000
G1 X33.361545 F100.000000
G1 X33.439745 Y37.215145 F100.000000
G1 X33.469615 Y37.123215 F100.000000
G0 Z-1.416667 F30.000000
G1 X33.439745 Y37.031285 F100.000000
G1 X33.361545 Y36.974470 F100.000000
G1 X33.264885 F100.000000
G1 X33.186685 Y37.031285 F100.000000
G1 X33.156815 Y37.123215 F100.000000
G1 X33.186685 Y37.215145 F100.000000
G1 X33.264885 Y37.271960 F100.000000
G1 X33.361545 F100.000000
G1 X33.439745 Y37.215145 F100.000000
G1 X33.469615 Y37.123215 F100.000000
G0 Z-1.700000 F30.000000
G1 X33.439745 Y37.031285 F100.000000
G1 X33.361545 Y36.974470 F100.000000
G1 X33.264885 F100.000000
G1 X33.186685 Y37.031285 F100.000000
G1 X33.156815 Y37.123215 F100.000000
G1 X33.186685 Y37.215145 F100.000000
G1 X33.264885 Y37.271960 F100.000000
G1 X33.361545 F100.000000
G1 X33.439745 Y37.215145 F100.000000
G1 X33.469615 Y37.123215 F100.000000
G0 Z2.000000
G0 X33.215615 Y6.643215
G17
G0 Z-0.283333 F30.000000
G1 X33.215615 Y6.643215 F100.000000
G1 X33.185745 Y6.551285 F100.000000
G1 X33.107545 Y6.494470 F100.000000
G1 X33.010885 F100.000000
G1 X32.932685 Y6.551285 F100.000000
G1 X32.902815 Y6.643215 F100.000000
G1 X32.932685 Y6.735145 F100.000000
G1 X33.010885 Y6.791960 F100.000000
G1 X33.107545 F100.000000
G1 X33.185745 Y6.735145 F100.000000
G1 X33.215615 Y6.643215 F100.000000
G0 Z-0.566667 F30.000000
G1 X33.185745 Y6.551285 F100.000000
G1 X33.107545 Y6.494470 F100.000000
G1 X33.010885 F100.000000
G1 X32.932685 Y6.551285 F100.000000
G1 X32.902815 Y6.643215 F100.000000
G1 X32.932685 Y6.735145 F100.000000
G1 X33.010885 Y6.791960 F100.000000
G1 X33.107545 F100.000000
G1 X33.185745 Y6.735145 F100.000000
G1 X33.215615 Y6.643215 F100.000000
G0 Z-0.850000 F30.000000
G1 X33.185745 Y6.551285 F100.000000
G1 X33.107545 Y6.494470 F100.000000
G1 X33.010885 F100.000000
G1 X32.932685 Y6.551285 F100.000000
G1 X32.902815 Y6.643215 F100.000000
G1 X32.932685 Y6.735145 F100.000000
G1 X33.010885 Y6.791960 F100.000000
G1 X33.107545 F100.000000
G1 X33.185745 Y6.735145 F100.000000
G1 X33.215615 Y6.643215 F100.000000
G0 Z-1.133333 F30.000000
G1 X33.185745 Y6.551285 F100.000000
G1 X33.107545 Y6.494470 F100.000000
G1 X33.010885 F100.000000
G1 X32.932685 Y6.551285 F100.000000
G1 X32.902815 Y6.643215 F100.000000
G1 X32.932685 Y6.735145 F100.000000
G1 X33.010885 Y6.791960 F100.000000
G1 X33.107545 F100.000000
G1 X33.185745 Y6.735145 F100.000000
G1 X33.215615 Y6.643215 F100.000000
G0 Z-1.416667 F30.000000
G1 X33.185745 Y6.551285 F100.000000
G1 X33.107545 Y6.494470 F100.000000
G1 X33.010885 F100.000000
G1 X32.932685 Y6.551285 F100.000000
G1 X32.902815 Y6.643215 F100.000000
G1 X32.932685 Y6.735145 F100.000000
G1 X33.010885 Y6.791960 F100.000000
G1 X33.107545 F100.000000
G1 X33.185745 Y6.735145 F100.000000
G1 X33.215615 Y6.643215 F100.000000
G0 Z-1.700000 F30.000000
G1 X33.185745 Y6.551285 F100.000000
G1 X33.107545 Y6.494470 F100.000000
G1 X33.010885 F100.000000
G1 X32.932685 Y6.551285 F100.000000
G1 X32.902815 Y6.643215 F100.000000
G1 X32.932685 Y6.735145 F100.000000
G1 X33.010885 Y6.791960 F100.000000
G1 X33.107545 F100.000000
G1 X33.185745 Y6.735145 F100.000000
G1 X33.215615 Y6.643215 F100.000000
G0 Z2.000000
G0 X32.199615 Y54.903215
G17
G0 Z-0.283333 F30.000000
G1 X32.199615 Y54.903215 F100.000000
G1 X32.169745 Y54.811285 F100.000000
G1 X32.091545 Y54.754470 F100.000000
G1 X31.994885 F100.000000
G1 X31.916685 Y54.811285 F100.000000
G1 X31.886815 Y54.903215 F100.000000
G1 X31.916685 Y54.995145 F100.000000
G1 X31.994885 Y55.051960 F100.000000
G1 X32.091545 F100.000000
G1 X32.169745 Y54.995145 F100.000000
G1 X32.199615 Y54.903215 F100.000000
G0 Z-0.566667 F30.000000
G1 X32.169745 Y54.811285 F100.000000
G1 X32.091545 Y54.754470 F100.000000
G1 X31.994885 F100.000000
G1 X31.916685 Y54.811285 F100.000000
G1 X31.886815 Y54.903215 F100.000000
G1 X31.916685 Y54.995145 F100.000000
G1 X31.994885 Y55.051960 F100.000000
G1 X32.091545 F100.000000
G1 X32.169745 Y54.995145 F100.000000
G1 X32.199615 Y54.903215 F100.000000
G0 Z-0.850000 F30.000000
G1 X32.169745 Y54.811285 F100.000000
G1 X32.091545 Y54.754470 F100.000000
G1 X31.994885 F100.000000
G1 X31.916685 Y54.811285 F100.000000
G1 X31.886815 Y54.903215 F100.000000
G1 X31.916685 Y54.995145 F100.000000
G1 X31.994885 Y55.051960 F100.000000
G1 X32.091545 F100.000000
G1 X32.169745 Y54.995145 F100.000000
G1 X32.199615 Y54.903215 F100.000000
G0 Z-1.133333 F30.000000
G1 X32.169745 Y54.811285 F100.000000
G1 X32.091545 Y54.754470 F100.000000
G1 X31.994885 F100.000000
G1 X31.916685 Y54.811285 F100.000000
G1 X31.886815 Y54.903215 F100.000000
G1 X31.916685 Y54.995145 F100.000000
G1 X31.994885 Y55.051960 F100.000000
G1 X32.091545 F100.000000
G1 X32.169745 Y54.995145 F100.000000
G1 X32.199615 Y54.903215 F100.000000
G0 Z-1.416667 F30.000000
G1 X32.169745 Y54.811285 F100.000000
G1 X32.091545 Y54.754470 F100.000000
G1 X31.994885 F100.000000
G1 X31.916685 Y54.811285 F100.000000
G1 X31.886815 Y54.903215 F100.000000
G1 X31.916685 Y54.995145 F100.000000
G1 X31.994885 Y55.051960 F100.000000
G1 X32.091545 F100.000000
G1 X32.169745 Y54.995145 F100.000000
G1 X32.199615 Y54.903215 F100.000000
G0 Z-1.700000 F30.000000
G1 X32.169745 Y54.811285 F100.000000
G1 X32.091545 Y54.754470 F100.000000
G1 X31.994885 F100.000000
G1 X31.916685 Y54.811285 F100.000000
G1 X31.886815 Y54.903215 F100.000000
G1 X31.916685 Y54.995145 F100.000000
G1 X31.994885 Y55.051960 F100.000000
G1 X32.091545 F100.000000
G1 X32.169745 Y54.995145 F100.000000
G1 X32.199615 Y54.903215 F100.000000
G0 Z2.000000
G0 X30.675615 Y6.643215
G17
G0 Z-0.283333 F30.000000
G1 X30.675615 Y6.643215 F100.000000
G1 X30.645745 Y6.551285 F100.000000
G1 X30.567545 Y6.494470 F100.000000
G1 X30.470885 F100.000000
G1 X30.392685 Y6.551285 F100.000000
G1 X30.362815 Y6.643215 F100.000000
G1 X30.392685 Y6.735145 F100.000000
G1 X30.470885 Y6.791960 F100.000000
G1 X30.567545 F100.000000
G1 X30.645745 Y6.735145 F100.000000
G1 X30.675615 Y6.643215 F100.000000
G0 Z-0.566667 F30.000000
G1 X30.645745 Y6.551285 F100.000000
G1 X30.567545 Y6.494470 F100.000000
G1 X30.470885 F100.000000
G1 X30.392685 Y6.551285 F100.000000
G1 X30.362815 Y6.643215 F100.000000
G1 X30.392685 Y6.735145 F100.000000
G1 X30.470885 Y6.791960 F100.000000
G1 X30.567545 F100.000000
G1 X30.645745 Y6.735145 F100.000000
G1 X30.675615 Y6.643215 F100.000000
G0 Z-0.850000 F30.000000
G1 X30.645745 Y6.551285 F100.000000
G1 X30.567545 Y6.494470 F100.000000
G1 X30.470885 F100.000000
G1 X30.392685 Y6.551285 F100.000000
G1 X30.362815 Y6.643215 F100.000000
G1 X30.392685 Y6.735145 F100.000000
G1 X30.470885 Y6.791960 F100.000000
G1 X30.567545 F100.000000
G1 X30.645745 Y6.735145 F100.000000
G1 X30.675615 Y6.643215 F100.000000
G0 Z-1.133333 F30.000000
G1 X30.645745 Y6.551285 F100.000000
G1 X30.567545 Y6.494470 F100.000000
G1 X30.470885 F100.000000
G1 X30.392685 Y6.551285 F100.000000
G1 X30.362815 Y6.643215 F100.000000
G1 X30.392685 Y6.735145 F100.000000
G1 X30.470885 Y6.791960 F100.000000
G1 X30.567545 F100.000000
G1 X30.645745 Y6.735145 F100.000000
G1 X30.675615 Y6.643215 F100.000000
G0 Z-1.416667 F30.000000
G1 X30.645745 Y6.551285 F100.000000
G1 X30.567545 Y6.494470 F100.000000
G1 X30.470885 F100.000000
G1 X30.392685 Y6.551285 F100.000000
G1 X30.362815 Y6.643215 F100.000000
G1 X30.392685 Y6.735145 F100.000000
G1 X30.470885 Y6.791960 F100.000000
G1 X30.567545 F100.000000
G1 X30.645745 Y6.735145 F100.000000
G1 X30.675615 Y6.643215 F100.000000
G0 Z-1.700000 F30.000000
G1 X30.645745 Y6.551285 F100.000000
G1 X30.567545 Y6.494470 F100.000000
G1 X30.470885 F100.000000
G1 X30.392685 Y6.551285 F100.000000
G1 X30.362815 Y6.643215 F100.000000
G1 X30.392685 Y6.735145 F100.000000
G1 X30.470885 Y6.791960 F100.000000
G1 X30.567545 F100.000000
G1 X30.645745 Y6.735145 F100.000000
G1 X30.675615 Y6.643215 F100.000000
G0 Z2.000000
G0 X29.659615 Y54.903215
G17
G0 Z-0.283333 F30.000000
G1 X29.659615 Y54.903215 F100.000000
G1 X29.629745 Y54.811285 F100.000000
G1 X29.551545 Y54.754470 F100.000000
G1 X29.454885 F100.000000
G1 X29.376685 Y54.811285 F100.000000
G1 X29.346815 Y54.903215 F100.000000
G1 X29.376685 Y54.995145 F100.000000
G1 X29.454885 Y55.051960 F100.000000
G1 X29.551545 F100.000000
G1 X29.629745 Y54.995145 F100.000000
G1 X29.659615 Y54.903215 F100.000000
G0 Z-0.566667 F30.000000
G1 X29.629745 Y54.811285 F100.000000
G1 X29.551545 Y54.754470 F100.000000
G1 X29.454885 F100.000000
G1 X29.376685 Y54.811285 F100.000000
G1 X29.346815 Y54.903215 F100.000000
G1 X29.376685 Y54.995145 F100.000000
G1 X29.454885 Y55.051960 F100.000000
G1 X29.551545 F100.000000
G1 X29.629745 Y54.995145 F100.000000
G1 X29.659615 Y54.903215 F100.000000
G0 Z-0.850000 F30.000000
G1 X29.629745 Y54.811285 F100.000000
G1 X29.551545 Y54.754470 F100.000000
G1 X29.454885 F100.000000
G1 X29.376685 Y54.811285 F100.000000
G1 X29.346815 Y54.903215 F100.000000
G1 X29.376685 Y54.995145 F100.000000
G1 X29.454885 Y55.051960 F100.000000
G1 X29.551545 F100.000000
G1 X29.629745 Y54.995145 F100.000000
G1 X29.659615 Y54.903215 F100.000000
G0 Z-1.133333 F30.000000
G1 X29.629745 Y54.811285 F100.000000
G1 X29.551545 Y54.754470 F100.000000
G1 X29.454885 F100.000000
G1 X29.376685 Y54.811285 F100.000000
G1 X29.346815 Y54.903215 F100.000000
G1 X29.376685 Y54.995145 F100.000000
G1 X29.454885 Y55.051960 F100.000000
G1 X29.551545 F100.000000
G1 X29.629745 Y54.995145 F100.000000
G1 X29.659615 Y54.903215 F100.000000
G0 Z-1.416667 F30.000000
G1 X29.629745 Y54.811285 F100.000000
G1 X29.551545 Y54.754470 F100.000000
G1 X29.454885 F100.000000
G1 X29.376685 Y54.811285 F100.000000
G1 X29.346815 Y54.903215 F100.000000
G1 X29.376685 Y54.995145 F100.000000
G1 X29.454885 Y55.051960 F100.000000
G1 X29.551545 F100.000000
G1 X29.629745 Y54.995145 F100.000000
G1 X29.659615 Y54.903215 F100.000000
G0 Z-1.700000 F30.000000
G1 X29.629745 Y54.811285 F100.000000
G1 X29.551545 Y54.754470 F100.000000
G1 X29.454885 F100.000000
G1 X29.376685 Y54.811285 F100.000000
G1 X29.346815 Y54.903215 F100.000000
G1 X29.376685 Y54.995145 F100.000000
G1 X29.454885 Y55.051960 F100.000000
G1 X29.551545 F100.000000
G1 X29.629745 Y54.995145 F100.000000
G1 X29.659615 Y54.903215 F100.000000
G0 Z2.000000
G0 X28.135615 Y6.643215
G17
G0 Z-0.283333 F30.000000
G1 X28.135615 Y6.643215 F100.000000
G1 X28.105745 Y6.551285 F100.000000
G1 X28.027545 Y6.494470 F100.000000
G1 X27.930885 F100.000000
G1 X27.852685 Y6.551285 F100.000000
G1 X27.822815 Y6.643215 F100.000000
G1 X27.852685 Y6.735145 F100.000000
G1 X27.930885 Y6.791960 F100.000000
G1 X28.027545 F100.000000
G1 X28.105745 Y6.735145 F100.000000
G1 X28.135615 Y6.643215 F100.000000
G0 Z-0.566667 F30.000000
G1 X28.105745 Y6.551285 F100.000000
G1 X28.027545 Y6.494470 F100.000000
G1 X27.930885 F100.000000
G1 X27.852685 Y6.551285 F100.000000
G1 X27.822815 Y6.643215 F100.000000
G1 X27.852685 Y6.735145 F100.000000
G1 X27.930885 Y6.791960 F100.000000
G1 X28.027545 F100.000000
G1 X28.105745 Y6.735145 F100.000000
G1 X28.135615 Y6.643215 F100.000000
G0 Z-0.850000 F30.000000
G1 X28.105745 Y6.551285 F100.000000
G1 X28.027545 Y6.494470 F100.000000
G1 X27.930885 F100.000000
G1 X27.852685 Y6.551285 F100.000000
G1 X27.822815 Y6.643215 F100.000000
G1 X27.852685 Y6.735145 F100.000000
G1 X27.930885 Y6.791960 F100.000000
G1 X28.027545 F100.000000
G1 X28.105745 Y6.735145 F100.000000
G1 X28.135615 Y6.643215 F100.000000
G0 Z-1.133333 F30.000000
G1 X28.105745 Y6.551285 F100.000000
G1 X28.027545 Y6.494470 F100.000000
G1 X27.930885 F100.000000
G1 X27.852685 Y6.551285 F100.000000
G1 X27.822815 Y6.643215 F100.000000
G1 X27.852685 Y6.735145 F100.000000
G1 X27.930885 Y6.791960 F100.000000
G1 X28.027545 F100.000000
G1 X28.105745 Y6.735145 F100.000000
G1 X28.135615 Y6.643215 F100.000000
G0 Z-1.416667 F30.000000
G1 X28.105745 Y6.551285 F100.000000
G1 X28.027545 Y6.494470 F100.000000
G1 X27.930885 F100.000000
G1 X27.852685 Y6.551285 F100.000000
G1 X27.822815 Y6.643215 F100.000000
G1 X27.852685 Y6.735145 F100.000000
G1 X27.930885 Y6.791960 F100.000000
G1 X28.027545 F100.000000
G1 X28.105745 Y6.735145 F100.000000
G1 X28.135615 Y6.643215 F100.000000
G0 Z-1.700000 F30.000000
G1 X28.105745 Y6.551285 F100.000000
G1 X28.027545 Y6.494470 F100.000000
G1 X27.930885 F100.000000
G1 X27.852685 Y6.551285 F100.000000
G1 X27.822815 Y6.643215 F100.000000
G1 X27.852685 Y6.735145 F100.000000
G1 X27.930885 Y6.791960 F100.000000
G1 X28.027545 F100.000000
G1 X28.105745 Y6.735145 F100.000000
G1 X28.135615 Y6.643215 F100.000000
G0 Z2.000000
G0 X26.865615 Y25.185215
G17
G0 Z-0.283333 F30.000000
G1 X26.865615 Y25.185215 F100.000000
G1 X26.835745 Y25.093285 F100.000000
G1 X26.757545 Y25.036470 F100.000000
G1 X26.660885 F100.000000
G1 X26.582685 Y25.093285 F100.000000
G1 X26.552815 Y25.185215 F100.000000
G1 X26.582685 Y25.277145 F100.000000
G1 X26.660885 Y25.333960 F100.000000
G1 X26.757545 F100.000000
G1 X26.835745 Y25.277145 F100.000000
G1 X26.865615 Y25.185215 F100.000000
G0 Z-0.566667 F30.000000
G1 X26.835745 Y25.093285 F100.000000
G1 X26.757545 Y25.036470 F100.000000
G1 X26.660885 F100.000000
G1 X26.582685 Y25.093285 F100.000000
G1 X26.552815 Y25.185215 F100.000000
G1 X26.582685 Y25.277145 F100.000000
G1 X26.660885 Y25.333960 F100.000000
G1 X26.757545 F100.000000
G1 X26.835745 Y25.277145 F100.000000
G1 X26.865615 Y25.185215 F100.000000
G0 Z-0.850000 F30.000000
G1 X26.835745 Y25.093285 F100.000000
G1 X26.757545 Y25.036470 F100.000000
G1 X26.660885 F100.000000
G1 X26.582685 Y25.093285 F100.000000
G1 X26.552815 Y25.185215 F100.000000
G1 X26.582685 Y25.277145 F100.000000
G1 X26.660885 Y25.333960 F100.000000
G1 X26.757545 F100.000000
G1 X26.835745 Y25.277145 F100.000000
G1 X26.865615 Y25.185215 F100.000000
G0 Z-1.133333 F30.000000
G1 X26.835745 Y25.093285 F100.000000
G1 X26.757545 Y25.036470 F100.000000
G1 X26.660885 F100.000000
G1 X26.582685 Y25.093285 F100.000000
G1 X26.552815 Y25.185215 F100.000000
G1 X26.582685 Y25.277145 F100.000000
G1 X26.660885 Y25.333960 F100.000000
G1 X26.757545 F100.000000
G1 X26.835745 Y25.277145 F100.000000
G1 X26.865615 Y25.185215 F100.000000
G0 Z-1.416667 F30.000000
G1 X26.835745 Y25.093285 F100.000000
G1 X26.757545 Y25.036470 F100.000000
G1 X26.660885 F100.000000
G1 X26.582685 Y25.093285 F100.000000
G1 X26.552815 Y25.185215 F100.000000
G1 X26.582685 Y25.277145 F100.000000
G1 X26.660885 Y25.333960 F100.000000
G1 X26.757545 F100.000000
G1 X26.835745 Y25.277145 F100.000000
G1 X26.865615 Y25.185215 F100.000000
G0 Z-1.700000 F30.000000
G1 X26.835745 Y25.093285 F100.000000
G1 X26.757545 Y25.036470 F100.000000
G1 X26.660885 F100.000000
G1 X26.582685 Y25.093285 F100.000000
G1 X26.552815 Y25.185215 F100.000000
G1 X26.582685 Y25.277145 F100.000000
G1 X26.660885 Y25.333960 F100.000000
G1 X26.757545 F100.000000
G1 X26.835745 Y25.277145 F100.000000
G1 X26.865615 Y25.185215 F100.000000
G0 Z2.000000
G0 X26.865615 Y22.137215
G17
G0 Z-0.283333 F30.000000
G1 Y22.137215 F100.000000
G1 X26.835745 Y22.045285 F100.000000
G1 X26.757545 Y21.988470 F100.000000
G1 X26.660885 F100.000000
G1 X26.582685 Y22.045285 F100.000000
G1 X26.552815 Y22.137215 F100.000000
G1 X26.582685 Y22.229145 F100.000000
G1 X26.660885 Y22.285960 F100.000000
G1 X26.757545 F100.000000
G1 X26.835745 Y22.229145 F100.000000
G1 X26.865615 Y22.137215 F100.000000
G0 Z-0.566667 F30.000000
G1 X26.835745 Y22.045285 F100.000000
G1 X26.757545 Y21.988470 F100.000000
G1 X26.660885 F100.000000
G1 X26.582685 Y22.045285 F100.000000
G1 X26.552815 Y22.137215 F100.000000
G1 X26.582685 Y22.229145 F100.000000
G1 X26.660885 Y22.285960 F100.000000
G1 X26.757545 F100.000000
G1 X26.835745 Y22.229145 F100.000000
G1 X26.865615 Y22.137215 F100.000000
G0 Z-0.850000 F30.000000
G1 X26.835745 Y22.045285 F100.000000
G1 X26.757545 Y21.988470 F100.000000
G1 X26.660885 F100.000000
G1 X26.582685 Y22.045285 F100.000000
G1 X26.552815 Y22.137215 F100.000000
G1 X26.582685 Y22.229145 F100.000000
G1 X26.660885 Y22.285960 F100.000000
G1 X26.757545 F100.000000
G1 X26.835745 Y22.229145 F100.000000
G1 X26.865615 Y22.137215 F100.000000
G0 Z-1.133333 F30.000000
G1 X26.835745 Y22.045285 F100.000000
G1 X26.757545 Y21.988470 F100.000000
G1 X26.660885 F100.000000
G1 X26.582685 Y22.045285 F100.000000
G1 X26.552815 Y22.137215 F100.000000
G1 X26.582685 Y22.229145 F100.000000
G1 X26.660885 Y22.285960 F100.000000
G1 X26.757545 F100.000000
G1 X26.835745 Y22.229145 F100.000000
G1 X26.865615 Y22.137215 F100.000000
G0 Z-1.416667 F30.000000
G1 X26.835745 Y22.045285 F100.000000
G1 X26.757545 Y21.988470 F100.000000
G1 X26.660885 F100.000000
G1 X26.582685 Y22.045285 F100.000000
G1 X26.552815 Y22.137215 F100.000000
G1 X26.582685 Y22.229145 F100.000000
G1 X26.660885 Y22.285960 F100.000000
G1 X26.757545 F100.000000
G1 X26.835745 Y22.229145 F100.000000
G1 X26.865615 Y22.137215 F100.000000
G0 Z-1.700000 F30.000000
G1 X26.835745 Y22.045285 F100.000000
G1 X26.757545 Y21.988470 F100.000000
G1 X26.660885 F100.000000
G1 X26.582685 Y22.045285 F100.000000
G1 X26.552815 Y22.137215 F100.000000
G1 X26.582685 Y22.229145 F100.000000
G1 X26.660885 Y22.285960 F100.000000
G1 X26.757545 F100.000000
G1 X26.835745 Y22.229145 F100.000000
G1 X26.865615 Y22.137215 F100.000000
G0 Z2.000000
G0 X25.849615 Y37.123215
G17
G0 Z-0.283333 F30.000000
G1 X25.849615 Y37.123215 F100.000000
G1 X25.819745 Y37.031285 F100.000000
G1 X25.741545 Y36.974470 F100.000000
G1 X25.644885 F100.000000
G1 X25.566685 Y37.031285 F100.000000
G1 X25.536815 Y37.123215 F100.000000
G1 X25.566685 Y37.215145 F100.000000
G1 X25.644885 Y37.271960 F100.000000
G1 X25.741545 F100.000000
G1 X25.819745 Y37.215145 F100.000000
G1 X25.849615 Y37.123215 F100.000000
G0 Z-0.566667 F30.000000
G1 X25.819745 Y37.031285 F100.000000
G1 X25.741545 Y36.974470 F100.000000
G1 X25.644885 F100.000000
G1 X25.566685 Y37.031285 F100.000000
G1 X25.536815 Y37.123215 F100.000000
G1 X25.566685 Y37.215145 F100.000000
G1 X25.644885 Y37.271960 F100.000000
G1 X25.741545 F100.000000
G1 X25.819745 Y37.215145 F100.000000
G1 X25.849615 Y37.123215 F100.000000
G0 Z-0.850000 F30.000000
G1 X25.819745 Y37.031285 F100.000000
G1 X25.741545 Y36.974470 F100.000000
G1 X25.644885 F100.000000
G1 X25.566685 Y37.031285 F100.000000
G1 X25.536815 Y37.123215 F100.000000
G1 X25.566685 Y37.215145 F100.000000
G1 X25.644885 Y37.271960 F100.000000
G1 X25.741545 F100.000000
G1 X25.819745 Y37.215145 F100.000000
G1 X25.849615 Y37.123215 F100.000000
G0 Z-1.133333 F30.000000
G1 X25.819745 Y37.031285 F100.000000
G1 X25.741545 Y36.974470 F100.000000
G1 X25.644885 F100.000000
G1 X25.566685 Y37.031285 F100.000000
G1 X25.536815 Y37.123215 F100.000000
G1 X25.566685 Y37.215145 F100.000000
G1 X25.644885 Y37.271960 F100.000000
G1 X25.741545 F100.000000
G1 X25.819745 Y37.215145 F100.000000
G1 X25.849615 Y37.123215 F100.000000
G0 Z-1.416667 F30.000000
G1 X25.819745 Y37.031285 F100.000000
G1 X25.741545 Y36.974470 F100.000000
G1 X25.644885 F100.000000
G1 X25.566685 Y37.031285 F100.000000
G1 X25.536815 Y37.123215 F100.000000
G1 X25.566685 Y37.215145 F100.000000
G1 X25.644885 Y37.271960 F100.000000
G1 X25.741545 F100.000000
G1 X25.819745 Y37.215145 F100.000000
G1 X25.849615 Y37.123215 F100.000000
G0 Z-1.700000 F30.000000
G1 X25.819745 Y37.031285 F100.000000
G1 X25.741545 Y36.974470 F100.000000
G1 X25.644885 F100.000000
G1 X25.566685 Y37.031285 F100.000000
G1 X25.536815 Y37.123215 F100.000000
G1 X25.566685 Y37.215145 F100.000000
G1 X25.644885 Y37.271960 F100.000000
G1 X25.741545 F100.000000
G1 X25.819745 Y37.215145 F100.000000
G1 X25.849615 Y37.123215 F100.000000
G0 Z2.000000
G0 X25.595615 Y54.903215
G17
G0 Z-0.283333 F30.000000
G1 X25.595615 Y54.903215 F100.000000
G1 X25.565745 Y54.811285 F100.000000
G1 X25.487545 Y54.754470 F100.000000
G1 X25.390885 F100.000000
G1 X25.312685 Y54.811285 F100.000000
G1 X25.282815 Y54.903215 F100.000000
G1 X25.312685 Y54.995145 F100.000000
G1 X25.390885 Y55.051960 F100.000000
G1 X25.487545 F100.000000
G1 X25.565745 Y54.995145 F100.000000
G1 X25.595615 Y54.903215 F100.000000
G0 Z-0.566667 F30.000000
G1 X25.565745 Y54.811285 F100.000000
G1 X25.487545 Y54.754470 F100.000000
G1 X25.390885 F100.000000
G1 X25.312685 Y54.811285 F100.000000
G1 X25.282815 Y54.903215 F100.000000
G1 X25.312685 Y54.995145 F100.000000
G1 X25.390885 Y55.051960 F100.000000
G1 X25.487545 F100.000000
G1 X25.565745 Y54.995145 F100.000000
G1 X25.595615 Y54.903215 F100.000000
G0 Z-0.850000 F30.000000
G1 X25.565745 Y54.811285 F100.000000
G1 X25.487545 Y54.754470 F100.000000
G1 X25.390885 F100.000000
G1 X25.312685 Y54.811285 F100.000000
G1 X25.282815 Y54.903215 F100.000000
G1 X25.312685 Y54.995145 F100.000000
G1 X25.390885 Y55.051960 F100.000000
G1 X25.487545 F100.000000
G1 X25.565745 Y54.995145 F100.000000
G1 X25.595615 Y54.903215 F100.000000
G0 Z-1.133333 F30.000000
G1 X25.565745 Y54.811285 F100.000000
G1 X25.487545 Y54.754470 F100.000000
G1 X25.390885 F100.000000
G1 X25.312685 Y54.811285 F100.000000
G1 X25.282815 Y54.903215 F100.000000
G1 X25.312685 Y54.995145 F100.000000
G1 X25.390885 Y55.051960 F100.000000
G1 X25.487545 F100.000000
G1 X25.565745 Y54.995145 F100.000000
G1 X25.595615 Y54.903215 F100.000000
G0 Z-1.416667 F30.000000
G1 X25.565745 Y54.811285 F100.000000
G1 X25.487545 Y54.754470 F100.000000
G1 X25.390885 F100.000000
G1 X25.312685 Y54.811285 F100.000000
G1 X25.282815 Y54.903215 F100.000000
G1 X25.312685 Y54.995145 F100.000000
G1 X25.390885 Y55.051960 F100.000000
G1 X25.487545 F100.000000
G1 X25.565745 Y54.995145 F100.000000
G1 X25.595615 Y54.903215 F100.000000
G0 Z-1.700000 F30.000000
G1 X25.565745 Y54.811285 F100.000000
G1 X25.487545 Y54.754470 F100.000000
G1 X25.390885 F100.000000
G1 X25.312685 Y54.811285 F100.000000
G1 X25.282815 Y54.903215 F100.000000
G1 X25.312685 Y54.995145 F100.000000
G1 X25.390885 Y55.051960 F100.000000
G1 X25.487545 F100.000000
G1 X25.565745 Y54.995145 F100.000000
G1 X25.595615 Y54.903215 F100.000000
G0 Z2.000000
G0 X25.595615 Y6.643215
G17
G0 Z-0.283333 F30.000000
G1 Y6.643215 F100.000000
G1 X25.565745 Y6.551285 F100.000000
G1 X25.487545 Y6.494470 F100.000000
G1 X25.390885 F100.000000
G1 X25.312685 Y6.551285 F100.000000
G1 X25.282815 Y6.643215 F100.000000
G1 X25.312685 Y6.735145 F100.000000
G1 X25.390885 Y6.791960 F100.000000
G1 X25.487545 F100.000000
G1 X25.565745 Y6.735145 F100.000000
G1 X25.595615 Y6.643215 F100.000000
G0 Z-0.566667 F30.000000
G1 X25.565745 Y6.551285 F100.000000
G1 X25.487545 Y6.494470 F100.000000
G1 X25.390885 F100.000000
G1 X25.312685 Y6.551285 F100.000000
G1 X25.282815 Y6.643215 F100.000000
G1 X25.312685 Y6.735145 F100.000000
G1 X25.390885 Y6.791960 F100.000000
G1 X25.487545 F100.000000
G1 X25.565745 Y6.735145 F100.000000
G1 X25.595615 Y6.643215 F100.000000
G0 Z-0.850000 F30.000000
G1 X25.565745 Y6.551285 F100.000000
G1 X25.487545 Y6.494470 F100.000000
G1 X25.390885 F100.000000
G1 X25.312685 Y6.551285 F100.000000
G1 X25.282815 Y6.643215 F100.000000
G1 X25.312685 Y6.735145 F100.000000
G1 X25.390885 Y6.791960 F100.000000
G1 X25.487545 F100.000000
G1 X25.565745 Y6.735145 F100.000000
G1 X25.595615 Y6.643215 F100.000000
G0 Z-1.133333 F30.000000
G1 X25.565745 Y6.551285 F100.000000
G1 X25.487545 Y6.494470 F100.000000
G1 X25.390885 F100.000000
G1 X25.312685 Y6.551285 F100.000000
G1 X25.282815 Y6.643215 F100.000000
G1 X25.312685 Y6.735145 F100.000000
G1 X25.390885 Y6.791960 F100.000000
G1 X25.487545 F100.000000
G1 X25.565745 Y6.735145 F100.000000
G1 X25.595615 Y6.643215 F100.000000
G0 Z-1.416667 F30.000000
G1 X25.565745 Y6.551285 F100.000000
G1 X25.487545 Y6.494470 F100.000000
G1 X25.390885 F100.000000
G1 X25.312685 Y6.551285 F100.000000
G1 X25.282815 Y6.643215 F100.000000
G1 X25.312685 Y6.735145 F100.000000
G1 X25.390885 Y6.791960 F100.000000
G1 X25.487545 F100.000000
G1 X25.565745 Y6.735145 F100.000000
G1 X25.595615 Y6.643215 F100.000000
G0 Z-1.700000 F30.000000
G1 X25.565745 Y6.551285 F100.000000
G1 X25.487545 Y6.494470 F100.000000
G1 X25.390885 F100.000000
G1 X25.312685 Y6.551285 F100.000000
G1 X25.282815 Y6.643215 F100.000000
G1 X25.312685 Y6.735145 F100.000000
G1 X25.390885 Y6.791960 F100.000000
G1 X25.487545 F100.000000
G1 X25.565745 Y6.735145 F100.000000
G1 X25.595615 Y6.643215 F100.000000
G0 Z2.000000
G0 X23.309615 Y51.601215
G17
G0 Z-0.283333 F30.000000
G1 X23.309615 Y51.601215 F100.000000
G1 X23.279745 Y51.509285 F100.000000
G1 X23.201545 Y51.452470 F100.000000
G1 X23.104885 F100.000000
G1 X23.026685 Y51.509285 F100.000000
G1 X22.996815 Y51.601215 F100.000000
G1 X23.026685 Y51.693145 F100.000000
G1 X23.104885 Y51.749960 F100.000000
G1 X23.201545 F100.000000
G1 X23.279745 Y51.693145 F100.000000
G1 X23.309615 Y51.601215 F100.000000
G0 Z-0.566667 F30.000000
G1 X23.279745 Y51.509285 F100.000000
G1 X23.201545 Y51.452470 F100.000000
G1 X23.104885 F100.000000
G1 X23.026685 Y51.509285 F100.000000
G1 X22.996815 Y51.601215 F100.000000
G1 X23.026685 Y51.693145 F100.000000
G1 X23.104885 Y51.749960 F100.000000
G1 X23.201545 F100.000000
G1 X23.279745 Y51.693145 F100.000000
G1 X23.309615 Y51.601215 F100.000000
G0 Z-0.850000 F30.000000
G1 X23.279745 Y51.509285 F100.000000
G1 X23.201545 Y51.452470 F100.000000
G1 X23.104885 F100.000000
G1 X23.026685 Y51.509285 F100.000000
G1 X22.996815 Y51.601215 F100.000000
G1 X23.026685 Y51.693145 F100.000000
G1 X23.104885 Y51.749960 F100.000000
G1 X23.201545 F100.000000
G1 X23.279745 Y51.693145 F100.000000
G1 X23.309615 Y51.601215 F100.000000
G0 Z-1.133333 F30.000000
G1 X23.279745 Y51.509285 F100.000000
G1 X23.201545 Y51.452470 F100.000000
G1 X23.104885 F100.000000
G1 X23.026685 Y51.509285 F100.000000
G1 X22.996815 Y51.601215 F100.000000
G1 X23.026685 Y51.693145 F100.000000
G1 X23.104885 Y51.749960 F100.000000
G1 X23.201545 F100.000000
G1 X23.279745 Y51.693145 F100.000000
G1 X23.309615 Y51.601215 F100.000000
G0 Z-1.416667 F30.000000
G1 X23.279745 Y51.509285 F100.000000
G1 X23.201545 Y51.452470 F100.000000
G1 X23.104885 F100.000000
G1 X23.026685 Y51.509285 F100.000000
G1 X22.996815 Y51.601215 F100.000000
G1 X23.026685 Y51.693145 F100.000000
G1 X23.104885 Y51.749960 F100.000000
G1 X23.201545 F100.000000
G1 X23.279745 Y51.693145 F100.000000
G1 X23.309615 Y51.601215 F100.000000
G0 Z-1.700000 F30.000000
G1 X23.279745 Y51.509285 F100.000000
G1 X23.201545 Y51.452470 F100.000000
G1 X23.104885 F100.000000
G1 X23.026685 Y51.509285 F100.000000
G1 X22.996815 Y51.601215 F100.000000
G1 X23.026685 Y51.693145 F100.000000
G1 X23.104885 Y51.749960 F100.000000
G1 X23.201545 F100.000000
G1 X23.279745 Y51.693145 F100.000000
G1 X23.309615 Y51.601215 F100.000000
G0 Z2.000000
G0 X23.309615 Y49.061215
G17
G0 Z-0.283333 F30.000000
G1 Y49.061215 F100.000000
G1 X23.279745 Y48.969285 F100.000000
G1 X23.201545 Y48.912470 F100.000000
G1 X23.104885 F100.000000
G1 X23.026685 Y48.969285 F100.000000
G1 X22.996815 Y49.061215 F100.000000
G1 X23.026685 Y49.153145 F100.000000
G1 X23.104885 Y49.209960 F100.000000
G1 X23.201545 F100.000000
G1 X23.279745 Y49.153145 F100.000000
G1 X23.309615 Y49.061215 F100.000000
G0 Z-0.566667 F30.000000
G1 X23.279745 Y48.969285 F100.000000
G1 X23.201545 Y48.912470 F100.000000
G1 X23.104885 F100.000000
G1 X23.026685 Y48.969285 F100.000000
G1 X22.996815 Y49.061215 F100.000000
G1 X23.026685 Y49.153145 F100.000000
G1 X23.104885 Y49.209960 F100.000000
G1 X23.201545 F100.000000
G1 X23.279745 Y49.153145 F100.000000
G1 X23.309615 Y49.061215 F100.000000
G0 Z-0.850000 F30.000000
G1 X23.279745 Y48.969285 F100.000000
G1 X23.201545 Y48.912470 F100.000000
G1 X23.104885 F100.000000
G1 X23.026685 Y48.969285 F100.000000
G1 X22.996815 Y49.061215 F100.000000
G1 X23.026685 Y49.153145 F100.000000
G1 X23.104885 Y49.209960 F100.000000
G1 X23.201545 F100.000000
G1 X23.279745 Y49.153145 F100.000000
G1 X23.309615 Y49.061215 F100.000000
G0 Z-1.133333 F30.000000
G1 X23.279745 Y48.969285 F100.000000
G1 X23.201545 Y48.912470 F100.000000
G1 X23.104885 F100.000000
G1 X23.026685 Y48.969285 F100.000000
G1 X22.996815 Y49.061215 F100.000000
G1 X23.026685 Y49.153145 F100.000000
G1 X23.104885 Y49.209960 F100.000000
G1 X23.201545 F100.000000
G1 X23.279745 Y49.153145 F100.000000
G1 X23.309615 Y49.061215 F100.000000
G0 Z-1.416667 F30.000000
G1 X23.279745 Y48.969285 F100.000000
G1 X23.201545 Y48.912470 F100.000000
G1 X23.104885 F100.000000
G1 X23.026685 Y48.969285 F100.000000
G1 X22.996815 Y49.061215 F100.000000
G1 X23.026685 Y49.153145 F100.000000
G1 X23.104885 Y49.209960 F100.000000
G1 X23.201545 F100.000000
G1 X23.279745 Y49.153145 F100.000000
G1 X23.309615 Y49.061215 F100.000000
G0 Z-1.700000 F30.000000
G1 X23.279745 Y48.969285 F100.000000
G1 X23.201545 Y48.912470 F100.000000
G1 X23.104885 F100.000000
G1 X23.026685 Y48.969285 F100.000000
G1 X22.996815 Y49.061215 F100.000000
G1 X23.026685 Y49.153145 F100.000000
G1 X23.104885 Y49.209960 F100.000000
G1 X23.201545 F100.000000
G1 X23.279745 Y49.153145 F100.000000
G1 X23.309615 Y49.061215 F100.000000
G0 Z2.000000
G0 X23.055615 Y54.903215
G17
G0 Z-0.283333 F30.000000
G1 X23.055615 Y54.903215 F100.000000
G1 X23.025745 Y54.811285 F100.000000
G1 X22.947545 Y54.754470 F100.000000
G1 X22.850885 F100.000000
G1 X22.772685 Y54.811285 F100.000000
G1 X22.742815 Y54.903215 F100.000000
G1 X22.772685 Y54.995145 F100.000000
G1 X22.850885 Y55.051960 F100.000000
G1 X22.947545 F100.000000
G1 X23.025745 Y54.995145 F100.000000
G1 X23.055615 Y54.903215 F100.000000
G0 Z-0.566667 F30.000000
G1 X23.025745 Y54.811285 F100.000000
G1 X22.947545 Y54.754470 F100.000000
G1 X22.850885 F100.000000
G1 X22.772685 Y54.811285 F100.000000
G1 X22.742815 Y54.903215 F100.000000
G1 X22.772685 Y54.995145 F100.000000
G1 X22.850885 Y55.051960 F100.000000
G1 X22.947545 F100.000000
G1 X23.025745 Y54.995145 F100.000000
G1 X23.055615 Y54.903215 F100.000000
G0 Z-0.850000 F30.000000
G1 X23.025745 Y54.811285 F100.000000
G1 X22.947545 Y54.754470 F100.000000
G1 X22.850885 F100.000000
G1 X22.772685 Y54.811285 F100.000000
G1 X22.742815 Y54.903215 F100.000000
G1 X22.772685 Y54.995145 F100.000000
G1 X22.850885 Y55.051960 F100.000000
G1 X22.947545 F100.000000
G1 X23.025745 Y54.995145 F100.000000
G1 X23.055615 Y54.903215 F100.000000
G0 Z-1.133333 F30.000000
G1 X23.025745 Y54.811285 F100.000000
G1 X22.947545 Y54.754470 F100.000000
G1 X22.850885 F100.000000
G1 X22.772685 Y54.811285 F100.000000
G1 X22.742815 Y54.903215 F100.000000
G1 X22.772685 Y54.995145 F100.000000
G1 X22.850885 Y55.051960 F100.000000
G1 X22.947545 F100.000000
G1 X23.025745 Y54.995145 F100.000000
G1 X23.055615 Y54.903215 F100.000000
G0 Z-1.416667 F30.000000
G1 X23.025745 Y54.811285 F100.000000
G1 X22.947545 Y54.754470 F100.000000
G1 X22.850885 F100.000000
G1 X22.772685 Y54.811285 F100.000000
G1 X22.742815 Y54.903215 F100.000000
G1 X22.772685 Y54.995145 F100.000000
G1 X22.850885 Y55.051960 F100.000000
G1 X22.947545 F100.000000
G1 X23.025745 Y54.995145 F100.000000
G1 X23.055615 Y54.903215 F100.000000
G0 Z-1.700000 F30.000000
G1 X23.025745 Y54.811285 F100.000000
G1 X22.947545 Y54.754470 F100.000000
G1 X22.850885 F100.000000
G1 X22.772685 Y54.811285 F100.000000
G1 X22.742815 Y54.903215 F100.000000
G1 X22.772685 Y54.995145 F100.000000
G1 X22.850885 Y55.051960 F100.000000
G1 X22.947545 F100.000000
G1 X23.025745 Y54.995145 F100.000000
G1 X23.055615 Y54.903215 F100.000000
G0 Z2.000000
G0 X22.039615 Y41.695215
G17
G0 Z-0.283333 F30.000000
G1 X22.039615 Y41.695215 F100.000000
G1 X22.009745 Y41.603285 F100.000000
G1 X21.931545 Y41.546470 F100.000000
G1 X21.834885 F100.000000
G1 X21.756685 Y41.603285 F100.000000
G1 X21.726815 Y41.695215 F100.000000
G1 X21.756685 Y41.787145 F100.000000
G1 X21.834885 Y41.843960 F100.000000
G1 X21.931545 F100.000000
G1 X22.009745 Y41.787145 F100.000000
G1 X22.039615 Y41.695215 F100.000000
G0 Z-0.566667 F30.000000
G1 X22.009745 Y41.603285 F100.000000
G1 X21.931545 Y41.546470 F100.000000
G1 X21.834885 F100.000000
G1 X21.756685 Y41.603285 F100.000000
G1 X21.726815 Y41.695215 F100.000000
G1 X21.756685 Y41.787145 F100.000000
G1 X21.834885 Y41.843960 F100.000000
G1 X21.931545 F100.000000
G1 X22.009745 Y41.787145 F100.000000
G1 X22.039615 Y41.695215 F100.000000
G0 Z-0.850000 F30.000000
G1 X22.009745 Y41.603285 F100.000000
G1 X21.931545 Y41.546470 F100.000000
G1 X21.834885 F100.000000
G1 X21.756685 Y41.603285 F100.000000
G1 X21.726815 Y41.695215 F100.000000
G1 X21.756685 Y41.787145 F100.000000
G1 X21.834885 Y41.843960 F100.000000
G1 X21.931545 F100.000000
G1 X22.009745 Y41.787145 F100.000000
G1 X22.039615 Y41.695215 F100.000000
G0 Z-1.133333 F30.000000
G1 X22.009745 Y41.603285 F100.000000
G1 X21.931545 Y41.546470 F100.000000
G1 X21.834885 F100.000000
G1 X21.756685 Y41.603285 F100.000000
G1 X21.726815 Y41.695215 F100.000000
G1 X21.756685 Y41.787145 F100.000000
G1 X21.834885 Y41.843960 F100.000000
G1 X21.931545 F100.000000
G1 X22.009745 Y41.787145 F100.000000
G1 X22.039615 Y41.695215 F100.000000
G0 Z-1.416667 F30.000000
G1 X22.009745 Y41.603285 F100.000000
G1 X21.931545 Y41.546470 F100.000000
G1 X21.834885 F100.000000
G1 X21.756685 Y41.603285 F100.000000
G1 X21.726815 Y41.695215 F100.000000
G1 X21.756685 Y41.787145 F100.000000
G1 X21.834885 Y41.843960 F100.000000
G1 X21.931545 F100.000000
G1 X22.009745 Y41.787145 F100.000000
G1 X22.039615 Y41.695215 F100.000000
G0 Z-1.700000 F30.000000
G1 X22.009745 Y41.603285 F100.000000
G1 X21.931545 Y41.546470 F100.000000
G1 X21.834885 F100.000000
G1 X21.756685 Y41.603285 F100.000000
G1 X21.726815 Y41.695215 F100.000000
G1 X21.756685 Y41.787145 F100.000000
G1 X21.834885 Y41.843960 F100.000000
G1 X21.931545 F100.000000
G1 X22.009745 Y41.787145 F100.000000
G1 X22.039615 Y41.695215 F100.000000
G0 Z2.000000
G0 X20.515615 Y54.903215
G17
G0 Z-0.283333 F30.000000
G1 X20.515615 Y54.903215 F100.000000
G1 X20.485745 Y54.811285 F100.000000
G1 X20.407545 Y54.754470 F100.000000
G1 X20.310885 F100.000000
G1 X20.232685 Y54.811285 F100.000000
G1 X20.202815 Y54.903215 F100.000000
G1 X20.232685 Y54.995145 F100.000000
G1 X20.310885 Y55.051960 F100.000000
G1 X20.407545 F100.000000
G1 X20.485745 Y54.995145 F100.000000
G1 X20.515615 Y54.903215 F100.000000
G0 Z-0.566667 F30.000000
G1 X20.485745 Y54.811285 F100.000000
G1 X20.407545 Y54.754470 F100.000000
G1 X20.310885 F100.000000
G1 X20.232685 Y54.811285 F100.000000
G1 X20.202815 Y54.903215 F100.000000
G1 X20.232685 Y54.995145 F100.000000
G1 X20.310885 Y55.051960 F100.000000
G1 X20.407545 F100.000000
G1 X20.485745 Y54.995145 F100.000000
G1 X20.515615 Y54.903215 F100.000000
G0 Z-0.850000 F30.000000
G1 X20.485745 Y54.811285 F100.000000
G1 X20.407545 Y54.754470 F100.000000
G1 X20.310885 F100.000000
G1 X20.232685 Y54.811285 F100.000000
G1 X20.202815 Y54.903215 F100.000000
G1 X20.232685 Y54.995145 F100.000000
G1 X20.310885 Y55.051960 F100.000000
G1 X20.407545 F100.000000
G1 X20.485745 Y54.995145 F100.000000
G1 X20.515615 Y54.903215 F100.000000
G0 Z-1.133333 F30.000000
G1 X20.485745 Y54.811285 F100.000000
G1 X20.407545 Y54.754470 F100.000000
G1 X20.310885 F100.000000
G1 X20.232685 Y54.811285 F100.000000
G1 X20.202815 Y54.903215 F100.000000
G1 X20.232685 Y54.995145 F100.000000
G1 X20.310885 Y55.051960 F100.000000
G1 X20.407545 F100.000000
G1 X20.485745 Y54.995145 F100.000000
G1 X20.515615 Y54.903215 F100.000000
G0 Z-1.416667 F30.000000
G1 X20.485745 Y54.811285 F100.000000
G1 X20.407545 Y54.754470 F100.000000
G1 X20.310885 F100.000000
G1 X20.232685 Y54.811285 F100.000000
G1 X20.202815 Y54.903215 F100.000000
G1 X20.232685 Y54.995145 F100.000000
G1 X20.310885 Y55.051960 F100.000000
G1 X20.407545 F100.000000
G1 X20.485745 Y54.995145 F100.000000
G1 X20.515615 Y54.903215 F100.000000
G0 Z-1.700000 F30.000000
G1 X20.485745 Y54.811285 F100.000000
G1 X20.407545 Y54.754470 F100.000000
G1 X20.310885 F100.000000
G1 X20.232685 Y54.811285 F100.000000
G1 X20.202815 Y54.903215 F100.000000
G1 X20.232685 Y54.995145 F100.000000
G1 X20.310885 Y55.051960 F100.000000
G1 X20.407545 F100.000000
G1 X20.485745 Y54.995145 F100.000000
G1 X20.515615 Y54.903215 F100.000000
G0 Z2.000000
G0 X20.515615 Y6.643215
G17
G0 Z-0.283333 F30.000000
G1 Y6.643215 F100.000000
G1 X20.485745 Y6.551285 F100.000000
G1 X20.407545 Y6.494470 F100.000000
G1 X20.310885 F100.000000
G1 X20.232685 Y6.551285 F100.000000
G1 X20.202815 Y6.643215 F100.000000
G1 X20.232685 Y6.735145 F100.000000
G1 X20.310885 Y6.791960 F100.000000
G1 X20.407545 F100.000000
G1 X20.485745 Y6.735145 F100.000000
G1 X20.515615 Y6.643215 F100.000000
G0 Z-0.566667 F30.000000
G1 X20.485745 Y6.551285 F100.000000
G1 X20.407545 Y6.494470 F100.000000
G1 X20.310885 F100.000000
G1 X20.232685 Y6.551285 F100.000000
G1 X20.202815 Y6.643215 F100.000000
G1 X20.232685 Y6.735145 F100.000000
G1 X20.310885 Y6.791960 F100.000000
G1 X20.407545 F100.000000
G1 X20.485745 Y6.735145 F100.000000
G1 X20.515615 Y6.643215 F100.000000
G0 Z-0.850000 F30.000000
G1 X20.485745 Y6.551285 F100.000000
G1 X20.407545 Y6.494470 F100.000000
G1 X20.310885 F100.000000
G1 X20.232685 Y6.551285 F100.000000
G1 X20.202815 Y6.643215 F100.000000
G1 X20.232685 Y6.735145 F100.000000
G1 X20.310885 Y6.791960 F100.000000
G1 X20.407545 F100.000000
G1 X20.485745 Y6.735145 F100.000000
G1 X20.515615 Y6.643215 F100.000000
G0 Z-1.133333 F30.000000
G1 X20.485745 Y6.551285 F100.000000
G1 X20.407545 Y6.494470 F100.000000
G1 X20.310885 F100.000000
G1 X20.232685 Y6.551285 F100.000000
G1 X20.202815 Y6.643215 F100.000000
G1 X20.232685 Y6.735145 F100.000000
G1 X20.310885 Y6.791960 F100.000000
G1 X20.407545 F100.000000
G1 X20.485745 Y6.735145 F100.000000
G1 X20.515615 Y6.643215 F100.000000
G0 Z-1.416667 F30.000000
G1 X20.485745 Y6.551285 F100.000000
G1 X20.407545 Y6.494470 F100.000000
G1 X20.310885 F100.000000
G1 X20.232685 Y6.551285 F100.000000
G1 X20.202815 Y6.643215 F100.000000
G1 X20.232685 Y6.735145 F100.000000
G1 X20.310885 Y6.791960 F100.000000
G1 X20.407545 F100.000000
G1 X20.485745 Y6.735145 F100.000000
G1 X20.515615 Y6.643215 F100.000000
G0 Z-1.700000 F30.000000
G1 X20.485745 Y6.551285 F100.000000
G1 X20.407545 Y6.494470 F100.000000
G1 X20.310885 F100.000000
G1 X20.232685 Y6.551285 F100.000000
G1 X20.202815 Y6.643215 F100.000000
G1 X20.232685 Y6.735145 F100.000000
G1 X20.310885 Y6.791960 F100.000000
G1 X20.407545 F100.000000
G1 X20.485745 Y6.735145 F100.000000
G1 X20.515615 Y6.643215 F100.000000
G0 Z2.000000
G0 X19.499615 Y47.283215
G17
G0 Z-0.283333 F30.000000
G1 X19.499615 Y47.283215 F100.000000
G1 X19.469745 Y47.191285 F100.000000
G1 X19.391545 Y47.134470 F100.000000
G1 X19.294885 F100.000000
G1 X19.216685 Y47.191285 F100.000000
G1 X19.186815 Y47.283215 F100.000000
G1 X19.216685 Y47.375145 F100.000000
G1 X19.294885 Y47.431960 F100.000000
G1 X19.391545 F100.000000
G1 X19.469745 Y47.375145 F100.000000
G1 X19.499615 Y47.283215 F100.000000
G0 Z-0.566667 F30.000000
G1 X19.469745 Y47.191285 F100.000000
G1 X19.391545 Y47.134470 F100.000000
G1 X19.294885 F100.000000
G1 X19.216685 Y47.191285 F100.000000
G1 X19.186815 Y47.283215 F100.000000
G1 X19.216685 Y47.375145 F100.000000
G1 X19.294885 Y47.431960 F100.000000
G1 X19.391545 F100.000000
G1 X19.469745 Y47.375145 F100.000000
G1 X19.499615 Y47.283215 F100.000000
G0 Z-0.850000 F30.000000
G1 X19.469745 Y47.191285 F100.000000
G1 X19.391545 Y47.134470 F100.000000
G1 X19.294885 F100.000000
G1 X19.216685 Y47.191285 F100.000000
G1 X19.186815 Y47.283215 F100.000000
G1 X19.216685 Y47.375145 F100.000000
G1 X19.294885 Y47.431960 F100.000000
G1 X19.391545 F100.000000
G1 X19.469745 Y47.375145 F100.000000
G1 X19.499615 Y47.283215 F100.000000
G0 Z-1.133333 F30.000000
G1 X19.469745 Y47.191285 F100.000000
G1 X19.391545 Y47.134470 F100.000000
G1 X19.294885 F100.000000
G1 X19.216685 Y47.191285 F100.000000
G1 X19.186815 Y47.283215 F100.000000
G1 X19.216685 Y47.375145 F100.000000
G1 X19.294885 Y47.431960 F100.000000
G1 X19.391545 F100.000000
G1 X19.469745 Y47.375145 F100.000000
G1 X19.499615 Y47.283215 F100.000000
G0 Z-1.416667 F30.000000
G1 X19.469745 Y47.191285 F100.000000
G1 X19.391545 Y47.134470 F100.000000
G1 X19.294885 F100.000000
G1 X19.216685 Y47.191285 F100.000000
G1 X19.186815 Y47.283215 F100.000000
G1 X19.216685 Y47.375145 F100.000000
G1 X19.294885 Y47.431960 F100.000000
G1 X19.391545 F100.000000
G1 X19.469745 Y47.375145 F100.000000
G1 X19.499615 Y47.283215 F100.000000
G0 Z-1.700000 F30.000000
G1 X19.469745 Y47.191285 F100.000000
G1 X19.391545 Y47.134470 F100.000000
G1 X19.294885 F100.000000
G1 X19.216685 Y47.191285 F100.000000
G1 X19.186815 Y47.283215 F100.000000
G1 X19.216685 Y47.375145 F100.000000
G1 X19.294885 Y47.431960 F100.000000
G1 X19.391545 F100.000000
G1 X19.469745 Y47.375145 F100.000000
G1 X19.499615 Y47.283215 F100.000000
G0 Z2.000000
G0 X19.499615 Y44.743215
G17
G0 Z-0.283333 F30.000000
G1 Y44.743215 F100.000000
G1 X19.469745 Y44.651285 F100.000000
G1 X19.391545 Y44.594470 F100.000000
G1 X19.294885 F100.000000
G1 X19.216685 Y44.651285 F100.000000
G1 X19.186815 Y44.743215 F100.000000
G1 X19.216685 Y44.835145 F100.000000
G1 X19.294885 Y44.891960 F100.000000
G1 X19.391545 F100.000000
G1 X19.469745 Y44.835145 F100.000000
G1 X19.499615 Y44.743215 F100.000000
G0 Z-0.566667 F30.000000
G1 X19.469745 Y44.651285 F100.000000
G1 X19.391545 Y44.594470 F100.000000
G1 X19.294885 F100.000000
G1 X19.216685 Y44.651285 F100.000000
G1 X19.186815 Y44.743215 F100.000000
G1 X19.216685 Y44.835145 F100.000000
G1 X19.294885 Y44.891960 F100.000000
G1 X19.391545 F100.000000
G1 X19.469745 Y44.835145 F100.000000
G1 X19.499615 Y44.743215 F100.000000
G0 Z-0.850000 F30.000000
G1 X19.469745 Y44.651285 F100.000000
G1 X19.391545 Y44.594470 F100.000000
G1 X19.294885 F100.000000
G1 X19.216685 Y44.651285 F100.000000
G1 X19.186815 Y44.743215 F100.000000
G1 X19.216685 Y44.835145 F100.000000
G1 X19.294885 Y44.891960 F100.000000
G1 X19.391545 F100.000000
G1 X19.469745 Y44.835145 F100.000000
G1 X19.499615 Y44.743215 F100.000000
G0 Z-1.133333 F30.000000
G1 X19.469745 Y44.651285 F100.000000
G1 X19.391545 Y44.594470 F100.000000
G1 X19.294885 F100.000000
G1 X19.216685 Y44.651285 F100.000000
G1 X19.186815 Y44.743215 F100.000000
G1 X19.216685 Y44.835145 F100.000000
G1 X19.294885 Y44.891960 F100.000000
G1 X19.391545 F100.000000
G1 X19.469745 Y44.835145 F100.000000
G1 X19.499615 Y44.743215 F100.000000
G0 Z-1.416667 F30.000000
G1 X19.469745 Y44.651285 F100.000000
G1 X19.391545 Y44.594470 F100.000000
G1 X19.294885 F100.000000
G1 X19.216685 Y44.651285 F100.000000
G1 X19.186815 Y44.743215 F100.000000
G1 X19.216685 Y44.835145 F100.000000
G1 X19.294885 Y44.891960 F100.000000
G1 X19.391545 F100.000000
G1 X19.469745 Y44.835145 F100.000000
G1 X19.499615 Y44.743215 F100.000000
G0 Z-1.700000 F30.000000
G1 X19.469745 Y44.651285 F100.000000
G1 X19.391545 Y44.594470 F100.000000
G1 X19.294885 F100.000000
G1 X19.216685 Y44.651285 F100.000000
G1 X19.186815 Y44.743215 F100.000000
G1 X19.216685 Y44.835145 F100.000000
G1 X19.294885 Y44.891960 F100.000000
G1 X19.391545 F100.000000
G1 X19.469745 Y44.835145 F100.000000
G1 X19.499615 Y44.743215 F100.000000
G0 Z2.000000
G0 X17.975615 Y54.903215
G17
G0 Z-0.283333 F30.000000
G1 X17.975615 Y54.903215 F100.000000
G1 X17.945745 Y54.811285 F100.000000
G1 X17.867545 Y54.754470 F100.000000
G1 X17.770885 F100.000000
G1 X17.692685 Y54.811285 F100.000000
G1 X17.662815 Y54.903215 F100.000000
G1 X17.692685 Y54.995145 F100.000000
G1 X17.770885 Y55.051960 F100.000000
G1 X17.867545 F100.000000
G1 X17.945745 Y54.995145 F100.000000
G1 X17.975615 Y54.903215 F100.000000
G0 Z-0.566667 F30.000000
G1 X17.945745 Y54.811285 F100.000000
G1 X17.867545 Y54.754470 F100.000000
G1 X17.770885 F100.000000
G1 X17.692685 Y54.811285 F100.000000
G1 X17.662815 Y54.903215 F100.000000
G1 X17.692685 Y54.995145 F100.000000
G1 X17.770885 Y55.051960 F100.000000
G1 X17.867545 F100.000000
G1 X17.945745 Y54.995145 F100.000000
G1 X17.975615 Y54.903215 F100.000000
G0 Z-0.850000 F30.000000
G1 X17.945745 Y54.811285 F100.000000
G1 X17.867545 Y54.754470 F100.000000
G1 X17.770885 F100.000000
G1 X17.692685 Y54.811285 F100.000000
G1 X17.662815 Y54.903215 F100.000000
G1 X17.692685 Y54.995145 F100.000000
G1 X17.770885 Y55.051960 F100.000000
G1 X17.867545 F100.000000
G1 X17.945745 Y54.995145 F100.000000
G1 X17.975615 Y54.903215 F100.000000
G0 Z-1.133333 F30.000000
G1 X17.945745 Y54.811285 F100.000000
G1 X17.867545 Y54.754470 F100.000000
G1 X17.770885 F100.000000
G1 X17.692685 Y54.811285 F100.000000
G1 X17.662815 Y54.903215 F100.000000
G1 X17.692685 Y54.995145 F100.000000
G1 X17.770885 Y55.051960 F100.000000
G1 X17.867545 F100.000000
G1 X17.945745 Y54.995145 F100.000000
G1 X17.975615 Y54.903215 F100.000000
G0 Z-1.416667 F30.000000
G1 X17.945745 Y54.811285 F100.000000
G1 X17.867545 Y54.754470 F100.000000
G1 X17.770885 F100.000000
G1 X17.692685 Y54.811285 F100.000000
G1 X17.662815 Y54.903215 F100.000000
G1 X17.692685 Y54.995145 F100.000000
G1 X17.770885 Y55.051960 F100.000000
G1 X17.867545 F100.000000
G1 X17.945745 Y54.995145 F100.000000
G1 X17.975615 Y54.903215 F100.000000
G0 Z-1.700000 F30.000000
G1 X17.945745 Y54.811285 F100.000000
G1 X17.867545 Y54.754470 F100.000000
G1 X17.770885 F100.000000
G1 X17.692685 Y54.811285 F100.000000
G1 X17.662815 Y54.903215 F100.000000
G1 X17.692685 Y54.995145 F100.000000
G1 X17.770885 Y55.051960 F100.000000
G1 X17.867545 F100.000000
G1 X17.945745 Y54.995145 F100.000000
G1 X17.975615 Y54.903215 F100.000000
G0 Z2.000000
G0 X17.975615 Y6.643215
G17
G0 Z-0.283333 F30.000000
G1 Y6.643215 F100.000000
G1 X17.945745 Y6.551285 F100.000000
G1 X17.867545 Y6.494470 F100.000000
G1 X17.770885 F100.000000
G1 X17.692685 Y6.551285 F100.000000
G1 X17.662815 Y6.643215 F100.000000
G1 X17.692685 Y6.735145 F100.000000
G1 X17.770885 Y6.791960 F100.000000
G1 X17.867545 F100.000000
G1 X17.945745 Y6.735145 F100.000000
G1 X17.975615 Y6.643215 F100.000000
G0 Z-0.566667 F30.000000
G1 X17.945745 Y6.551285 F100.000000
G1 X17.867545 Y6.494470 F100.000000
G1 X17.770885 F100.000000
G1 X17.692685 Y6.551285 F100.000000
G1 X17.662815 Y6.643215 F100.000000
G1 X17.692685 Y6.735145 F100.000000
G1 X17.770885 Y6.791960 F100.000000
G1 X17.867545 F100.000000
G1 X17.945745 Y6.735145 F100.000000
G1 X17.975615 Y6.643215 F100.000000
G0 Z-0.850000 F30.000000
G1 X17.945745 Y6.551285 F100.000000
G1 X17.867545 Y6.494470 F100.000000
G1 X17.770885 F100.000000
G1 X17.692685 Y6.551285 F100.000000
G1 X17.662815 Y6.643215 F100.000000
G1 X17.692685 Y6.735145 F100.000000
G1 X17.770885 Y6.791960 F100.000000
G1 X17.867545 F100.000000
G1 X17.945745 Y6.735145 F100.000000
G1 X17.975615 Y6.643215 F100.000000
G0 Z-1.133333 F30.000000
G1 X17.945745 Y6.551285 F100.000000
G1 X17.867545 Y6.494470 F100.000000
G1 X17.770885 F100.000000
G1 X17.692685 Y6.551285 F100.000000
G1 X17.662815 Y6.643215 F100.000000
G1 X17.692685 Y6.735145 F100.000000
G1 X17.770885 Y6.791960 F100.000000
G1 X17.867545 F100.000000
G1 X17.945745 Y6.735145 F100.000000
G1 X17.975615 Y6.643215 F100.000000
G0 Z-1.416667 F30.000000
G1 X17.945745 Y6.551285 F100.000000
G1 X17.867545 Y6.494470 F100.000000
G1 X17.770885 F100.000000
G1 X17.692685 Y6.551285 F100.000000
G1 X17.662815 Y6.643215 F100.000000
G1 X17.692685 Y6.735145 F100.000000
G1 X17.770885 Y6.791960 F100.000000
G1 X17.867545 F100.000000
G1 X17.945745 Y6.735145 F100.000000
G1 X17.975615 Y6.643215 F100.000000
G0 Z-1.700000 F30.000000
G1 X17.945745 Y6.551285 F100.000000
G1 X17.867545 Y6.494470 F100.000000
G1 X17.770885 F100.000000
G1 X17.692685 Y6.551285 F100.000000
G1 X17.662815 Y6.643215 F100.000000
G1 X17.692685 Y6.735145 F100.000000
G1 X17.770885 Y6.791960 F100.000000
G1 X17.867545 F100.000000
G1 X17.945745 Y6.735145 F100.000000
G1 X17.975615 Y6.643215 F100.000000
G0 Z2.000000
G0 X15.435615 Y54.903215
G17
G0 Z-0.283333 F30.000000
G1 X15.435615 Y54.903215 F100.000000
G1 X15.405745 Y54.811285 F100.000000
G1 X15.327545 Y54.754470 F100.000000
G1 X15.230885 F100.000000
G1 X15.152685 Y54.811285 F100.000000
G1 X15.122815 Y54.903215 F100.000000
G1 X15.152685 Y54.995145 F100.000000
G1 X15.230885 Y55.051960 F100.000000
G1 X15.327545 F100.000000
G1 X15.405745 Y54.995145 F100.000000
G1 X15.435615 Y54.903215 F100.000000
G0 Z-0.566667 F30.000000
G1 X15.405745 Y54.811285 F100.000000
G1 X15.327545 Y54.754470 F100.000000
G1 X15.230885 F100.000000
G1 X15.152685 Y54.811285 F100.000000
G1 X15.122815 Y54.903215 F100.000000
G1 X15.152685 Y54.995145 F100.000000
G1 X15.230885 Y55.051960 F100.000000
G1 X15.327545 F100.000000
G1 X15.405745 Y54.995145 F100.000000
G1 X15.435615 Y54.903215 F100.000000
G0 Z-0.850000 F30.000000
G1 X15.405745 Y54.811285 F100.000000
G1 X15.327545 Y54.754470 F100.000000
G1 X15.230885 F100.000000
G1 X15.152685 Y54.811285 F100.000000
G1 X15.122815 Y54.903215 F100.000000
G1 X15.152685 Y54.995145 F100.000000
G1 X15.230885 Y55.051960 F100.000000
G1 X15.327545 F100.000000
G1 X15.405745 Y54.995145 F100.000000
G1 X15.435615 Y54.903215 F100.000000
G0 Z-1.133333 F30.000000
G1 X15.405745 Y54.811285 F100.000000
G1 X15.327545 Y54.754470 F100.000000
G1 X15.230885 F100.000000
G1 X15.152685 Y54.811285 F100.000000
G1 X15.122815 Y54.903215 F100.000000
G1 X15.152685 Y54.995145 F100.000000
G1 X15.230885 Y55.051960 F100.000000
G1 X15.327545 F100.000000
G1 X15.405745 Y54.995145 F100.000000
G1 X15.435615 Y54.903215 F100.000000
G0 Z-1.416667 F30.000000
G1 X15.405745 Y54.811285 F100.000000
G1 X15.327545 Y54.754470 F100.000000
G1 X15.230885 F100.000000
G1 X15.152685 Y54.811285 F100.000000
G1 X15.122815 Y54.903215 F100.000000
G1 X15.152685 Y54.995145 F100.000000
G1 X15.230885 Y55.051960 F100.000000
G1 X15.327545 F100.000000
G1 X15.405745 Y54.995145 F100.000000
G1 X15.435615 Y54.903215 F100.000000
G0 Z-1.700000 F30.000000
G1 X15.405745 Y54.811285 F100.000000
G1 X15.327545 Y54.754470 F100.000000
G1 X15.230885 F100.000000
G1 X15.152685 Y54.811285 F100.000000
G1 X15.122815 Y54.903215 F100.000000
G1 X15.152685 Y54.995145 F100.000000
G1 X15.230885 Y55.051960 F100.000000
G1 X15.327545 F100.000000
G1 X15.405745 Y54.995145 F100.000000
G1 X15.435615 Y54.903215 F100.000000
G0 Z2.000000
G0 X15.435615 Y51.601215
G17
G0 Z-0.283333 F30.000000
G1 Y51.601215 F100.000000
G1 X15.405745 Y51.509285 F100.000000
G1 X15.327545 Y51.452470 F100.000000
G1 X15.230885 F100.000000
G1 X15.152685 Y51.509285 F100.000000
G1 X15.122815 Y51.601215 F100.000000
G1 X15.152685 Y51.693145 F100.000000
G1 X15.230885 Y51.749960 F100.000000
G1 X15.327545 F100.000000
G1 X15.405745 Y51.693145 F100.000000
G1 X15.435615 Y51.601215 F100.000000
G0 Z-0.566667 F30.000000
G1 X15.405745 Y51.509285 F100.000000
G1 X15.327545 Y51.452470 F100.000000
G1 X15.230885 F100.000000
G1 X15.152685 Y51.509285 F100.000000
G1 X15.122815 Y51.601215 F100.000000
G1 X15.152685 Y51.693145 F100.000000
G1 X15.230885 Y51.749960 F100.000000
G1 X15.327545 F100.000000
G1 X15.405745 Y51.693145 F100.000000
G1 X15.435615 Y51.601215 F100.000000
G0 Z-0.850000 F30.000000
G1 X15.405745 Y51.509285 F100.000000
G1 X15.327545 Y51.452470 F100.000000
G1 X15.230885 F100.000000
G1 X15.152685 Y51.509285 F100.000000
G1 X15.122815 Y51.601215 F100.000000
G1 X15.152685 Y51.693145 F100.000000
G1 X15.230885 Y51.749960 F100.000000
G1 X15.327545 F100.000000
G1 X15.405745 Y51.693145 F100.000000
G1 X15.435615 Y51.601215 F100.000000
G0 Z-1.133333 F30.000000
G1 X15.405745 Y51.509285 F100.000000
G1 X15.327545 Y51.452470 F100.000000
G1 X15.230885 F100.000000
G1 X15.152685 Y51.509285 F100.000000
G1 X15.122815 Y51.601215 F100.000000
G1 X15.152685 Y51.693145 F100.000000
G1 X15.230885 Y51.749960 F100.000000
G1 X15.327545 F100.000000
G1 X15.405745 Y51.693145 F100.000000
G1 X15.435615 Y51.601215 F100.000000
G0 Z-1.416667 F30.000000
G1 X15.405745 Y51.509285 F100.000000
G1 X15.327545 Y51.452470 F100.000000
G1 X15.230885 F100.000000
G1 X15.152685 Y51.509285 F100.000000
G1 X15.122815 Y51.601215 F100.000000
G1 X15.152685 Y51.693145 F100.000000
G1 X15.230885 Y51.749960 F100.000000
G1 X15.327545 F100.000000
G1 X15.405745 Y51.693145 F100.000000
G1 X15.435615 Y51.601215 F100.000000
G0 Z-1.700000 F30.000000
G1 X15.405745 Y51.509285 F100.000000
G1 X15.327545 Y51.452470 F100.000000
G1 X15.230885 F100.000000
G1 X15.152685 Y51.509285 F100.000000
G1 X15.122815 Y51.601215 F100.000000
G1 X15.152685 Y51.693145 F100.000000
G1 X15.230885 Y51.749960 F100.000000
G1 X15.327545 F100.000000
G1 X15.405745 Y51.693145 F100.000000
G1 X15.435615 Y51.601215 F100.000000
G0 Z2.000000
G0 X15.435615 Y49.061215
G17
G0 Z-0.283333 F30.000000
G1 Y49.061215 F100.000000
G1 X15.405745 Y48.969285 F100.000000
G1 X15.327545 Y48.912470 F100.000000
G1 X15.230885 F100.000000
G1 X15.152685 Y48.969285 F100.000000
G1 X15.122815 Y49.061215 F100.000000
G1 X15.152685 Y49.153145 F100.000000
G1 X15.230885 Y49.209960 F100.000000
G1 X15.327545 F100.000000
G1 X15.405745 Y49.153145 F100.000000
G1 X15.435615 Y49.061215 F100.000000
G0 Z-0.566667 F30.000000
G1 X15.405745 Y48.969285 F100.000000
G1 X15.327545 Y48.912470 F100.000000
G1 X15.230885 F100.000000
G1 X15.152685 Y48.969285 F100.000000
G1 X15.122815 Y49.061215 F100.000000
G1 X15.152685 Y49.153145 F100.000000
G1 X15.230885 Y49.209960 F100.000000
G1 X15.327545 F100.000000
G1 X15.405745 Y49.153145 F100.000000
G1 X15.435615 Y49.061215 F100.000000
G0 Z-0.850000 F30.000000
G1 X15.405745 Y48.969285 F100.000000
G1 X15.327545 Y48.912470 F100.000000
G1 X15.230885 F100.000000
G1 X15.152685 Y48.969285 F100.000000
G1 X15.122815 Y49.061215 F100.000000
G1 X15.152685 Y49.153145 F100.000000
G1 X15.230885 Y49.209960 F100.000000
G1 X15.327545 F100.000000
G1 X15.405745 Y49.153145 F100.000000
G1 X15.435615 Y49.061215 F100.000000
G0 Z-1.133333 F30.000000
G1 X15.405745 Y48.969285 F100.000000
G1 X15.327545 Y48.912470 F100.000000
G1 X15.230885 F100.000000
G1 X15.152685 Y48.969285 F100.000000
G1 X15.122815 Y49.061215 F100.000000
G1 X15.152685 Y49.153145 F100.000000
G1 X15.230885 Y49.209960 F100.000000
G1 X15.327545 F100.000000
G1 X15.405745 Y49.153145 F100.000000
G1 X15.435615 Y49.061215 F100.000000
G0 Z-1.416667 F30.000000
G1 X15.405745 Y48.969285 F100.000000
G1 X15.327545 Y48.912470 F100.000000
G1 X15.230885 F100.000000
G1 X15.152685 Y48.969285 F100.000000
G1 X15.122815 Y49.061215 F100.000000
G1 X15.152685 Y49.153145 F100.000000
G1 X15.230885 Y49.209960 F100.000000
G1 X15.327545 F100.000000
G1 X15.405745 Y49.153145 F100.000000
G1 X15.435615 Y49.061215 F100.000000
G0 Z-1.700000 F30.000000
G1 X15.405745 Y48.969285 F100.000000
G1 X15.327545 Y48.912470 F100.000000
G1 X15.230885 F100.000000
G1 X15.152685 Y48.969285 F100.000000
G1 X15.122815 Y49.061215 F100.000000
G1 X15.152685 Y49.153145 F100.000000
G1 X15.230885 Y49.209960 F100.000000
G1 X15.327545 F100.000000
G1 X15.405745 Y49.153145 F100.000000
G1 X15.435615 Y49.061215 F100.000000
G0 Z2.000000
G0 X15.435615 Y6.643215
G17
G0 Z-0.283333 F30.000000
G1 Y6.643215 F100.000000
G1 X15.405745 Y6.551285 F100.000000
G1 X15.327545 Y6.494470 F100.000000
G1 X15.230885 F100.000000
G1 X15.152685 Y6.551285 F100.000000
G1 X15.122815 Y6.643215 F100.000000
G1 X15.152685 Y6.735145 F100.000000
G1 X15.230885 Y6.791960 F100.000000
G1 X15.327545 F100.000000
G1 X15.405745 Y6.735145 F100.000000
G1 X15.435615 Y6.643215 F100.000000
G0 Z-0.566667 F30.000000
G1 X15.405745 Y6.551285 F100.000000
G1 X15.327545 Y6.494470 F100.000000
G1 X15.230885 F100.000000
G1 X15.152685 Y6.551285 F100.000000
G1 X15.122815 Y6.643215 F100.000000
G1 X15.152685 Y6.735145 F100.000000
G1 X15.230885 Y6.791960 F100.000000
G1 X15.327545 F100.000000
G1 X15.405745 Y6.735145 F100.000000
G1 X15.435615 Y6.643215 F100.000000
G0 Z-0.850000 F30.000000
G1 X15.405745 Y6.551285 F100.000000
G1 X15.327545 Y6.494470 F100.000000
G1 X15.230885 F100.000000
G1 X15.152685 Y6.551285 F100.000000
G1 X15.122815 Y6.643215 F100.000000
G1 X15.152685 Y6.735145 F100.000000
G1 X15.230885 Y6.791960 F100.000000
G1 X15.327545 F100.000000
G1 X15.405745 Y6.735145 F100.000000
G1 X15.435615 Y6.643215 F100.000000
G0 Z-1.133333 F30.000000
G1 X15.405745 Y6.551285 F100.000000
G1 X15.327545 Y6.494470 F100.000000
G1 X15.230885 F100.000000
G1 X15.152685 Y6.551285 F100.000000
G1 X15.122815 Y6.643215 F100.000000
G1 X15.152685 Y6.735145 F100.000000
G1 X15.230885 Y6.791960 F100.000000
G1 X15.327545 F100.000000
G1 X15.405745 Y6.735145 F100.000000
G1 X15.435615 Y6.643215 F100.000000
G0 Z-1.416667 F30.000000
G1 X15.405745 Y6.551285 F100.000000
G1 X15.327545 Y6.494470 F100.000000
G1 X15.230885 F100.000000
G1 X15.152685 Y6.551285 F100.000000
G1 X15.122815 Y6.643215 F100.000000
G1 X15.152685 Y6.735145 F100.000000
G1 X15.230885 Y6.791960 F100.000000
G1 X15.327545 F100.000000
G1 X15.405745 Y6.735145 F100.000000
G1 X15.435615 Y6.643215 F100.000000
G0 Z-1.700000 F30.000000
G1 X15.405745 Y6.551285 F100.000000
G1 X15.327545 Y6.494470 F100.000000
G1 X15.230885 F100.000000
G1 X15.152685 Y6.551285 F100.000000
G1 X15.122815 Y6.643215 F100.000000
G1 X15.152685 Y6.735145 F100.000000
G1 X15.230885 Y6.791960 F100.000000
G1 X15.327545 F100.000000
G1 X15.405745 Y6.735145 F100.000000
G1 X15.435615 Y6.643215 F100.000000
G0 Z2.000000
G0 X14.419615 Y41.695215
G17
G0 Z-0.283333 F30.000000
G1 X14.419615 Y41.695215 F100.000000
G1 X14.389745 Y41.603285 F100.000000
G1 X14.311545 Y41.546470 F100.000000
G1 X14.214885 F100.000000
G1 X14.136685 Y41.603285 F100.000000
G1 X14.106815 Y41.695215 F100.000000
G1 X14.136685 Y41.787145 F100.000000
G1 X14.214885 Y41.843960 F100.000000
G1 X14.311545 F100.000000
G1 X14.389745 Y41.787145 F100.000000
G1 X14.419615 Y41.695215 F100.000000
G0 Z-0.566667 F30.000000
G1 X14.389745 Y41.603285 F100.000000
G1 X14.311545 Y41.546470 F100.000000
G1 X14.214885 F100.000000
G1 X14.136685 Y41.603285 F100.000000
G1 X14.106815 Y41.695215 F100.000000
G1 X14.136685 Y41.787145 F100.000000
G1 X14.214885 Y41.843960 F100.000000
G1 X14.311545 F100.000000
G1 X14.389745 Y41.787145 F100.000000
G1 X14.419615 Y41.695215 F100.000000
G0 Z-0.850000 F30.000000
G1 X14.389745 Y41.603285 F100.000000
G1 X14.311545 Y41.546470 F100.000000
G1 X14.214885 F100.000000
