(Generated by ./pygerber2gcode_cui_MOD.py )
( 2013-05-31 00:41:27 )
(Initialize)

(Start form here)
G0 Z0.500000
G0 X94.163215 Y58.401215
G1 Z-0.333333 F30.000000
G1 X38.029215 F50.000000
G1 Y4.553215 F50.000000
G1 Y4.299215 F50.000000
G1 X95.433215 F50.000000
G1 Y58.401215 F50.000000
G1 X94.163215 F50.000000
G1 Z-0.666667 F30.000000
G1 X38.029215 F50.000000
G1 Y4.553215 F50.000000
G1 Y4.299215 F50.000000
G1 X95.433215 F50.000000
G1 Y58.401215 F50.000000
G1 X94.163215 F50.000000
G1 Z-1.000000 F30.000000
G1 X38.029215 F50.000000
G1 Y4.553215 F50.000000
G1 Y4.299215 F50.000000
G1 X95.433215 F50.000000
G1 Y58.401215 F50.000000
G1 X94.163215 F50.000000
G1 Z-1.333333 F30.000000
G1 X38.029215 F50.000000
G1 Y4.553215 F50.000000
G1 Y4.299215 F50.000000
G1 X95.433215 F50.000000
G1 Y58.401215 F50.000000
G1 X94.163215 F50.000000
G1 Z-1.666667 F30.000000
G1 X38.029215 F50.000000
G1 Y4.553215 F50.000000
G1 Y4.299215 F50.000000
G1 X95.433215 F50.000000
G1 Y58.401215 F50.000000
G1 X94.163215 F50.000000
G1 Z-2.000000 F30.000000
G1 X38.029215 F50.000000
G1 Y4.553215 F50.000000
G1 Y4.299215 F50.000000
G1 X95.433215 F50.000000
G1 Y58.401215 F50.000000
G1 X94.163215 F50.000000

(Goto to Initial position)
G0 Z0.500000
G0 X0.000000 Y0.000000
G0 Z0.000000
