(Generated by ./pygerber2gcode_cui_MOD.py )
( 2013-05-29 17:29:04 )
(Initialize)

(Start form here)
G0 Z2.000000
G0 X14.825595 Y13.633340
G1 Z-0.040000 F60.000000
G1 X14.809671 Y13.617835 F100.000000
G1 X14.791039 Y13.605718 F100.000000
G1 X14.782104 Y13.590994 F100.000000
G1 X14.769765 Y13.578979 F100.000000
G1 X14.762145 Y13.558100 F100.000000
G1 X14.750616 Y13.539098 F100.000000
G1 X14.417876 Y12.538338 F100.000000
G1 X14.410361 Y12.460777 F100.000000
G1 X14.437242 Y12.387636 F100.000000
G1 X14.493197 Y12.333402 F100.000000
G1 X14.567141 Y12.308816 F100.000000
G1 X14.644430 Y12.318749 F100.000000
G1 X14.709756 Y12.361232 F100.000000
G1 X14.750179 Y12.427852 F100.000000
G1 X14.805761 Y12.595020 F100.000000
G1 X15.029889 F100.000000
G1 X15.086022 Y12.427472 F100.000000
G1 X15.126598 Y12.360945 F100.000000
G1 X15.192020 Y12.318611 F100.000000
G1 X15.269331 Y12.308855 F100.000000
G1 X15.343220 Y12.333610 F100.000000
G1 X15.399050 Y12.387971 F100.000000
G1 X15.418955 Y12.442514 F100.000000
G1 X15.427032 Y12.407124 F100.000000
G1 X15.475617 Y12.346200 F100.000000
G1 X15.545825 Y12.312390 F100.000000
G1 X15.623750 F100.000000
G1 X15.693957 Y12.346200 F100.000000
G1 X15.742542 Y12.407124 F100.000000
G1 X15.759882 Y12.483095 F100.000000
G1 Y12.971155 F100.000000
G1 X15.769357 Y12.976020 F100.000000
G1 X15.829478 F100.000000
G1 X15.835738 Y12.972805 F100.000000
G1 X15.838952 Y12.966546 F100.000000
G1 Y12.483095 F100.000000
G1 X15.856292 Y12.407124 F100.000000
G1 X15.904877 Y12.346200 F100.000000
G1 X15.975085 Y12.312390 F100.000000
G1 X16.053010 F100.000000
G1 X16.123217 Y12.346200 F100.000000
G1 X16.171802 Y12.407124 F100.000000
G1 X16.189142 Y12.483095 F100.000000
G0 Z2.000000
G1 Z-0.040000 F60.000000
G1 Y13.008875 F100.000000
G1 X16.188632 Y13.011110 F100.000000
G1 X16.189085 Y13.013357 F100.000000
G1 X16.179986 Y13.048991 F100.000000
G1 X16.171802 Y13.084846 F100.000000
G1 X16.170373 Y13.086638 F100.000000
G1 X16.169806 Y13.088859 F100.000000
G1 X16.121546 Y13.182839 F100.000000
G1 X16.111711 Y13.194545 F100.000000
G1 X16.105432 Y13.208485 F100.000000
G1 X16.086948 Y13.224016 F100.000000
G1 X16.071417 Y13.242499 F100.000000
G1 X16.057477 Y13.248778 F100.000000
G1 X16.045772 Y13.258614 F100.000000
G1 X15.951792 Y13.306874 F100.000000
G1 X15.949570 Y13.307441 F100.000000
G1 X15.947778 Y13.308870 F100.000000
G1 X15.911923 Y13.317054 F100.000000
G1 X15.876289 Y13.326153 F100.000000
G1 X15.874042 Y13.325700 F100.000000
G1 X15.871807 Y13.326210 F100.000000
G1 X15.727027 F100.000000
G1 X15.724792 Y13.325700 F100.000000
G1 X15.722545 Y13.326153 F100.000000
G1 X15.686911 Y13.317054 F100.000000
G1 X15.651056 Y13.308870 F100.000000
G1 X15.650900 Y13.308745 F100.000000
G1 X15.623750 Y13.321820 F100.000000
G1 X15.545825 F100.000000
G1 X15.475617 Y13.288010 F100.000000
G1 X15.427032 Y13.227086 F100.000000
G1 X15.409692 Y13.151115 F100.000000
G1 Y12.563731 F100.000000
G1 X15.082793 Y13.539478 F100.000000
G1 X15.071220 Y13.558453 F100.000000
G1 X15.063552 Y13.579314 F100.000000
G1 X15.051185 Y13.591301 F100.000000
G1 X15.042217 Y13.606005 F100.000000
G1 X15.023557 Y13.618079 F100.000000
G1 X15.007598 Y13.633548 F100.000000
G1 X14.991255 Y13.638982 F100.000000
G1 X14.976795 Y13.648339 F100.000000
G1 X14.954744 Y13.651122 F100.000000
G1 X14.933653 Y13.658134 F100.000000
G1 X14.916571 Y13.655939 F100.000000
G1 X14.899483 Y13.658095 F100.000000
G1 X14.878409 Y13.651034 F100.000000
G1 X14.856364 Y13.648201 F100.000000
G1 X14.841926 Y13.638812 F100.000000
G1 X14.825595 Y13.633340 F100.000000
G0 Z2.000000
G0 X16.367466 Y12.939936
G1 Z-0.040000 F60.000000
G1 X16.352837 Y12.928422 F100.000000
G1 X16.343675 Y12.909706 F100.000000
G1 X16.330787 Y12.893331 F100.000000
G1 X16.285067 Y12.796811 F100.000000
G1 X16.276760 Y12.759306 F100.000000
G1 X16.268212 Y12.721855 F100.000000
G1 Y12.627875 F100.000000
G1 X16.276760 Y12.590424 F100.000000
G1 X16.285067 Y12.552919 F100.000000
G1 X16.330787 Y12.456399 F100.000000
G1 X16.342538 Y12.441469 F100.000000
G1 X16.350527 Y12.424230 F100.000000
G1 X16.366329 Y12.411239 F100.000000
G1 X16.378980 Y12.395164 F100.000000
G1 X16.396045 Y12.386811 F100.000000
G1 X16.410722 Y12.374745 F100.000000
G1 X16.507242 Y12.326485 F100.000000
G1 X16.508536 Y12.326170 F100.000000
G1 X16.509576 Y12.325340 F100.000000
G1 X16.546326 Y12.316952 F100.000000
G1 X16.582948 Y12.308019 F100.000000
G1 X16.584250 Y12.308296 F100.000000
G1 X16.585547 Y12.308000 F100.000000
G1 X16.824307 F100.000000
G1 X16.826542 Y12.308510 F100.000000
G1 X16.828789 Y12.308057 F100.000000
G1 X16.864423 Y12.317156 F100.000000
G1 X16.867819 Y12.317931 F100.000000
G1 X16.879325 Y12.312390 F100.000000
G1 X16.957250 F100.000000
G1 X17.027457 Y12.346200 F100.000000
G1 X17.076042 Y12.407124 F100.000000
G1 X17.093382 Y12.483095 F100.000000
G1 Y13.008875 F100.000000
G1 X17.093303 Y13.009223 F100.000000
G1 X17.093381 Y13.009572 F100.000000
G1 X17.084637 Y13.047192 F100.000000
G1 X17.076042 Y13.084846 F100.000000
G1 X17.075820 Y13.085125 F100.000000
G1 X17.075739 Y13.085473 F100.000000
G1 X17.030019 Y13.179453 F100.000000
G1 X17.018678 Y13.193559 F100.000000
G1 X17.011068 Y13.209980 F100.000000
G1 X16.994572 Y13.223541 F100.000000
G1 X16.981192 Y13.240183 F100.000000
G1 X16.964854 Y13.247971 F100.000000
G1 X16.950872 Y13.259465 F100.000000
G1 X16.854352 Y13.307725 F100.000000
G1 X16.853059 Y13.308040 F100.000000
G1 X16.852018 Y13.308870 F100.000000
G1 X16.815268 Y13.317258 F100.000000
G1 X16.778647 Y13.326191 F100.000000
G1 X16.777345 Y13.325914 F100.000000
G1 X16.776047 Y13.326210 F100.000000
G1 X16.585547 F100.000000
G1 X16.584250 Y13.325914 F100.000000
G1 X16.582948 Y13.326191 F100.000000
G1 X16.546326 Y13.317258 F100.000000
G1 X16.509576 Y13.308870 F100.000000
G1 X16.508536 Y13.308040 F100.000000
G1 X16.507242 Y13.307725 F100.000000
G1 X16.410722 Y13.259465 F100.000000
G1 X16.350527 Y13.209980 F100.000000
G1 X16.317763 Y13.139278 F100.000000
G1 X16.318920 Y13.061362 F100.000000
G1 X16.353769 Y12.991664 F100.000000
G1 X16.392914 Y12.961387 F100.000000
G1 X16.378980 Y12.954566 F100.000000
G1 X16.367466 Y12.939936 F100.000000
G0 Z2.000000
G0 X16.743192 Y12.689000
G1 Z-0.040000 F60.000000
G1 Y12.658190 F100.000000
G1 X16.626882 F100.000000
G1 X16.621393 Y12.660934 F100.000000
G1 X16.618402 Y12.667248 F100.000000
G1 Y12.682482 F100.000000
G1 X16.620497 Y12.686905 F100.000000
G1 X16.624920 Y12.689000 F100.000000
G1 X16.743192 F100.000000
G0 Z2.000000
G0 X17.220712 Y13.483855
G1 Z-0.040000 F60.000000
G1 Y12.627875 F100.000000
G1 X17.221009 Y12.626577 F100.000000
G1 X17.220732 Y12.625275 F100.000000
G1 X17.229664 Y12.588654 F100.000000
G1 X17.238052 Y12.551904 F100.000000
G1 X17.238882 Y12.550863 F100.000000
G1 X17.239198 Y12.549570 F100.000000
G1 X17.287458 Y12.453050 F100.000000
G1 X17.297760 Y12.440518 F100.000000
G1 X17.304423 Y12.425725 F100.000000
G1 X17.322198 Y12.410789 F100.000000
G1 X17.336942 Y12.392854 F100.000000
G1 X17.351662 Y12.386033 F100.000000
G1 X17.364083 Y12.375596 F100.000000
G1 X17.458063 Y12.327336 F100.000000
G1 X17.533565 Y12.308057 F100.000000
G1 X17.609955 Y12.323447 F100.000000
G1 X17.672103 Y12.370457 F100.000000
G1 X17.707699 Y12.439776 F100.000000
G1 X17.709694 Y12.517675 F100.000000
G1 X17.677692 Y12.588725 F100.000000
G1 X17.618032 Y12.638854 F100.000000
G1 X17.575042 Y12.660929 F100.000000
G1 X17.570902 Y12.669209 F100.000000
G1 Y13.483855 F100.000000
G1 X17.553562 Y13.559826 F100.000000
G1 X17.504977 Y13.620750 F100.000000
G1 X17.434770 Y13.654560 F100.000000
G1 X17.356845 F100.000000
G1 X17.286637 Y13.620750 F100.000000
G1 X17.238052 Y13.559826 F100.000000
G1 X17.220712 Y13.483855 F100.000000
G0 Z2.000000
G0 X18.246183 Y12.317156
G1 Z-0.040000 F60.000000
G1 X18.282038 Y12.325340 F100.000000
G1 X18.283830 Y12.326769 F100.000000
G1 X18.286052 Y12.327336 F100.000000
G1 X18.380032 Y12.375596 F100.000000
G1 X18.400843 Y12.393082 F100.000000
G1 X18.423858 Y12.407544 F100.000000
G1 X18.472118 Y12.455804 F100.000000
G1 X18.486580 Y12.478820 F100.000000
G1 X18.504066 Y12.499631 F100.000000
G1 X18.552326 Y12.593611 F100.000000
G1 X18.552893 Y12.595832 F100.000000
G1 X18.554322 Y12.597624 F100.000000
G1 X18.562506 Y12.633479 F100.000000
G1 X18.571605 Y12.669113 F100.000000
G1 X18.571152 Y12.671360 F100.000000
G1 X18.571662 Y12.673595 F100.000000
G1 Y12.960615 F100.000000
G1 X18.571152 Y12.962850 F100.000000
G1 X18.571605 Y12.965097 F100.000000
G1 X18.562506 Y13.000731 F100.000000
G1 X18.554322 Y13.036586 F100.000000
G1 X18.552893 Y13.038378 F100.000000
G1 X18.552326 Y13.040599 F100.000000
G1 X18.504066 Y13.134579 F100.000000
G1 X18.486580 Y13.155390 F100.000000
G1 X18.472118 Y13.178406 F100.000000
G1 X18.423858 Y13.226666 F100.000000
G1 X18.400843 Y13.241128 F100.000000
G1 X18.380032 Y13.258614 F100.000000
G1 X18.286052 Y13.306874 F100.000000
G1 X18.283830 Y13.307441 F100.000000
G1 X18.282038 Y13.308870 F100.000000
G1 X18.246183 Y13.317054 F100.000000
G1 X18.210549 Y13.326153 F100.000000
G1 X18.208302 Y13.325700 F100.000000
G1 X18.206067 Y13.326210 F100.000000
G1 X18.063827 F100.000000
G1 X18.062530 Y13.325914 F100.000000
G1 X18.061228 Y13.326191 F100.000000
G1 X18.024606 Y13.317258 F100.000000
G1 X17.987856 Y13.308870 F100.000000
G1 X17.986816 Y13.308040 F100.000000
G1 X17.985522 Y13.307725 F100.000000
G1 X17.889002 Y13.259465 F100.000000
G1 X17.867293 Y13.241618 F100.000000
G1 X17.843496 Y13.226666 F100.000000
G1 X17.795236 Y13.178406 F100.000000
G1 X17.779789 Y13.153821 F100.000000
G1 X17.761596 Y13.131193 F100.000000
G1 X17.715876 Y13.037213 F100.000000
G1 X17.715795 Y13.036865 F100.000000
G1 X17.715572 Y13.036586 F100.000000
G1 X17.706978 Y12.998932 F100.000000
G1 X17.698234 Y12.961312 F100.000000
G1 X17.698312 Y12.960963 F100.000000
G1 X17.698232 Y12.960615 F100.000000
G1 Y12.673595 F100.000000
G1 X17.698312 Y12.673247 F100.000000
G1 X17.698234 Y12.672898 F100.000000
G1 X17.706978 Y12.635278 F100.000000
G1 X17.715572 Y12.597624 F100.000000
G1 X17.715795 Y12.597345 F100.000000
G1 X17.715876 Y12.596997 F100.000000
G1 X17.761596 Y12.503017 F100.000000
G1 X17.779789 Y12.480389 F100.000000
G1 X17.795236 Y12.455804 F100.000000
G1 X17.843496 Y12.407544 F100.000000
G1 X17.867293 Y12.392592 F100.000000
G1 X17.889002 Y12.374745 F100.000000
G1 X17.985522 Y12.326485 F100.000000
G1 X17.986816 Y12.326170 F100.000000
G1 X17.987856 Y12.325340 F100.000000
G1 X18.024606 Y12.316952 F100.000000
G1 X18.061228 Y12.308019 F100.000000
G1 X18.062530 Y12.308296 F100.000000
G1 X18.063827 Y12.308000 F100.000000
G1 X18.206067 F100.000000
G1 X18.208302 Y12.308510 F100.000000
G1 X18.210549 Y12.308057 F100.000000
G1 X18.246183 Y12.317156 F100.000000
G0 Z2.000000
G0 X18.105162 Y12.658190
G1 Z-0.040000 F60.000000
G1 X18.071026 Y12.675258 F100.000000
G1 X18.063641 Y12.682643 F100.000000
G1 X18.048422 Y12.713926 F100.000000
G1 Y12.920284 F100.000000
G1 X18.063641 Y12.951567 F100.000000
G1 X18.071026 Y12.958952 F100.000000
G1 X18.105162 Y12.976020 F100.000000
G1 X18.163738 F100.000000
G1 X18.195646 Y12.959635 F100.000000
G1 X18.205087 Y12.950193 F100.000000
G1 X18.221472 Y12.918286 F100.000000
G1 Y12.715924 F100.000000
G1 X18.205087 Y12.684017 F100.000000
G1 X18.195646 Y12.674575 F100.000000
G1 X18.163738 Y12.658190 F100.000000
G1 X18.105162 F100.000000
G0 Z2.000000
G0 X18.927951 Y13.317054
G1 Z-0.040000 F60.000000
G1 X18.892096 Y13.308870 F100.000000
G1 X18.890304 Y13.307441 F100.000000
G1 X18.888083 Y13.306874 F100.000000
G1 X18.794103 Y13.258614 F100.000000
G1 X18.773292 Y13.241128 F100.000000
G1 X18.750276 Y13.226666 F100.000000
G1 X18.702016 Y13.178406 F100.000000
G1 X18.687555 Y13.155390 F100.000000
G1 X18.670069 Y13.134579 F100.000000
G1 X18.621809 Y13.040599 F100.000000
G1 X18.621241 Y13.038378 F100.000000
G1 X18.619812 Y13.036586 F100.000000
G1 X18.611629 Y13.000731 F100.000000
G1 X18.602530 Y12.965097 F100.000000
G1 X18.602982 Y12.962850 F100.000000
G1 X18.602472 Y12.960615 F100.000000
G1 Y12.673595 F100.000000
G1 X18.602982 Y12.671360 F100.000000
G1 X18.602530 Y12.669113 F100.000000
G1 X18.611629 Y12.633479 F100.000000
G1 X18.619812 Y12.597624 F100.000000
G1 X18.621241 Y12.595832 F100.000000
G1 X18.621809 Y12.593611 F100.000000
G1 X18.670069 Y12.499631 F100.000000
G1 X18.687555 Y12.478820 F100.000000
G1 X18.702016 Y12.455804 F100.000000
G1 X18.750276 Y12.407544 F100.000000
G1 X18.773292 Y12.393082 F100.000000
G1 X18.794103 Y12.375596 F100.000000
G1 X18.807024 Y12.368961 F100.000000
G1 X18.753920 Y12.358263 F100.000000
G1 X18.691772 Y12.311253 F100.000000
G1 X18.656176 Y12.241934 F100.000000
G1 X18.654181 Y12.164035 F100.000000
G1 X18.686183 Y12.092985 F100.000000
G1 X18.745843 Y12.042856 F100.000000
G1 X18.839823 Y11.994596 F100.000000
G1 X18.842044 Y11.994029 F100.000000
G1 X18.843836 Y11.992600 F100.000000
G1 X18.879691 Y11.984416 F100.000000
G1 X18.915325 Y11.975317 F100.000000
G1 X18.917572 Y11.975770 F100.000000
G1 X18.919807 Y11.975260 F100.000000
G1 X19.064587 F100.000000
G1 X19.066822 Y11.975770 F100.000000
G1 X19.069069 Y11.975317 F100.000000
G1 X19.104703 Y11.984416 F100.000000
G1 X19.140558 Y11.992600 F100.000000
G1 X19.142350 Y11.994029 F100.000000
G1 X19.144572 Y11.994596 F100.000000
G1 X19.238552 Y12.042856 F100.000000
G1 X19.257587 Y12.058850 F100.000000
G1 X19.278988 Y12.071504 F100.000000
G1 X19.327248 Y12.117224 F100.000000
G1 X19.344121 Y12.142533 F100.000000
G1 X19.363437 Y12.166030 F100.000000
G1 X19.411697 Y12.262550 F100.000000
G1 X19.412013 Y12.263843 F100.000000
G1 X19.412842 Y12.264884 F100.000000
G1 X19.421230 Y12.301634 F100.000000
G1 X19.430163 Y12.338255 F100.000000
G1 X19.429886 Y12.339557 F100.000000
G1 X19.430182 Y12.340855 F100.000000
G1 Y13.151115 F100.000000
G1 X19.412842 Y13.227086 F100.000000
G1 X19.364257 Y13.288010 F100.000000
G1 X19.294050 Y13.321820 F100.000000
G1 X19.216125 F100.000000
G1 X19.203802 Y13.315886 F100.000000
G1 X19.197788 Y13.317258 F100.000000
G1 X19.161167 Y13.326191 F100.000000
G1 X19.159865 Y13.325914 F100.000000
G1 X19.158567 Y13.326210 F100.000000
G1 X18.968067 F100.000000
G1 X18.965832 Y13.325700 F100.000000
G1 X18.963585 Y13.326153 F100.000000
G1 X18.927951 Y13.317054 F100.000000
G0 Z2.000000
G0 X19.079992 Y12.976020
G1 Z-0.040000 F60.000000
G1 Y12.658190 F100.000000
G1 X19.010397 F100.000000
G1 X18.978489 Y12.674575 F100.000000
G1 X18.969047 Y12.684017 F100.000000
G1 X18.952662 Y12.715924 F100.000000
G1 Y12.918286 F100.000000
G1 X18.969047 Y12.950193 F100.000000
G1 X18.978489 Y12.959635 F100.000000
G1 X19.010397 Y12.976020 F100.000000
G1 X19.079992 F100.000000
G0 Z2.000000
G0 X32.120187 Y40.059710
G1 Z-0.040000 F60.000000
G1 X32.104782 F100.000000
G1 Y40.123750 F100.000000
G1 X32.149082 Y40.138780 F100.000000
G1 X32.185753 F100.000000
G1 X32.263193 Y40.112967 F100.000000
G1 X32.309162 Y40.065756 F100.000000
G1 X32.336340 Y40.012829 F100.000000
G1 X32.374352 Y39.862781 F100.000000
G1 Y39.764209 F100.000000
G1 X32.336106 Y39.613237 F100.000000
G1 X32.308490 Y39.558004 F100.000000
G1 X32.264222 Y39.512540 F100.000000
G1 X32.187178 Y39.488210 F100.000000
G1 X32.112258 F100.000000
G1 X32.054545 Y39.516287 F100.000000
G1 X31.978644 Y39.533929 F100.000000
G1 X31.902605 Y39.516891 F100.000000
G1 X31.841488 Y39.468549 F100.000000
G1 X31.807399 Y39.398476 F100.000000
G1 X31.807089 Y39.320552 F100.000000
G1 X31.840619 Y39.250211 F100.000000
G1 X31.901349 Y39.201383 F100.000000
G1 X31.995329 Y39.155663 F100.000000
G1 X31.995677 Y39.155583 F100.000000
G1 X31.995956 Y39.155360 F100.000000
G1 X32.033611 Y39.146766 F100.000000
G1 X32.071231 Y39.138021 F100.000000
G1 X32.071579 Y39.138099 F100.000000
G1 X32.071927 Y39.138020 F100.000000
G1 X32.214167 F100.000000
G1 X32.240240 Y39.143971 F100.000000
G1 X32.266894 Y39.146147 F100.000000
G1 X32.411674 Y39.191867 F100.000000
G1 X32.415070 Y39.193859 F100.000000
G1 X32.418976 Y39.194351 F100.000000
G1 X32.448530 Y39.213476 F100.000000
G1 X32.478897 Y39.231280 F100.000000
G1 X32.481093 Y39.234547 F100.000000
G1 X32.484398 Y39.236686 F100.000000
G1 X32.578378 Y39.333206 F100.000000
G1 X32.592416 Y39.356223 F100.000000
G1 X32.609537 Y39.377050 F100.000000
G1 X32.657797 Y39.473570 F100.000000
G1 X32.662291 Y39.491992 F100.000000
G1 X32.670920 Y39.508876 F100.000000
G1 X32.719180 Y39.699376 F100.000000
G1 X32.719697 Y39.721145 F100.000000
G1 X32.724542 Y39.742375 F100.000000
G1 Y39.884615 F100.000000
G1 X32.719697 Y39.905845 F100.000000
G1 X32.719180 Y39.927614 F100.000000
G1 X32.670920 Y40.118114 F100.000000
G1 X32.661867 Y40.135826 F100.000000
G1 X32.656946 Y40.155099 F100.000000
G1 X32.608686 Y40.249079 F100.000000
G1 X32.591936 Y40.269014 F100.000000
G1 X32.578378 Y40.291244 F100.000000
G1 X32.484398 Y40.387764 F100.000000
G1 X32.482280 Y40.389135 F100.000000
G1 X32.480906 Y40.391251 F100.000000
G1 X32.449667 Y40.410238 F100.000000
G1 X32.418976 Y40.430099 F100.000000
G1 X32.416473 Y40.430414 F100.000000
G1 X32.414317 Y40.431725 F100.000000
G1 X32.269537 Y40.479985 F100.000000
G1 X32.241567 Y40.482716 F100.000000
G1 X32.214167 Y40.488970 F100.000000
G1 X32.120187 F100.000000
G1 X32.092341 Y40.482614 F100.000000
G1 X32.063930 Y40.479686 F100.000000
G1 X31.921690 Y40.431426 F100.000000
G1 X31.920964 Y40.430980 F100.000000
G1 X31.920117 Y40.430884 F100.000000
G1 X31.887813 Y40.410587 F100.000000
G1 X31.855318 Y40.390597 F100.000000
G1 X31.854858 Y40.389879 F100.000000
G1 X31.854136 Y40.389426 F100.000000
G1 X31.805876 Y40.341166 F100.000000
G1 X31.790248 Y40.316293 F100.000000
G1 X31.771932 Y40.293326 F100.000000
G1 X31.769716 Y40.283617 F100.000000
G1 X31.764418 Y40.275185 F100.000000
G1 X31.761129 Y40.245994 F100.000000
G1 X31.754592 Y40.217355 F100.000000
G1 Y39.884615 F100.000000
G1 X31.758982 Y39.865381 F100.000000
G1 Y39.845653 F100.000000
G1 X31.767542 Y39.827878 F100.000000
G1 X31.771932 Y39.808644 F100.000000
G1 X31.784233 Y39.793220 F100.000000
G1 X31.792793 Y39.775445 F100.000000
G1 X31.808217 Y39.763145 F100.000000
G1 X31.820517 Y39.747720 F100.000000
G1 X31.838292 Y39.739160 F100.000000
G1 X31.853716 Y39.726860 F100.000000
G1 X31.872950 Y39.722470 F100.000000
G1 X31.890725 Y39.713910 F100.000000
G1 X31.910454 F100.000000
G1 X31.929687 Y39.709520 F100.000000
G1 X32.120187 F100.000000
G1 X32.196158 Y39.726860 F100.000000
G1 X32.257082 Y39.775445 F100.000000
G1 X32.290892 Y39.845653 F100.000000
G1 Y39.923577 F100.000000
G1 X32.257082 Y39.993785 F100.000000
G1 X32.196158 Y40.042370 F100.000000
G1 X32.120187 Y40.059710 F100.000000
G0 Z2.000000
G0 X31.618914 Y39.184200
G1 Z-0.040000 F60.000000
G1 X31.637620 Y39.211360 F100.000000
G1 X31.658182 Y39.237144 F100.000000
G1 X31.659572 Y39.243233 F100.000000
G1 X31.663115 Y39.248376 F100.000000
G1 X31.668184 Y39.280963 F100.000000
G1 X31.675522 Y39.313115 F100.000000
G1 Y40.313875 F100.000000
G1 X31.658182 Y40.389846 F100.000000
G1 X31.609597 Y40.450770 F100.000000
G1 X31.539390 Y40.484580 F100.000000
G1 X31.461465 F100.000000
G1 X31.391257 Y40.450770 F100.000000
G1 X31.342672 Y40.389846 F100.000000
G1 X31.325332 Y40.313875 F100.000000
G1 Y39.972810 F100.000000
G1 X31.080976 Y40.400705 F100.000000
G1 X31.058659 Y40.424986 F100.000000
G1 X31.038097 Y40.450770 F100.000000
G1 X31.032471 Y40.453479 F100.000000
G1 X31.028244 Y40.458078 F100.000000
G1 X30.997603 Y40.470271 F100.000000
G1 X30.967890 Y40.484580 F100.000000
G1 X30.961644 F100.000000
G1 X30.955842 Y40.486889 F100.000000
G1 X30.922944 Y40.484580 F100.000000
G1 X30.889965 F100.000000
G1 X30.884338 Y40.481870 F100.000000
G1 X30.878109 Y40.481433 F100.000000
G1 X30.849470 Y40.465079 F100.000000
G1 X30.819757 Y40.450770 F100.000000
G1 X30.815864 Y40.445887 F100.000000
G1 X30.810440 Y40.442790 F100.000000
G1 X30.791734 Y40.415630 F100.000000
G1 X30.771172 Y40.389846 F100.000000
G1 X30.769783 Y40.383757 F100.000000
G1 X30.766240 Y40.378614 F100.000000
G1 X30.761171 Y40.346027 F100.000000
G1 X30.753832 Y40.313875 F100.000000
G1 Y39.313115 F100.000000
G1 X30.771172 Y39.237144 F100.000000
G1 X30.819757 Y39.176220 F100.000000
G1 X30.889965 Y39.142410 F100.000000
G1 X30.967890 F100.000000
G1 X31.038097 Y39.176220 F100.000000
G1 X31.086682 Y39.237144 F100.000000
G1 X31.104022 Y39.313115 F100.000000
G1 Y39.654180 F100.000000
G1 X31.348379 Y39.226285 F100.000000
G1 X31.370695 Y39.202004 F100.000000
G1 X31.391257 Y39.176220 F100.000000
G1 X31.396884 Y39.173511 F100.000000
G1 X31.401110 Y39.168912 F100.000000
G1 X31.431752 Y39.156719 F100.000000
G1 X31.461465 Y39.142410 F100.000000
G1 X31.467710 F100.000000
G1 X31.473513 Y39.140101 F100.000000
G1 X31.506411 Y39.142410 F100.000000
G1 X31.539390 F100.000000
G1 X31.545016 Y39.145120 F100.000000
G1 X31.551246 Y39.145557 F100.000000
G1 X31.579884 Y39.161911 F100.000000
G1 X31.609597 Y39.176220 F100.000000
G1 X31.613491 Y39.181103 F100.000000
G1 X31.618914 Y39.184200 F100.000000
G0 Z2.000000
G0 X30.588302 Y39.203945
G1 Z-0.040000 F60.000000
G1 X30.596862 Y39.221720 F100.000000
G1 X30.609162 Y39.237144 F100.000000
G1 X30.613552 Y39.256378 F100.000000
G1 X30.622112 Y39.274153 F100.000000
G1 Y39.293881 F100.000000
G1 X30.626502 Y39.313115 F100.000000
G1 Y40.313875 F100.000000
G1 X30.622112 Y40.333109 F100.000000
G1 Y40.352837 F100.000000
G1 X30.613552 Y40.370612 F100.000000
G1 X30.609162 Y40.389846 F100.000000
G1 X30.596862 Y40.405270 F100.000000
G1 X30.588302 Y40.423045 F100.000000
G1 X30.572878 Y40.435345 F100.000000
G1 X30.560577 Y40.450770 F100.000000
G1 X30.542803 Y40.459330 F100.000000
G1 X30.527378 Y40.471630 F100.000000
G1 X30.508144 Y40.476020 F100.000000
G1 X30.490370 Y40.484580 F100.000000
G1 X30.470641 F100.000000
G1 X30.451407 Y40.488970 F100.000000
G1 X30.212647 F100.000000
G1 X30.184801 Y40.482614 F100.000000
G1 X30.156390 Y40.479686 F100.000000
G1 X30.014150 Y40.431426 F100.000000
G1 X30.012408 Y40.430355 F100.000000
G1 X30.010379 Y40.430099 F100.000000
G1 X29.979304 Y40.409990 F100.000000
G0 Z2.000000
G1 Z-0.040000 F60.000000
G1 X29.947778 Y40.390597 F100.000000
G1 X29.946674 Y40.388875 F100.000000
G1 X29.944957 Y40.387764 F100.000000
G1 X29.850977 Y40.291244 F100.000000
G1 X29.837419 Y40.269014 F100.000000
G1 X29.820669 Y40.249079 F100.000000
G1 X29.772409 Y40.155099 F100.000000
G1 X29.767487 Y40.135826 F100.000000
G1 X29.758434 Y40.118114 F100.000000
G1 X29.710174 Y39.927614 F100.000000
G1 X29.709658 Y39.905845 F100.000000
G1 X29.704812 Y39.884615 F100.000000
G1 Y39.742375 F100.000000
G1 X29.709658 Y39.721145 F100.000000
G1 X29.710174 Y39.699376 F100.000000
G1 X29.758434 Y39.508876 F100.000000
G1 X29.767064 Y39.491992 F100.000000
G1 X29.771558 Y39.473570 F100.000000
G1 X29.819818 Y39.377050 F100.000000
G1 X29.836938 Y39.356223 F100.000000
G1 X29.850977 Y39.333206 F100.000000
G1 X29.944957 Y39.236686 F100.000000
G1 X29.947879 Y39.234795 F100.000000
G1 X29.949806 Y39.231895 F100.000000
G1 X29.980458 Y39.213713 F100.000000
G1 X30.010379 Y39.194351 F100.000000
G1 X30.013833 Y39.193916 F100.000000
G1 X30.016827 Y39.192140 F100.000000
G1 X30.159067 Y39.146420 F100.000000
G1 X30.186147 Y39.144069 F100.000000
G1 X30.212647 Y39.138020 F100.000000
G1 X30.451407 F100.000000
G1 X30.470641 Y39.142410 F100.000000
G1 X30.490370 F100.000000
G1 X30.508144 Y39.150970 F100.000000
G1 X30.527378 Y39.155360 F100.000000
G1 X30.542803 Y39.167660 F100.000000
G1 X30.560577 Y39.176220 F100.000000
G1 X30.572878 Y39.191645 F100.000000
G1 X30.588302 Y39.203945 F100.000000
G0 Z2.000000
G0 X30.276312 Y40.138780
G1 Z-0.040000 F60.000000
G1 Y39.488210 F100.000000
G1 X30.240096 F100.000000
G1 X30.165465 Y39.512199 F100.000000
G1 X30.120865 Y39.558004 F100.000000
G1 X30.093249 Y39.613237 F100.000000
G1 X30.055002 Y39.764209 F100.000000
G1 Y39.862781 F100.000000
G1 X30.093015 Y40.012829 F100.000000
G1 X30.120193 Y40.065756 F100.000000
G1 X30.166507 Y40.113322 F100.000000
G1 X30.241542 Y40.138780 F100.000000
G1 X30.276312 F100.000000
G0 Z2.000000
G0 X35.079287 Y16.206900
G1 Z-0.040000 F60.000000
G1 X35.285192 F100.000000
G1 Y16.000995 F100.000000
G1 X35.302532 Y15.925024 F100.000000
G1 X35.351117 Y15.864100 F100.000000
G1 X35.421325 Y15.830290 F100.000000
G1 X35.499250 F100.000000
G1 X35.569457 Y15.864100 F100.000000
G1 X35.618042 Y15.925024 F100.000000
G1 X35.635382 Y16.000995 F100.000000
G1 Y16.206900 F100.000000
G1 X35.841287 F100.000000
G1 X35.917258 Y16.224240 F100.000000
G1 X35.978182 Y16.272825 F100.000000
G1 X36.011992 Y16.343033 F100.000000
G1 Y16.420957 F100.000000
G1 X35.978182 Y16.491165 F100.000000
G1 X35.917258 Y16.539750 F100.000000
G1 X35.841287 Y16.557090 F100.000000
G1 X35.635382 F100.000000
G1 Y16.762995 F100.000000
G1 X35.618042 Y16.838966 F100.000000
G1 X35.569457 Y16.899890 F100.000000
G1 X35.499250 Y16.933700 F100.000000
G1 X35.421325 F100.000000
G1 X35.351117 Y16.899890 F100.000000
G1 X35.302532 Y16.838966 F100.000000
G1 X35.285192 Y16.762995 F100.000000
G1 Y16.557090 F100.000000
G1 X35.079287 F100.000000
G1 X35.003316 Y16.539750 F100.000000
G1 X34.942393 Y16.491165 F100.000000
G1 X34.908582 Y16.420957 F100.000000
G1 Y16.343033 F100.000000
G1 X34.942393 Y16.272825 F100.000000
G1 X35.003316 Y16.224240 F100.000000
G1 X35.079287 Y16.206900 F100.000000
G0 Z2.000000
G0 X35.299618 Y15.447924
G1 Z-0.040000 F60.000000
G1 X35.341077 Y15.513905 F100.000000
G1 X35.349801 Y15.591339 F100.000000
G1 X35.324065 Y15.664891 F100.000000
G1 X35.268964 Y15.719992 F100.000000
G1 X35.195412 Y15.745729 F100.000000
G1 X35.117977 Y15.737004 F100.000000
G1 X35.051996 Y15.695546 F100.000000
G1 X35.003736 Y15.647286 F100.000000
G1 X34.989275 Y15.624270 F100.000000
G1 X34.971789 Y15.603459 F100.000000
G1 X34.923529 Y15.509479 F100.000000
G1 X34.922961 Y15.507258 F100.000000
G1 X34.921532 Y15.505466 F100.000000
G1 X34.913349 Y15.469611 F100.000000
G1 X34.904250 Y15.433977 F100.000000
G1 X34.904702 Y15.431730 F100.000000
G1 X34.904192 Y15.429495 F100.000000
G1 Y15.190735 F100.000000
G1 X34.904489 Y15.189437 F100.000000
G1 X34.904212 Y15.188135 F100.000000
G1 X34.913144 Y15.151514 F100.000000
G1 X34.921532 Y15.114764 F100.000000
G1 X34.922362 Y15.113723 F100.000000
G1 X34.922678 Y15.112430 F100.000000
G1 X34.970938 Y15.015910 F100.000000
G1 X34.990254 Y14.992413 F100.000000
G1 X35.007127 Y14.967104 F100.000000
G1 X35.055387 Y14.921384 F100.000000
G1 X35.076788 Y14.908730 F100.000000
G1 X35.095823 Y14.892736 F100.000000
G1 X35.189803 Y14.844476 F100.000000
G1 X35.192024 Y14.843909 F100.000000
G1 X35.193816 Y14.842480 F100.000000
G1 X35.229671 Y14.834296 F100.000000
G1 X35.265305 Y14.825197 F100.000000
G1 X35.267552 Y14.825650 F100.000000
G1 X35.269787 Y14.825140 F100.000000
G1 X35.508547 F100.000000
G1 X35.509845 Y14.825436 F100.000000
G1 X35.511147 Y14.825159 F100.000000
G1 X35.547768 Y14.834092 F100.000000
G1 X35.584518 Y14.842480 F100.000000
G1 X35.585559 Y14.843310 F100.000000
G1 X35.586852 Y14.843625 F100.000000
G1 X35.683372 Y14.891885 F100.000000
G1 X35.705082 Y14.909732 F100.000000
G1 X35.728878 Y14.924684 F100.000000
G1 X35.774598 Y14.970404 F100.000000
G1 X35.789550 Y14.994200 F100.000000
G1 X35.807397 Y15.015910 F100.000000
G1 X35.855657 Y15.112430 F100.000000
G1 X35.855973 Y15.113723 F100.000000
G1 X35.856802 Y15.114764 F100.000000
G1 X35.865190 Y15.151514 F100.000000
G1 X35.874123 Y15.188135 F100.000000
G1 X35.873846 Y15.189437 F100.000000
G1 X35.874142 Y15.190735 F100.000000
G1 Y15.368399 F100.000000
G1 X35.904952 Y15.365269 F100.000000
G1 Y15.048495 F100.000000
G1 X35.922292 Y14.972524 F100.000000
G1 X35.970877 Y14.911600 F100.000000
G1 X36.035632 Y14.880416 F100.000000
G1 X36.024804 Y14.879367 F100.000000
G1 X35.024044 Y14.546627 F100.000000
G1 X35.004874 Y14.534995 F100.000000
G1 X34.983828 Y14.527260 F100.000000
G1 X34.971979 Y14.515035 F100.000000
G1 X34.957424 Y14.506203 F100.000000
G1 X34.945200 Y14.487406 F100.000000
G1 X34.929594 Y14.471306 F100.000000
G1 X34.924223 Y14.455150 F100.000000
G1 X34.914941 Y14.440878 F100.000000
G1 X34.912083 Y14.418638 F100.000000
G1 X34.905008 Y14.397361 F100.000000
G1 X34.907179 Y14.380475 F100.000000
G1 X34.905008 Y14.363589 F100.000000
G1 X34.912083 Y14.342312 F100.000000
G1 X34.914941 Y14.320072 F100.000000
G1 X34.924223 Y14.305800 F100.000000
G1 X34.929594 Y14.289644 F100.000000
G1 X34.945200 Y14.273544 F100.000000
G1 X34.957424 Y14.254747 F100.000000
G1 X34.971979 Y14.245915 F100.000000
G1 X34.983828 Y14.233690 F100.000000
G1 X35.004874 Y14.225955 F100.000000
G1 X35.024044 Y14.214323 F100.000000
G1 X36.024804 Y13.881583 F100.000000
G1 X36.102365 Y13.874068 F100.000000
G1 X36.175506 Y13.900950 F100.000000
G1 X36.229741 Y13.956904 F100.000000
G1 X36.254326 Y14.030849 F100.000000
G1 X36.244394 Y14.108138 F100.000000
G1 X36.201910 Y14.173463 F100.000000
G1 X36.135291 Y14.213887 F100.000000
G0 Z2.000000
G1 Z-0.040000 F60.000000
G1 X35.634255 Y14.380475 F100.000000
G1 X36.135291 Y14.547063 F100.000000
G1 X36.201910 Y14.587487 F100.000000
G1 X36.244394 Y14.652812 F100.000000
G1 X36.254326 Y14.730101 F100.000000
G1 X36.229741 Y14.804046 F100.000000
G1 X36.175506 Y14.860000 F100.000000
G1 X36.122513 Y14.879477 F100.000000
G1 X36.189217 Y14.911600 F100.000000
G1 X36.237802 Y14.972524 F100.000000
G1 X36.255142 Y15.048495 F100.000000
G1 Y15.523475 F100.000000
G1 X36.252713 Y15.534120 F100.000000
G1 X36.253816 Y15.544982 F100.000000
G1 X36.244131 Y15.571720 F100.000000
G1 X36.237802 Y15.599446 F100.000000
G1 X36.230995 Y15.607982 F100.000000
G1 X36.227276 Y15.618248 F100.000000
G1 X36.206948 Y15.638136 F100.000000
G1 X36.189217 Y15.660370 F100.000000
G1 X36.179380 Y15.665107 F100.000000
G1 X36.171576 Y15.672743 F100.000000
G1 X36.144632 Y15.681841 F100.000000
G1 X36.119010 Y15.694180 F100.000000
G1 X36.108091 F100.000000
G1 X36.097747 Y15.697673 F100.000000
G1 X35.622767 Y15.745933 F100.000000
G1 X35.606451 Y15.743914 F100.000000
G1 X35.590171 Y15.746195 F100.000000
G1 X35.568261 Y15.739187 F100.000000
G1 X35.545432 Y15.736362 F100.000000
G1 X35.531609 Y15.727463 F100.000000
G1 X35.515951 Y15.722455 F100.000000
G1 X35.499251 Y15.706634 F100.000000
G1 X35.479909 Y15.694184 F100.000000
G1 X35.471316 Y15.680169 F100.000000
G1 X35.459381 Y15.668863 F100.000000
G1 X35.451200 Y15.647363 F100.000000
G1 X35.439175 Y15.627753 F100.000000
G1 X35.437513 Y15.611398 F100.000000
G1 X35.431666 Y15.596033 F100.000000
G1 X35.433624 Y15.573113 F100.000000
G1 X35.431298 Y15.550228 F100.000000
G1 X35.436897 Y15.534771 F100.000000
G1 X35.438296 Y15.518391 F100.000000
G1 X35.450004 Y15.498590 F100.000000
G1 X35.457838 Y15.476962 F100.000000
G1 X35.469590 Y15.465465 F100.000000
G1 X35.477957 Y15.451314 F100.000000
G1 X35.506462 Y15.421225 F100.000000
G1 X35.523952 Y15.387166 F100.000000
G1 Y15.232069 F100.000000
G1 X35.506885 Y15.197934 F100.000000
G1 X35.501348 Y15.192398 F100.000000
G1 X35.467213 Y15.175330 F100.000000
G1 X35.312117 F100.000000
G1 X35.278057 Y15.192820 F100.000000
G1 X35.270362 Y15.200111 F100.000000
G1 X35.254382 Y15.232069 F100.000000
G1 Y15.387166 F100.000000
G1 X35.270767 Y15.419073 F100.000000
G1 X35.299618 Y15.447924 F100.000000
G0 Z2.000000
G0 X45.172485 Y37.544469
G1 Z-0.040000 F60.000000
G1 X45.162590 Y37.523923 F100.000000
G1 X45.148371 Y37.506093 F100.000000
G1 X45.143297 Y37.483860 F100.000000
G1 X45.133402 Y37.463313 F100.000000
G1 Y37.440508 F100.000000
G1 X45.128327 Y37.418275 F100.000000
G1 Y35.386275 F100.000000
G1 X45.148371 Y35.298457 F100.000000
G1 X45.204533 Y35.228032 F100.000000
G1 X45.285689 Y35.188950 F100.000000
G1 X45.375766 F100.000000
G1 X45.456922 Y35.228032 F100.000000
G1 X45.513083 Y35.298457 F100.000000
G1 X45.533127 Y35.386275 F100.000000
G1 Y36.151615 F100.000000
G1 X45.909847 F100.000000
G1 X45.923737 Y36.154785 F100.000000
G1 X45.937931 Y36.153573 F100.000000
G1 X45.967168 Y36.164698 F100.000000
G0 Z2.000000
G1 Z-0.040000 F60.000000
G1 X45.997665 Y36.171659 F100.000000
G1 X46.008804 Y36.180541 F100.000000
G1 X46.022119 Y36.185608 F100.000000
G1 X46.166899 Y36.282128 F100.000000
G1 X46.189866 Y36.306371 F100.000000
G1 X46.215525 Y36.327744 F100.000000
G1 X46.289185 Y36.424264 F100.000000
G1 X46.301713 Y36.451764 F100.000000
G1 X46.318208 Y36.477084 F100.000000
G1 X46.389328 Y36.670124 F100.000000
G1 X46.393890 Y36.705409 F100.000000
G1 X46.401807 Y36.740095 F100.000000
G1 Y37.029655 F100.000000
G1 X46.393890 Y37.064341 F100.000000
G1 X46.389328 Y37.099626 F100.000000
G1 X46.318208 Y37.292666 F100.000000
G1 X46.301713 Y37.317986 F100.000000
G1 X46.289185 Y37.345486 F100.000000
G1 X46.215525 Y37.442006 F100.000000
G1 X46.190783 Y37.462616 F100.000000
G1 X46.168919 Y37.486257 F100.000000
G1 X46.024139 Y37.585317 F100.000000
G1 X46.009755 Y37.590990 F100.000000
G1 X45.997665 Y37.600631 F100.000000
G1 X45.968333 Y37.607326 F100.000000
G1 X45.940344 Y37.618364 F100.000000
G1 X45.924923 Y37.617234 F100.000000
G1 X45.909847 Y37.620675 F100.000000
G1 X45.330727 F100.000000
G1 X45.308494 Y37.615600 F100.000000
G1 X45.285689 F100.000000
G1 X45.265143 Y37.605706 F100.000000
G1 X45.242909 Y37.600631 F100.000000
G1 X45.225080 Y37.586412 F100.000000
G1 X45.204533 Y37.576518 F100.000000
G1 X45.190314 Y37.558688 F100.000000
G1 X45.172485 Y37.544469 F100.000000
G0 Z2.000000
G0 X45.533127 Y36.556415
G1 Z-0.040000 F60.000000
G1 Y37.215875 F100.000000
G1 X45.847232 F100.000000
G1 X45.913474 Y37.170551 F100.000000
G1 X45.948902 Y37.124129 F100.000000
G1 X45.997007 Y36.993557 F100.000000
G1 Y36.776193 F100.000000
G1 X45.948902 Y36.645621 F100.000000
G1 X45.914234 Y36.600194 F100.000000
G1 X45.848566 Y36.556415 F100.000000
G1 X45.533127 F100.000000
G0 Z2.000000
G0 X46.893339 Y36.668208
G1 Z-0.040000 F60.000000
G1 X47.013007 Y36.747987 F100.000000
G1 Y35.588675 F100.000000
G1 X46.781067 F100.000000
G1 X46.693249 Y35.568631 F100.000000
G1 X46.622825 Y35.512469 F100.000000
G1 X46.583742 Y35.431313 F100.000000
G1 Y35.341237 F100.000000
G1 X46.622825 Y35.260081 F100.000000
G1 X46.693249 Y35.203919 F100.000000
G1 X46.781067 Y35.183875 F100.000000
G1 X47.652287 F100.000000
G1 X47.740105 Y35.203919 F100.000000
G1 X47.810530 Y35.260081 F100.000000
G1 X47.849613 Y35.341237 F100.000000
G1 Y35.431313 F100.000000
G1 X47.810530 Y35.512469 F100.000000
G1 X47.740105 Y35.568631 F100.000000
G1 X47.652287 Y35.588675 F100.000000
G1 X47.417807 F100.000000
G1 Y37.418275 F100.000000
G1 X47.408035 Y37.461091 F100.000000
G1 X47.398750 Y37.504015 F100.000000
G1 X47.398026 Y37.504944 F100.000000
G1 X47.397763 Y37.506093 F100.000000
G1 X47.370382 Y37.540429 F100.000000
G1 X47.343392 Y37.575073 F100.000000
G1 X47.342336 Y37.575597 F100.000000
G1 X47.341602 Y37.576518 F100.000000
G1 X47.302034 Y37.595573 F100.000000
G1 X47.262685 Y37.615076 F100.000000
G1 X47.261507 Y37.615089 F100.000000
G1 X47.260446 Y37.615600 F100.000000
G1 X47.216529 F100.000000
G1 X47.172614 Y37.616099 F100.000000
G1 X47.171547 Y37.615600 F100.000000
G1 X47.170369 F100.000000
G1 X47.130801 Y37.596546 F100.000000
G1 X47.091019 Y37.577942 F100.000000
G1 X47.090274 Y37.577029 F100.000000
G1 X47.089213 Y37.576518 F100.000000
G1 X47.061831 Y37.542182 F100.000000
G1 X47.034061 Y37.508160 F100.000000
G1 X46.897544 Y37.232730 F100.000000
G1 X46.784729 Y37.082311 F100.000000
G1 X46.668796 Y37.005022 F100.000000
G1 X46.606845 Y36.939632 F100.000000
G1 X46.579401 Y36.853838 F100.000000
G1 X46.591900 Y36.764633 F100.000000
G1 X46.641865 Y36.689684 F100.000000
G1 X46.719401 Y36.643838 F100.000000
G1 X46.809151 Y36.636173 F100.000000
G1 X46.893339 Y36.668208 F100.000000
G0 Z2.000000
G0 X45.816133 Y6.735025
G1 Z-0.040000 F60.000000
G1 X45.807573 Y6.717250 F100.000000
G1 X45.795272 Y6.701826 F100.000000
G1 X45.790882 Y6.682592 F100.000000
G1 X45.782322 Y6.664817 F100.000000
G1 Y6.645089 F100.000000
G1 X45.777932 Y6.625855 F100.000000
G1 Y5.625095 F100.000000
G1 X45.795272 Y5.549124 F100.000000
G1 X45.843857 Y5.488200 F100.000000
G1 X45.914065 Y5.454390 F100.000000
G1 X45.991990 F100.000000
G1 X46.062197 Y5.488200 F100.000000
G1 X46.110782 Y5.549124 F100.000000
G1 X46.128122 Y5.625095 F100.000000
G1 Y5.887713 F100.000000
G1 X46.380869 Y5.524993 F100.000000
G1 X46.438528 Y5.472575 F100.000000
G1 X46.513221 Y5.450365 F100.000000
G1 X46.590153 Y5.462763 F100.000000
G1 X46.654087 Y5.507313 F100.000000
G1 X46.692360 Y5.575191 F100.000000
G1 X46.697392 Y5.652953 F100.000000
G1 X46.668186 Y5.725197 F100.000000
G1 X46.487972 Y5.983825 F100.000000
G1 X46.508852 Y5.994265 F100.000000
G1 X46.530562 Y6.012112 F100.000000
G1 X46.554358 Y6.027064 F100.000000
G1 X46.600078 Y6.072784 F100.000000
G1 X46.615030 Y6.096580 F100.000000
G1 X46.632877 Y6.118290 F100.000000
G1 X46.681137 Y6.214810 F100.000000
G1 X46.681453 Y6.216103 F100.000000
G1 X46.682282 Y6.217144 F100.000000
G1 X46.690670 Y6.253894 F100.000000
G0 Z2.000000
G1 Z-0.040000 F60.000000
G1 X46.699603 Y6.290515 F100.000000
G1 X46.699326 Y6.291817 F100.000000
G1 X46.699622 Y6.293115 F100.000000
G1 Y6.435355 F100.000000
G1 X46.699326 Y6.436653 F100.000000
G1 X46.699603 Y6.437955 F100.000000
G1 X46.690670 Y6.474576 F100.000000
G1 X46.682282 Y6.511326 F100.000000
G1 X46.681453 Y6.512367 F100.000000
G1 X46.681137 Y6.513660 F100.000000
G1 X46.632877 Y6.610180 F100.000000
G1 X46.615030 Y6.631890 F100.000000
G1 X46.600078 Y6.655686 F100.000000
G1 X46.554358 Y6.701406 F100.000000
G1 X46.530562 Y6.716358 F100.000000
G1 X46.508852 Y6.734205 F100.000000
G1 X46.412332 Y6.782465 F100.000000
G1 X46.411039 Y6.782780 F100.000000
G1 X46.409998 Y6.783610 F100.000000
G1 X46.373248 Y6.791998 F100.000000
G1 X46.336627 Y6.800931 F100.000000
G1 X46.335325 Y6.800654 F100.000000
G1 X46.334027 Y6.800950 F100.000000
G1 X45.953027 F100.000000
G1 X45.933794 Y6.796560 F100.000000
G1 X45.914065 F100.000000
G1 X45.896290 Y6.788000 F100.000000
G1 X45.877056 Y6.783610 F100.000000
G1 X45.861632 Y6.771310 F100.000000
G1 X45.843857 Y6.762750 F100.000000
G1 X45.831557 Y6.747325 F100.000000
G1 X45.816133 Y6.735025 F100.000000
G0 Z2.000000
G0 X46.128122 Y6.277710
G1 Z-0.040000 F60.000000
G1 Y6.450760 F100.000000
G1 X46.292693 F100.000000
G1 X46.326828 Y6.433692 F100.000000
G1 X46.332365 Y6.428156 F100.000000
G1 X46.349432 Y6.394021 F100.000000
G1 Y6.334449 F100.000000
G1 X46.332365 Y6.300314 F100.000000
G1 X46.326828 Y6.294778 F100.000000
G1 X46.292693 Y6.277710 F100.000000
G1 X46.128122 F100.000000
G0 Z2.000000
G0 X46.816893 Y6.735025
G1 Z-0.040000 F60.000000
G1 X46.808333 Y6.717250 F100.000000
G1 X46.796032 Y6.701826 F100.000000
G1 X46.791642 Y6.682592 F100.000000
G1 X46.783082 Y6.664817 F100.000000
G1 Y6.645089 F100.000000
G1 X46.778692 Y6.625855 F100.000000
G1 Y5.625095 F100.000000
G1 X46.783082 Y5.605861 F100.000000
G1 Y5.586133 F100.000000
G1 X46.791642 Y5.568358 F100.000000
G1 X46.796032 Y5.549124 F100.000000
G1 X46.808333 Y5.533700 F100.000000
G1 X46.816893 Y5.515925 F100.000000
G1 X46.832317 Y5.503625 F100.000000
G1 X46.844617 Y5.488200 F100.000000
G1 X46.862392 Y5.479640 F100.000000
G1 X46.877816 Y5.467340 F100.000000
G1 X46.897050 Y5.462950 F100.000000
G1 X46.914825 Y5.454390 F100.000000
G1 X46.934554 F100.000000
G1 X46.953787 Y5.450000 F100.000000
G1 X47.431307 F100.000000
G1 X47.507278 Y5.467340 F100.000000
G1 X47.568202 Y5.515925 F100.000000
G1 X47.602012 Y5.586133 F100.000000
G1 Y5.664057 F100.000000
G1 X47.568202 Y5.734265 F100.000000
G1 X47.507278 Y5.782850 F100.000000
G1 X47.431307 Y5.800190 F100.000000
G1 X47.128882 F100.000000
G1 Y5.975780 F100.000000
G1 X47.286527 F100.000000
G1 X47.362498 Y5.993120 F100.000000
G1 X47.423422 Y6.041705 F100.000000
G1 X47.457232 Y6.111913 F100.000000
G1 Y6.189837 F100.000000
G1 X47.423422 Y6.260045 F100.000000
G1 X47.362498 Y6.308630 F100.000000
G1 X47.286527 Y6.325970 F100.000000
G1 X47.128882 F100.000000
G1 Y6.450760 F100.000000
G1 X47.431307 F100.000000
G1 X47.507278 Y6.468100 F100.000000
G1 X47.568202 Y6.516685 F100.000000
G1 X47.602012 Y6.586893 F100.000000
G1 Y6.664817 F100.000000
G1 X47.568202 Y6.735025 F100.000000
G1 X47.507278 Y6.783610 F100.000000
G1 X47.431307 Y6.800950 F100.000000
G1 X46.953787 F100.000000
G1 X46.934554 Y6.796560 F100.000000
G1 X46.914825 F100.000000
G1 X46.897050 Y6.788000 F100.000000
G1 X46.877816 Y6.783610 F100.000000
G1 X46.862392 Y6.771310 F100.000000
G1 X46.844617 Y6.762750 F100.000000
G1 X46.832317 Y6.747325 F100.000000
G1 X46.816893 Y6.735025 F100.000000
G0 Z2.000000
G0 X48.440065 Y6.743406
G1 Z-0.040000 F60.000000
G1 X48.297825 Y6.791666 F100.000000
G1 X48.269413 Y6.794594 F100.000000
G1 X48.241567 Y6.800950 F100.000000
G1 X48.002807 F100.000000
G1 X48.001510 Y6.800654 F100.000000
G1 X48.000208 Y6.800931 F100.000000
G1 X47.963586 Y6.791998 F100.000000
G1 X47.926836 Y6.783610 F100.000000
G1 X47.925796 Y6.782780 F100.000000
G1 X47.924502 Y6.782465 F100.000000
G1 X47.827982 Y6.734205 F100.000000
G1 X47.806273 Y6.716358 F100.000000
G1 X47.782476 Y6.701406 F100.000000
G1 X47.736756 Y6.655686 F100.000000
G1 X47.721804 Y6.631890 F100.000000
G1 X47.703958 Y6.610180 F100.000000
G1 X47.655698 Y6.513660 F100.000000
G1 X47.655382 Y6.512367 F100.000000
G1 X47.654552 Y6.511326 F100.000000
G1 X47.646164 Y6.474576 F100.000000
G1 X47.637232 Y6.437955 F100.000000
G1 X47.637509 Y6.436653 F100.000000
G1 X47.637212 Y6.435355 F100.000000
G1 Y6.341375 F100.000000
G1 X47.637509 Y6.340077 F100.000000
G1 X47.637232 Y6.338775 F100.000000
G1 X47.646164 Y6.302154 F100.000000
G1 X47.654552 Y6.265404 F100.000000
G1 X47.655382 Y6.264363 F100.000000
G1 X47.655698 Y6.263070 F100.000000
G1 X47.703958 Y6.166550 F100.000000
G1 X47.720333 Y6.146631 F100.000000
G1 X47.733457 Y6.124434 F100.000000
G1 X47.779177 Y6.076174 F100.000000
G1 X47.805999 Y6.058292 F100.000000
G1 X47.831332 Y6.038355 F100.000000
G1 X47.927852 Y5.992635 F100.000000
G1 X47.944565 Y5.988933 F100.000000
G1 X47.959808 Y5.981142 F100.000000
G1 X48.131022 Y5.937768 F100.000000
G1 X48.182886 Y5.911135 F100.000000
G1 X48.192327 Y5.901693 F100.000000
G1 X48.208712 Y5.869786 F100.000000
G1 Y5.857924 F100.000000
G1 X48.192327 Y5.826017 F100.000000
G1 X48.182886 Y5.816575 F100.000000
G1 X48.150978 Y5.800190 F100.000000
G1 X47.983442 F100.000000
G1 X47.868565 Y5.839166 F100.000000
G1 X47.791051 Y5.847155 F100.000000
G1 X47.717747 Y5.820720 F100.000000
G1 X47.663172 Y5.765098 F100.000000
G1 X47.638135 Y5.691305 F100.000000
G1 X47.647595 Y5.613957 F100.000000
G1 X47.689678 Y5.548373 F100.000000
G1 X47.756050 Y5.507544 F100.000000
G1 X47.898290 Y5.459284 F100.000000
G1 X47.926701 Y5.456356 F100.000000
G1 X47.954547 Y5.450000 F100.000000
G1 X48.193307 F100.000000
G1 X48.195542 Y5.450510 F100.000000
G1 X48.197789 Y5.450057 F100.000000
G1 X48.233423 Y5.459156 F100.000000
G1 X48.269278 Y5.467340 F100.000000
G1 X48.271070 Y5.468769 F100.000000
G1 X48.273292 Y5.469336 F100.000000
G1 X48.367272 Y5.517596 F100.000000
G1 X48.388083 Y5.535082 F100.000000
G1 X48.411098 Y5.549544 F100.000000
G1 X48.459358 Y5.597804 F100.000000
G1 X48.473820 Y5.620820 F100.000000
G1 X48.491306 Y5.641631 F100.000000
G1 X48.539566 Y5.735611 F100.000000
G1 X48.540133 Y5.737832 F100.000000
G1 X48.541562 Y5.739624 F100.000000
G1 X48.549746 Y5.775479 F100.000000
G1 X48.558845 Y5.811113 F100.000000
G1 X48.558392 Y5.813360 F100.000000
G1 X48.558902 Y5.815595 F100.000000
G1 Y5.912115 F100.000000
G1 X48.558392 Y5.914350 F100.000000
G1 X48.558845 Y5.916597 F100.000000
G1 X48.549746 Y5.952231 F100.000000
G1 X48.541562 Y5.988086 F100.000000
G1 X48.540133 Y5.989878 F100.000000
G1 X48.539566 Y5.992099 F100.000000
G1 X48.491306 Y6.086079 F100.000000
G1 X48.473820 Y6.106890 F100.000000
G1 X48.459358 Y6.129906 F100.000000
G1 X48.411098 Y6.178166 F100.000000
G1 X48.388083 Y6.192628 F100.000000
G1 X48.367272 Y6.210114 F100.000000
G1 X48.273292 Y6.258374 F100.000000
G1 X48.254018 Y6.263295 F100.000000
G1 X48.236306 Y6.272348 F100.000000
G1 X48.062345 Y6.316418 F100.000000
G1 X48.010860 Y6.340806 F100.000000
G1 X48.005553 Y6.346407 F100.000000
G1 X47.987402 Y6.382709 F100.000000
G1 Y6.394021 F100.000000
G1 X48.004470 Y6.428156 F100.000000
G1 X48.010006 Y6.433692 F100.000000
G1 X48.044142 Y6.450760 F100.000000
G1 X48.212673 F100.000000
G1 X48.327550 Y6.411784 F100.000000
G1 X48.405064 Y6.403795 F100.000000
G1 X48.478368 Y6.430230 F100.000000
G1 X48.532943 Y6.485852 F100.000000
G1 X48.557980 Y6.559645 F100.000000
G1 X48.548520 Y6.636993 F100.000000
G1 X48.506436 Y6.702577 F100.000000
G1 X48.440065 Y6.743406 F100.000000
G0 Z2.000000
G0 X48.703897 Y5.488200
G1 Z-0.040000 F60.000000
G1 X48.721672 Y5.479640 F100.000000
G1 X48.737096 Y5.467340 F100.000000
G1 X48.756330 Y5.462950 F100.000000
G1 X48.774105 Y5.454390 F100.000000
G1 X48.793834 F100.000000
G1 X48.813067 Y5.450000 F100.000000
G1 X49.288047 F100.000000
G1 X49.364018 Y5.467340 F100.000000
G1 X49.424942 Y5.515925 F100.000000
G1 X49.458752 Y5.586133 F100.000000
G1 Y5.664057 F100.000000
G1 X49.424942 Y5.734265 F100.000000
G1 X49.364018 Y5.782850 F100.000000
G1 X49.288047 Y5.800190 F100.000000
G1 X48.988162 F100.000000
G1 Y5.975780 F100.000000
G1 X49.145807 F100.000000
G1 X49.221778 Y5.993120 F100.000000
G1 X49.282702 Y6.041705 F100.000000
G1 X49.316512 Y6.111913 F100.000000
G1 Y6.189837 F100.000000
G1 X49.282702 Y6.260045 F100.000000
G1 X49.221778 Y6.308630 F100.000000
G1 X49.145807 Y6.325970 F100.000000
G1 X48.988162 F100.000000
G1 Y6.450760 F100.000000
G1 X49.288047 F100.000000
G1 X49.364018 Y6.468100 F100.000000
G1 X49.424942 Y6.516685 F100.000000
G1 X49.431557 Y6.530422 F100.000000
G1 X49.438173 Y6.516685 F100.000000
G1 X49.499096 Y6.468100 F100.000000
G1 X49.575067 Y6.450760 F100.000000
G1 X49.686992 F100.000000
G1 Y5.625095 F100.000000
G1 X49.704332 Y5.549124 F100.000000
G1 X49.752917 Y5.488200 F100.000000
G1 X49.823125 Y5.454390 F100.000000
G1 X49.901050 F100.000000
G1 X49.971257 Y5.488200 F100.000000
G1 X50.019842 Y5.549124 F100.000000
G1 X50.037182 Y5.625095 F100.000000
G0 Z2.000000
G0 X48.676173 Y6.735025
G1 Z-0.040000 F60.000000
G1 X48.667613 Y6.717250 F100.000000
G1 X48.655312 Y6.701826 F100.000000
G1 X48.650922 Y6.682592 F100.000000
G1 X48.642362 Y6.664817 F100.000000
G1 Y6.645089 F100.000000
G1 X48.637972 Y6.625855 F100.000000
G1 Y5.625095 F100.000000
G1 X48.642362 Y5.605861 F100.000000
G1 Y5.586133 F100.000000
G1 X48.650922 Y5.568358 F100.000000
G1 X48.655312 Y5.549124 F100.000000
G1 X48.667613 Y5.533700 F100.000000
G1 X48.676173 Y5.515925 F100.000000
G1 X48.691597 Y5.503625 F100.000000
G1 X48.703897 Y5.488200 F100.000000
G0 Z2.000000
G0 X50.037182 Y5.625095
G1 Z-0.040000 F60.000000
G1 Y6.450760 F100.000000
G1 X50.146567 F100.000000
G1 X50.222538 Y6.468100 F100.000000
G1 X50.283462 Y6.516685 F100.000000
G1 X50.317272 Y6.586893 F100.000000
G1 Y6.664817 F100.000000
G1 X50.283462 Y6.735025 F100.000000
G1 X50.222538 Y6.783610 F100.000000
G1 X50.146567 Y6.800950 F100.000000
G1 X49.575067 F100.000000
G1 X49.499096 Y6.783610 F100.000000
G1 X49.438173 Y6.735025 F100.000000
G1 X49.431557 Y6.721288 F100.000000
G1 X49.424942 Y6.735025 F100.000000
G1 X49.364018 Y6.783610 F100.000000
G1 X49.288047 Y6.800950 F100.000000
G1 X48.813067 F100.000000
G1 X48.793834 Y6.796560 F100.000000
G1 X48.774105 F100.000000
G1 X48.756330 Y6.788000 F100.000000
G1 X48.737096 Y6.783610 F100.000000
G1 X48.721672 Y6.771310 F100.000000
G1 X48.703897 Y6.762750 F100.000000
G1 X48.691597 Y6.747325 F100.000000
G1 X48.676173 Y6.735025 F100.000000
G0 Z2.000000
G0 X28.729452 Y13.587995
G1 Z-0.040000 F60.000000
G1 Y13.572590 F100.000000
G1 X28.665413 F100.000000
G1 X28.650382 Y13.616890 F100.000000
G1 Y13.653561 F100.000000
G1 X28.676196 Y13.731001 F100.000000
G1 X28.723406 Y13.776969 F100.000000
G1 X28.776333 Y13.804148 F100.000000
G1 X28.926381 Y13.842160 F100.000000
G1 X29.024954 F100.000000
G1 X29.175926 Y13.803914 F100.000000
G1 X29.230088 Y13.776832 F100.000000
G1 X29.274749 Y13.732172 F100.000000
G1 X29.300952 Y13.653561 F100.000000
G1 Y13.582064 F100.000000
G1 X29.272029 Y13.525739 F100.000000
G1 X29.252750 Y13.450237 F100.000000
G1 X29.268139 Y13.373847 F100.000000
G1 X29.315149 Y13.311700 F100.000000
G1 X29.384468 Y13.276103 F100.000000
G1 X29.462367 Y13.274109 F100.000000
G1 X29.533417 Y13.306111 F100.000000
G1 X29.583546 Y13.365771 F100.000000
G1 X29.631806 Y13.459751 F100.000000
G1 X29.632373 Y13.461972 F100.000000
G1 X29.633802 Y13.463764 F100.000000
G1 X29.641986 Y13.499619 F100.000000
G1 X29.651085 Y13.535253 F100.000000
G1 X29.650632 Y13.537500 F100.000000
G1 X29.651142 Y13.539735 F100.000000
G1 Y13.681975 F100.000000
G1 X29.644889 Y13.709374 F100.000000
G1 X29.642157 Y13.737345 F100.000000
G1 X29.593897 Y13.882125 F100.000000
G1 X29.593206 Y13.883262 F100.000000
G1 X29.593057 Y13.884585 F100.000000
G1 X29.573002 Y13.916502 F100.000000
G1 X29.553423 Y13.948714 F100.000000
G1 X29.552306 Y13.949439 F100.000000
G1 X29.551598 Y13.950566 F100.000000
G1 X29.457618 Y14.044546 F100.000000
G1 X29.433822 Y14.059498 F100.000000
G1 X29.412112 Y14.077345 F100.000000
G1 X29.315592 Y14.125605 F100.000000
G1 X29.297171 Y14.130098 F100.000000
G1 X29.280286 Y14.138728 F100.000000
G1 X29.089786 Y14.186988 F100.000000
G1 X29.068017 Y14.187504 F100.000000
G1 X29.046787 Y14.192350 F100.000000
G1 X28.904547 F100.000000
G1 X28.883318 Y14.187504 F100.000000
G1 X28.861548 Y14.186988 F100.000000
G1 X28.671048 Y14.138728 F100.000000
G1 X28.653336 Y14.129675 F100.000000
G1 X28.634063 Y14.124754 F100.000000
G1 X28.540083 Y14.076494 F100.000000
G1 X28.520148 Y14.059743 F100.000000
G1 X28.497918 Y14.046186 F100.000000
G1 X28.401398 Y13.952206 F100.000000
G1 X28.400028 Y13.950088 F100.000000
G1 X28.397912 Y13.948714 F100.000000
G1 X28.378924 Y13.917475 F100.000000
G1 X28.359064 Y13.886783 F100.000000
G1 X28.358748 Y13.884281 F100.000000
G1 X28.357438 Y13.882125 F100.000000
G1 X28.309178 Y13.737345 F100.000000
G1 X28.306446 Y13.709374 F100.000000
G1 X28.300192 Y13.681975 F100.000000
G1 Y13.587995 F100.000000
G1 X28.306548 Y13.560149 F100.000000
G1 X28.309476 Y13.531738 F100.000000
G1 X28.357736 Y13.389498 F100.000000
G1 X28.358183 Y13.388772 F100.000000
G1 X28.358278 Y13.387925 F100.000000
G1 X28.378576 Y13.355621 F100.000000
G1 X28.398566 Y13.323126 F100.000000
G1 X28.399283 Y13.322666 F100.000000
G1 X28.399736 Y13.321944 F100.000000
G1 X28.447996 Y13.273684 F100.000000
G1 X28.472870 Y13.258055 F100.000000
G1 X28.495836 Y13.239740 F100.000000
G1 X28.505545 Y13.237524 F100.000000
G1 X28.513977 Y13.232226 F100.000000
G1 X28.543168 Y13.228937 F100.000000
G1 X28.571807 Y13.222400 F100.000000
G1 X28.904547 F100.000000
G1 X28.923781 Y13.226790 F100.000000
G1 X28.943510 F100.000000
G1 X28.961284 Y13.235350 F100.000000
G1 X28.980518 Y13.239740 F100.000000
G1 X28.995943 Y13.252040 F100.000000
G1 X29.013717 Y13.260600 F100.000000
G1 X29.026018 Y13.276025 F100.000000
G1 X29.041442 Y13.288325 F100.000000
G1 X29.050002 Y13.306100 F100.000000
G1 X29.062302 Y13.321524 F100.000000
G1 X29.066692 Y13.340758 F100.000000
G1 X29.075252 Y13.358533 F100.000000
G1 Y13.378261 F100.000000
G1 X29.079642 Y13.397495 F100.000000
G1 Y13.587995 F100.000000
G1 X29.062302 Y13.663966 F100.000000
G1 X29.013717 Y13.724890 F100.000000
G1 X28.943510 Y13.758700 F100.000000
G1 X28.865585 F100.000000
G1 X28.795377 Y13.724890 F100.000000
G1 X28.746792 Y13.663966 F100.000000
G1 X28.729452 Y13.587995 F100.000000
G0 Z2.000000
G0 X29.604962 Y13.086722
G1 Z-0.040000 F60.000000
G1 X29.577802 Y13.105428 F100.000000
G1 X29.552018 Y13.125990 F100.000000
G1 X29.545930 Y13.127380 F100.000000
G1 X29.540786 Y13.130922 F100.000000
G1 X29.508199 Y13.135992 F100.000000
G1 X29.476047 Y13.143330 F100.000000
G1 X28.475287 F100.000000
G1 X28.399316 Y13.125990 F100.000000
G1 X28.338393 Y13.077405 F100.000000
G1 X28.304582 Y13.007197 F100.000000
G1 Y12.929273 F100.000000
G1 X28.338393 Y12.859065 F100.000000
G1 X28.399316 Y12.810480 F100.000000
G1 X28.475287 Y12.793140 F100.000000
G1 X28.816352 F100.000000
G1 X28.388457 Y12.548784 F100.000000
G1 X28.364176 Y12.526467 F100.000000
G1 X28.338393 Y12.505905 F100.000000
G1 X28.335683 Y12.500278 F100.000000
G1 X28.331085 Y12.496052 F100.000000
G1 X28.318891 Y12.465410 F100.000000
G1 X28.304582 Y12.435697 F100.000000
G1 Y12.429452 F100.000000
G1 X28.302273 Y12.423650 F100.000000
G1 X28.304582 Y12.390752 F100.000000
G1 Y12.357773 F100.000000
G1 X28.307292 Y12.352146 F100.000000
G1 X28.307729 Y12.345916 F100.000000
G1 X28.324084 Y12.317278 F100.000000
G1 X28.338393 Y12.287565 F100.000000
G1 X28.343275 Y12.283671 F100.000000
G1 X28.346372 Y12.278248 F100.000000
G1 X28.373533 Y12.259542 F100.000000
G1 X28.399316 Y12.238980 F100.000000
G1 X28.405405 Y12.237590 F100.000000
G1 X28.410548 Y12.234048 F100.000000
G1 X28.443135 Y12.228978 F100.000000
G1 X28.475287 Y12.221640 F100.000000
G1 X29.476047 F100.000000
G1 X29.552018 Y12.238980 F100.000000
G1 X29.612942 Y12.287565 F100.000000
G1 X29.646752 Y12.357773 F100.000000
G1 Y12.435697 F100.000000
G1 X29.612942 Y12.505905 F100.000000
G1 X29.552018 Y12.554490 F100.000000
G1 X29.476047 Y12.571830 F100.000000
G1 X29.134982 F100.000000
G1 X29.562877 Y12.816186 F100.000000
G1 X29.587158 Y12.838503 F100.000000
G1 X29.612942 Y12.859065 F100.000000
G1 X29.615652 Y12.864692 F100.000000
G1 X29.620250 Y12.868918 F100.000000
G1 X29.632443 Y12.899560 F100.000000
G1 X29.646752 Y12.929273 F100.000000
G1 Y12.935518 F100.000000
G1 X29.649061 Y12.941320 F100.000000
G1 X29.646752 Y12.974218 F100.000000
G1 Y13.007197 F100.000000
G1 X29.644043 Y13.012824 F100.000000
G1 X29.643605 Y13.019054 F100.000000
G1 X29.627251 Y13.047692 F100.000000
G1 X29.612942 Y13.077405 F100.000000
G1 X29.608059 Y13.081299 F100.000000
G1 X29.604962 Y13.086722 F100.000000
G0 Z2.000000
G0 X29.585217 Y12.056110
G1 Z-0.040000 F60.000000
G1 X29.567443 Y12.064670 F100.000000
G1 X29.552018 Y12.076970 F100.000000
G1 X29.532784 Y12.081360 F100.000000
G1 X29.515010 Y12.089920 F100.000000
G1 X29.495281 F100.000000
G1 X29.476047 Y12.094310 F100.000000
G1 X28.475287 F100.000000
G1 X28.456054 Y12.089920 F100.000000
G1 X28.436325 F100.000000
G1 X28.418550 Y12.081360 F100.000000
G1 X28.399316 Y12.076970 F100.000000
G1 X28.383892 Y12.064670 F100.000000
G1 X28.366117 Y12.056110 F100.000000
G1 X28.353817 Y12.040685 F100.000000
G1 X28.338393 Y12.028385 F100.000000
G1 X28.329833 Y12.010610 F100.000000
G1 X28.317532 Y11.995186 F100.000000
G1 X28.313142 Y11.975952 F100.000000
G1 X28.304582 Y11.958177 F100.000000
G1 Y11.938449 F100.000000
G1 X28.300192 Y11.919215 F100.000000
G1 Y11.680455 F100.000000
G1 X28.306548 Y11.652609 F100.000000
G1 X28.309476 Y11.624198 F100.000000
G1 X28.357736 Y11.481958 F100.000000
G1 X28.358808 Y11.480216 F100.000000
G1 X28.359064 Y11.478187 F100.000000
G1 X28.379172 Y11.447112 F100.000000
G0 Z2.000000
G0 Y11.447112
G1 Z-0.040000 F60.000000
G1 X28.398566 Y11.415586 F100.000000
G1 X28.400287 Y11.414482 F100.000000
G1 X28.401398 Y11.412764 F100.000000
G1 X28.497918 Y11.318784 F100.000000
G1 X28.520148 Y11.305227 F100.000000
G1 X28.540083 Y11.288476 F100.000000
G1 X28.634063 Y11.240216 F100.000000
G1 X28.653336 Y11.235295 F100.000000
G1 X28.671048 Y11.226242 F100.000000
G1 X28.861548 Y11.177982 F100.000000
G1 X28.883318 Y11.177466 F100.000000
G1 X28.904547 Y11.172620 F100.000000
G1 X29.046787 F100.000000
G1 X29.068017 Y11.177466 F100.000000
G1 X29.089786 Y11.177982 F100.000000
G1 X29.280286 Y11.226242 F100.000000
G1 X29.297171 Y11.234872 F100.000000
G1 X29.315592 Y11.239365 F100.000000
G1 X29.412112 Y11.287625 F100.000000
G1 X29.433822 Y11.305472 F100.000000
G1 X29.457618 Y11.320424 F100.000000
G1 X29.551598 Y11.414404 F100.000000
G1 X29.552052 Y11.415126 F100.000000
G1 X29.552769 Y11.415586 F100.000000
G1 X29.572759 Y11.448081 F100.000000
G1 X29.593057 Y11.480385 F100.000000
G1 X29.593152 Y11.481232 F100.000000
G1 X29.593599 Y11.481958 F100.000000
G1 X29.641859 Y11.624198 F100.000000
G1 X29.644787 Y11.652609 F100.000000
G1 X29.651142 Y11.680455 F100.000000
G1 Y11.919215 F100.000000
G1 X29.646752 Y11.938449 F100.000000
G1 Y11.958177 F100.000000
G1 X29.638192 Y11.975952 F100.000000
G1 X29.633802 Y11.995186 F100.000000
G1 X29.621502 Y12.010610 F100.000000
G1 X29.612942 Y12.028385 F100.000000
G1 X29.597518 Y12.040685 F100.000000
G1 X29.585217 Y12.056110 F100.000000
G0 Z2.000000
G0 X28.650382 Y11.744120
G1 Z-0.040000 F60.000000
G1 X29.300952 F100.000000
G1 Y11.709350 F100.000000
G1 X29.275098 Y11.633147 F100.000000
G1 X29.230088 Y11.588138 F100.000000
G1 X29.175926 Y11.561056 F100.000000
G1 X29.024954 Y11.522810 F100.000000
G1 X28.926381 F100.000000
G1 X28.776333 Y11.560822 F100.000000
G1 X28.723406 Y11.588001 F100.000000
G1 X28.675841 Y11.634315 F100.000000
G1 X28.650382 Y11.709350 F100.000000
G1 Y11.744120 F100.000000
G0 Z2.000000
G0 X39.871618 Y29.021684
G1 Z-0.040000 F60.000000
G1 X39.913077 Y29.087665 F100.000000
G1 X39.921801 Y29.165099 F100.000000
G1 X39.896065 Y29.238651 F100.000000
G1 X39.840964 Y29.293752 F100.000000
G1 X39.767412 Y29.319489 F100.000000
G1 X39.689977 Y29.310764 F100.000000
G1 X39.623996 Y29.269306 F100.000000
G1 X39.575736 Y29.221046 F100.000000
G1 X39.561275 Y29.198030 F100.000000
G1 X39.543789 Y29.177219 F100.000000
G1 X39.495529 Y29.083239 F100.000000
G1 X39.494961 Y29.081018 F100.000000
G1 X39.493532 Y29.079226 F100.000000
G1 X39.485349 Y29.043371 F100.000000
G1 X39.476250 Y29.007737 F100.000000
G1 X39.476702 Y29.005490 F100.000000
G1 X39.476192 Y29.003255 F100.000000
G1 Y28.764495 F100.000000
G1 X39.476489 Y28.763197 F100.000000
G1 X39.476212 Y28.761895 F100.000000
G1 X39.485144 Y28.725274 F100.000000
G1 X39.493532 Y28.688524 F100.000000
G1 X39.494362 Y28.687483 F100.000000
G1 X39.494678 Y28.686190 F100.000000
G1 X39.542938 Y28.589670 F100.000000
G1 X39.562254 Y28.566173 F100.000000
G1 X39.579127 Y28.540864 F100.000000
G1 X39.627387 Y28.495144 F100.000000
G1 X39.648788 Y28.482490 F100.000000
G1 X39.667823 Y28.466496 F100.000000
G1 X39.761803 Y28.418236 F100.000000
G1 X39.764024 Y28.417669 F100.000000
G1 X39.765816 Y28.416240 F100.000000
G1 X39.801671 Y28.408056 F100.000000
G1 X39.837305 Y28.398957 F100.000000
G1 X39.839552 Y28.399410 F100.000000
G1 X39.841787 Y28.398900 F100.000000
G1 X40.080547 F100.000000
G1 X40.081845 Y28.399196 F100.000000
G1 X40.083147 Y28.398919 F100.000000
G1 X40.119768 Y28.407852 F100.000000
G1 X40.156518 Y28.416240 F100.000000
G1 X40.157559 Y28.417070 F100.000000
G1 X40.158852 Y28.417385 F100.000000
G1 X40.255372 Y28.465645 F100.000000
G1 X40.277082 Y28.483492 F100.000000
G1 X40.300878 Y28.498444 F100.000000
G1 X40.346598 Y28.544164 F100.000000
G1 X40.361550 Y28.567960 F100.000000
G1 X40.379397 Y28.589670 F100.000000
G1 X40.427657 Y28.686190 F100.000000
G1 X40.427973 Y28.687483 F100.000000
G1 X40.428802 Y28.688524 F100.000000
G1 X40.437190 Y28.725274 F100.000000
G1 X40.446123 Y28.761895 F100.000000
G1 X40.445846 Y28.763197 F100.000000
G1 X40.446142 Y28.764495 F100.000000
G1 Y28.942159 F100.000000
G1 X40.476952 Y28.939029 F100.000000
G1 Y28.622255 F100.000000
G1 X40.494292 Y28.546284 F100.000000
G1 X40.542877 Y28.485360 F100.000000
G1 X40.607632 Y28.454176 F100.000000
G1 X40.596804 Y28.453127 F100.000000
G1 X39.596044 Y28.120387 F100.000000
G1 X39.576874 Y28.108755 F100.000000
G1 X39.555828 Y28.101020 F100.000000
G1 X39.543979 Y28.088795 F100.000000
G1 X39.529424 Y28.079963 F100.000000
G1 X39.517200 Y28.061166 F100.000000
G1 X39.501594 Y28.045066 F100.000000
G1 X39.496223 Y28.028910 F100.000000
G1 X39.486941 Y28.014638 F100.000000
G1 X39.484083 Y27.992398 F100.000000
G1 X39.477008 Y27.971121 F100.000000
G1 X39.479179 Y27.954235 F100.000000
G1 X39.477008 Y27.937349 F100.000000
G1 X39.484083 Y27.916072 F100.000000
G1 X39.486941 Y27.893832 F100.000000
G1 X39.496223 Y27.879560 F100.000000
G1 X39.501594 Y27.863404 F100.000000
G1 X39.517200 Y27.847304 F100.000000
G1 X39.529424 Y27.828507 F100.000000
G1 X39.543979 Y27.819675 F100.000000
G1 X39.555828 Y27.807450 F100.000000
G1 X39.576874 Y27.799715 F100.000000
G1 X39.596044 Y27.788083 F100.000000
G1 X40.596804 Y27.455343 F100.000000
G1 X40.674365 Y27.447828 F100.000000
G1 X40.747506 Y27.474710 F100.000000
G1 X40.801741 Y27.530664 F100.000000
G1 X40.826326 Y27.604609 F100.000000
G1 X40.816394 Y27.681898 F100.000000
G1 X40.773910 Y27.747223 F100.000000
G1 X40.707291 Y27.787647 F100.000000
G0 Z2.000000
G1 Z-0.040000 F60.000000
G1 X40.206255 Y27.954235 F100.000000
G1 X40.707291 Y28.120823 F100.000000
G1 X40.773910 Y28.161247 F100.000000
G1 X40.816394 Y28.226572 F100.000000
G1 X40.826326 Y28.303861 F100.000000
G1 X40.801741 Y28.377806 F100.000000
G1 X40.747506 Y28.433760 F100.000000
G1 X40.694513 Y28.453237 F100.000000
G1 X40.761217 Y28.485360 F100.000000
G1 X40.809802 Y28.546284 F100.000000
G1 X40.827142 Y28.622255 F100.000000
G1 Y29.097235 F100.000000
G1 X40.824713 Y29.107880 F100.000000
G1 X40.825816 Y29.118742 F100.000000
G1 X40.816131 Y29.145480 F100.000000
G1 X40.809802 Y29.173206 F100.000000
G1 X40.802995 Y29.181742 F100.000000
G1 X40.799276 Y29.192008 F100.000000
G1 X40.778948 Y29.211896 F100.000000
G1 X40.761217 Y29.234130 F100.000000
G1 X40.751380 Y29.238867 F100.000000
G1 X40.743576 Y29.246503 F100.000000
G1 X40.716632 Y29.255601 F100.000000
G1 X40.691010 Y29.267940 F100.000000
G1 X40.680091 F100.000000
G1 X40.669747 Y29.271433 F100.000000
G1 X40.194767 Y29.319693 F100.000000
G1 X40.178451 Y29.317674 F100.000000
G1 X40.162171 Y29.319955 F100.000000
G1 X40.140261 Y29.312947 F100.000000
G1 X40.117432 Y29.310122 F100.000000
G1 X40.103609 Y29.301223 F100.000000
G1 X40.087951 Y29.296215 F100.000000
G1 X40.071251 Y29.280394 F100.000000
G1 X40.051909 Y29.267944 F100.000000
G1 X40.043316 Y29.253929 F100.000000
G1 X40.031381 Y29.242623 F100.000000
G1 X40.023200 Y29.221123 F100.000000
G1 X40.011175 Y29.201513 F100.000000
G1 X40.009513 Y29.185158 F100.000000
G1 X40.003666 Y29.169793 F100.000000
G1 X40.005624 Y29.146873 F100.000000
G1 X40.003298 Y29.123988 F100.000000
G1 X40.008897 Y29.108531 F100.000000
G1 X40.010296 Y29.092151 F100.000000
G1 X40.022004 Y29.072350 F100.000000
G1 X40.029838 Y29.050722 F100.000000
G1 X40.041590 Y29.039225 F100.000000
G1 X40.049957 Y29.025074 F100.000000
G1 X40.078462 Y28.994985 F100.000000
G1 X40.095952 Y28.960926 F100.000000
G1 Y28.805829 F100.000000
G1 X40.078885 Y28.771694 F100.000000
G1 X40.073348 Y28.766158 F100.000000
G1 X40.039213 Y28.749090 F100.000000
G1 X39.884117 F100.000000
G1 X39.850057 Y28.766580 F100.000000
G1 X39.842362 Y28.773871 F100.000000
G1 X39.826382 Y28.805829 F100.000000
G1 Y28.960926 F100.000000
G1 X39.842767 Y28.992833 F100.000000
G1 X39.871618 Y29.021684 F100.000000
G0 Z2.000000
G0 X5.869452 Y17.143995
G1 Z-0.040000 F60.000000
G1 Y17.128590 F100.000000
G1 X5.805413 Y17.128590 F100.000000
G1 X5.790382 Y17.172890 F100.000000
G1 Y17.209561 F100.000000
G1 X5.816196 Y17.287001 F100.000000
G1 X5.863406 Y17.332969 F100.000000
G1 X5.916333 Y17.360148 F100.000000
G1 X6.066381 Y17.398160 F100.000000
G1 X6.164954 F100.000000
G1 X6.315926 Y17.359914 F100.000000
G1 X6.370088 Y17.332832 F100.000000
G1 X6.414749 Y17.288172 F100.000000
G1 X6.440952 Y17.209561 F100.000000
G1 Y17.138064 F100.000000
G1 X6.412029 Y17.081739 F100.000000
G1 X6.392750 Y17.006237 F100.000000
G1 X6.408139 Y16.929847 F100.000000
G1 X6.455149 Y16.867700 F100.000000
G1 X6.524468 Y16.832103 F100.000000
G1 X6.602367 Y16.830109 F100.000000
G1 X6.673417 Y16.862111 F100.000000
G1 X6.723546 Y16.921771 F100.000000
G1 X6.771806 Y17.015751 F100.000000
G1 X6.772373 Y17.017972 F100.000000
G1 X6.773802 Y17.019764 F100.000000
G1 X6.781986 Y17.055619 F100.000000
G1 X6.791085 Y17.091253 F100.000000
G1 X6.790632 Y17.093500 F100.000000
G1 X6.791142 Y17.095735 F100.000000
G1 Y17.237975 F100.000000
G1 X6.784889 Y17.265374 F100.000000
G1 X6.782157 Y17.293345 F100.000000
G1 X6.733897 Y17.438125 F100.000000
G1 X6.733206 Y17.439262 F100.000000
G1 X6.733057 Y17.440585 F100.000000
G1 X6.713002 Y17.472502 F100.000000
G1 X6.693423 Y17.504714 F100.000000
G1 X6.692306 Y17.505439 F100.000000
G1 X6.691598 Y17.506566 F100.000000
G1 X6.597618 Y17.600546 F100.000000
G1 X6.573822 Y17.615498 F100.000000
G1 X6.552112 Y17.633345 F100.000000
G1 X6.455592 Y17.681605 F100.000000
G1 X6.437171 Y17.686098 F100.000000
G1 X6.420286 Y17.694728 F100.000000
G1 X6.229786 Y17.742988 F100.000000
G1 X6.208017 Y17.743504 F100.000000
G1 X6.186787 Y17.748350 F100.000000
G1 X6.044547 F100.000000
G1 X6.023318 Y17.743504 F100.000000
G1 X6.001548 Y17.742988 F100.000000
G1 X5.811048 Y17.694728 F100.000000
G1 X5.793336 Y17.685675 F100.000000
G1 X5.774063 Y17.680754 F100.000000
G1 X5.680083 Y17.632494 F100.000000
G1 X5.660148 Y17.615743 F100.000000
G1 X5.637918 Y17.602186 F100.000000
G1 X5.541398 Y17.508206 F100.000000
G1 X5.540028 Y17.506088 F100.000000
G1 X5.537912 Y17.504714 F100.000000
G1 X5.518924 Y17.473475 F100.000000
G1 X5.499064 Y17.442783 F100.000000
G1 X5.498748 Y17.440281 F100.000000
G1 X5.497438 Y17.438125 F100.000000
G1 X5.449178 Y17.293345 F100.000000
G1 X5.446446 Y17.265374 F100.000000
G1 X5.440192 Y17.237975 F100.000000
G1 Y17.143995 F100.000000
G1 X5.446548 Y17.116149 F100.000000
G1 X5.449476 Y17.087738 F100.000000
G1 X5.497736 Y16.945498 F100.000000
G1 X5.498183 Y16.944772 F100.000000
G1 X5.498278 Y16.943925 F100.000000
G1 X5.518576 Y16.911621 F100.000000
G1 X5.538566 Y16.879126 F100.000000
G1 X5.539283 Y16.878666 F100.000000
G1 X5.539736 Y16.877944 F100.000000
G1 X5.587996 Y16.829684 F100.000000
G1 X5.612870 Y16.814055 F100.000000
G1 X5.635836 Y16.795740 F100.000000
G1 X5.645545 Y16.793524 F100.000000
G1 X5.653977 Y16.788226 F100.000000
G1 X5.683168 Y16.784937 F100.000000
G1 X5.711807 Y16.778400 F100.000000
G1 X6.044547 F100.000000
G1 X6.063781 Y16.782790 F100.000000
G1 X6.083510 F100.000000
G1 X6.101284 Y16.791350 F100.000000
G1 X6.120518 Y16.795740 F100.000000
G1 X6.135943 Y16.808040 F100.000000
G1 X6.153717 Y16.816600 F100.000000
G1 X6.166018 Y16.832025 F100.000000
G1 X6.181442 Y16.844325 F100.000000
G1 X6.190002 Y16.862100 F100.000000
G1 X6.202302 Y16.877524 F100.000000
G1 X6.206692 Y16.896758 F100.000000
G1 X6.215252 Y16.914533 F100.000000
G1 Y16.934261 F100.000000
G1 X6.219642 Y16.953495 F100.000000
G1 Y17.143995 F100.000000
G1 X6.202302 Y17.219966 F100.000000
G1 X6.153717 Y17.280890 F100.000000
G1 X6.083510 Y17.314700 F100.000000
G1 X6.005585 F100.000000
G1 X5.935377 Y17.280890 F100.000000
G1 X5.886792 Y17.219966 F100.000000
G1 X5.869452 Y17.143995 F100.000000
G0 Z2.000000
G0 X6.744962 Y16.642722
G1 Z-0.040000 F60.000000
G1 X6.717802 Y16.661428 F100.000000
G1 X6.692018 Y16.681990 F100.000000
G1 X6.685930 Y16.683380 F100.000000
G1 X6.680786 Y16.686922 F100.000000
G1 X6.648199 Y16.691992 F100.000000
G1 X6.616047 Y16.699330 F100.000000
G1 X5.615287 F100.000000
G1 X5.539316 Y16.681990 F100.000000
G1 X5.478393 Y16.633405 F100.000000
G1 X5.444582 Y16.563197 F100.000000
G1 Y16.485273 F100.000000
G1 X5.478393 Y16.415065 F100.000000
G1 X5.539316 Y16.366480 F100.000000
G1 X5.615287 Y16.349140 F100.000000
G1 X5.956352 F100.000000
G1 X5.528457 Y16.104784 F100.000000
G1 X5.504176 Y16.082467 F100.000000
G1 X5.478393 Y16.061905 F100.000000
G1 X5.475683 Y16.056278 F100.000000
G1 X5.471085 Y16.052052 F100.000000
G1 X5.458891 Y16.021410 F100.000000
G1 X5.444582 Y15.991697 F100.000000
G1 Y15.985452 F100.000000
G1 X5.442273 Y15.979650 F100.000000
G1 X5.444582 Y15.946752 F100.000000
G1 Y15.913773 F100.000000
G1 X5.447292 Y15.908146 F100.000000
G1 X5.447729 Y15.901916 F100.000000
G1 X5.464084 Y15.873278 F100.000000
G1 X5.478393 Y15.843565 F100.000000
G1 X5.483275 Y15.839671 F100.000000
G1 X5.486372 Y15.834248 F100.000000
G1 X5.513533 Y15.815542 F100.000000
G1 X5.539316 Y15.794980 F100.000000
G1 X5.545405 Y15.793590 F100.000000
G1 X5.550548 Y15.790048 F100.000000
G1 X5.583135 Y15.784978 F100.000000
G1 X5.615287 Y15.777640 F100.000000
G1 X6.616047 F100.000000
G1 X6.692018 Y15.794980 F100.000000
G1 X6.752942 Y15.843565 F100.000000
G1 X6.786752 Y15.913773 F100.000000
G1 Y15.991697 F100.000000
G1 X6.752942 Y16.061905 F100.000000
G1 X6.692018 Y16.110490 F100.000000
G1 X6.616047 Y16.127830 F100.000000
G1 X6.274982 F100.000000
G1 X6.702877 Y16.372186 F100.000000
G1 X6.727158 Y16.394503 F100.000000
G1 X6.752942 Y16.415065 F100.000000
G1 X6.755652 Y16.420692 F100.000000
G1 X6.760250 Y16.424918 F100.000000
G1 X6.772443 Y16.455560 F100.000000
G1 X6.786752 Y16.485273 F100.000000
G1 Y16.491518 F100.000000
G1 X6.789061 Y16.497320 F100.000000
G1 X6.786752 Y16.530218 F100.000000
G1 Y16.563197 F100.000000
G1 X6.784043 Y16.568824 F100.000000
G1 X6.783605 Y16.575054 F100.000000
G1 X6.767251 Y16.603692 F100.000000
G1 X6.752942 Y16.633405 F100.000000
G1 X6.748059 Y16.637299 F100.000000
G1 X6.744962 Y16.642722 F100.000000
G0 Z2.000000
G0 X6.725217 Y15.612110
G1 Z-0.040000 F60.000000
G1 X6.707443 Y15.620670 F100.000000
G1 X6.692018 Y15.632970 F100.000000
G1 X6.672784 Y15.637360 F100.000000
G1 X6.655010 Y15.645920 F100.000000
G1 X6.635281 F100.000000
G1 X6.616047 Y15.650310 F100.000000
G1 X5.615287 F100.000000
G1 X5.596054 Y15.645920 F100.000000
G1 X5.576325 F100.000000
G1 X5.558550 Y15.637360 F100.000000
G1 X5.539316 Y15.632970 F100.000000
G1 X5.523892 Y15.620670 F100.000000
G1 X5.506117 Y15.612110 F100.000000
G1 X5.493817 Y15.596685 F100.000000
G1 X5.478393 Y15.584385 F100.000000
G1 X5.469833 Y15.566610 F100.000000
G1 X5.457532 Y15.551186 F100.000000
G1 X5.453142 Y15.531952 F100.000000
G1 X5.444582 Y15.514177 F100.000000
G1 Y15.494449 F100.000000
G1 X5.440192 Y15.475215 F100.000000
G1 Y15.236455 F100.000000
G1 X5.446548 Y15.208609 F100.000000
G1 X5.449476 Y15.180198 F100.000000
G1 X5.497736 Y15.037958 F100.000000
G1 X5.498808 Y15.036216 F100.000000
G1 X5.499064 Y15.034187 F100.000000
G1 X5.519172 Y15.003112 F100.000000
G0 Z2.000000
G1 Z-0.040000 F60.000000
G1 X5.538566 Y14.971586 F100.000000
G1 X5.540287 Y14.970482 F100.000000
G1 X5.541398 Y14.968764 F100.000000
G1 X5.637918 Y14.874784 F100.000000
G1 X5.660148 Y14.861227 F100.000000
G1 X5.680083 Y14.844476 F100.000000
G1 X5.774063 Y14.796216 F100.000000
G1 X5.793336 Y14.791295 F100.000000
G1 X5.811048 Y14.782242 F100.000000
G1 X6.001548 Y14.733982 F100.000000
G1 X6.023318 Y14.733466 F100.000000
G1 X6.044547 Y14.728620 F100.000000
G1 X6.186787 F100.000000
G1 X6.208017 Y14.733466 F100.000000
G1 X6.229786 Y14.733982 F100.000000
G1 X6.420286 Y14.782242 F100.000000
G1 X6.437171 Y14.790872 F100.000000
G1 X6.455592 Y14.795365 F100.000000
G1 X6.552112 Y14.843625 F100.000000
G1 X6.573822 Y14.861472 F100.000000
G1 X6.597618 Y14.876424 F100.000000
G1 X6.691598 Y14.970404 F100.000000
G1 X6.692052 Y14.971126 F100.000000
G1 X6.692769 Y14.971586 F100.000000
G1 X6.712759 Y15.004081 F100.000000
G1 X6.733057 Y15.036385 F100.000000
G1 X6.733152 Y15.037232 F100.000000
G1 X6.733599 Y15.037958 F100.000000
G1 X6.781859 Y15.180198 F100.000000
G1 X6.784787 Y15.208609 F100.000000
G1 X6.791142 Y15.236455 F100.000000
G1 Y15.475215 F100.000000
G1 X6.786752 Y15.494449 F100.000000
G1 Y15.514177 F100.000000
G1 X6.778192 Y15.531952 F100.000000
G1 X6.773802 Y15.551186 F100.000000
G1 X6.761502 Y15.566610 F100.000000
G1 X6.752942 Y15.584385 F100.000000
G1 X6.737518 Y15.596685 F100.000000
G1 X6.725217 Y15.612110 F100.000000
G0 Z2.000000
G0 X5.790382 Y15.300120
G1 Z-0.040000 F60.000000
G1 X6.440952 F100.000000
G1 Y15.265350 F100.000000
G1 X6.415098 Y15.189147 F100.000000
G1 X6.370088 Y15.144138 F100.000000
G1 X6.315926 Y15.117056 F100.000000
G1 X6.164954 Y15.078810 F100.000000
G1 X6.066381 F100.000000
G1 X5.916333 Y15.116822 F100.000000
G1 X5.863406 Y15.144001 F100.000000
G1 X5.815841 Y15.190315 F100.000000
G1 X5.790382 Y15.265350 F100.000000
G1 Y15.300120 F100.000000
G0 Z2.000000
G0 X5.615287 Y26.112900
G1 Z-0.040000 F60.000000
G1 X5.821192 F100.000000
G1 Y25.906995 F100.000000
G1 X5.838532 Y25.831024 F100.000000
G1 X5.887117 Y25.770100 F100.000000
G1 X5.957325 Y25.736290 F100.000000
G1 X6.035250 F100.000000
G1 X6.105457 Y25.770100 F100.000000
G1 X6.154042 Y25.831024 F100.000000
G1 X6.171382 Y25.906995 F100.000000
G1 Y26.112900 F100.000000
G1 X6.377287 F100.000000
G1 X6.453258 Y26.130240 F100.000000
G1 X6.514182 Y26.178825 F100.000000
G1 X6.547992 Y26.249033 F100.000000
G1 Y26.326957 F100.000000
G1 X6.514182 Y26.397165 F100.000000
G1 X6.453258 Y26.445750 F100.000000
G1 X6.377287 Y26.463090 F100.000000
G1 X6.171382 F100.000000
G1 Y26.668995 F100.000000
G1 X6.154042 Y26.744966 F100.000000
G1 X6.105457 Y26.805890 F100.000000
G1 X6.035250 Y26.839700 F100.000000
G1 X5.957325 F100.000000
G1 X5.887117 Y26.805890 F100.000000
G1 X5.838532 Y26.744966 F100.000000
G1 X5.821192 Y26.668995 F100.000000
G1 Y26.463090 F100.000000
G1 X5.615287 F100.000000
G1 X5.539316 Y26.445750 F100.000000
G1 X5.478393 Y26.397165 F100.000000
G1 X5.444582 Y26.326957 F100.000000
G1 Y26.249033 F100.000000
G1 X5.478393 Y26.178825 F100.000000
G1 X5.539316 Y26.130240 F100.000000
G1 X5.615287 Y26.112900 F100.000000
G0 Z2.000000
G0 X5.835618 Y25.353924
G1 Z-0.040000 F60.000000
G1 X5.877077 Y25.419905 F100.000000
G1 X5.885801 Y25.497339 F100.000000
G1 X5.860065 Y25.570891 F100.000000
G1 X5.804964 Y25.625992 F100.000000
G1 X5.731412 Y25.651729 F100.000000
G1 X5.653977 Y25.643004 F100.000000
G1 X5.587996 Y25.601546 F100.000000
G1 X5.539736 Y25.553286 F100.000000
G1 X5.525275 Y25.530270 F100.000000
G1 X5.507789 Y25.509459 F100.000000
G1 X5.459529 Y25.415479 F100.000000
G1 X5.458961 Y25.413258 F100.000000
G1 X5.457532 Y25.411466 F100.000000
G1 X5.449349 Y25.375611 F100.000000
G1 X5.440250 Y25.339977 F100.000000
G1 X5.440702 Y25.337730 F100.000000
G1 X5.440192 Y25.335495 F100.000000
G1 Y25.096735 F100.000000
G1 X5.440489 Y25.095437 F100.000000
G1 X5.440212 Y25.094135 F100.000000
G1 X5.449144 Y25.057514 F100.000000
G1 X5.457532 Y25.020764 F100.000000
G1 X5.458362 Y25.019723 F100.000000
G1 X5.458678 Y25.018430 F100.000000
G1 X5.506938 Y24.921910 F100.000000
G1 X5.526254 Y24.898413 F100.000000
G1 X5.543127 Y24.873104 F100.000000
G1 X5.591387 Y24.827384 F100.000000
G1 X5.612788 Y24.814730 F100.000000
G1 X5.631823 Y24.798736 F100.000000
G1 X5.725803 Y24.750476 F100.000000
G1 X5.728024 Y24.749909 F100.000000
G1 X5.729816 Y24.748480 F100.000000
G1 X5.765671 Y24.740296 F100.000000
G1 X5.801305 Y24.731197 F100.000000
G1 X5.803552 Y24.731650 F100.000000
G1 X5.805787 Y24.731140 F100.000000
G1 X6.044547 F100.000000
G1 X6.045845 Y24.731436 F100.000000
G1 X6.047147 Y24.731159 F100.000000
G1 X6.083768 Y24.740092 F100.000000
G1 X6.120518 Y24.748480 F100.000000
G1 X6.121559 Y24.749310 F100.000000
G1 X6.122852 Y24.749625 F100.000000
G1 X6.219372 Y24.797885 F100.000000
G1 X6.241082 Y24.815732 F100.000000
G1 X6.264878 Y24.830684 F100.000000
G1 X6.310598 Y24.876404 F100.000000
G1 X6.325550 Y24.900200 F100.000000
G1 X6.343397 Y24.921910 F100.000000
G1 X6.391657 Y25.018430 F100.000000
G1 X6.391973 Y25.019723 F100.000000
G1 X6.392802 Y25.020764 F100.000000
G1 X6.401190 Y25.057514 F100.000000
G1 X6.410123 Y25.094135 F100.000000
G1 X6.409846 Y25.095437 F100.000000
G1 X6.410142 Y25.096735 F100.000000
G1 Y25.274399 F100.000000
G1 X6.440952 Y25.271269 F100.000000
G1 Y24.954495 F100.000000
G1 X6.458292 Y24.878524 F100.000000
G1 X6.506877 Y24.817600 F100.000000
G1 X6.571632 Y24.786416 F100.000000
G1 X6.560804 Y24.785367 F100.000000
G1 X5.560044 Y24.452627 F100.000000
G1 X5.540874 Y24.440995 F100.000000
G1 X5.519828 Y24.433260 F100.000000
G1 X5.507979 Y24.421035 F100.000000
G1 X5.493424 Y24.412203 F100.000000
G1 X5.481200 Y24.393406 F100.000000
G1 X5.465594 Y24.377306 F100.000000
G1 X5.460223 Y24.361150 F100.000000
G1 X5.450941 Y24.346878 F100.000000
G1 X5.448083 Y24.324638 F100.000000
G1 X5.441008 Y24.303361 F100.000000
G1 X5.443179 Y24.286475 F100.000000
G1 X5.441008 Y24.269589 F100.000000
G1 X5.448083 Y24.248312 F100.000000
G1 X5.450941 Y24.226072 F100.000000
G1 X5.460223 Y24.211800 F100.000000
G1 X5.465594 Y24.195644 F100.000000
G1 X5.481200 Y24.179544 F100.000000
G1 X5.493424 Y24.160747 F100.000000
G1 X5.507979 Y24.151915 F100.000000
G1 X5.519828 Y24.139690 F100.000000
G1 X5.540874 Y24.131955 F100.000000
G1 X5.560044 Y24.120323 F100.000000
G1 X6.560804 Y23.787583 F100.000000
G1 X6.638365 Y23.780068 F100.000000
G1 X6.711506 Y23.806950 F100.000000
G1 X6.765741 Y23.862904 F100.000000
G1 X6.790326 Y23.936849 F100.000000
G1 X6.780394 Y24.014138 F100.000000
G1 X6.737910 Y24.079463 F100.000000
G1 X6.671291 Y24.119887 F100.000000
G0 Z2.000000
G1 Z-0.040000 F60.000000
G1 X6.170255 Y24.286475 F100.000000
G1 X6.671291 Y24.453063 F100.000000
G1 X6.737910 Y24.493487 F100.000000
G1 X6.780394 Y24.558812 F100.000000
G1 X6.790326 Y24.636101 F100.000000
G1 X6.765741 Y24.710046 F100.000000
G1 X6.711506 Y24.766000 F100.000000
G1 X6.658513 Y24.785477 F100.000000
G1 X6.725217 Y24.817600 F100.000000
G1 X6.773802 Y24.878524 F100.000000
G1 X6.791142 Y24.954495 F100.000000
G1 Y25.429475 F100.000000
G1 X6.788713 Y25.440120 F100.000000
G1 X6.789816 Y25.450982 F100.000000
G1 X6.780131 Y25.477720 F100.000000
G1 X6.773802 Y25.505446 F100.000000
G1 X6.766995 Y25.513982 F100.000000
G1 X6.763276 Y25.524248 F100.000000
G1 X6.742948 Y25.544136 F100.000000
G1 X6.725217 Y25.566370 F100.000000
G1 X6.715380 Y25.571107 F100.000000
G1 X6.707576 Y25.578743 F100.000000
G1 X6.680632 Y25.587841 F100.000000
G1 X6.655010 Y25.600180 F100.000000
G1 X6.644091 F100.000000
G1 X6.633747 Y25.603673 F100.000000
G1 X6.158767 Y25.651933 F100.000000
G1 X6.142451 Y25.649914 F100.000000
G1 X6.126171 Y25.652195 F100.000000
G1 X6.104261 Y25.645187 F100.000000
G1 X6.081432 Y25.642362 F100.000000
G1 X6.067609 Y25.633463 F100.000000
G1 X6.051951 Y25.628455 F100.000000
G1 X6.035251 Y25.612634 F100.000000
G1 X6.015909 Y25.600184 F100.000000
G1 X6.007316 Y25.586169 F100.000000
G1 X5.995381 Y25.574863 F100.000000
G1 X5.987200 Y25.553363 F100.000000
G1 X5.975175 Y25.533753 F100.000000
G1 X5.973513 Y25.517398 F100.000000
G1 X5.967666 Y25.502033 F100.000000
G1 X5.969624 Y25.479113 F100.000000
G1 X5.967298 Y25.456228 F100.000000
G1 X5.972897 Y25.440771 F100.000000
G1 X5.974296 Y25.424391 F100.000000
G1 X5.986004 Y25.404590 F100.000000
G1 X5.993838 Y25.382962 F100.000000
G1 X6.005590 Y25.371465 F100.000000
G1 X6.013957 Y25.357314 F100.000000
G1 X6.042462 Y25.327225 F100.000000
G1 X6.059952 Y25.293166 F100.000000
G1 Y25.138069 F100.000000
G1 X6.042885 Y25.103934 F100.000000
G1 X6.037348 Y25.098398 F100.000000
G1 X6.003213 Y25.081330 F100.000000
G1 X5.848117 F100.000000
G1 X5.814057 Y25.098820 F100.000000
G1 X5.806362 Y25.106111 F100.000000
G1 X5.790382 Y25.138069 F100.000000
G1 Y25.293166 F100.000000
G1 X5.806767 Y25.325073 F100.000000
G1 X5.835618 Y25.353924 F100.000000
G0 Z2.000000
G0 X54.455517 Y48.691984
G1 Z-0.040000 F60.000000
G1 X54.455701 Y48.694135 F100.000000
G1 X54.934467 F100.000000
G1 X55.022285 Y48.714179 F100.000000
G1 X55.092710 Y48.770341 F100.000000
G1 X55.131793 Y48.851497 F100.000000
G1 Y48.941573 F100.000000
G1 X55.092710 Y49.022729 F100.000000
G1 X55.022285 Y49.078891 F100.000000
G1 X54.934467 Y49.098935 F100.000000
G1 X52.902467 F100.000000
G1 X52.814649 Y49.078891 F100.000000
G1 X52.744225 Y49.022729 F100.000000
G1 X52.705142 Y48.941573 F100.000000
G1 Y48.851497 F100.000000
G1 X52.744225 Y48.770341 F100.000000
G1 X52.814649 Y48.714179 F100.000000
G1 X52.902467 Y48.694135 F100.000000
G1 X53.994838 F100.000000
G1 X54.010108 Y48.682482 F100.000000
G1 X54.053887 Y48.616813 F100.000000
G1 Y48.520937 F100.000000
G1 X54.027217 Y48.480931 F100.000000
G1 X53.929423 Y48.443615 F100.000000
G1 X52.902467 F100.000000
G1 X52.814649 Y48.423571 F100.000000
G1 X52.744225 Y48.367409 F100.000000
G1 X52.705142 Y48.286253 F100.000000
G1 Y48.196177 F100.000000
G1 X52.744225 Y48.115021 F100.000000
G1 X52.814649 Y48.058859 F100.000000
G1 X52.902467 Y48.038815 F100.000000
G1 X53.966727 F100.000000
G1 X54.002525 Y48.046986 F100.000000
G1 X54.038884 Y48.052114 F100.000000
G1 X54.231924 Y48.125774 F100.000000
G1 X54.246308 Y48.135383 F100.000000
G1 X54.262784 Y48.140653 F100.000000
G1 X54.283312 Y48.160101 F100.000000
G1 X54.306826 Y48.175809 F100.000000
G1 X54.315617 Y48.190707 F100.000000
G1 X54.328174 Y48.202604 F100.000000
G1 X54.424694 Y48.347384 F100.000000
G1 X54.429761 Y48.360699 F100.000000
G1 X54.438643 Y48.371837 F100.000000
G1 X54.445604 Y48.402334 F100.000000
G1 X54.456729 Y48.431571 F100.000000
G1 X54.455517 Y48.445766 F100.000000
G1 X54.458687 Y48.459655 F100.000000
G1 Y48.678095 F100.000000
G1 X54.455517 Y48.691984 F100.000000
G0 Z2.000000
G0 X53.104867 Y46.282875
G1 Z-0.040000 F60.000000
G1 Y46.366373 F100.000000
G1 X53.131538 Y46.406379 F100.000000
G1 X53.229331 Y46.443695 F100.000000
G1 X54.053887 F100.000000
G1 Y46.282875 F100.000000
G1 X54.073931 Y46.195057 F100.000000
G1 X54.130093 Y46.124632 F100.000000
G1 X54.211249 Y46.085550 F100.000000
G1 X54.301326 F100.000000
G1 X54.382482 Y46.124632 F100.000000
G1 X54.438643 Y46.195057 F100.000000
G1 X54.458687 Y46.282875 F100.000000
G1 Y46.443695 F100.000000
G1 X54.934467 F100.000000
G1 X55.022285 Y46.463739 F100.000000
G1 X55.092710 Y46.519901 F100.000000
G1 X55.131793 Y46.601057 F100.000000
G1 Y46.691133 F100.000000
G1 X55.092710 Y46.772289 F100.000000
G1 X55.022285 Y46.828451 F100.000000
G1 X54.934467 Y46.848495 F100.000000
G1 X54.458687 F100.000000
G1 Y46.864535 F100.000000
G1 X54.438643 Y46.952353 F100.000000
G1 X54.393218 Y47.009315 F100.000000
G1 X54.438643 Y47.066277 F100.000000
G1 X54.458687 Y47.154095 F100.000000
G1 Y47.314915 F100.000000
G1 X54.934467 F100.000000
G1 X55.022285 Y47.334959 F100.000000
G1 X55.092710 Y47.391121 F100.000000
G1 X55.131793 Y47.472277 F100.000000
G1 Y47.562353 F100.000000
G1 X55.092710 Y47.643509 F100.000000
G1 X55.022285 Y47.699671 F100.000000
G1 X54.934467 Y47.719715 F100.000000
G1 X54.458687 F100.000000
G1 Y47.733215 F100.000000
G1 X54.438643 Y47.821033 F100.000000
G1 X54.382482 Y47.891458 F100.000000
G1 X54.301326 Y47.930540 F100.000000
G1 X54.211249 F100.000000
G1 X54.130093 Y47.891458 F100.000000
G1 X54.073931 Y47.821033 F100.000000
G1 X54.053887 Y47.733215 F100.000000
G1 Y47.719715 F100.000000
G1 X53.192027 F100.000000
G1 X53.156229 Y47.711544 F100.000000
G1 X53.119870 Y47.706416 F100.000000
G1 X52.926830 Y47.632756 F100.000000
G1 X52.912446 Y47.623147 F100.000000
G1 X52.895971 Y47.617877 F100.000000
G1 X52.875443 Y47.598429 F100.000000
G1 X52.851928 Y47.582721 F100.000000
G1 X52.843138 Y47.567823 F100.000000
G1 X52.830580 Y47.555926 F100.000000
G1 X52.734060 Y47.411146 F100.000000
G1 X52.728994 Y47.397831 F100.000000
G1 X52.720111 Y47.386693 F100.000000
G1 X52.713150 Y47.356196 F100.000000
G1 X52.702025 Y47.326959 F100.000000
G1 X52.703237 Y47.312764 F100.000000
G1 X52.700067 Y47.298875 F100.000000
G1 Y47.154095 F100.000000
G1 X52.720111 Y47.066277 F100.000000
G1 X52.776273 Y46.995852 F100.000000
G1 X52.857429 Y46.956770 F100.000000
G1 X52.947506 F100.000000
G1 X53.028662 Y46.995852 F100.000000
G1 X53.084823 Y47.066277 F100.000000
G1 X53.104867 Y47.154095 F100.000000
G1 Y47.237593 F100.000000
G1 X53.131538 Y47.277599 F100.000000
G1 X53.229331 Y47.314915 F100.000000
G1 X54.053887 F100.000000
G1 Y47.154095 F100.000000
G1 X54.073931 Y47.066277 F100.000000
G1 X54.119357 Y47.009315 F100.000000
G1 X54.073931 Y46.952353 F100.000000
G1 X54.053887 Y46.864535 F100.000000
G1 Y46.848495 F100.000000
G1 X53.192027 F100.000000
G1 X53.156229 Y46.840324 F100.000000
G1 X53.119870 Y46.835196 F100.000000
G1 X52.926830 Y46.761536 F100.000000
G1 X52.912446 Y46.751927 F100.000000
G1 X52.895971 Y46.746657 F100.000000
G1 X52.875443 Y46.727209 F100.000000
G1 X52.851928 Y46.711501 F100.000000
G1 X52.843138 Y46.696603 F100.000000
G1 X52.830580 Y46.684706 F100.000000
G1 X52.734060 Y46.539926 F100.000000
G1 X52.728994 Y46.526611 F100.000000
G1 X52.720111 Y46.515473 F100.000000
G1 X52.713150 Y46.484976 F100.000000
G1 X52.702025 Y46.455739 F100.000000
G1 X52.703237 Y46.441544 F100.000000
G1 X52.700067 Y46.427655 F100.000000
G1 Y46.282875 F100.000000
G1 X52.720111 Y46.195057 F100.000000
G1 X52.776273 Y46.124632 F100.000000
G1 X52.857429 Y46.085550 F100.000000
G1 X52.947506 F100.000000
G1 X53.028662 Y46.124632 F100.000000
G1 X53.084823 Y46.195057 F100.000000
G1 X53.104867 Y46.282875 F100.000000
G0 Z2.000000
G0 X52.712974 Y45.283987
G1 Z-0.040000 F60.000000
G1 X52.720111 Y45.252717 F100.000000
G1 X52.728489 Y45.242211 F100.000000
G1 X52.733168 Y45.229614 F100.000000
G1 X52.829688 Y45.082294 F100.000000
G1 X52.855517 Y45.057429 F100.000000
G1 X52.878924 Y45.030272 F100.000000
G1 X52.975444 Y44.959152 F100.000000
G1 X53.000566 Y44.948214 F100.000000
G1 X53.023350 Y44.932994 F100.000000
G1 X53.216390 Y44.859334 F100.000000
G1 X53.252749 Y44.854206 F100.000000
G1 X53.288547 Y44.846035 F100.000000
G1 X53.870207 F100.000000
G1 X53.906005 Y44.854206 F100.000000
G1 X53.942364 Y44.859334 F100.000000
G1 X54.135404 Y44.932994 F100.000000
G1 X54.158188 Y44.948214 F100.000000
G1 X54.183311 Y44.959152 F100.000000
G1 X54.279831 Y45.030272 F100.000000
G1 X54.303238 Y45.057429 F100.000000
G1 X54.329067 Y45.082294 F100.000000
G1 X54.425587 Y45.229614 F100.000000
G1 X54.430265 Y45.242211 F100.000000
G1 X54.438643 Y45.252717 F100.000000
G1 X54.445781 Y45.283987 F100.000000
G1 X54.456948 Y45.314055 F100.000000
G1 X54.455697 Y45.327435 F100.000000
G1 X54.458687 Y45.340535 F100.000000
G1 Y45.630095 F100.000000
G1 X54.455517 Y45.643984 F100.000000
G1 X54.456729 Y45.658179 F100.000000
G1 X54.445604 Y45.687416 F100.000000
G1 X54.441610 Y45.704914 F100.000000
G1 X54.453613 Y45.729837 F100.000000
G1 Y45.819913 F100.000000
G1 X54.414530 Y45.901069 F100.000000
G1 X54.344105 Y45.957231 F100.000000
G1 X54.256287 Y45.977275 F100.000000
G1 X52.224287 F100.000000
G1 X52.136469 Y45.957231 F100.000000
G1 X52.066045 Y45.901069 F100.000000
G1 X52.026962 Y45.819913 F100.000000
G1 Y45.729837 F100.000000
G1 X52.066045 Y45.648681 F100.000000
G1 X52.136469 Y45.592519 F100.000000
G1 X52.224287 Y45.572475 F100.000000
G1 X52.700067 F100.000000
G1 Y45.340535 F100.000000
G1 X52.703057 Y45.327435 F100.000000
G1 X52.701807 Y45.314055 F100.000000
G1 X52.712974 Y45.283987 F100.000000
G0 Z2.000000
G0 X53.107309 Y45.572475
G1 Z-0.040000 F60.000000
G1 X54.051446 F100.000000
G1 X54.053887 Y45.568813 F100.000000
G1 Y45.400934 F100.000000
G1 X54.010409 Y45.334573 F100.000000
G1 X53.965357 Y45.301377 F100.000000
G1 X53.832903 Y45.250835 F100.000000
G1 X53.325851 F100.000000
G1 X53.193397 Y45.301377 F100.000000
G1 X53.148345 Y45.334573 F100.000000
G1 X53.104867 Y45.400934 F100.000000
G1 Y45.568813 F100.000000
G1 X53.107309 Y45.572475 F100.000000
G0 Z2.000000
G0 X52.954157 Y44.665729
G1 Z-0.040000 F60.000000
G1 X52.949751 Y44.665635 F100.000000
G1 X52.913352 Y44.647139 F100.000000
G1 X52.876197 Y44.630213 F100.000000
G1 X52.779677 Y44.556553 F100.000000
G1 X52.775749 Y44.551838 F100.000000
G1 X52.770326 Y44.548967 F100.000000
G1 X52.759066 Y44.533685 F100.000000
G1 X52.744225 Y44.521849 F100.000000
G1 X52.735256 Y44.503225 F100.000000
G1 X52.722026 Y44.487342 F100.000000
G1 X52.720533 Y44.481390 F100.000000
G1 X52.716893 Y44.476450 F100.000000
G1 X52.713378 Y44.457796 F100.000000
G1 X52.705142 Y44.440693 F100.000000
G1 Y44.420022 F100.000000
G1 X52.700113 Y44.399972 F100.000000
G1 X52.701351 Y44.393961 F100.000000
G1 X52.700215 Y44.387931 F100.000000
G1 X52.705142 Y44.369599 F100.000000
G1 Y44.350617 F100.000000
G1 X52.714111 Y44.331993 F100.000000
G1 X52.718280 Y44.311746 F100.000000
G1 X52.722003 Y44.306868 F100.000000
G1 X52.723595 Y44.300942 F100.000000
G1 X52.735989 Y44.286563 F100.000000
G1 X52.744225 Y44.269461 F100.000000
G1 X52.760386 Y44.256572 F100.000000
G1 X52.772927 Y44.240140 F100.000000
G1 X52.778398 Y44.237360 F100.000000
G1 X52.782404 Y44.232712 F100.000000
G1 X52.878924 Y44.161592 F100.000000
G1 X52.913309 Y44.146621 F100.000000
G1 X52.946452 Y44.129072 F100.000000
G1 X52.954306 Y44.128772 F100.000000
G1 X52.961512 Y44.125635 F100.000000
G1 X52.998987 Y44.127066 F100.000000
G1 X53.036462 Y44.125635 F100.000000
G1 X53.043669 Y44.128772 F100.000000
G1 X53.051523 Y44.129072 F100.000000
G1 X53.084666 Y44.146621 F100.000000
G1 X53.119051 Y44.161592 F100.000000
G1 X53.215571 Y44.232712 F100.000000
G1 X53.219577 Y44.237360 F100.000000
G1 X53.225048 Y44.240140 F100.000000
G1 X53.237589 Y44.256572 F100.000000
G1 X53.253750 Y44.269461 F100.000000
G1 X53.261986 Y44.286563 F100.000000
G1 X53.274379 Y44.300942 F100.000000
G1 X53.275972 Y44.306868 F100.000000
G1 X53.279695 Y44.311746 F100.000000
G1 X53.283864 Y44.331993 F100.000000
G1 X53.292833 Y44.350617 F100.000000
G1 Y44.369599 F100.000000
G1 X53.297760 Y44.387931 F100.000000
G1 X53.296624 Y44.393961 F100.000000
G1 X53.297861 Y44.399972 F100.000000
G1 X53.292833 Y44.420022 F100.000000
G1 Y44.440693 F100.000000
G1 X53.284597 Y44.457796 F100.000000
G1 X53.281082 Y44.476450 F100.000000
G1 X53.277442 Y44.481390 F100.000000
G1 X53.275949 Y44.487342 F100.000000
G1 X53.262719 Y44.503225 F100.000000
G1 X53.253750 Y44.521849 F100.000000
G1 X53.238909 Y44.533685 F100.000000
G1 X53.227649 Y44.548967 F100.000000
G1 X53.222226 Y44.551838 F100.000000
G1 X53.218298 Y44.556553 F100.000000
G1 X53.121778 Y44.630213 F100.000000
G1 X53.084623 Y44.647139 F100.000000
G1 X53.048224 Y44.665635 F100.000000
G1 X53.043818 Y44.665729 F100.000000
G1 X53.039807 Y44.667556 F100.000000
G1 X52.998987 Y44.666685 F100.000000
G1 X52.958168 Y44.667556 F100.000000
G1 X52.954157 Y44.665729 F100.000000
G0 Z2.000000
G0 X54.018417
G1 Z-0.040000 F60.000000
G1 X54.014011 Y44.665635 F100.000000
G1 X53.977612 Y44.647139 F100.000000
G1 X53.940457 Y44.630213 F100.000000
G1 X53.843937 Y44.556553 F100.000000
G1 X53.840009 Y44.551838 F100.000000
G1 X53.834586 Y44.548967 F100.000000
G1 X53.823326 Y44.533685 F100.000000
G1 X53.808485 Y44.521849 F100.000000
G1 X53.799516 Y44.503225 F100.000000
G1 X53.786286 Y44.487342 F100.000000
G1 X53.784793 Y44.481390 F100.000000
G1 X53.781153 Y44.476450 F100.000000
G1 X53.777638 Y44.457796 F100.000000
G1 X53.769402 Y44.440693 F100.000000
G1 Y44.420022 F100.000000
G1 X53.764373 Y44.399972 F100.000000
G1 X53.765611 Y44.393961 F100.000000
G1 X53.764475 Y44.387931 F100.000000
G1 X53.769402 Y44.369599 F100.000000
G1 Y44.350617 F100.000000
G1 X53.778371 Y44.331993 F100.000000
G1 X53.782540 Y44.311746 F100.000000
G1 X53.786263 Y44.306868 F100.000000
G1 X53.787855 Y44.300942 F100.000000
G1 X53.800249 Y44.286563 F100.000000
G1 X53.808485 Y44.269461 F100.000000
G1 X53.824646 Y44.256572 F100.000000
G1 X53.837187 Y44.240140 F100.000000
G1 X53.842658 Y44.237360 F100.000000
G1 X53.846664 Y44.232712 F100.000000
G1 X53.943184 Y44.161592 F100.000000
G1 X53.977569 Y44.146621 F100.000000
G1 X54.010712 Y44.129072 F100.000000
G1 X54.018566 Y44.128772 F100.000000
G1 X54.025772 Y44.125635 F100.000000
G1 X54.063247 Y44.127066 F100.000000
G1 X54.100722 Y44.125635 F100.000000
G1 X54.107929 Y44.128772 F100.000000
G1 X54.115783 Y44.129072 F100.000000
G1 X54.148926 Y44.146621 F100.000000
G1 X54.183311 Y44.161592 F100.000000
G1 X54.279831 Y44.232712 F100.000000
G1 X54.283837 Y44.237360 F100.000000
G1 X54.289308 Y44.240140 F100.000000
G1 X54.301849 Y44.256572 F100.000000
G1 X54.318010 Y44.269461 F100.000000
G1 X54.326246 Y44.286563 F100.000000
G1 X54.338639 Y44.300942 F100.000000
G1 X54.340232 Y44.306868 F100.000000
G1 X54.343955 Y44.311746 F100.000000
G1 X54.348124 Y44.331993 F100.000000
G1 X54.357093 Y44.350617 F100.000000
G1 Y44.369599 F100.000000
G1 X54.362020 Y44.387931 F100.000000
G1 X54.360884 Y44.393961 F100.000000
G1 X54.362121 Y44.399972 F100.000000
G1 X54.357093 Y44.420022 F100.000000
G1 Y44.440693 F100.000000
G1 X54.348857 Y44.457796 F100.000000
G1 X54.345342 Y44.476450 F100.000000
G1 X54.341702 Y44.481390 F100.000000
G1 X54.340209 Y44.487342 F100.000000
G1 X54.326979 Y44.503225 F100.000000
G1 X54.318010 Y44.521849 F100.000000
G1 X54.303169 Y44.533685 F100.000000
G1 X54.291909 Y44.548967 F100.000000
G1 X54.286486 Y44.551838 F100.000000
G1 X54.282558 Y44.556553 F100.000000
G1 X54.186038 Y44.630213 F100.000000
G1 X54.148883 Y44.647139 F100.000000
G1 X54.112484 Y44.665635 F100.000000
G1 X54.108078 Y44.665729 F100.000000
G1 X54.104067 Y44.667556 F100.000000
G1 X54.063247 Y44.666685 F100.000000
G1 X54.022428 Y44.667556 F100.000000
G1 X54.018417 Y44.665729 F100.000000
G0 Z2.000000
G0 X54.940542 Y42.401028
G1 Z-0.040000 F60.000000
G1 X55.028061 Y42.379716 F100.000000
G1 X55.116159 Y42.398488 F100.000000
G1 X55.187389 Y42.453626 F100.000000
G1 X55.227641 Y42.534208 F100.000000
G1 X55.228943 Y42.624275 F100.000000
G1 X55.191038 Y42.705988 F100.000000
G1 X55.121433 Y42.763162 F100.000000
G1 X52.507773 Y44.068722 F100.000000
G1 X52.420254 Y44.090034 F100.000000
G1 X52.332155 Y44.071262 F100.000000
G1 X52.260926 Y44.016124 F100.000000
G1 X52.220674 Y43.935542 F100.000000
G1 X52.219371 Y43.845475 F100.000000
G1 X52.257277 Y43.763762 F100.000000
G1 X52.326882 Y43.706588 F100.000000
G1 X54.940542 Y42.401028 F100.000000
G0 Z2.000000
G0 X54.940401 Y40.803438
G1 Z-0.040000 F60.000000
G1 X55.027903 Y40.782058 F100.000000
G1 X55.116017 Y40.800762 F100.000000
G1 X55.187289 Y40.855844 F100.000000
G1 X55.227604 Y40.936395 F100.000000
G1 X55.228976 Y41.026461 F100.000000
G1 X55.191134 Y41.108204 F100.000000
G1 X55.121574 Y41.165432 F100.000000
G1 X52.507914 Y42.473532 F100.000000
G1 X52.420411 Y42.494912 F100.000000
G1 X52.332298 Y42.476208 F100.000000
G1 X52.261026 Y42.421126 F100.000000
G1 X52.220711 Y42.340575 F100.000000
G1 X52.219339 Y42.250509 F100.000000
G1 X52.257180 Y42.168766 F100.000000
G1 X52.326741 Y42.111538 F100.000000
G1 X54.940401 Y40.803438 F100.000000
G0 Z2.000000
G0 X54.328174 Y39.711384
G1 Z-0.040000 F60.000000
G1 X54.424694 Y39.856164 F100.000000
G1 X54.429761 Y39.869479 F100.000000
G1 X54.438643 Y39.880617 F100.000000
G1 X54.445604 Y39.911114 F100.000000
G1 X54.456729 Y39.940351 F100.000000
G1 X54.455517 Y39.954546 F100.000000
G1 X54.458687 Y39.968435 F100.000000
G1 Y40.260535 F100.000000
G1 X54.455517 Y40.274424 F100.000000
G1 X54.456729 Y40.288619 F100.000000
G1 X54.445604 Y40.317856 F100.000000
G1 X54.438643 Y40.348353 F100.000000
G1 X54.429761 Y40.359491 F100.000000
G1 X54.424694 Y40.372806 F100.000000
G1 X54.328174 Y40.517586 F100.000000
G1 X54.302722 Y40.541700 F100.000000
G1 X54.279831 Y40.568258 F100.000000
G1 X54.183311 Y40.639378 F100.000000
G1 X54.158188 Y40.650316 F100.000000
G1 X54.135404 Y40.665536 F100.000000
G1 X53.942364 Y40.739196 F100.000000
G1 X53.906005 Y40.744324 F100.000000
G1 X53.870207 Y40.752495 F100.000000
G1 X53.288547 F100.000000
G1 X53.252749 Y40.744324 F100.000000
G1 X53.216390 Y40.739196 F100.000000
G1 X53.023350 Y40.665536 F100.000000
G1 X53.000566 Y40.650316 F100.000000
G1 X52.975444 Y40.639378 F100.000000
G1 X52.878924 Y40.568258 F100.000000
G1 X52.856033 Y40.541700 F100.000000
G1 X52.830580 Y40.517586 F100.000000
G1 X52.734060 Y40.372806 F100.000000
G1 X52.728994 Y40.359491 F100.000000
G1 X52.720111 Y40.348353 F100.000000
G1 X52.713150 Y40.317856 F100.000000
G1 X52.702025 Y40.288619 F100.000000
G1 X52.703237 Y40.274424 F100.000000
G1 X52.700067 Y40.260535 F100.000000
G1 Y39.968435 F100.000000
G1 X52.703237 Y39.954546 F100.000000
G1 X52.702025 Y39.940351 F100.000000
G1 X52.713150 Y39.911114 F100.000000
G1 X52.720111 Y39.880617 F100.000000
G1 X52.728994 Y39.869479 F100.000000
G1 X52.734060 Y39.856164 F100.000000
G1 X52.830580 Y39.711384 F100.000000
G1 X52.895971 Y39.649433 F100.000000
G1 X52.981765 Y39.621989 F100.000000
G1 X53.070970 Y39.634488 F100.000000
G1 X53.145918 Y39.684453 F100.000000
G1 X53.191765 Y39.761989 F100.000000
G1 X53.199429 Y39.851739 F100.000000
G1 X53.167394 Y39.935926 F100.000000
G1 X53.104867 Y40.029717 F100.000000
G1 Y40.199253 F100.000000
G1 X53.147673 Y40.263462 F100.000000
G1 X53.193397 Y40.297153 F100.000000
G1 X53.325851 Y40.347695 F100.000000
G1 X53.832903 F100.000000
G1 X53.965357 Y40.297153 F100.000000
G1 X54.011082 Y40.263462 F100.000000
G1 X54.053887 Y40.199253 F100.000000
G1 Y40.029717 F100.000000
G1 X53.991360 Y39.935926 F100.000000
G1 X53.959325 Y39.851739 F100.000000
G1 X53.966990 Y39.761989 F100.000000
G1 X54.012837 Y39.684453 F100.000000
G1 X54.087785 Y39.634488 F100.000000
G1 X54.176990 Y39.621989 F100.000000
G1 X54.262784 Y39.649433 F100.000000
G1 X54.328174 Y39.711384 F100.000000
G0 Z2.000000
G0 X53.991360 Y39.058604
G1 Z-0.040000 F60.000000
G1 X54.053887 Y38.964813 F100.000000
G1 Y38.796934 F100.000000
G1 X54.027090 Y38.756033 F100.000000
G1 X53.930629 Y38.720495 F100.000000
G1 X53.879469 F100.000000
G1 X53.877027 Y38.724157 F100.000000
G1 Y39.026095 F100.000000
G1 X53.873857 Y39.039984 F100.000000
G1 X53.875069 Y39.054179 F100.000000
G1 X53.863944 Y39.083416 F100.000000
G1 X53.856983 Y39.113913 F100.000000
G1 X53.848101 Y39.125051 F100.000000
G1 X53.843034 Y39.138366 F100.000000
G1 X53.746514 Y39.283146 F100.000000
G1 X53.733957 Y39.295043 F100.000000
G1 X53.725166 Y39.309941 F100.000000
G1 X53.701652 Y39.325649 F100.000000
G1 X53.681124 Y39.345097 F100.000000
G1 X53.664648 Y39.350367 F100.000000
G1 X53.650264 Y39.359976 F100.000000
G1 X53.457224 Y39.433636 F100.000000
G1 X53.420865 Y39.438764 F100.000000
G1 X53.385067 Y39.446935 F100.000000
G1 X53.192027 F100.000000
G1 X53.156229 Y39.438764 F100.000000
G1 X53.119870 Y39.433636 F100.000000
G1 X52.926830 Y39.359976 F100.000000
G1 X52.912446 Y39.350367 F100.000000
G1 X52.895971 Y39.345097 F100.000000
G1 X52.875443 Y39.325649 F100.000000
G1 X52.851928 Y39.309941 F100.000000
G1 X52.843138 Y39.295043 F100.000000
G1 X52.830580 Y39.283146 F100.000000
G1 X52.734060 Y39.138366 F100.000000
G1 X52.728994 Y39.125051 F100.000000
G1 X52.720111 Y39.113913 F100.000000
G1 X52.713150 Y39.083416 F100.000000
G1 X52.702025 Y39.054179 F100.000000
G1 X52.703237 Y39.039984 F100.000000
G1 X52.700067 Y39.026095 F100.000000
G1 Y38.662875 F100.000000
G1 X52.703237 Y38.648986 F100.000000
G1 X52.702025 Y38.634791 F100.000000
G1 X52.713150 Y38.605554 F100.000000
G1 X52.717144 Y38.588056 F100.000000
G1 X52.705142 Y38.563133 F100.000000
G1 Y38.473057 F100.000000
G1 X52.744225 Y38.391901 F100.000000
G1 X52.814649 Y38.335739 F100.000000
G1 X52.902467 Y38.315695 F100.000000
G1 X53.966727 F100.000000
G1 X54.001414 Y38.323612 F100.000000
G1 X54.036698 Y38.328174 F100.000000
G1 X54.229738 Y38.399294 F100.000000
G1 X54.245877 Y38.409808 F100.000000
G1 X54.264175 Y38.415823 F100.000000
G1 X54.283147 Y38.434087 F100.000000
G1 X54.305212 Y38.448462 F100.000000
G1 X54.315191 Y38.464936 F100.000000
G1 X54.329067 Y38.478294 F100.000000
G1 X54.425587 Y38.625614 F100.000000
G1 X54.430265 Y38.638211 F100.000000
G1 X54.438643 Y38.648717 F100.000000
G1 X54.445781 Y38.679987 F100.000000
G1 X54.456948 Y38.710055 F100.000000
G1 X54.455697 Y38.723435 F100.000000
G1 X54.458687 Y38.736535 F100.000000
G1 Y39.026095 F100.000000
G1 X54.455517 Y39.039984 F100.000000
G1 X54.456729 Y39.054179 F100.000000
G1 X54.445604 Y39.083416 F100.000000
G1 X54.438643 Y39.113913 F100.000000
G1 X54.429761 Y39.125051 F100.000000
G1 X54.424694 Y39.138366 F100.000000
G1 X54.328174 Y39.283146 F100.000000
G1 X54.262784 Y39.345097 F100.000000
G1 X54.176990 Y39.372541 F100.000000
G1 X54.087785 Y39.360042 F100.000000
G1 X54.012837 Y39.310077 F100.000000
G1 X53.966990 Y39.232541 F100.000000
G1 X53.959325 Y39.142791 F100.000000
G1 X53.991360 Y39.058604 F100.000000
G0 Z2.000000
G0 X53.472227 Y38.720495
G1 Z-0.040000 F60.000000
G1 X53.107309 F100.000000
G1 X53.104867 Y38.724157 F100.000000
G1 Y38.964813 F100.000000
G1 X53.131538 Y39.004819 F100.000000
G1 X53.229331 Y39.042135 F100.000000
G1 X53.347763 F100.000000
G1 X53.445557 Y39.004819 F100.000000
G1 X53.472227 Y38.964813 F100.000000
G1 Y38.720495 F100.000000
G0 Z2.000000
G0 X54.458687 Y37.357315
G1 Z-0.040000 F60.000000
G1 Y37.502095 F100.000000
G1 X54.455517 Y37.515984 F100.000000
G1 X54.456729 Y37.530179 F100.000000
G1 X54.445604 Y37.559416 F100.000000
G1 X54.438643 Y37.589913 F100.000000
G1 X54.429761 Y37.601051 F100.000000
G1 X54.424694 Y37.614366 F100.000000
G1 X54.398927 Y37.653018 F100.000000
G1 X54.414530 Y37.665461 F100.000000
G1 X54.453613 Y37.746617 F100.000000
G1 Y37.836693 F100.000000
G1 X54.414530 Y37.917849 F100.000000
G1 X54.344105 Y37.974011 F100.000000
G1 X54.256287 Y37.994055 F100.000000
G1 X52.902467 F100.000000
G1 X52.814649 Y37.974011 F100.000000
G1 X52.744225 Y37.917849 F100.000000
G1 X52.705142 Y37.836693 F100.000000
G1 Y37.746617 F100.000000
G1 X52.744225 Y37.665461 F100.000000
G1 X52.814649 Y37.609299 F100.000000
G1 X52.902467 Y37.589255 F100.000000
G1 X53.834109 F100.000000
G1 X53.964682 Y37.541149 F100.000000
G1 X54.010108 Y37.506482 F100.000000
G1 X54.053887 Y37.440813 F100.000000
G1 Y37.357315 F100.000000
G1 X54.073931 Y37.269497 F100.000000
G1 X54.130093 Y37.199072 F100.000000
G1 X54.211249 Y37.159990 F100.000000
G1 X54.301326 F100.000000
G1 X54.382482 Y37.199072 F100.000000
G1 X54.438643 Y37.269497 F100.000000
G1 X54.458687 Y37.357315 F100.000000
G0 Z2.000000
G0 X54.934467 Y37.051715
G1 Z-0.040000 F60.000000
G1 X53.192027 F100.000000
G1 X53.156229 Y37.043544 F100.000000
G1 X53.119870 Y37.038416 F100.000000
G1 X52.926830 Y36.964756 F100.000000
G1 X52.912446 Y36.955147 F100.000000
G1 X52.895971 Y36.949877 F100.000000
