(Generated by ./pygerber2gcode_cui_MOD.py )
( 2013-05-29 19:50:34 )
(Initialize)

(Start form here)
G0 Z2.000000
G0 X49.926715 Y25.889215
G17
G0 Z-0.283333 F30.000000
G1 X49.926715 Y25.889215 F100.000000
G1 X49.906945 Y25.841485 F100.000000
G1 X49.859215 Y25.821715 F100.000000
G1 X49.811485 Y25.841485 F100.000000
G1 X49.791715 Y25.889215 F100.000000
G1 X49.811485 Y25.936945 F100.000000
G1 X49.859215 Y25.956715 F100.000000
G1 X49.906945 Y25.936945 F100.000000
G1 X49.926715 Y25.889215 F100.000000
G0 Z-0.566667 F30.000000
G1 X49.906945 Y25.841485 F100.000000
G1 X49.859215 Y25.821715 F100.000000
G1 X49.811485 Y25.841485 F100.000000
G1 X49.791715 Y25.889215 F100.000000
G1 X49.811485 Y25.936945 F100.000000
G1 X49.859215 Y25.956715 F100.000000
G1 X49.906945 Y25.936945 F100.000000
G1 X49.926715 Y25.889215 F100.000000
G0 Z-0.850000 F30.000000
G1 X49.906945 Y25.841485 F100.000000
G1 X49.859215 Y25.821715 F100.000000
G1 X49.811485 Y25.841485 F100.000000
G1 X49.791715 Y25.889215 F100.000000
G1 X49.811485 Y25.936945 F100.000000
G1 X49.859215 Y25.956715 F100.000000
G1 X49.906945 Y25.936945 F100.000000
G1 X49.926715 Y25.889215 F100.000000
G0 Z-1.133333 F30.000000
G1 X49.906945 Y25.841485 F100.000000
G1 X49.859215 Y25.821715 F100.000000
G1 X49.811485 Y25.841485 F100.000000
G1 X49.791715 Y25.889215 F100.000000
G1 X49.811485 Y25.936945 F100.000000
G1 X49.859215 Y25.956715 F100.000000
G1 X49.906945 Y25.936945 F100.000000
G1 X49.926715 Y25.889215 F100.000000
G0 Z-1.416667 F30.000000
G1 X49.906945 Y25.841485 F100.000000
G1 X49.859215 Y25.821715 F100.000000
G1 X49.811485 Y25.841485 F100.000000
G1 X49.791715 Y25.889215 F100.000000
G1 X49.811485 Y25.936945 F100.000000
G1 X49.859215 Y25.956715 F100.000000
G1 X49.906945 Y25.936945 F100.000000
G1 X49.926715 Y25.889215 F100.000000
G0 Z-1.700000 F30.000000
G1 X49.906945 Y25.841485 F100.000000
G1 X49.859215 Y25.821715 F100.000000
G1 X49.811485 Y25.841485 F100.000000
G1 X49.791715 Y25.889215 F100.000000
G1 X49.811485 Y25.936945 F100.000000
G1 X49.859215 Y25.956715 F100.000000
G1 X49.906945 Y25.936945 F100.000000
G1 X49.926715 Y25.889215 F100.000000
G0 Z2.000000
G0 X37.988715 Y15.475215
G17
G0 Z-0.283333 F30.000000
G1 X37.988715 Y15.475215 F100.000000
G1 X37.968945 Y15.427485 F100.000000
G1 X37.921215 Y15.407715 F100.000000
G1 X37.873485 Y15.427485 F100.000000
G1 X37.853715 Y15.475215 F100.000000
G1 X37.873485 Y15.522945 F100.000000
G1 X37.921215 Y15.542715 F100.000000
G1 X37.968945 Y15.522945 F100.000000
G1 X37.988715 Y15.475215 F100.000000
G0 Z-0.566667 F30.000000
G1 X37.968945 Y15.427485 F100.000000
G1 X37.921215 Y15.407715 F100.000000
G1 X37.873485 Y15.427485 F100.000000
G1 X37.853715 Y15.475215 F100.000000
G1 X37.873485 Y15.522945 F100.000000
G1 X37.921215 Y15.542715 F100.000000
G1 X37.968945 Y15.522945 F100.000000
G1 X37.988715 Y15.475215 F100.000000
G0 Z-0.850000 F30.000000
G1 X37.968945 Y15.427485 F100.000000
G1 X37.921215 Y15.407715 F100.000000
G1 X37.873485 Y15.427485 F100.000000
G1 X37.853715 Y15.475215 F100.000000
G1 X37.873485 Y15.522945 F100.000000
G1 X37.921215 Y15.542715 F100.000000
G1 X37.968945 Y15.522945 F100.000000
G1 X37.988715 Y15.475215 F100.000000
G0 Z-1.133333 F30.000000
G1 X37.968945 Y15.427485 F100.000000
G1 X37.921215 Y15.407715 F100.000000
G1 X37.873485 Y15.427485 F100.000000
G1 X37.853715 Y15.475215 F100.000000
G1 X37.873485 Y15.522945 F100.000000
G1 X37.921215 Y15.542715 F100.000000
G1 X37.968945 Y15.522945 F100.000000
G1 X37.988715 Y15.475215 F100.000000
G0 Z-1.416667 F30.000000
G1 X37.968945 Y15.427485 F100.000000
G1 X37.921215 Y15.407715 F100.000000
G1 X37.873485 Y15.427485 F100.000000
G1 X37.853715 Y15.475215 F100.000000
G1 X37.873485 Y15.522945 F100.000000
G1 X37.921215 Y15.542715 F100.000000
G1 X37.968945 Y15.522945 F100.000000
G1 X37.988715 Y15.475215 F100.000000
G0 Z-1.700000 F30.000000
G1 X37.968945 Y15.427485 F100.000000
G1 X37.921215 Y15.407715 F100.000000
G1 X37.873485 Y15.427485 F100.000000
G1 X37.853715 Y15.475215 F100.000000
G1 X37.873485 Y15.522945 F100.000000
G1 X37.921215 Y15.542715 F100.000000
G1 X37.968945 Y15.522945 F100.000000
G1 X37.988715 Y15.475215 F100.000000
G0 Z2.000000
G0 X16.144715 Y22.333215
G17
G0 Z-0.283333 F30.000000
G1 X16.144715 Y22.333215 F100.000000
G1 X16.124945 Y22.285485 F100.000000
G1 X16.077215 Y22.265715 F100.000000
G1 X16.029485 Y22.285485 F100.000000
G1 X16.009715 Y22.333215 F100.000000
G1 X16.029485 Y22.380945 F100.000000
G1 X16.077215 Y22.400715 F100.000000
G1 X16.124945 Y22.380945 F100.000000
G1 X16.144715 Y22.333215 F100.000000
G0 Z-0.566667 F30.000000
G1 X16.124945 Y22.285485 F100.000000
G1 X16.077215 Y22.265715 F100.000000
G1 X16.029485 Y22.285485 F100.000000
G1 X16.009715 Y22.333215 F100.000000
G1 X16.029485 Y22.380945 F100.000000
G1 X16.077215 Y22.400715 F100.000000
G1 X16.124945 Y22.380945 F100.000000
G1 X16.144715 Y22.333215 F100.000000
G0 Z-0.850000 F30.000000
G1 X16.124945 Y22.285485 F100.000000
G1 X16.077215 Y22.265715 F100.000000
G1 X16.029485 Y22.285485 F100.000000
G1 X16.009715 Y22.333215 F100.000000
G1 X16.029485 Y22.380945 F100.000000
G1 X16.077215 Y22.400715 F100.000000
G1 X16.124945 Y22.380945 F100.000000
G1 X16.144715 Y22.333215 F100.000000
G0 Z-1.133333 F30.000000
G1 X16.124945 Y22.285485 F100.000000
G1 X16.077215 Y22.265715 F100.000000
G1 X16.029485 Y22.285485 F100.000000
G1 X16.009715 Y22.333215 F100.000000
G1 X16.029485 Y22.380945 F100.000000
G1 X16.077215 Y22.400715 F100.000000
G1 X16.124945 Y22.380945 F100.000000
G1 X16.144715 Y22.333215 F100.000000
G0 Z-1.416667 F30.000000
G1 X16.124945 Y22.285485 F100.000000
G1 X16.077215 Y22.265715 F100.000000
G1 X16.029485 Y22.285485 F100.000000
G1 X16.009715 Y22.333215 F100.000000
G1 X16.029485 Y22.380945 F100.000000
G1 X16.077215 Y22.400715 F100.000000
G1 X16.124945 Y22.380945 F100.000000
G1 X16.144715 Y22.333215 F100.000000
G0 Z-1.700000 F30.000000
G1 X16.124945 Y22.285485 F100.000000
G1 X16.077215 Y22.265715 F100.000000
G1 X16.029485 Y22.285485 F100.000000
G1 X16.009715 Y22.333215 F100.000000
G1 X16.029485 Y22.380945 F100.000000
G1 X16.077215 Y22.400715 F100.000000
G1 X16.124945 Y22.380945 F100.000000
G1 X16.144715 Y22.333215 F100.000000
G0 Z2.000000
G0 X16.144715 Y19.031215
G17
G0 Z-0.283333 F30.000000
G1 Y19.031215 F100.000000
G1 X16.124945 Y18.983485 F100.000000
G1 X16.077215 Y18.963715 F100.000000
G1 X16.029485 Y18.983485 F100.000000
G1 X16.009715 Y19.031215 F100.000000
G1 X16.029485 Y19.078945 F100.000000
G1 X16.077215 Y19.098715 F100.000000
G1 X16.124945 Y19.078945 F100.000000
G1 X16.144715 Y19.031215 F100.000000
G0 Z-0.566667 F30.000000
G1 X16.124945 Y18.983485 F100.000000
G1 X16.077215 Y18.963715 F100.000000
G1 X16.029485 Y18.983485 F100.000000
G1 X16.009715 Y19.031215 F100.000000
G1 X16.029485 Y19.078945 F100.000000
G1 X16.077215 Y19.098715 F100.000000
G1 X16.124945 Y19.078945 F100.000000
G1 X16.144715 Y19.031215 F100.000000
G0 Z-0.850000 F30.000000
G1 X16.124945 Y18.983485 F100.000000
G1 X16.077215 Y18.963715 F100.000000
G1 X16.029485 Y18.983485 F100.000000
G1 X16.009715 Y19.031215 F100.000000
G1 X16.029485 Y19.078945 F100.000000
G1 X16.077215 Y19.098715 F100.000000
G1 X16.124945 Y19.078945 F100.000000
G1 X16.144715 Y19.031215 F100.000000
G0 Z-1.133333 F30.000000
G1 X16.124945 Y18.983485 F100.000000
G1 X16.077215 Y18.963715 F100.000000
G1 X16.029485 Y18.983485 F100.000000
G1 X16.009715 Y19.031215 F100.000000
G1 X16.029485 Y19.078945 F100.000000
G1 X16.077215 Y19.098715 F100.000000
G1 X16.124945 Y19.078945 F100.000000
G1 X16.144715 Y19.031215 F100.000000
G0 Z-1.416667 F30.000000
G1 X16.124945 Y18.983485 F100.000000
G1 X16.077215 Y18.963715 F100.000000
G1 X16.029485 Y18.983485 F100.000000
G1 X16.009715 Y19.031215 F100.000000
G1 X16.029485 Y19.078945 F100.000000
G1 X16.077215 Y19.098715 F100.000000
G1 X16.124945 Y19.078945 F100.000000
G1 X16.144715 Y19.031215 F100.000000
G0 Z-1.700000 F30.000000
G1 X16.124945 Y18.983485 F100.000000
G1 X16.077215 Y18.963715 F100.000000
G1 X16.029485 Y18.983485 F100.000000
G1 X16.009715 Y19.031215 F100.000000
G1 X16.029485 Y19.078945 F100.000000
G1 X16.077215 Y19.098715 F100.000000
G1 X16.124945 Y19.078945 F100.000000
G1 X16.144715 Y19.031215 F100.000000
G0 Z2.000000
G0 X61.826615 Y51.797215
G17
G0 Z-0.283333 F30.000000
G1 X61.826615 Y51.797215 F100.000000
G1 X61.818141 Y51.746432 F100.000000
G1 X61.793637 Y51.701152 F100.000000
G1 X61.755758 Y51.666282 F100.000000
G1 X61.708609 Y51.645601 F100.000000
G1 X61.657300 Y51.641349 F100.000000
G1 X61.607390 Y51.653988 F100.000000
G1 X61.564288 Y51.682148 F100.000000
G1 X61.532665 Y51.722777 F100.000000
G1 X61.515948 Y51.771472 F100.000000
G1 Y51.822958 F100.000000
G1 X61.532665 Y51.871653 F100.000000
G1 X61.564288 Y51.912282 F100.000000
G1 X61.607390 Y51.940442 F100.000000
G1 X61.657300 Y51.953081 F100.000000
G1 X61.708609 Y51.948829 F100.000000
G1 X61.755758 Y51.928148 F100.000000
G1 X61.793637 Y51.893278 F100.000000
G1 X61.818141 Y51.847998 F100.000000
G1 X61.826615 Y51.797215 F100.000000
G0 Z-0.566667 F30.000000
G1 X61.818141 Y51.746432 F100.000000
G1 X61.793637 Y51.701152 F100.000000
G1 X61.755758 Y51.666282 F100.000000
G1 X61.708609 Y51.645601 F100.000000
G1 X61.657300 Y51.641349 F100.000000
G1 X61.607390 Y51.653988 F100.000000
G1 X61.564288 Y51.682148 F100.000000
G1 X61.532665 Y51.722777 F100.000000
G1 X61.515948 Y51.771472 F100.000000
G1 Y51.822958 F100.000000
G1 X61.532665 Y51.871653 F100.000000
G1 X61.564288 Y51.912282 F100.000000
G1 X61.607390 Y51.940442 F100.000000
G1 X61.657300 Y51.953081 F100.000000
G1 X61.708609 Y51.948829 F100.000000
G1 X61.755758 Y51.928148 F100.000000
G1 X61.793637 Y51.893278 F100.000000
G1 X61.818141 Y51.847998 F100.000000
G1 X61.826615 Y51.797215 F100.000000
G0 Z-0.850000 F30.000000
G1 X61.818141 Y51.746432 F100.000000
G1 X61.793637 Y51.701152 F100.000000
G1 X61.755758 Y51.666282 F100.000000
G1 X61.708609 Y51.645601 F100.000000
G1 X61.657300 Y51.641349 F100.000000
G1 X61.607390 Y51.653988 F100.000000
G1 X61.564288 Y51.682148 F100.000000
G1 X61.532665 Y51.722777 F100.000000
G1 X61.515948 Y51.771472 F100.000000
G1 Y51.822958 F100.000000
G1 X61.532665 Y51.871653 F100.000000
G1 X61.564288 Y51.912282 F100.000000
G1 X61.607390 Y51.940442 F100.000000
G1 X61.657300 Y51.953081 F100.000000
G1 X61.708609 Y51.948829 F100.000000
G1 X61.755758 Y51.928148 F100.000000
G1 X61.793637 Y51.893278 F100.000000
G1 X61.818141 Y51.847998 F100.000000
G1 X61.826615 Y51.797215 F100.000000
G0 Z-1.133333 F30.000000
G1 X61.818141 Y51.746432 F100.000000
G1 X61.793637 Y51.701152 F100.000000
G1 X61.755758 Y51.666282 F100.000000
G1 X61.708609 Y51.645601 F100.000000
G1 X61.657300 Y51.641349 F100.000000
G1 X61.607390 Y51.653988 F100.000000
G1 X61.564288 Y51.682148 F100.000000
G1 X61.532665 Y51.722777 F100.000000
G1 X61.515948 Y51.771472 F100.000000
G1 Y51.822958 F100.000000
G1 X61.532665 Y51.871653 F100.000000
G1 X61.564288 Y51.912282 F100.000000
G1 X61.607390 Y51.940442 F100.000000
G1 X61.657300 Y51.953081 F100.000000
G1 X61.708609 Y51.948829 F100.000000
G1 X61.755758 Y51.928148 F100.000000
G1 X61.793637 Y51.893278 F100.000000
G1 X61.818141 Y51.847998 F100.000000
G1 X61.826615 Y51.797215 F100.000000
G0 Z-1.416667 F30.000000
G1 X61.818141 Y51.746432 F100.000000
G1 X61.793637 Y51.701152 F100.000000
G1 X61.755758 Y51.666282 F100.000000
G1 X61.708609 Y51.645601 F100.000000
G1 X61.657300 Y51.641349 F100.000000
G1 X61.607390 Y51.653988 F100.000000
G1 X61.564288 Y51.682148 F100.000000
G1 X61.532665 Y51.722777 F100.000000
G1 X61.515948 Y51.771472 F100.000000
G1 Y51.822958 F100.000000
G1 X61.532665 Y51.871653 F100.000000
G1 X61.564288 Y51.912282 F100.000000
G1 X61.607390 Y51.940442 F100.000000
G1 X61.657300 Y51.953081 F100.000000
G1 X61.708609 Y51.948829 F100.000000
G1 X61.755758 Y51.928148 F100.000000
G1 X61.793637 Y51.893278 F100.000000
G1 X61.818141 Y51.847998 F100.000000
G1 X61.826615 Y51.797215 F100.000000
G0 Z-1.700000 F30.000000
G1 X61.818141 Y51.746432 F100.000000
G1 X61.793637 Y51.701152 F100.000000
G1 X61.755758 Y51.666282 F100.000000
G1 X61.708609 Y51.645601 F100.000000
G1 X61.657300 Y51.641349 F100.000000
G1 X61.607390 Y51.653988 F100.000000
G1 X61.564288 Y51.682148 F100.000000
G1 X61.532665 Y51.722777 F100.000000
G1 X61.515948 Y51.771472 F100.000000
G1 Y51.822958 F100.000000
G1 X61.532665 Y51.871653 F100.000000
G1 X61.564288 Y51.912282 F100.000000
G1 X61.607390 Y51.940442 F100.000000
G1 X61.657300 Y51.953081 F100.000000
G1 X61.708609 Y51.948829 F100.000000
G1 X61.755758 Y51.928148 F100.000000
G1 X61.793637 Y51.893278 F100.000000
G1 X61.818141 Y51.847998 F100.000000
G1 X61.826615 Y51.797215 F100.000000
G0 Z2.000000
G0 X57.889615 Y55.353215
G17
G0 Z-0.283333 F30.000000
G1 X57.889615 Y55.353215 F100.000000
G1 X57.881141 Y55.302432 F100.000000
G1 X57.856637 Y55.257152 F100.000000
G1 X57.818758 Y55.222282 F100.000000
G1 X57.771609 Y55.201601 F100.000000
G1 X57.720300 Y55.197349 F100.000000
G1 X57.670390 Y55.209988 F100.000000
G1 X57.627288 Y55.238148 F100.000000
G1 X57.595665 Y55.278777 F100.000000
G1 X57.578948 Y55.327472 F100.000000
G1 Y55.378958 F100.000000
G1 X57.595665 Y55.427653 F100.000000
G1 X57.627288 Y55.468282 F100.000000
G1 X57.670390 Y55.496442 F100.000000
G1 X57.720300 Y55.509081 F100.000000
G1 X57.771609 Y55.504829 F100.000000
G1 X57.818758 Y55.484148 F100.000000
G1 X57.856637 Y55.449278 F100.000000
G1 X57.881141 Y55.403998 F100.000000
G1 X57.889615 Y55.353215 F100.000000
G0 Z-0.566667 F30.000000
G1 X57.881141 Y55.302432 F100.000000
G1 X57.856637 Y55.257152 F100.000000
G1 X57.818758 Y55.222282 F100.000000
G1 X57.771609 Y55.201601 F100.000000
G1 X57.720300 Y55.197349 F100.000000
G1 X57.670390 Y55.209988 F100.000000
G1 X57.627288 Y55.238148 F100.000000
G1 X57.595665 Y55.278777 F100.000000
G1 X57.578948 Y55.327472 F100.000000
G1 Y55.378958 F100.000000
G1 X57.595665 Y55.427653 F100.000000
G1 X57.627288 Y55.468282 F100.000000
G1 X57.670390 Y55.496442 F100.000000
G1 X57.720300 Y55.509081 F100.000000
G1 X57.771609 Y55.504829 F100.000000
G1 X57.818758 Y55.484148 F100.000000
G1 X57.856637 Y55.449278 F100.000000
G1 X57.881141 Y55.403998 F100.000000
G1 X57.889615 Y55.353215 F100.000000
G0 Z-0.850000 F30.000000
G1 X57.881141 Y55.302432 F100.000000
G1 X57.856637 Y55.257152 F100.000000
G1 X57.818758 Y55.222282 F100.000000
G1 X57.771609 Y55.201601 F100.000000
G1 X57.720300 Y55.197349 F100.000000
G1 X57.670390 Y55.209988 F100.000000
G1 X57.627288 Y55.238148 F100.000000
G1 X57.595665 Y55.278777 F100.000000
G1 X57.578948 Y55.327472 F100.000000
G1 Y55.378958 F100.000000
G1 X57.595665 Y55.427653 F100.000000
G1 X57.627288 Y55.468282 F100.000000
G1 X57.670390 Y55.496442 F100.000000
G1 X57.720300 Y55.509081 F100.000000
G1 X57.771609 Y55.504829 F100.000000
G1 X57.818758 Y55.484148 F100.000000
G1 X57.856637 Y55.449278 F100.000000
G1 X57.881141 Y55.403998 F100.000000
G1 X57.889615 Y55.353215 F100.000000
G0 Z-1.133333 F30.000000
G1 X57.881141 Y55.302432 F100.000000
G1 X57.856637 Y55.257152 F100.000000
G1 X57.818758 Y55.222282 F100.000000
G1 X57.771609 Y55.201601 F100.000000
G1 X57.720300 Y55.197349 F100.000000
G1 X57.670390 Y55.209988 F100.000000
G1 X57.627288 Y55.238148 F100.000000
G1 X57.595665 Y55.278777 F100.000000
G1 X57.578948 Y55.327472 F100.000000
G1 Y55.378958 F100.000000
G1 X57.595665 Y55.427653 F100.000000
G1 X57.627288 Y55.468282 F100.000000
G1 X57.670390 Y55.496442 F100.000000
G1 X57.720300 Y55.509081 F100.000000
G1 X57.771609 Y55.504829 F100.000000
G1 X57.818758 Y55.484148 F100.000000
G1 X57.856637 Y55.449278 F100.000000
G1 X57.881141 Y55.403998 F100.000000
G1 X57.889615 Y55.353215 F100.000000
G0 Z-1.416667 F30.000000
G1 X57.881141 Y55.302432 F100.000000
G1 X57.856637 Y55.257152 F100.000000
G1 X57.818758 Y55.222282 F100.000000
G1 X57.771609 Y55.201601 F100.000000
G1 X57.720300 Y55.197349 F100.000000
G1 X57.670390 Y55.209988 F100.000000
G1 X57.627288 Y55.238148 F100.000000
G1 X57.595665 Y55.278777 F100.000000
G1 X57.578948 Y55.327472 F100.000000
G1 Y55.378958 F100.000000
G1 X57.595665 Y55.427653 F100.000000
G1 X57.627288 Y55.468282 F100.000000
G1 X57.670390 Y55.496442 F100.000000
G1 X57.720300 Y55.509081 F100.000000
G1 X57.771609 Y55.504829 F100.000000
G1 X57.818758 Y55.484148 F100.000000
G1 X57.856637 Y55.449278 F100.000000
G1 X57.881141 Y55.403998 F100.000000
G1 X57.889615 Y55.353215 F100.000000
G0 Z-1.700000 F30.000000
G1 X57.881141 Y55.302432 F100.000000
G1 X57.856637 Y55.257152 F100.000000
G1 X57.818758 Y55.222282 F100.000000
G1 X57.771609 Y55.201601 F100.000000
G1 X57.720300 Y55.197349 F100.000000
G1 X57.670390 Y55.209988 F100.000000
G1 X57.627288 Y55.238148 F100.000000
G1 X57.595665 Y55.278777 F100.000000
G1 X57.578948 Y55.327472 F100.000000
G1 Y55.378958 F100.000000
G1 X57.595665 Y55.427653 F100.000000
G1 X57.627288 Y55.468282 F100.000000
G1 X57.670390 Y55.496442 F100.000000
G1 X57.720300 Y55.509081 F100.000000
G1 X57.771609 Y55.504829 F100.000000
G1 X57.818758 Y55.484148 F100.000000
G1 X57.856637 Y55.449278 F100.000000
G1 X57.881141 Y55.403998 F100.000000
G1 X57.889615 Y55.353215 F100.000000
G0 Z2.000000
G0 X57.889615 Y47.479215
G17
G0 Z-0.283333 F30.000000
G1 Y47.479215 F100.000000
G1 X57.881141 Y47.428432 F100.000000
G1 X57.856637 Y47.383152 F100.000000
G1 X57.818758 Y47.348282 F100.000000
G1 X57.771609 Y47.327601 F100.000000
G1 X57.720300 Y47.323349 F100.000000
G1 X57.670390 Y47.335988 F100.000000
G1 X57.627288 Y47.364148 F100.000000
G1 X57.595665 Y47.404777 F100.000000
G1 X57.578948 Y47.453472 F100.000000
G1 Y47.504958 F100.000000
G1 X57.595665 Y47.553653 F100.000000
G1 X57.627288 Y47.594282 F100.000000
G1 X57.670390 Y47.622442 F100.000000
G1 X57.720300 Y47.635081 F100.000000
G1 X57.771609 Y47.630829 F100.000000
G1 X57.818758 Y47.610148 F100.000000
G1 X57.856637 Y47.575278 F100.000000
G1 X57.881141 Y47.529998 F100.000000
G1 X57.889615 Y47.479215 F100.000000
G0 Z-0.566667 F30.000000
G1 X57.881141 Y47.428432 F100.000000
G1 X57.856637 Y47.383152 F100.000000
G1 X57.818758 Y47.348282 F100.000000
G1 X57.771609 Y47.327601 F100.000000
G1 X57.720300 Y47.323349 F100.000000
G1 X57.670390 Y47.335988 F100.000000
G1 X57.627288 Y47.364148 F100.000000
G1 X57.595665 Y47.404777 F100.000000
G1 X57.578948 Y47.453472 F100.000000
G1 Y47.504958 F100.000000
G1 X57.595665 Y47.553653 F100.000000
G1 X57.627288 Y47.594282 F100.000000
G1 X57.670390 Y47.622442 F100.000000
G1 X57.720300 Y47.635081 F100.000000
G1 X57.771609 Y47.630829 F100.000000
G1 X57.818758 Y47.610148 F100.000000
G1 X57.856637 Y47.575278 F100.000000
G1 X57.881141 Y47.529998 F100.000000
G1 X57.889615 Y47.479215 F100.000000
G0 Z-0.850000 F30.000000
G1 X57.881141 Y47.428432 F100.000000
G1 X57.856637 Y47.383152 F100.000000
G1 X57.818758 Y47.348282 F100.000000
G1 X57.771609 Y47.327601 F100.000000
G1 X57.720300 Y47.323349 F100.000000
G1 X57.670390 Y47.335988 F100.000000
G1 X57.627288 Y47.364148 F100.000000
G1 X57.595665 Y47.404777 F100.000000
G1 X57.578948 Y47.453472 F100.000000
G1 Y47.504958 F100.000000
G1 X57.595665 Y47.553653 F100.000000
G1 X57.627288 Y47.594282 F100.000000
G1 X57.670390 Y47.622442 F100.000000
G1 X57.720300 Y47.635081 F100.000000
G1 X57.771609 Y47.630829 F100.000000
G1 X57.818758 Y47.610148 F100.000000
G1 X57.856637 Y47.575278 F100.000000
G1 X57.881141 Y47.529998 F100.000000
G1 X57.889615 Y47.479215 F100.000000
G0 Z-1.133333 F30.000000
G1 X57.881141 Y47.428432 F100.000000
G1 X57.856637 Y47.383152 F100.000000
G1 X57.818758 Y47.348282 F100.000000
G1 X57.771609 Y47.327601 F100.000000
G1 X57.720300 Y47.323349 F100.000000
G1 X57.670390 Y47.335988 F100.000000
G1 X57.627288 Y47.364148 F100.000000
G1 X57.595665 Y47.404777 F100.000000
G1 X57.578948 Y47.453472 F100.000000
G1 Y47.504958 F100.000000
G1 X57.595665 Y47.553653 F100.000000
G1 X57.627288 Y47.594282 F100.000000
G1 X57.670390 Y47.622442 F100.000000
G1 X57.720300 Y47.635081 F100.000000
G1 X57.771609 Y47.630829 F100.000000
G1 X57.818758 Y47.610148 F100.000000
G1 X57.856637 Y47.575278 F100.000000
G1 X57.881141 Y47.529998 F100.000000
G1 X57.889615 Y47.479215 F100.000000
G0 Z-1.416667 F30.000000
G1 X57.881141 Y47.428432 F100.000000
G1 X57.856637 Y47.383152 F100.000000
G1 X57.818758 Y47.348282 F100.000000
G1 X57.771609 Y47.327601 F100.000000
G1 X57.720300 Y47.323349 F100.000000
G1 X57.670390 Y47.335988 F100.000000
G1 X57.627288 Y47.364148 F100.000000
G1 X57.595665 Y47.404777 F100.000000
G1 X57.578948 Y47.453472 F100.000000
G1 Y47.504958 F100.000000
G1 X57.595665 Y47.553653 F100.000000
G1 X57.627288 Y47.594282 F100.000000
G1 X57.670390 Y47.622442 F100.000000
G1 X57.720300 Y47.635081 F100.000000
G1 X57.771609 Y47.630829 F100.000000
G1 X57.818758 Y47.610148 F100.000000
G1 X57.856637 Y47.575278 F100.000000
G1 X57.881141 Y47.529998 F100.000000
G1 X57.889615 Y47.479215 F100.000000
G0 Z-1.700000 F30.000000
G1 X57.881141 Y47.428432 F100.000000
G1 X57.856637 Y47.383152 F100.000000
G1 X57.818758 Y47.348282 F100.000000
G1 X57.771609 Y47.327601 F100.000000
G1 X57.720300 Y47.323349 F100.000000
G1 X57.670390 Y47.335988 F100.000000
G1 X57.627288 Y47.364148 F100.000000
G1 X57.595665 Y47.404777 F100.000000
G1 X57.578948 Y47.453472 F100.000000
G1 Y47.504958 F100.000000
G1 X57.595665 Y47.553653 F100.000000
G1 X57.627288 Y47.594282 F100.000000
G1 X57.670390 Y47.622442 F100.000000
G1 X57.720300 Y47.635081 F100.000000
G1 X57.771609 Y47.630829 F100.000000
G1 X57.818758 Y47.610148 F100.000000
G1 X57.856637 Y47.575278 F100.000000
G1 X57.881141 Y47.529998 F100.000000
G1 X57.889615 Y47.479215 F100.000000
G0 Z2.000000
G0 X55.349615 Y55.353215
G17
G0 Z-0.283333 F30.000000
G1 X55.349615 Y55.353215 F100.000000
G1 X55.341141 Y55.302432 F100.000000
G1 X55.316637 Y55.257152 F100.000000
G1 X55.278758 Y55.222282 F100.000000
G1 X55.231609 Y55.201601 F100.000000
G1 X55.180300 Y55.197349 F100.000000
G1 X55.130390 Y55.209988 F100.000000
G1 X55.087288 Y55.238148 F100.000000
G1 X55.055665 Y55.278777 F100.000000
G1 X55.038948 Y55.327472 F100.000000
G1 Y55.378958 F100.000000
G1 X55.055665 Y55.427653 F100.000000
G1 X55.087288 Y55.468282 F100.000000
G1 X55.130390 Y55.496442 F100.000000
G1 X55.180300 Y55.509081 F100.000000
G1 X55.231609 Y55.504829 F100.000000
G1 X55.278758 Y55.484148 F100.000000
G1 X55.316637 Y55.449278 F100.000000
G1 X55.341141 Y55.403998 F100.000000
G1 X55.349615 Y55.353215 F100.000000
G0 Z-0.566667 F30.000000
G1 X55.341141 Y55.302432 F100.000000
G1 X55.316637 Y55.257152 F100.000000
G1 X55.278758 Y55.222282 F100.000000
G1 X55.231609 Y55.201601 F100.000000
G1 X55.180300 Y55.197349 F100.000000
G1 X55.130390 Y55.209988 F100.000000
G1 X55.087288 Y55.238148 F100.000000
G1 X55.055665 Y55.278777 F100.000000
G1 X55.038948 Y55.327472 F100.000000
G1 Y55.378958 F100.000000
G1 X55.055665 Y55.427653 F100.000000
G1 X55.087288 Y55.468282 F100.000000
G1 X55.130390 Y55.496442 F100.000000
G1 X55.180300 Y55.509081 F100.000000
G1 X55.231609 Y55.504829 F100.000000
G1 X55.278758 Y55.484148 F100.000000
G1 X55.316637 Y55.449278 F100.000000
G1 X55.341141 Y55.403998 F100.000000
G1 X55.349615 Y55.353215 F100.000000
G0 Z-0.850000 F30.000000
G1 X55.341141 Y55.302432 F100.000000
G1 X55.316637 Y55.257152 F100.000000
G1 X55.278758 Y55.222282 F100.000000
G1 X55.231609 Y55.201601 F100.000000
G1 X55.180300 Y55.197349 F100.000000
G1 X55.130390 Y55.209988 F100.000000
G1 X55.087288 Y55.238148 F100.000000
G1 X55.055665 Y55.278777 F100.000000
G1 X55.038948 Y55.327472 F100.000000
G1 Y55.378958 F100.000000
G1 X55.055665 Y55.427653 F100.000000
G1 X55.087288 Y55.468282 F100.000000
G1 X55.130390 Y55.496442 F100.000000
G1 X55.180300 Y55.509081 F100.000000
G1 X55.231609 Y55.504829 F100.000000
G1 X55.278758 Y55.484148 F100.000000
G1 X55.316637 Y55.449278 F100.000000
G1 X55.341141 Y55.403998 F100.000000
G1 X55.349615 Y55.353215 F100.000000
G0 Z-1.133333 F30.000000
G1 X55.341141 Y55.302432 F100.000000
G1 X55.316637 Y55.257152 F100.000000
G1 X55.278758 Y55.222282 F100.000000
G1 X55.231609 Y55.201601 F100.000000
G1 X55.180300 Y55.197349 F100.000000
G1 X55.130390 Y55.209988 F100.000000
G1 X55.087288 Y55.238148 F100.000000
G1 X55.055665 Y55.278777 F100.000000
G1 X55.038948 Y55.327472 F100.000000
G1 Y55.378958 F100.000000
G1 X55.055665 Y55.427653 F100.000000
G1 X55.087288 Y55.468282 F100.000000
G1 X55.130390 Y55.496442 F100.000000
G1 X55.180300 Y55.509081 F100.000000
G1 X55.231609 Y55.504829 F100.000000
G1 X55.278758 Y55.484148 F100.000000
G1 X55.316637 Y55.449278 F100.000000
G1 X55.341141 Y55.403998 F100.000000
G1 X55.349615 Y55.353215 F100.000000
G0 Z-1.416667 F30.000000
G1 X55.341141 Y55.302432 F100.000000
G1 X55.316637 Y55.257152 F100.000000
G1 X55.278758 Y55.222282 F100.000000
G1 X55.231609 Y55.201601 F100.000000
G1 X55.180300 Y55.197349 F100.000000
G1 X55.130390 Y55.209988 F100.000000
G1 X55.087288 Y55.238148 F100.000000
G1 X55.055665 Y55.278777 F100.000000
G1 X55.038948 Y55.327472 F100.000000
G1 Y55.378958 F100.000000
G1 X55.055665 Y55.427653 F100.000000
G1 X55.087288 Y55.468282 F100.000000
G1 X55.130390 Y55.496442 F100.000000
G1 X55.180300 Y55.509081 F100.000000
G1 X55.231609 Y55.504829 F100.000000
G1 X55.278758 Y55.484148 F100.000000
G1 X55.316637 Y55.449278 F100.000000
G1 X55.341141 Y55.403998 F100.000000
G1 X55.349615 Y55.353215 F100.000000
G0 Z-1.700000 F30.000000
G1 X55.341141 Y55.302432 F100.000000
G1 X55.316637 Y55.257152 F100.000000
G1 X55.278758 Y55.222282 F100.000000
G1 X55.231609 Y55.201601 F100.000000
G1 X55.180300 Y55.197349 F100.000000
G1 X55.130390 Y55.209988 F100.000000
G1 X55.087288 Y55.238148 F100.000000
G1 X55.055665 Y55.278777 F100.000000
G1 X55.038948 Y55.327472 F100.000000
G1 Y55.378958 F100.000000
G1 X55.055665 Y55.427653 F100.000000
G1 X55.087288 Y55.468282 F100.000000
G1 X55.130390 Y55.496442 F100.000000
G1 X55.180300 Y55.509081 F100.000000
G1 X55.231609 Y55.504829 F100.000000
G1 X55.278758 Y55.484148 F100.000000
G1 X55.316637 Y55.449278 F100.000000
G1 X55.341141 Y55.403998 F100.000000
G1 X55.349615 Y55.353215 F100.000000
G0 Z2.000000
G0 X55.349615 Y47.479215
G17
G0 Z-0.283333 F30.000000
G1 Y47.479215 F100.000000
G1 X55.341141 Y47.428432 F100.000000
G1 X55.316637 Y47.383152 F100.000000
G1 X55.278758 Y47.348282 F100.000000
G1 X55.231609 Y47.327601 F100.000000
G1 X55.180300 Y47.323349 F100.000000
G1 X55.130390 Y47.335988 F100.000000
G1 X55.087288 Y47.364148 F100.000000
G1 X55.055665 Y47.404777 F100.000000
G1 X55.038948 Y47.453472 F100.000000
G1 Y47.504958 F100.000000
G1 X55.055665 Y47.553653 F100.000000
G1 X55.087288 Y47.594282 F100.000000
G1 X55.130390 Y47.622442 F100.000000
G1 X55.180300 Y47.635081 F100.000000
G1 X55.231609 Y47.630829 F100.000000
G1 X55.278758 Y47.610148 F100.000000
G1 X55.316637 Y47.575278 F100.000000
G1 X55.341141 Y47.529998 F100.000000
G1 X55.349615 Y47.479215 F100.000000
G0 Z-0.566667 F30.000000
G1 X55.341141 Y47.428432 F100.000000
G1 X55.316637 Y47.383152 F100.000000
G1 X55.278758 Y47.348282 F100.000000
G1 X55.231609 Y47.327601 F100.000000
G1 X55.180300 Y47.323349 F100.000000
G1 X55.130390 Y47.335988 F100.000000
G1 X55.087288 Y47.364148 F100.000000
G1 X55.055665 Y47.404777 F100.000000
G1 X55.038948 Y47.453472 F100.000000
G1 Y47.504958 F100.000000
G1 X55.055665 Y47.553653 F100.000000
G1 X55.087288 Y47.594282 F100.000000
G1 X55.130390 Y47.622442 F100.000000
G1 X55.180300 Y47.635081 F100.000000
G1 X55.231609 Y47.630829 F100.000000
G1 X55.278758 Y47.610148 F100.000000
G1 X55.316637 Y47.575278 F100.000000
G1 X55.341141 Y47.529998 F100.000000
G1 X55.349615 Y47.479215 F100.000000
G0 Z-0.850000 F30.000000
G1 X55.341141 Y47.428432 F100.000000
G1 X55.316637 Y47.383152 F100.000000
G1 X55.278758 Y47.348282 F100.000000
G1 X55.231609 Y47.327601 F100.000000
G1 X55.180300 Y47.323349 F100.000000
G1 X55.130390 Y47.335988 F100.000000
G1 X55.087288 Y47.364148 F100.000000
G1 X55.055665 Y47.404777 F100.000000
G1 X55.038948 Y47.453472 F100.000000
G1 Y47.504958 F100.000000
G1 X55.055665 Y47.553653 F100.000000
G1 X55.087288 Y47.594282 F100.000000
G1 X55.130390 Y47.622442 F100.000000
G1 X55.180300 Y47.635081 F100.000000
G1 X55.231609 Y47.630829 F100.000000
G1 X55.278758 Y47.610148 F100.000000
G1 X55.316637 Y47.575278 F100.000000
G1 X55.341141 Y47.529998 F100.000000
G1 X55.349615 Y47.479215 F100.000000
G0 Z-1.133333 F30.000000
G1 X55.341141 Y47.428432 F100.000000
G1 X55.316637 Y47.383152 F100.000000
G1 X55.278758 Y47.348282 F100.000000
G1 X55.231609 Y47.327601 F100.000000
G1 X55.180300 Y47.323349 F100.000000
G1 X55.130390 Y47.335988 F100.000000
G1 X55.087288 Y47.364148 F100.000000
G1 X55.055665 Y47.404777 F100.000000
G1 X55.038948 Y47.453472 F100.000000
G1 Y47.504958 F100.000000
G1 X55.055665 Y47.553653 F100.000000
G1 X55.087288 Y47.594282 F100.000000
G1 X55.130390 Y47.622442 F100.000000
G1 X55.180300 Y47.635081 F100.000000
G1 X55.231609 Y47.630829 F100.000000
G1 X55.278758 Y47.610148 F100.000000
G1 X55.316637 Y47.575278 F100.000000
G1 X55.341141 Y47.529998 F100.000000
G1 X55.349615 Y47.479215 F100.000000
G0 Z-1.416667 F30.000000
G1 X55.341141 Y47.428432 F100.000000
G1 X55.316637 Y47.383152 F100.000000
G1 X55.278758 Y47.348282 F100.000000
G1 X55.231609 Y47.327601 F100.000000
G1 X55.180300 Y47.323349 F100.000000
G1 X55.130390 Y47.335988 F100.000000
G1 X55.087288 Y47.364148 F100.000000
G1 X55.055665 Y47.404777 F100.000000
G1 X55.038948 Y47.453472 F100.000000
G1 Y47.504958 F100.000000
G1 X55.055665 Y47.553653 F100.000000
G1 X55.087288 Y47.594282 F100.000000
G1 X55.130390 Y47.622442 F100.000000
G1 X55.180300 Y47.635081 F100.000000
G1 X55.231609 Y47.630829 F100.000000
G1 X55.278758 Y47.610148 F100.000000
G1 X55.316637 Y47.575278 F100.000000
G1 X55.341141 Y47.529998 F100.000000
G1 X55.349615 Y47.479215 F100.000000
G0 Z-1.700000 F30.000000
G1 X55.341141 Y47.428432 F100.000000
G1 X55.316637 Y47.383152 F100.000000
G1 X55.278758 Y47.348282 F100.000000
G1 X55.231609 Y47.327601 F100.000000
G1 X55.180300 Y47.323349 F100.000000
G1 X55.130390 Y47.335988 F100.000000
G1 X55.087288 Y47.364148 F100.000000
G1 X55.055665 Y47.404777 F100.000000
G1 X55.038948 Y47.453472 F100.000000
G1 Y47.504958 F100.000000
G1 X55.055665 Y47.553653 F100.000000
G1 X55.087288 Y47.594282 F100.000000
G1 X55.130390 Y47.622442 F100.000000
G1 X55.180300 Y47.635081 F100.000000
G1 X55.231609 Y47.630829 F100.000000
G1 X55.278758 Y47.610148 F100.000000
G1 X55.316637 Y47.575278 F100.000000
G1 X55.341141 Y47.529998 F100.000000
G1 X55.349615 Y47.479215 F100.000000
G0 Z2.000000
G0 X52.936615 Y51.797215
G17
G0 Z-0.283333 F30.000000
G1 X52.936615 Y51.797215 F100.000000
G1 X52.928141 Y51.746432 F100.000000
G1 X52.903637 Y51.701152 F100.000000
G1 X52.865758 Y51.666282 F100.000000
G1 X52.818609 Y51.645601 F100.000000
G1 X52.767300 Y51.641349 F100.000000
G1 X52.717390 Y51.653988 F100.000000
G1 X52.674288 Y51.682148 F100.000000
G1 X52.642665 Y51.722777 F100.000000
G1 X52.625948 Y51.771472 F100.000000
G1 Y51.822958 F100.000000
G1 X52.642665 Y51.871653 F100.000000
G1 X52.674288 Y51.912282 F100.000000
G1 X52.717390 Y51.940442 F100.000000
G1 X52.767300 Y51.953081 F100.000000
G1 X52.818609 Y51.948829 F100.000000
G1 X52.865758 Y51.928148 F100.000000
G1 X52.903637 Y51.893278 F100.000000
G1 X52.928141 Y51.847998 F100.000000
G1 X52.936615 Y51.797215 F100.000000
G0 Z-0.566667 F30.000000
G1 X52.928141 Y51.746432 F100.000000
G1 X52.903637 Y51.701152 F100.000000
G1 X52.865758 Y51.666282 F100.000000
G1 X52.818609 Y51.645601 F100.000000
G1 X52.767300 Y51.641349 F100.000000
G1 X52.717390 Y51.653988 F100.000000
G1 X52.674288 Y51.682148 F100.000000
G1 X52.642665 Y51.722777 F100.000000
G1 X52.625948 Y51.771472 F100.000000
G1 Y51.822958 F100.000000
G1 X52.642665 Y51.871653 F100.000000
G1 X52.674288 Y51.912282 F100.000000
G1 X52.717390 Y51.940442 F100.000000
G1 X52.767300 Y51.953081 F100.000000
G1 X52.818609 Y51.948829 F100.000000
G1 X52.865758 Y51.928148 F100.000000
G1 X52.903637 Y51.893278 F100.000000
G1 X52.928141 Y51.847998 F100.000000
G1 X52.936615 Y51.797215 F100.000000
G0 Z-0.850000 F30.000000
G1 X52.928141 Y51.746432 F100.000000
G1 X52.903637 Y51.701152 F100.000000
G1 X52.865758 Y51.666282 F100.000000
G1 X52.818609 Y51.645601 F100.000000
G1 X52.767300 Y51.641349 F100.000000
G1 X52.717390 Y51.653988 F100.000000
G1 X52.674288 Y51.682148 F100.000000
G1 X52.642665 Y51.722777 F100.000000
G1 X52.625948 Y51.771472 F100.000000
G1 Y51.822958 F100.000000
G1 X52.642665 Y51.871653 F100.000000
G1 X52.674288 Y51.912282 F100.000000
G1 X52.717390 Y51.940442 F100.000000
G1 X52.767300 Y51.953081 F100.000000
G1 X52.818609 Y51.948829 F100.000000
G1 X52.865758 Y51.928148 F100.000000
G1 X52.903637 Y51.893278 F100.000000
G1 X52.928141 Y51.847998 F100.000000
G1 X52.936615 Y51.797215 F100.000000
G0 Z-1.133333 F30.000000
G1 X52.928141 Y51.746432 F100.000000
G1 X52.903637 Y51.701152 F100.000000
G1 X52.865758 Y51.666282 F100.000000
G1 X52.818609 Y51.645601 F100.000000
G1 X52.767300 Y51.641349 F100.000000
G1 X52.717390 Y51.653988 F100.000000
G1 X52.674288 Y51.682148 F100.000000
G1 X52.642665 Y51.722777 F100.000000
G1 X52.625948 Y51.771472 F100.000000
G1 Y51.822958 F100.000000
G1 X52.642665 Y51.871653 F100.000000
G1 X52.674288 Y51.912282 F100.000000
G1 X52.717390 Y51.940442 F100.000000
G1 X52.767300 Y51.953081 F100.000000
G1 X52.818609 Y51.948829 F100.000000
G1 X52.865758 Y51.928148 F100.000000
G1 X52.903637 Y51.893278 F100.000000
G1 X52.928141 Y51.847998 F100.000000
G1 X52.936615 Y51.797215 F100.000000
G0 Z-1.416667 F30.000000
G1 X52.928141 Y51.746432 F100.000000
G1 X52.903637 Y51.701152 F100.000000
G1 X52.865758 Y51.666282 F100.000000
G1 X52.818609 Y51.645601 F100.000000
G1 X52.767300 Y51.641349 F100.000000
G1 X52.717390 Y51.653988 F100.000000
G1 X52.674288 Y51.682148 F100.000000
G1 X52.642665 Y51.722777 F100.000000
G1 X52.625948 Y51.771472 F100.000000
G1 Y51.822958 F100.000000
G1 X52.642665 Y51.871653 F100.000000
G1 X52.674288 Y51.912282 F100.000000
G1 X52.717390 Y51.940442 F100.000000
G1 X52.767300 Y51.953081 F100.000000
G1 X52.818609 Y51.948829 F100.000000
G1 X52.865758 Y51.928148 F100.000000
G1 X52.903637 Y51.893278 F100.000000
G1 X52.928141 Y51.847998 F100.000000
G1 X52.936615 Y51.797215 F100.000000
G0 Z-1.700000 F30.000000
G1 X52.928141 Y51.746432 F100.000000
G1 X52.903637 Y51.701152 F100.000000
G1 X52.865758 Y51.666282 F100.000000
G1 X52.818609 Y51.645601 F100.000000
G1 X52.767300 Y51.641349 F100.000000
G1 X52.717390 Y51.653988 F100.000000
G1 X52.674288 Y51.682148 F100.000000
G1 X52.642665 Y51.722777 F100.000000
G1 X52.625948 Y51.771472 F100.000000
G1 Y51.822958 F100.000000
G1 X52.642665 Y51.871653 F100.000000
G1 X52.674288 Y51.912282 F100.000000
G1 X52.717390 Y51.940442 F100.000000
G1 X52.767300 Y51.953081 F100.000000
G1 X52.818609 Y51.948829 F100.000000
G1 X52.865758 Y51.928148 F100.000000
G1 X52.903637 Y51.893278 F100.000000
G1 X52.928141 Y51.847998 F100.000000
G1 X52.936615 Y51.797215 F100.000000
G0 Z2.000000
G0 X52.809615 Y55.353215
G17
G0 Z-0.283333 F30.000000
G1 X52.809615 Y55.353215 F100.000000
G1 X52.801141 Y55.302432 F100.000000
G1 X52.776637 Y55.257152 F100.000000
G1 X52.738758 Y55.222282 F100.000000
G1 X52.691609 Y55.201601 F100.000000
G1 X52.640300 Y55.197349 F100.000000
G1 X52.590390 Y55.209988 F100.000000
G1 X52.547288 Y55.238148 F100.000000
G1 X52.515665 Y55.278777 F100.000000
G1 X52.498948 Y55.327472 F100.000000
G1 Y55.378958 F100.000000
G1 X52.515665 Y55.427653 F100.000000
G1 X52.547288 Y55.468282 F100.000000
G1 X52.590390 Y55.496442 F100.000000
G1 X52.640300 Y55.509081 F100.000000
G1 X52.691609 Y55.504829 F100.000000
G1 X52.738758 Y55.484148 F100.000000
G1 X52.776637 Y55.449278 F100.000000
G1 X52.801141 Y55.403998 F100.000000
G1 X52.809615 Y55.353215 F100.000000
G0 Z-0.566667 F30.000000
G1 X52.801141 Y55.302432 F100.000000
G1 X52.776637 Y55.257152 F100.000000
G1 X52.738758 Y55.222282 F100.000000
G1 X52.691609 Y55.201601 F100.000000
G1 X52.640300 Y55.197349 F100.000000
G1 X52.590390 Y55.209988 F100.000000
G1 X52.547288 Y55.238148 F100.000000
G1 X52.515665 Y55.278777 F100.000000
G1 X52.498948 Y55.327472 F100.000000
G1 Y55.378958 F100.000000
G1 X52.515665 Y55.427653 F100.000000
G1 X52.547288 Y55.468282 F100.000000
G1 X52.590390 Y55.496442 F100.000000
G1 X52.640300 Y55.509081 F100.000000
G1 X52.691609 Y55.504829 F100.000000
G1 X52.738758 Y55.484148 F100.000000
G1 X52.776637 Y55.449278 F100.000000
G1 X52.801141 Y55.403998 F100.000000
G1 X52.809615 Y55.353215 F100.000000
G0 Z-0.850000 F30.000000
G1 X52.801141 Y55.302432 F100.000000
G1 X52.776637 Y55.257152 F100.000000
G1 X52.738758 Y55.222282 F100.000000
G1 X52.691609 Y55.201601 F100.000000
G1 X52.640300 Y55.197349 F100.000000
G1 X52.590390 Y55.209988 F100.000000
G1 X52.547288 Y55.238148 F100.000000
G1 X52.515665 Y55.278777 F100.000000
G1 X52.498948 Y55.327472 F100.000000
G1 Y55.378958 F100.000000
G1 X52.515665 Y55.427653 F100.000000
G1 X52.547288 Y55.468282 F100.000000
G1 X52.590390 Y55.496442 F100.000000
G1 X52.640300 Y55.509081 F100.000000
G1 X52.691609 Y55.504829 F100.000000
G1 X52.738758 Y55.484148 F100.000000
G1 X52.776637 Y55.449278 F100.000000
G1 X52.801141 Y55.403998 F100.000000
G1 X52.809615 Y55.353215 F100.000000
G0 Z-1.133333 F30.000000
G1 X52.801141 Y55.302432 F100.000000
G1 X52.776637 Y55.257152 F100.000000
G1 X52.738758 Y55.222282 F100.000000
G1 X52.691609 Y55.201601 F100.000000
G1 X52.640300 Y55.197349 F100.000000
G1 X52.590390 Y55.209988 F100.000000
G1 X52.547288 Y55.238148 F100.000000
G1 X52.515665 Y55.278777 F100.000000
G1 X52.498948 Y55.327472 F100.000000
G1 Y55.378958 F100.000000
G1 X52.515665 Y55.427653 F100.000000
G1 X52.547288 Y55.468282 F100.000000
G1 X52.590390 Y55.496442 F100.000000
G1 X52.640300 Y55.509081 F100.000000
G1 X52.691609 Y55.504829 F100.000000
G1 X52.738758 Y55.484148 F100.000000
G1 X52.776637 Y55.449278 F100.000000
G1 X52.801141 Y55.403998 F100.000000
G1 X52.809615 Y55.353215 F100.000000
G0 Z-1.416667 F30.000000
G1 X52.801141 Y55.302432 F100.000000
G1 X52.776637 Y55.257152 F100.000000
G1 X52.738758 Y55.222282 F100.000000
G1 X52.691609 Y55.201601 F100.000000
G1 X52.640300 Y55.197349 F100.000000
G1 X52.590390 Y55.209988 F100.000000
G1 X52.547288 Y55.238148 F100.000000
G1 X52.515665 Y55.278777 F100.000000
G1 X52.498948 Y55.327472 F100.000000
G1 Y55.378958 F100.000000
G1 X52.515665 Y55.427653 F100.000000
G1 X52.547288 Y55.468282 F100.000000
G1 X52.590390 Y55.496442 F100.000000
G1 X52.640300 Y55.509081 F100.000000
G1 X52.691609 Y55.504829 F100.000000
G1 X52.738758 Y55.484148 F100.000000
G1 X52.776637 Y55.449278 F100.000000
G1 X52.801141 Y55.403998 F100.000000
G1 X52.809615 Y55.353215 F100.000000
G0 Z-1.700000 F30.000000
G1 X52.801141 Y55.302432 F100.000000
G1 X52.776637 Y55.257152 F100.000000
G1 X52.738758 Y55.222282 F100.000000
G1 X52.691609 Y55.201601 F100.000000
G1 X52.640300 Y55.197349 F100.000000
G1 X52.590390 Y55.209988 F100.000000
G1 X52.547288 Y55.238148 F100.000000
G1 X52.515665 Y55.278777 F100.000000
G1 X52.498948 Y55.327472 F100.000000
G1 Y55.378958 F100.000000
G1 X52.515665 Y55.427653 F100.000000
G1 X52.547288 Y55.468282 F100.000000
G1 X52.590390 Y55.496442 F100.000000
G1 X52.640300 Y55.509081 F100.000000
G1 X52.691609 Y55.504829 F100.000000
G1 X52.738758 Y55.484148 F100.000000
G1 X52.776637 Y55.449278 F100.000000
G1 X52.801141 Y55.403998 F100.000000
G1 X52.809615 Y55.353215 F100.000000
G0 Z2.000000
G0 X50.269615 Y55.353215
G17
G0 Z-0.283333 F30.000000
G1 X50.269615 F100.000000
G1 X50.261141 Y55.302432 F100.000000
G1 X50.236637 Y55.257152 F100.000000
G1 X50.198758 Y55.222282 F100.000000
G1 X50.151609 Y55.201601 F100.000000
G1 X50.100300 Y55.197349 F100.000000
G1 X50.050390 Y55.209988 F100.000000
G1 X50.007288 Y55.238148 F100.000000
G1 X49.975665 Y55.278777 F100.000000
G1 X49.958948 Y55.327472 F100.000000
G1 Y55.378958 F100.000000
G1 X49.975665 Y55.427653 F100.000000
G1 X50.007288 Y55.468282 F100.000000
G1 X50.050390 Y55.496442 F100.000000
G1 X50.100300 Y55.509081 F100.000000
G1 X50.151609 Y55.504829 F100.000000
G1 X50.198758 Y55.484148 F100.000000
G1 X50.236637 Y55.449278 F100.000000
G1 X50.261141 Y55.403998 F100.000000
G1 X50.269615 Y55.353215 F100.000000
G0 Z-0.566667 F30.000000
G1 X50.261141 Y55.302432 F100.000000
G1 X50.236637 Y55.257152 F100.000000
G1 X50.198758 Y55.222282 F100.000000
G1 X50.151609 Y55.201601 F100.000000
G1 X50.100300 Y55.197349 F100.000000
G1 X50.050390 Y55.209988 F100.000000
G1 X50.007288 Y55.238148 F100.000000
G1 X49.975665 Y55.278777 F100.000000
G1 X49.958948 Y55.327472 F100.000000
G1 Y55.378958 F100.000000
G1 X49.975665 Y55.427653 F100.000000
G1 X50.007288 Y55.468282 F100.000000
G1 X50.050390 Y55.496442 F100.000000
G1 X50.100300 Y55.509081 F100.000000
G1 X50.151609 Y55.504829 F100.000000
G1 X50.198758 Y55.484148 F100.000000
G1 X50.236637 Y55.449278 F100.000000
G1 X50.261141 Y55.403998 F100.000000
G1 X50.269615 Y55.353215 F100.000000
G0 Z-0.850000 F30.000000
G1 X50.261141 Y55.302432 F100.000000
G1 X50.236637 Y55.257152 F100.000000
G1 X50.198758 Y55.222282 F100.000000
G1 X50.151609 Y55.201601 F100.000000
G1 X50.100300 Y55.197349 F100.000000
G1 X50.050390 Y55.209988 F100.000000
G1 X50.007288 Y55.238148 F100.000000
G1 X49.975665 Y55.278777 F100.000000
G1 X49.958948 Y55.327472 F100.000000
G1 Y55.378958 F100.000000
G1 X49.975665 Y55.427653 F100.000000
G1 X50.007288 Y55.468282 F100.000000
G1 X50.050390 Y55.496442 F100.000000
G1 X50.100300 Y55.509081 F100.000000
G1 X50.151609 Y55.504829 F100.000000
G1 X50.198758 Y55.484148 F100.000000
G1 X50.236637 Y55.449278 F100.000000
G1 X50.261141 Y55.403998 F100.000000
G1 X50.269615 Y55.353215 F100.000000
G0 Z-1.133333 F30.000000
G1 X50.261141 Y55.302432 F100.000000
G1 X50.236637 Y55.257152 F100.000000
G1 X50.198758 Y55.222282 F100.000000
G1 X50.151609 Y55.201601 F100.000000
G1 X50.100300 Y55.197349 F100.000000
G1 X50.050390 Y55.209988 F100.000000
G1 X50.007288 Y55.238148 F100.000000
G1 X49.975665 Y55.278777 F100.000000
G1 X49.958948 Y55.327472 F100.000000
G1 Y55.378958 F100.000000
G1 X49.975665 Y55.427653 F100.000000
G1 X50.007288 Y55.468282 F100.000000
G1 X50.050390 Y55.496442 F100.000000
G1 X50.100300 Y55.509081 F100.000000
G1 X50.151609 Y55.504829 F100.000000
G1 X50.198758 Y55.484148 F100.000000
G1 X50.236637 Y55.449278 F100.000000
G1 X50.261141 Y55.403998 F100.000000
G1 X50.269615 Y55.353215 F100.000000
G0 Z-1.416667 F30.000000
G1 X50.261141 Y55.302432 F100.000000
G1 X50.236637 Y55.257152 F100.000000
G1 X50.198758 Y55.222282 F100.000000
G1 X50.151609 Y55.201601 F100.000000
G1 X50.100300 Y55.197349 F100.000000
G1 X50.050390 Y55.209988 F100.000000
G1 X50.007288 Y55.238148 F100.000000
G1 X49.975665 Y55.278777 F100.000000
G1 X49.958948 Y55.327472 F100.000000
G1 Y55.378958 F100.000000
G1 X49.975665 Y55.427653 F100.000000
G1 X50.007288 Y55.468282 F100.000000
G1 X50.050390 Y55.496442 F100.000000
G1 X50.100300 Y55.509081 F100.000000
G1 X50.151609 Y55.504829 F100.000000
G1 X50.198758 Y55.484148 F100.000000
G1 X50.236637 Y55.449278 F100.000000
G1 X50.261141 Y55.403998 F100.000000
G1 X50.269615 Y55.353215 F100.000000
G0 Z-1.700000 F30.000000
G1 X50.261141 Y55.302432 F100.000000
G1 X50.236637 Y55.257152 F100.000000
G1 X50.198758 Y55.222282 F100.000000
G1 X50.151609 Y55.201601 F100.000000
G1 X50.100300 Y55.197349 F100.000000
G1 X50.050390 Y55.209988 F100.000000
G1 X50.007288 Y55.238148 F100.000000
G1 X49.975665 Y55.278777 F100.000000
G1 X49.958948 Y55.327472 F100.000000
G1 Y55.378958 F100.000000
G1 X49.975665 Y55.427653 F100.000000
G1 X50.007288 Y55.468282 F100.000000
G1 X50.050390 Y55.496442 F100.000000
G1 X50.100300 Y55.509081 F100.000000
G1 X50.151609 Y55.504829 F100.000000
G1 X50.198758 Y55.484148 F100.000000
G1 X50.236637 Y55.449278 F100.000000
G1 X50.261141 Y55.403998 F100.000000
G1 X50.269615 Y55.353215 F100.000000
G0 Z2.000000
G0 X48.745615 Y7.093215
G17
G0 Z-0.283333 F30.000000
G1 X48.745615 Y7.093215 F100.000000
G1 X48.737141 Y7.042432 F100.000000
G1 X48.712637 Y6.997152 F100.000000
G1 X48.674758 Y6.962282 F100.000000
G1 X48.627609 Y6.941601 F100.000000
G1 X48.576300 Y6.937349 F100.000000
G1 X48.526390 Y6.949988 F100.000000
G1 X48.483288 Y6.978148 F100.000000
G1 X48.451665 Y7.018777 F100.000000
G1 X48.434948 Y7.067472 F100.000000
G1 Y7.118958 F100.000000
G1 X48.451665 Y7.167653 F100.000000
G1 X48.483288 Y7.208282 F100.000000
G1 X48.526390 Y7.236442 F100.000000
G1 X48.576300 Y7.249081 F100.000000
G1 X48.627609 Y7.244829 F100.000000
G1 X48.674758 Y7.224148 F100.000000
G1 X48.712637 Y7.189278 F100.000000
G1 X48.737141 Y7.143998 F100.000000
G1 X48.745615 Y7.093215 F100.000000
G0 Z-0.566667 F30.000000
G1 X48.737141 Y7.042432 F100.000000
G1 X48.712637 Y6.997152 F100.000000
G1 X48.674758 Y6.962282 F100.000000
G1 X48.627609 Y6.941601 F100.000000
G1 X48.576300 Y6.937349 F100.000000
G1 X48.526390 Y6.949988 F100.000000
G1 X48.483288 Y6.978148 F100.000000
G1 X48.451665 Y7.018777 F100.000000
G1 X48.434948 Y7.067472 F100.000000
G1 Y7.118958 F100.000000
G1 X48.451665 Y7.167653 F100.000000
G1 X48.483288 Y7.208282 F100.000000
G1 X48.526390 Y7.236442 F100.000000
G1 X48.576300 Y7.249081 F100.000000
G1 X48.627609 Y7.244829 F100.000000
G1 X48.674758 Y7.224148 F100.000000
G1 X48.712637 Y7.189278 F100.000000
G1 X48.737141 Y7.143998 F100.000000
G1 X48.745615 Y7.093215 F100.000000
G0 Z-0.850000 F30.000000
G1 X48.737141 Y7.042432 F100.000000
G1 X48.712637 Y6.997152 F100.000000
G1 X48.674758 Y6.962282 F100.000000
G1 X48.627609 Y6.941601 F100.000000
G1 X48.576300 Y6.937349 F100.000000
G1 X48.526390 Y6.949988 F100.000000
G1 X48.483288 Y6.978148 F100.000000
G1 X48.451665 Y7.018777 F100.000000
G1 X48.434948 Y7.067472 F100.000000
G1 Y7.118958 F100.000000
G1 X48.451665 Y7.167653 F100.000000
G1 X48.483288 Y7.208282 F100.000000
G1 X48.526390 Y7.236442 F100.000000
G1 X48.576300 Y7.249081 F100.000000
G1 X48.627609 Y7.244829 F100.000000
G1 X48.674758 Y7.224148 F100.000000
G1 X48.712637 Y7.189278 F100.000000
G1 X48.737141 Y7.143998 F100.000000
G1 X48.745615 Y7.093215 F100.000000
G0 Z-1.133333 F30.000000
G1 X48.737141 Y7.042432 F100.000000
G1 X48.712637 Y6.997152 F100.000000
G1 X48.674758 Y6.962282 F100.000000
G1 X48.627609 Y6.941601 F100.000000
G1 X48.576300 Y6.937349 F100.000000
G1 X48.526390 Y6.949988 F100.000000
G1 X48.483288 Y6.978148 F100.000000
G1 X48.451665 Y7.018777 F100.000000
G1 X48.434948 Y7.067472 F100.000000
G1 Y7.118958 F100.000000
G1 X48.451665 Y7.167653 F100.000000
G1 X48.483288 Y7.208282 F100.000000
G1 X48.526390 Y7.236442 F100.000000
G1 X48.576300 Y7.249081 F100.000000
G1 X48.627609 Y7.244829 F100.000000
G1 X48.674758 Y7.224148 F100.000000
G1 X48.712637 Y7.189278 F100.000000
G1 X48.737141 Y7.143998 F100.000000
G1 X48.745615 Y7.093215 F100.000000
G0 Z-1.416667 F30.000000
G1 X48.737141 Y7.042432 F100.000000
G1 X48.712637 Y6.997152 F100.000000
G1 X48.674758 Y6.962282 F100.000000
G1 X48.627609 Y6.941601 F100.000000
G1 X48.576300 Y6.937349 F100.000000
G1 X48.526390 Y6.949988 F100.000000
G1 X48.483288 Y6.978148 F100.000000
G1 X48.451665 Y7.018777 F100.000000
G1 X48.434948 Y7.067472 F100.000000
G1 Y7.118958 F100.000000
G1 X48.451665 Y7.167653 F100.000000
G1 X48.483288 Y7.208282 F100.000000
G1 X48.526390 Y7.236442 F100.000000
G1 X48.576300 Y7.249081 F100.000000
G1 X48.627609 Y7.244829 F100.000000
G1 X48.674758 Y7.224148 F100.000000
G1 X48.712637 Y7.189278 F100.000000
G1 X48.737141 Y7.143998 F100.000000
G1 X48.745615 Y7.093215 F100.000000
G0 Z-1.700000 F30.000000
G1 X48.737141 Y7.042432 F100.000000
G1 X48.712637 Y6.997152 F100.000000
G1 X48.674758 Y6.962282 F100.000000
G1 X48.627609 Y6.941601 F100.000000
G1 X48.576300 Y6.937349 F100.000000
G1 X48.526390 Y6.949988 F100.000000
G1 X48.483288 Y6.978148 F100.000000
G1 X48.451665 Y7.018777 F100.000000
G1 X48.434948 Y7.067472 F100.000000
G1 Y7.118958 F100.000000
G1 X48.451665 Y7.167653 F100.000000
G1 X48.483288 Y7.208282 F100.000000
G1 X48.526390 Y7.236442 F100.000000
G1 X48.576300 Y7.249081 F100.000000
G1 X48.627609 Y7.244829 F100.000000
G1 X48.674758 Y7.224148 F100.000000
G1 X48.712637 Y7.189278 F100.000000
G1 X48.737141 Y7.143998 F100.000000
G1 X48.745615 Y7.093215 F100.000000
G0 Z2.000000
G0 X47.729615 Y55.353215
G17
G0 Z-0.283333 F30.000000
G1 X47.729615 Y55.353215 F100.000000
G1 X47.721141 Y55.302432 F100.000000
G1 X47.696637 Y55.257152 F100.000000
G1 X47.658758 Y55.222282 F100.000000
G1 X47.611609 Y55.201601 F100.000000
G1 X47.560300 Y55.197349 F100.000000
G1 X47.510390 Y55.209988 F100.000000
G1 X47.467288 Y55.238148 F100.000000
G1 X47.435665 Y55.278777 F100.000000
G1 X47.418948 Y55.327472 F100.000000
G1 Y55.378958 F100.000000
G1 X47.435665 Y55.427653 F100.000000
G1 X47.467288 Y55.468282 F100.000000
G1 X47.510390 Y55.496442 F100.000000
G1 X47.560300 Y55.509081 F100.000000
G1 X47.611609 Y55.504829 F100.000000
G1 X47.658758 Y55.484148 F100.000000
G1 X47.696637 Y55.449278 F100.000000
G1 X47.721141 Y55.403998 F100.000000
G1 X47.729615 Y55.353215 F100.000000
G0 Z-0.566667 F30.000000
G1 X47.721141 Y55.302432 F100.000000
G1 X47.696637 Y55.257152 F100.000000
G1 X47.658758 Y55.222282 F100.000000
G1 X47.611609 Y55.201601 F100.000000
G1 X47.560300 Y55.197349 F100.000000
G1 X47.510390 Y55.209988 F100.000000
G1 X47.467288 Y55.238148 F100.000000
G1 X47.435665 Y55.278777 F100.000000
G1 X47.418948 Y55.327472 F100.000000
G1 Y55.378958 F100.000000
G1 X47.435665 Y55.427653 F100.000000
G1 X47.467288 Y55.468282 F100.000000
G1 X47.510390 Y55.496442 F100.000000
G1 X47.560300 Y55.509081 F100.000000
G1 X47.611609 Y55.504829 F100.000000
G1 X47.658758 Y55.484148 F100.000000
G1 X47.696637 Y55.449278 F100.000000
G1 X47.721141 Y55.403998 F100.000000
G1 X47.729615 Y55.353215 F100.000000
G0 Z-0.850000 F30.000000
G1 X47.721141 Y55.302432 F100.000000
G1 X47.696637 Y55.257152 F100.000000
G1 X47.658758 Y55.222282 F100.000000
G1 X47.611609 Y55.201601 F100.000000
G1 X47.560300 Y55.197349 F100.000000
G1 X47.510390 Y55.209988 F100.000000
G1 X47.467288 Y55.238148 F100.000000
G1 X47.435665 Y55.278777 F100.000000
G1 X47.418948 Y55.327472 F100.000000
G1 Y55.378958 F100.000000
G1 X47.435665 Y55.427653 F100.000000
G1 X47.467288 Y55.468282 F100.000000
G1 X47.510390 Y55.496442 F100.000000
G1 X47.560300 Y55.509081 F100.000000
G1 X47.611609 Y55.504829 F100.000000
G1 X47.658758 Y55.484148 F100.000000
G1 X47.696637 Y55.449278 F100.000000
G1 X47.721141 Y55.403998 F100.000000
G1 X47.729615 Y55.353215 F100.000000
G0 Z-1.133333 F30.000000
G1 X47.721141 Y55.302432 F100.000000
G1 X47.696637 Y55.257152 F100.000000
G1 X47.658758 Y55.222282 F100.000000
G1 X47.611609 Y55.201601 F100.000000
G1 X47.560300 Y55.197349 F100.000000
G1 X47.510390 Y55.209988 F100.000000
G1 X47.467288 Y55.238148 F100.000000
G1 X47.435665 Y55.278777 F100.000000
G1 X47.418948 Y55.327472 F100.000000
G1 Y55.378958 F100.000000
G1 X47.435665 Y55.427653 F100.000000
G1 X47.467288 Y55.468282 F100.000000
G1 X47.510390 Y55.496442 F100.000000
G1 X47.560300 Y55.509081 F100.000000
G1 X47.611609 Y55.504829 F100.000000
G1 X47.658758 Y55.484148 F100.000000
G1 X47.696637 Y55.449278 F100.000000
G1 X47.721141 Y55.403998 F100.000000
G1 X47.729615 Y55.353215 F100.000000
G0 Z-1.416667 F30.000000
G1 X47.721141 Y55.302432 F100.000000
G1 X47.696637 Y55.257152 F100.000000
G1 X47.658758 Y55.222282 F100.000000
G1 X47.611609 Y55.201601 F100.000000
G1 X47.560300 Y55.197349 F100.000000
G1 X47.510390 Y55.209988 F100.000000
G1 X47.467288 Y55.238148 F100.000000
G1 X47.435665 Y55.278777 F100.000000
G1 X47.418948 Y55.327472 F100.000000
G1 Y55.378958 F100.000000
G1 X47.435665 Y55.427653 F100.000000
G1 X47.467288 Y55.468282 F100.000000
G1 X47.510390 Y55.496442 F100.000000
G1 X47.560300 Y55.509081 F100.000000
G1 X47.611609 Y55.504829 F100.000000
G1 X47.658758 Y55.484148 F100.000000
G1 X47.696637 Y55.449278 F100.000000
G1 X47.721141 Y55.403998 F100.000000
G1 X47.729615 Y55.353215 F100.000000
G0 Z-1.700000 F30.000000
G1 X47.721141 Y55.302432 F100.000000
G1 X47.696637 Y55.257152 F100.000000
G1 X47.658758 Y55.222282 F100.000000
G1 X47.611609 Y55.201601 F100.000000
G1 X47.560300 Y55.197349 F100.000000
G1 X47.510390 Y55.209988 F100.000000
G1 X47.467288 Y55.238148 F100.000000
G1 X47.435665 Y55.278777 F100.000000
G1 X47.418948 Y55.327472 F100.000000
G1 Y55.378958 F100.000000
G1 X47.435665 Y55.427653 F100.000000
G1 X47.467288 Y55.468282 F100.000000
G1 X47.510390 Y55.496442 F100.000000
G1 X47.560300 Y55.509081 F100.000000
G1 X47.611609 Y55.504829 F100.000000
G1 X47.658758 Y55.484148 F100.000000
G1 X47.696637 Y55.449278 F100.000000
G1 X47.721141 Y55.403998 F100.000000
G1 X47.729615 Y55.353215 F100.000000
G0 Z2.000000
G0 X46.205615 Y7.093215
G17
G0 Z-0.283333 F30.000000
G1 X46.205615 Y7.093215 F100.000000
G1 X46.197141 Y7.042432 F100.000000
G1 X46.172637 Y6.997152 F100.000000
G1 X46.134758 Y6.962282 F100.000000
G1 X46.087609 Y6.941601 F100.000000
G1 X46.036300 Y6.937349 F100.000000
G1 X45.986390 Y6.949988 F100.000000
G1 X45.943288 Y6.978148 F100.000000
G1 X45.911665 Y7.018777 F100.000000
G1 X45.894948 Y7.067472 F100.000000
G1 Y7.118958 F100.000000
G1 X45.911665 Y7.167653 F100.000000
G1 X45.943288 Y7.208282 F100.000000
G1 X45.986390 Y7.236442 F100.000000
G1 X46.036300 Y7.249081 F100.000000
G1 X46.087609 Y7.244829 F100.000000
G1 X46.134758 Y7.224148 F100.000000
G1 X46.172637 Y7.189278 F100.000000
G1 X46.197141 Y7.143998 F100.000000
G1 X46.205615 Y7.093215 F100.000000
G0 Z-0.566667 F30.000000
G1 X46.197141 Y7.042432 F100.000000
G1 X46.172637 Y6.997152 F100.000000
G1 X46.134758 Y6.962282 F100.000000
G1 X46.087609 Y6.941601 F100.000000
G1 X46.036300 Y6.937349 F100.000000
G1 X45.986390 Y6.949988 F100.000000
G1 X45.943288 Y6.978148 F100.000000
G1 X45.911665 Y7.018777 F100.000000
G1 X45.894948 Y7.067472 F100.000000
G1 Y7.118958 F100.000000
G1 X45.911665 Y7.167653 F100.000000
G1 X45.943288 Y7.208282 F100.000000
G1 X45.986390 Y7.236442 F100.000000
G1 X46.036300 Y7.249081 F100.000000
G1 X46.087609 Y7.244829 F100.000000
G1 X46.134758 Y7.224148 F100.000000
G1 X46.172637 Y7.189278 F100.000000
G1 X46.197141 Y7.143998 F100.000000
G1 X46.205615 Y7.093215 F100.000000
G0 Z-0.850000 F30.000000
G1 X46.197141 Y7.042432 F100.000000
G1 X46.172637 Y6.997152 F100.000000
G1 X46.134758 Y6.962282 F100.000000
G1 X46.087609 Y6.941601 F100.000000
G1 X46.036300 Y6.937349 F100.000000
G1 X45.986390 Y6.949988 F100.000000
G1 X45.943288 Y6.978148 F100.000000
G1 X45.911665 Y7.018777 F100.000000
G1 X45.894948 Y7.067472 F100.000000
G1 Y7.118958 F100.000000
G1 X45.911665 Y7.167653 F100.000000
G1 X45.943288 Y7.208282 F100.000000
G1 X45.986390 Y7.236442 F100.000000
G1 X46.036300 Y7.249081 F100.000000
G1 X46.087609 Y7.244829 F100.000000
G1 X46.134758 Y7.224148 F100.000000
G1 X46.172637 Y7.189278 F100.000000
G1 X46.197141 Y7.143998 F100.000000
G1 X46.205615 Y7.093215 F100.000000
G0 Z-1.133333 F30.000000
G1 X46.197141 Y7.042432 F100.000000
G1 X46.172637 Y6.997152 F100.000000
G1 X46.134758 Y6.962282 F100.000000
G1 X46.087609 Y6.941601 F100.000000
G1 X46.036300 Y6.937349 F100.000000
G1 X45.986390 Y6.949988 F100.000000
G1 X45.943288 Y6.978148 F100.000000
G1 X45.911665 Y7.018777 F100.000000
G1 X45.894948 Y7.067472 F100.000000
G1 Y7.118958 F100.000000
G1 X45.911665 Y7.167653 F100.000000
G1 X45.943288 Y7.208282 F100.000000
G1 X45.986390 Y7.236442 F100.000000
G1 X46.036300 Y7.249081 F100.000000
G1 X46.087609 Y7.244829 F100.000000
G1 X46.134758 Y7.224148 F100.000000
G1 X46.172637 Y7.189278 F100.000000
G1 X46.197141 Y7.143998 F100.000000
G1 X46.205615 Y7.093215 F100.000000
G0 Z-1.416667 F30.000000
G1 X46.197141 Y7.042432 F100.000000
G1 X46.172637 Y6.997152 F100.000000
G1 X46.134758 Y6.962282 F100.000000
G1 X46.087609 Y6.941601 F100.000000
G1 X46.036300 Y6.937349 F100.000000
G1 X45.986390 Y6.949988 F100.000000
G1 X45.943288 Y6.978148 F100.000000
G1 X45.911665 Y7.018777 F100.000000
G1 X45.894948 Y7.067472 F100.000000
G1 Y7.118958 F100.000000
G1 X45.911665 Y7.167653 F100.000000
G1 X45.943288 Y7.208282 F100.000000
G1 X45.986390 Y7.236442 F100.000000
G1 X46.036300 Y7.249081 F100.000000
G1 X46.087609 Y7.244829 F100.000000
G1 X46.134758 Y7.224148 F100.000000
G1 X46.172637 Y7.189278 F100.000000
G1 X46.197141 Y7.143998 F100.000000
G1 X46.205615 Y7.093215 F100.000000
G0 Z-1.700000 F30.000000
G1 X46.197141 Y7.042432 F100.000000
G1 X46.172637 Y6.997152 F100.000000
G1 X46.134758 Y6.962282 F100.000000
G1 X46.087609 Y6.941601 F100.000000
G1 X46.036300 Y6.937349 F100.000000
G1 X45.986390 Y6.949988 F100.000000
G1 X45.943288 Y6.978148 F100.000000
G1 X45.911665 Y7.018777 F100.000000
G1 X45.894948 Y7.067472 F100.000000
G1 Y7.118958 F100.000000
G1 X45.911665 Y7.167653 F100.000000
G1 X45.943288 Y7.208282 F100.000000
G1 X45.986390 Y7.236442 F100.000000
G1 X46.036300 Y7.249081 F100.000000
G1 X46.087609 Y7.244829 F100.000000
G1 X46.134758 Y7.224148 F100.000000
G1 X46.172637 Y7.189278 F100.000000
G1 X46.197141 Y7.143998 F100.000000
G1 X46.205615 Y7.093215 F100.000000
G0 Z2.000000
G0 X45.189615 Y55.353215
G17
G0 Z-0.283333 F30.000000
G1 X45.189615 Y55.353215 F100.000000
G1 X45.181141 Y55.302432 F100.000000
G1 X45.156637 Y55.257152 F100.000000
G1 X45.118758 Y55.222282 F100.000000
G1 X45.071609 Y55.201601 F100.000000
G1 X45.020300 Y55.197349 F100.000000
G1 X44.970390 Y55.209988 F100.000000
G1 X44.927288 Y55.238148 F100.000000
G1 X44.895665 Y55.278777 F100.000000
G1 X44.878948 Y55.327472 F100.000000
G1 Y55.378958 F100.000000
G1 X44.895665 Y55.427653 F100.000000
G1 X44.927288 Y55.468282 F100.000000
G1 X44.970390 Y55.496442 F100.000000
G1 X45.020300 Y55.509081 F100.000000
G1 X45.071609 Y55.504829 F100.000000
G1 X45.118758 Y55.484148 F100.000000
G1 X45.156637 Y55.449278 F100.000000
G1 X45.181141 Y55.403998 F100.000000
G1 X45.189615 Y55.353215 F100.000000
G0 Z-0.566667 F30.000000
G1 X45.181141 Y55.302432 F100.000000
G1 X45.156637 Y55.257152 F100.000000
G1 X45.118758 Y55.222282 F100.000000
G1 X45.071609 Y55.201601 F100.000000
G1 X45.020300 Y55.197349 F100.000000
G1 X44.970390 Y55.209988 F100.000000
G1 X44.927288 Y55.238148 F100.000000
G1 X44.895665 Y55.278777 F100.000000
G1 X44.878948 Y55.327472 F100.000000
G1 Y55.378958 F100.000000
G1 X44.895665 Y55.427653 F100.000000
G1 X44.927288 Y55.468282 F100.000000
G1 X44.970390 Y55.496442 F100.000000
G1 X45.020300 Y55.509081 F100.000000
G1 X45.071609 Y55.504829 F100.000000
G1 X45.118758 Y55.484148 F100.000000
G1 X45.156637 Y55.449278 F100.000000
G1 X45.181141 Y55.403998 F100.000000
G1 X45.189615 Y55.353215 F100.000000
G0 Z-0.850000 F30.000000
G1 X45.181141 Y55.302432 F100.000000
G1 X45.156637 Y55.257152 F100.000000
G1 X45.118758 Y55.222282 F100.000000
G1 X45.071609 Y55.201601 F100.000000
G1 X45.020300 Y55.197349 F100.000000
G1 X44.970390 Y55.209988 F100.000000
G1 X44.927288 Y55.238148 F100.000000
G1 X44.895665 Y55.278777 F100.000000
G1 X44.878948 Y55.327472 F100.000000
G1 Y55.378958 F100.000000
G1 X44.895665 Y55.427653 F100.000000
G1 X44.927288 Y55.468282 F100.000000
G1 X44.970390 Y55.496442 F100.000000
G1 X45.020300 Y55.509081 F100.000000
G1 X45.071609 Y55.504829 F100.000000
G1 X45.118758 Y55.484148 F100.000000
G1 X45.156637 Y55.449278 F100.000000
G1 X45.181141 Y55.403998 F100.000000
G1 X45.189615 Y55.353215 F100.000000
G0 Z-1.133333 F30.000000
G1 X45.181141 Y55.302432 F100.000000
G1 X45.156637 Y55.257152 F100.000000
G1 X45.118758 Y55.222282 F100.000000
G1 X45.071609 Y55.201601 F100.000000
G1 X45.020300 Y55.197349 F100.000000
G1 X44.970390 Y55.209988 F100.000000
G1 X44.927288 Y55.238148 F100.000000
G1 X44.895665 Y55.278777 F100.000000
G1 X44.878948 Y55.327472 F100.000000
G1 Y55.378958 F100.000000
G1 X44.895665 Y55.427653 F100.000000
G1 X44.927288 Y55.468282 F100.000000
G1 X44.970390 Y55.496442 F100.000000
G1 X45.020300 Y55.509081 F100.000000
G1 X45.071609 Y55.504829 F100.000000
G1 X45.118758 Y55.484148 F100.000000
G1 X45.156637 Y55.449278 F100.000000
G1 X45.181141 Y55.403998 F100.000000
G1 X45.189615 Y55.353215 F100.000000
G0 Z-1.416667 F30.000000
G1 X45.181141 Y55.302432 F100.000000
G1 X45.156637 Y55.257152 F100.000000
G1 X45.118758 Y55.222282 F100.000000
G1 X45.071609 Y55.201601 F100.000000
G1 X45.020300 Y55.197349 F100.000000
G1 X44.970390 Y55.209988 F100.000000
G1 X44.927288 Y55.238148 F100.000000
G1 X44.895665 Y55.278777 F100.000000
G1 X44.878948 Y55.327472 F100.000000
G1 Y55.378958 F100.000000
G1 X44.895665 Y55.427653 F100.000000
G1 X44.927288 Y55.468282 F100.000000
G1 X44.970390 Y55.496442 F100.000000
G1 X45.020300 Y55.509081 F100.000000
G1 X45.071609 Y55.504829 F100.000000
G1 X45.118758 Y55.484148 F100.000000
G1 X45.156637 Y55.449278 F100.000000
G1 X45.181141 Y55.403998 F100.000000
G1 X45.189615 Y55.353215 F100.000000
G0 Z-1.700000 F30.000000
G1 X45.181141 Y55.302432 F100.000000
G1 X45.156637 Y55.257152 F100.000000
G1 X45.118758 Y55.222282 F100.000000
G1 X45.071609 Y55.201601 F100.000000
G1 X45.020300 Y55.197349 F100.000000
G1 X44.970390 Y55.209988 F100.000000
G1 X44.927288 Y55.238148 F100.000000
G1 X44.895665 Y55.278777 F100.000000
G1 X44.878948 Y55.327472 F100.000000
G1 Y55.378958 F100.000000
G1 X44.895665 Y55.427653 F100.000000
G1 X44.927288 Y55.468282 F100.000000
G1 X44.970390 Y55.496442 F100.000000
G1 X45.020300 Y55.509081 F100.000000
G1 X45.071609 Y55.504829 F100.000000
G1 X45.118758 Y55.484148 F100.000000
G1 X45.156637 Y55.449278 F100.000000
G1 X45.181141 Y55.403998 F100.000000
G1 X45.189615 Y55.353215 F100.000000
G0 Z2.000000
G0 X44.935615 Y25.635215
G17
G0 Z-0.283333 F30.000000
G1 X44.935615 Y25.635215 F100.000000
G1 X44.927141 Y25.584432 F100.000000
G1 X44.902637 Y25.539152 F100.000000
G1 X44.864758 Y25.504282 F100.000000
G1 X44.817609 Y25.483601 F100.000000
G1 X44.766300 Y25.479349 F100.000000
G1 X44.716390 Y25.491988 F100.000000
G1 X44.673288 Y25.520148 F100.000000
G1 X44.641665 Y25.560777 F100.000000
G1 X44.624948 Y25.609472 F100.000000
G1 Y25.660958 F100.000000
G1 X44.641665 Y25.709653 F100.000000
G1 X44.673288 Y25.750282 F100.000000
G1 X44.716390 Y25.778442 F100.000000
G1 X44.766300 Y25.791081 F100.000000
G1 X44.817609 Y25.786829 F100.000000
G1 X44.864758 Y25.766148 F100.000000
G1 X44.902637 Y25.731278 F100.000000
G1 X44.927141 Y25.685998 F100.000000
G1 X44.935615 Y25.635215 F100.000000
G0 Z-0.566667 F30.000000
G1 X44.927141 Y25.584432 F100.000000
G1 X44.902637 Y25.539152 F100.000000
G1 X44.864758 Y25.504282 F100.000000
G1 X44.817609 Y25.483601 F100.000000
G1 X44.766300 Y25.479349 F100.000000
G1 X44.716390 Y25.491988 F100.000000
G1 X44.673288 Y25.520148 F100.000000
G1 X44.641665 Y25.560777 F100.000000
G1 X44.624948 Y25.609472 F100.000000
G1 Y25.660958 F100.000000
G1 X44.641665 Y25.709653 F100.000000
G1 X44.673288 Y25.750282 F100.000000
G1 X44.716390 Y25.778442 F100.000000
G1 X44.766300 Y25.791081 F100.000000
G1 X44.817609 Y25.786829 F100.000000
G1 X44.864758 Y25.766148 F100.000000
G1 X44.902637 Y25.731278 F100.000000
G1 X44.927141 Y25.685998 F100.000000
G1 X44.935615 Y25.635215 F100.000000
G0 Z-0.850000 F30.000000
G1 X44.927141 Y25.584432 F100.000000
G1 X44.902637 Y25.539152 F100.000000
G1 X44.864758 Y25.504282 F100.000000
G1 X44.817609 Y25.483601 F100.000000
G1 X44.766300 Y25.479349 F100.000000
G1 X44.716390 Y25.491988 F100.000000
G1 X44.673288 Y25.520148 F100.000000
G1 X44.641665 Y25.560777 F100.000000
G1 X44.624948 Y25.609472 F100.000000
G1 Y25.660958 F100.000000
G1 X44.641665 Y25.709653 F100.000000
G1 X44.673288 Y25.750282 F100.000000
G1 X44.716390 Y25.778442 F100.000000
G1 X44.766300 Y25.791081 F100.000000
G1 X44.817609 Y25.786829 F100.000000
G1 X44.864758 Y25.766148 F100.000000
G1 X44.902637 Y25.731278 F100.000000
G1 X44.927141 Y25.685998 F100.000000
G1 X44.935615 Y25.635215 F100.000000
G0 Z-1.133333 F30.000000
G1 X44.927141 Y25.584432 F100.000000
G1 X44.902637 Y25.539152 F100.000000
G1 X44.864758 Y25.504282 F100.000000
G1 X44.817609 Y25.483601 F100.000000
G1 X44.766300 Y25.479349 F100.000000
G1 X44.716390 Y25.491988 F100.000000
G1 X44.673288 Y25.520148 F100.000000
G1 X44.641665 Y25.560777 F100.000000
G1 X44.624948 Y25.609472 F100.000000
G1 Y25.660958 F100.000000
G1 X44.641665 Y25.709653 F100.000000
G1 X44.673288 Y25.750282 F100.000000
G1 X44.716390 Y25.778442 F100.000000
G1 X44.766300 Y25.791081 F100.000000
G1 X44.817609 Y25.786829 F100.000000
G1 X44.864758 Y25.766148 F100.000000
G1 X44.902637 Y25.731278 F100.000000
G1 X44.927141 Y25.685998 F100.000000
G1 X44.935615 Y25.635215 F100.000000
G0 Z-1.416667 F30.000000
G1 X44.927141 Y25.584432 F100.000000
G1 X44.902637 Y25.539152 F100.000000
G1 X44.864758 Y25.504282 F100.000000
G1 X44.817609 Y25.483601 F100.000000
G1 X44.766300 Y25.479349 F100.000000
G1 X44.716390 Y25.491988 F100.000000
G1 X44.673288 Y25.520148 F100.000000
G1 X44.641665 Y25.560777 F100.000000
G1 X44.624948 Y25.609472 F100.000000
G1 Y25.660958 F100.000000
G1 X44.641665 Y25.709653 F100.000000
G1 X44.673288 Y25.750282 F100.000000
G1 X44.716390 Y25.778442 F100.000000
G1 X44.766300 Y25.791081 F100.000000
G1 X44.817609 Y25.786829 F100.000000
G1 X44.864758 Y25.766148 F100.000000
G1 X44.902637 Y25.731278 F100.000000
G1 X44.927141 Y25.685998 F100.000000
G1 X44.935615 Y25.635215 F100.000000
G0 Z-1.700000 F30.000000
G1 X44.927141 Y25.584432 F100.000000
G1 X44.902637 Y25.539152 F100.000000
G1 X44.864758 Y25.504282 F100.000000
G1 X44.817609 Y25.483601 F100.000000
G1 X44.766300 Y25.479349 F100.000000
G1 X44.716390 Y25.491988 F100.000000
G1 X44.673288 Y25.520148 F100.000000
G1 X44.641665 Y25.560777 F100.000000
G1 X44.624948 Y25.609472 F100.000000
G1 Y25.660958 F100.000000
G1 X44.641665 Y25.709653 F100.000000
G1 X44.673288 Y25.750282 F100.000000
G1 X44.716390 Y25.778442 F100.000000
G1 X44.766300 Y25.791081 F100.000000
G1 X44.817609 Y25.786829 F100.000000
G1 X44.864758 Y25.766148 F100.000000
G1 X44.902637 Y25.731278 F100.000000
G1 X44.927141 Y25.685998 F100.000000
G1 X44.935615 Y25.635215 F100.000000
G0 Z2.000000
G0 X44.935615 Y22.587215
G17
G0 Z-0.283333 F30.000000
G1 Y22.587215 F100.000000
G1 X44.927141 Y22.536432 F100.000000
G1 X44.902637 Y22.491152 F100.000000
G1 X44.864758 Y22.456282 F100.000000
G1 X44.817609 Y22.435601 F100.000000
G1 X44.766300 Y22.431349 F100.000000
G1 X44.716390 Y22.443988 F100.000000
G1 X44.673288 Y22.472148 F100.000000
G1 X44.641665 Y22.512777 F100.000000
G1 X44.624948 Y22.561472 F100.000000
G1 Y22.612958 F100.000000
G1 X44.641665 Y22.661653 F100.000000
G1 X44.673288 Y22.702282 F100.000000
G1 X44.716390 Y22.730442 F100.000000
G1 X44.766300 Y22.743081 F100.000000
G1 X44.817609 Y22.738829 F100.000000
G1 X44.864758 Y22.718148 F100.000000
G1 X44.902637 Y22.683278 F100.000000
G1 X44.927141 Y22.637998 F100.000000
G1 X44.935615 Y22.587215 F100.000000
G0 Z-0.566667 F30.000000
G1 X44.927141 Y22.536432 F100.000000
G1 X44.902637 Y22.491152 F100.000000
G1 X44.864758 Y22.456282 F100.000000
G1 X44.817609 Y22.435601 F100.000000
G1 X44.766300 Y22.431349 F100.000000
G1 X44.716390 Y22.443988 F100.000000
G1 X44.673288 Y22.472148 F100.000000
G1 X44.641665 Y22.512777 F100.000000
G1 X44.624948 Y22.561472 F100.000000
G1 Y22.612958 F100.000000
G1 X44.641665 Y22.661653 F100.000000
G1 X44.673288 Y22.702282 F100.000000
G1 X44.716390 Y22.730442 F100.000000
G1 X44.766300 Y22.743081 F100.000000
G1 X44.817609 Y22.738829 F100.000000
G1 X44.864758 Y22.718148 F100.000000
G1 X44.902637 Y22.683278 F100.000000
G1 X44.927141 Y22.637998 F100.000000
G1 X44.935615 Y22.587215 F100.000000
G0 Z-0.850000 F30.000000
G1 X44.927141 Y22.536432 F100.000000
G1 X44.902637 Y22.491152 F100.000000
G1 X44.864758 Y22.456282 F100.000000
G1 X44.817609 Y22.435601 F100.000000
G1 X44.766300 Y22.431349 F100.000000
G1 X44.716390 Y22.443988 F100.000000
G1 X44.673288 Y22.472148 F100.000000
G1 X44.641665 Y22.512777 F100.000000
G1 X44.624948 Y22.561472 F100.000000
G1 Y22.612958 F100.000000
G1 X44.641665 Y22.661653 F100.000000
G1 X44.673288 Y22.702282 F100.000000
G1 X44.716390 Y22.730442 F100.000000
G1 X44.766300 Y22.743081 F100.000000
G1 X44.817609 Y22.738829 F100.000000
G1 X44.864758 Y22.718148 F100.000000
G1 X44.902637 Y22.683278 F100.000000
G1 X44.927141 Y22.637998 F100.000000
G1 X44.935615 Y22.587215 F100.000000
G0 Z-1.133333 F30.000000
G1 X44.927141 Y22.536432 F100.000000
G1 X44.902637 Y22.491152 F100.000000
G1 X44.864758 Y22.456282 F100.000000
G1 X44.817609 Y22.435601 F100.000000
G1 X44.766300 Y22.431349 F100.000000
G1 X44.716390 Y22.443988 F100.000000
G1 X44.673288 Y22.472148 F100.000000
G1 X44.641665 Y22.512777 F100.000000
G1 X44.624948 Y22.561472 F100.000000
G1 Y22.612958 F100.000000
G1 X44.641665 Y22.661653 F100.000000
G1 X44.673288 Y22.702282 F100.000000
G1 X44.716390 Y22.730442 F100.000000
G1 X44.766300 Y22.743081 F100.000000
G1 X44.817609 Y22.738829 F100.000000
G1 X44.864758 Y22.718148 F100.000000
G1 X44.902637 Y22.683278 F100.000000
G1 X44.927141 Y22.637998 F100.000000
G1 X44.935615 Y22.587215 F100.000000
G0 Z-1.416667 F30.000000
G1 X44.927141 Y22.536432 F100.000000
G1 X44.902637 Y22.491152 F100.000000
G1 X44.864758 Y22.456282 F100.000000
G1 X44.817609 Y22.435601 F100.000000
G1 X44.766300 Y22.431349 F100.000000
G1 X44.716390 Y22.443988 F100.000000
G1 X44.673288 Y22.472148 F100.000000
G1 X44.641665 Y22.512777 F100.000000
G1 X44.624948 Y22.561472 F100.000000
G1 Y22.612958 F100.000000
G1 X44.641665 Y22.661653 F100.000000
G1 X44.673288 Y22.702282 F100.000000
G1 X44.716390 Y22.730442 F100.000000
G1 X44.766300 Y22.743081 F100.000000
G1 X44.817609 Y22.738829 F100.000000
G1 X44.864758 Y22.718148 F100.000000
G1 X44.902637 Y22.683278 F100.000000
G1 X44.927141 Y22.637998 F100.000000
G1 X44.935615 Y22.587215 F100.000000
G0 Z-1.700000 F30.000000
G1 X44.927141 Y22.536432 F100.000000
G1 X44.902637 Y22.491152 F100.000000
G1 X44.864758 Y22.456282 F100.000000
G1 X44.817609 Y22.435601 F100.000000
G1 X44.766300 Y22.431349 F100.000000
G1 X44.716390 Y22.443988 F100.000000
G1 X44.673288 Y22.472148 F100.000000
G1 X44.641665 Y22.512777 F100.000000
G1 X44.624948 Y22.561472 F100.000000
G1 Y22.612958 F100.000000
G1 X44.641665 Y22.661653 F100.000000
G1 X44.673288 Y22.702282 F100.000000
G1 X44.716390 Y22.730442 F100.000000
G1 X44.766300 Y22.743081 F100.000000
G1 X44.817609 Y22.738829 F100.000000
G1 X44.864758 Y22.718148 F100.000000
G1 X44.902637 Y22.683278 F100.000000
G1 X44.927141 Y22.637998 F100.000000
G1 X44.935615 Y22.587215 F100.000000
G0 Z2.000000
G0 X43.919615 Y37.573215
G17
G0 Z-0.283333 F30.000000
G1 X43.919615 Y37.573215 F100.000000
G1 X43.911141 Y37.522432 F100.000000
G1 X43.886637 Y37.477152 F100.000000
G1 X43.848758 Y37.442282 F100.000000
G1 X43.801609 Y37.421601 F100.000000
G1 X43.750300 Y37.417349 F100.000000
G1 X43.700390 Y37.429988 F100.000000
G1 X43.657288 Y37.458148 F100.000000
G1 X43.625665 Y37.498777 F100.000000
G1 X43.608948 Y37.547472 F100.000000
G1 Y37.598958 F100.000000
G1 X43.625665 Y37.647653 F100.000000
G1 X43.657288 Y37.688282 F100.000000
G1 X43.700390 Y37.716442 F100.000000
G1 X43.750300 Y37.729081 F100.000000
G1 X43.801609 Y37.724829 F100.000000
G1 X43.848758 Y37.704148 F100.000000
G1 X43.886637 Y37.669278 F100.000000
G1 X43.911141 Y37.623998 F100.000000
G1 X43.919615 Y37.573215 F100.000000
G0 Z-0.566667 F30.000000
G1 X43.911141 Y37.522432 F100.000000
G1 X43.886637 Y37.477152 F100.000000
G1 X43.848758 Y37.442282 F100.000000
G1 X43.801609 Y37.421601 F100.000000
G1 X43.750300 Y37.417349 F100.000000
G1 X43.700390 Y37.429988 F100.000000
G1 X43.657288 Y37.458148 F100.000000
G1 X43.625665 Y37.498777 F100.000000
G1 X43.608948 Y37.547472 F100.000000
G1 Y37.598958 F100.000000
G1 X43.625665 Y37.647653 F100.000000
G1 X43.657288 Y37.688282 F100.000000
G1 X43.700390 Y37.716442 F100.000000
G1 X43.750300 Y37.729081 F100.000000
G1 X43.801609 Y37.724829 F100.000000
G1 X43.848758 Y37.704148 F100.000000
G1 X43.886637 Y37.669278 F100.000000
G1 X43.911141 Y37.623998 F100.000000
G1 X43.919615 Y37.573215 F100.000000
G0 Z-0.850000 F30.000000
G1 X43.911141 Y37.522432 F100.000000
G1 X43.886637 Y37.477152 F100.000000
G1 X43.848758 Y37.442282 F100.000000
G1 X43.801609 Y37.421601 F100.000000
G1 X43.750300 Y37.417349 F100.000000
G1 X43.700390 Y37.429988 F100.000000
G1 X43.657288 Y37.458148 F100.000000
G1 X43.625665 Y37.498777 F100.000000
G1 X43.608948 Y37.547472 F100.000000
G1 Y37.598958 F100.000000
G1 X43.625665 Y37.647653 F100.000000
G1 X43.657288 Y37.688282 F100.000000
G1 X43.700390 Y37.716442 F100.000000
G1 X43.750300 Y37.729081 F100.000000
G1 X43.801609 Y37.724829 F100.000000
G1 X43.848758 Y37.704148 F100.000000
G1 X43.886637 Y37.669278 F100.000000
G1 X43.911141 Y37.623998 F100.000000
G1 X43.919615 Y37.573215 F100.000000
G0 Z-1.133333 F30.000000
G1 X43.911141 Y37.522432 F100.000000
G1 X43.886637 Y37.477152 F100.000000
G1 X43.848758 Y37.442282 F100.000000
G1 X43.801609 Y37.421601 F100.000000
G1 X43.750300 Y37.417349 F100.000000
G1 X43.700390 Y37.429988 F100.000000
G1 X43.657288 Y37.458148 F100.000000
G1 X43.625665 Y37.498777 F100.000000
G1 X43.608948 Y37.547472 F100.000000
G1 Y37.598958 F100.000000
G1 X43.625665 Y37.647653 F100.000000
G1 X43.657288 Y37.688282 F100.000000
G1 X43.700390 Y37.716442 F100.000000
G1 X43.750300 Y37.729081 F100.000000
G1 X43.801609 Y37.724829 F100.000000
G1 X43.848758 Y37.704148 F100.000000
G1 X43.886637 Y37.669278 F100.000000
G1 X43.911141 Y37.623998 F100.000000
G1 X43.919615 Y37.573215 F100.000000
G0 Z-1.416667 F30.000000
G1 X43.911141 Y37.522432 F100.000000
G1 X43.886637 Y37.477152 F100.000000
G1 X43.848758 Y37.442282 F100.000000
G1 X43.801609 Y37.421601 F100.000000
G1 X43.750300 Y37.417349 F100.000000
G1 X43.700390 Y37.429988 F100.000000
G1 X43.657288 Y37.458148 F100.000000
G1 X43.625665 Y37.498777 F100.000000
G1 X43.608948 Y37.547472 F100.000000
G1 Y37.598958 F100.000000
G1 X43.625665 Y37.647653 F100.000000
G1 X43.657288 Y37.688282 F100.000000
G1 X43.700390 Y37.716442 F100.000000
G1 X43.750300 Y37.729081 F100.000000
G1 X43.801609 Y37.724829 F100.000000
G1 X43.848758 Y37.704148 F100.000000
G1 X43.886637 Y37.669278 F100.000000
G1 X43.911141 Y37.623998 F100.000000
G1 X43.919615 Y37.573215 F100.000000
G0 Z-1.700000 F30.000000
G1 X43.911141 Y37.522432 F100.000000
G1 X43.886637 Y37.477152 F100.000000
G1 X43.848758 Y37.442282 F100.000000
G1 X43.801609 Y37.421601 F100.000000
G1 X43.750300 Y37.417349 F100.000000
G1 X43.700390 Y37.429988 F100.000000
G1 X43.657288 Y37.458148 F100.000000
G1 X43.625665 Y37.498777 F100.000000
G1 X43.608948 Y37.547472 F100.000000
G1 Y37.598958 F100.000000
G1 X43.625665 Y37.647653 F100.000000
G1 X43.657288 Y37.688282 F100.000000
G1 X43.700390 Y37.716442 F100.000000
G1 X43.750300 Y37.729081 F100.000000
G1 X43.801609 Y37.724829 F100.000000
G1 X43.848758 Y37.704148 F100.000000
G1 X43.886637 Y37.669278 F100.000000
G1 X43.911141 Y37.623998 F100.000000
G1 X43.919615 Y37.573215 F100.000000
G0 Z2.000000
G0 X43.665615 Y7.093215
G17
G0 Z-0.283333 F30.000000
G1 X43.665615 Y7.093215 F100.000000
G1 X43.657141 Y7.042432 F100.000000
G1 X43.632637 Y6.997152 F100.000000
G1 X43.594758 Y6.962282 F100.000000
G1 X43.547609 Y6.941601 F100.000000
G1 X43.496300 Y6.937349 F100.000000
G1 X43.446390 Y6.949988 F100.000000
G1 X43.403288 Y6.978148 F100.000000
G1 X43.371665 Y7.018777 F100.000000
G1 X43.354948 Y7.067472 F100.000000
G1 Y7.118958 F100.000000
G1 X43.371665 Y7.167653 F100.000000
G1 X43.403288 Y7.208282 F100.000000
G1 X43.446390 Y7.236442 F100.000000
G1 X43.496300 Y7.249081 F100.000000
G1 X43.547609 Y7.244829 F100.000000
G1 X43.594758 Y7.224148 F100.000000
G1 X43.632637 Y7.189278 F100.000000
G1 X43.657141 Y7.143998 F100.000000
G1 X43.665615 Y7.093215 F100.000000
G0 Z-0.566667 F30.000000
G1 X43.657141 Y7.042432 F100.000000
G1 X43.632637 Y6.997152 F100.000000
G1 X43.594758 Y6.962282 F100.000000
G1 X43.547609 Y6.941601 F100.000000
G1 X43.496300 Y6.937349 F100.000000
G1 X43.446390 Y6.949988 F100.000000
G1 X43.403288 Y6.978148 F100.000000
G1 X43.371665 Y7.018777 F100.000000
G1 X43.354948 Y7.067472 F100.000000
G1 Y7.118958 F100.000000
G1 X43.371665 Y7.167653 F100.000000
G1 X43.403288 Y7.208282 F100.000000
G1 X43.446390 Y7.236442 F100.000000
G1 X43.496300 Y7.249081 F100.000000
G1 X43.547609 Y7.244829 F100.000000
G1 X43.594758 Y7.224148 F100.000000
G1 X43.632637 Y7.189278 F100.000000
G1 X43.657141 Y7.143998 F100.000000
G1 X43.665615 Y7.093215 F100.000000
G0 Z-0.850000 F30.000000
G1 X43.657141 Y7.042432 F100.000000
G1 X43.632637 Y6.997152 F100.000000
G1 X43.594758 Y6.962282 F100.000000
G1 X43.547609 Y6.941601 F100.000000
G1 X43.496300 Y6.937349 F100.000000
G1 X43.446390 Y6.949988 F100.000000
G1 X43.403288 Y6.978148 F100.000000
G1 X43.371665 Y7.018777 F100.000000
G1 X43.354948 Y7.067472 F100.000000
G1 Y7.118958 F100.000000
G1 X43.371665 Y7.167653 F100.000000
G1 X43.403288 Y7.208282 F100.000000
G1 X43.446390 Y7.236442 F100.000000
G1 X43.496300 Y7.249081 F100.000000
G1 X43.547609 Y7.244829 F100.000000
G1 X43.594758 Y7.224148 F100.000000
G1 X43.632637 Y7.189278 F100.000000
G1 X43.657141 Y7.143998 F100.000000
G1 X43.665615 Y7.093215 F100.000000
G0 Z-1.133333 F30.000000
G1 X43.657141 Y7.042432 F100.000000
G1 X43.632637 Y6.997152 F100.000000
G1 X43.594758 Y6.962282 F100.000000
G1 X43.547609 Y6.941601 F100.000000
G1 X43.496300 Y6.937349 F100.000000
G1 X43.446390 Y6.949988 F100.000000
G1 X43.403288 Y6.978148 F100.000000
G1 X43.371665 Y7.018777 F100.000000
G1 X43.354948 Y7.067472 F100.000000
G1 Y7.118958 F100.000000
G1 X43.371665 Y7.167653 F100.000000
G1 X43.403288 Y7.208282 F100.000000
G1 X43.446390 Y7.236442 F100.000000
G1 X43.496300 Y7.249081 F100.000000
G1 X43.547609 Y7.244829 F100.000000
G1 X43.594758 Y7.224148 F100.000000
G1 X43.632637 Y7.189278 F100.000000
G1 X43.657141 Y7.143998 F100.000000
G1 X43.665615 Y7.093215 F100.000000
G0 Z-1.416667 F30.000000
G1 X43.657141 Y7.042432 F100.000000
G1 X43.632637 Y6.997152 F100.000000
G1 X43.594758 Y6.962282 F100.000000
G1 X43.547609 Y6.941601 F100.000000
G1 X43.496300 Y6.937349 F100.000000
G1 X43.446390 Y6.949988 F100.000000
G1 X43.403288 Y6.978148 F100.000000
G1 X43.371665 Y7.018777 F100.000000
G1 X43.354948 Y7.067472 F100.000000
G1 Y7.118958 F100.000000
G1 X43.371665 Y7.167653 F100.000000
G1 X43.403288 Y7.208282 F100.000000
G1 X43.446390 Y7.236442 F100.000000
G1 X43.496300 Y7.249081 F100.000000
G1 X43.547609 Y7.244829 F100.000000
G1 X43.594758 Y7.224148 F100.000000
G1 X43.632637 Y7.189278 F100.000000
G1 X43.657141 Y7.143998 F100.000000
G1 X43.665615 Y7.093215 F100.000000
G0 Z-1.700000 F30.000000
G1 X43.657141 Y7.042432 F100.000000
G1 X43.632637 Y6.997152 F100.000000
G1 X43.594758 Y6.962282 F100.000000
G1 X43.547609 Y6.941601 F100.000000
G1 X43.496300 Y6.937349 F100.000000
G1 X43.446390 Y6.949988 F100.000000
G1 X43.403288 Y6.978148 F100.000000
G1 X43.371665 Y7.018777 F100.000000
G1 X43.354948 Y7.067472 F100.000000
G1 Y7.118958 F100.000000
G1 X43.371665 Y7.167653 F100.000000
G1 X43.403288 Y7.208282 F100.000000
G1 X43.446390 Y7.236442 F100.000000
G1 X43.496300 Y7.249081 F100.000000
G1 X43.547609 Y7.244829 F100.000000
G1 X43.594758 Y7.224148 F100.000000
G1 X43.632637 Y7.189278 F100.000000
G1 X43.657141 Y7.143998 F100.000000
G1 X43.665615 Y7.093215 F100.000000
G0 Z2.000000
G0 X42.649615 Y55.353215
G17
G0 Z-0.283333 F30.000000
G1 X42.649615 Y55.353215 F100.000000
G1 X42.641141 Y55.302432 F100.000000
G1 X42.616637 Y55.257152 F100.000000
G1 X42.578758 Y55.222282 F100.000000
G1 X42.531609 Y55.201601 F100.000000
G1 X42.480300 Y55.197349 F100.000000
G1 X42.430390 Y55.209988 F100.000000
G1 X42.387288 Y55.238148 F100.000000
G1 X42.355665 Y55.278777 F100.000000
G1 X42.338948 Y55.327472 F100.000000
G1 Y55.378958 F100.000000
G1 X42.355665 Y55.427653 F100.000000
G1 X42.387288 Y55.468282 F100.000000
G1 X42.430390 Y55.496442 F100.000000
G1 X42.480300 Y55.509081 F100.000000
G1 X42.531609 Y55.504829 F100.000000
G1 X42.578758 Y55.484148 F100.000000
G1 X42.616637 Y55.449278 F100.000000
G1 X42.641141 Y55.403998 F100.000000
G1 X42.649615 Y55.353215 F100.000000
G0 Z-0.566667 F30.000000
G1 X42.641141 Y55.302432 F100.000000
G1 X42.616637 Y55.257152 F100.000000
G1 X42.578758 Y55.222282 F100.000000
G1 X42.531609 Y55.201601 F100.000000
G1 X42.480300 Y55.197349 F100.000000
G1 X42.430390 Y55.209988 F100.000000
G1 X42.387288 Y55.238148 F100.000000
G1 X42.355665 Y55.278777 F100.000000
G1 X42.338948 Y55.327472 F100.000000
G1 Y55.378958 F100.000000
G1 X42.355665 Y55.427653 F100.000000
G1 X42.387288 Y55.468282 F100.000000
G1 X42.430390 Y55.496442 F100.000000
G1 X42.480300 Y55.509081 F100.000000
G1 X42.531609 Y55.504829 F100.000000
G1 X42.578758 Y55.484148 F100.000000
G1 X42.616637 Y55.449278 F100.000000
G1 X42.641141 Y55.403998 F100.000000
G1 X42.649615 Y55.353215 F100.000000
G0 Z-0.850000 F30.000000
G1 X42.641141 Y55.302432 F100.000000
G1 X42.616637 Y55.257152 F100.000000
G1 X42.578758 Y55.222282 F100.000000
G1 X42.531609 Y55.201601 F100.000000
G1 X42.480300 Y55.197349 F100.000000
G1 X42.430390 Y55.209988 F100.000000
G1 X42.387288 Y55.238148 F100.000000
G1 X42.355665 Y55.278777 F100.000000
G1 X42.338948 Y55.327472 F100.000000
G1 Y55.378958 F100.000000
G1 X42.355665 Y55.427653 F100.000000
G1 X42.387288 Y55.468282 F100.000000
G1 X42.430390 Y55.496442 F100.000000
G1 X42.480300 Y55.509081 F100.000000
G1 X42.531609 Y55.504829 F100.000000
G1 X42.578758 Y55.484148 F100.000000
G1 X42.616637 Y55.449278 F100.000000
G1 X42.641141 Y55.403998 F100.000000
G1 X42.649615 Y55.353215 F100.000000
G0 Z-1.133333 F30.000000
G1 X42.641141 Y55.302432 F100.000000
G1 X42.616637 Y55.257152 F100.000000
G1 X42.578758 Y55.222282 F100.000000
G1 X42.531609 Y55.201601 F100.000000
G1 X42.480300 Y55.197349 F100.000000
G1 X42.430390 Y55.209988 F100.000000
G1 X42.387288 Y55.238148 F100.000000
G1 X42.355665 Y55.278777 F100.000000
G1 X42.338948 Y55.327472 F100.000000
G1 Y55.378958 F100.000000
G1 X42.355665 Y55.427653 F100.000000
G1 X42.387288 Y55.468282 F100.000000
G1 X42.430390 Y55.496442 F100.000000
G1 X42.480300 Y55.509081 F100.000000
G1 X42.531609 Y55.504829 F100.000000
G1 X42.578758 Y55.484148 F100.000000
G1 X42.616637 Y55.449278 F100.000000
G1 X42.641141 Y55.403998 F100.000000
G1 X42.649615 Y55.353215 F100.000000
G0 Z-1.416667 F30.000000
G1 X42.641141 Y55.302432 F100.000000
G1 X42.616637 Y55.257152 F100.000000
G1 X42.578758 Y55.222282 F100.000000
G1 X42.531609 Y55.201601 F100.000000
G1 X42.480300 Y55.197349 F100.000000
G1 X42.430390 Y55.209988 F100.000000
G1 X42.387288 Y55.238148 F100.000000
G1 X42.355665 Y55.278777 F100.000000
G1 X42.338948 Y55.327472 F100.000000
G1 Y55.378958 F100.000000
G1 X42.355665 Y55.427653 F100.000000
G1 X42.387288 Y55.468282 F100.000000
G1 X42.430390 Y55.496442 F100.000000
G1 X42.480300 Y55.509081 F100.000000
G1 X42.531609 Y55.504829 F100.000000
G1 X42.578758 Y55.484148 F100.000000
G1 X42.616637 Y55.449278 F100.000000
G1 X42.641141 Y55.403998 F100.000000
G1 X42.649615 Y55.353215 F100.000000
G0 Z-1.700000 F30.000000
G1 X42.641141 Y55.302432 F100.000000
G1 X42.616637 Y55.257152 F100.000000
G1 X42.578758 Y55.222282 F100.000000
G1 X42.531609 Y55.201601 F100.000000
G1 X42.480300 Y55.197349 F100.000000
G1 X42.430390 Y55.209988 F100.000000
G1 X42.387288 Y55.238148 F100.000000
G1 X42.355665 Y55.278777 F100.000000
G1 X42.338948 Y55.327472 F100.000000
G1 Y55.378958 F100.000000
G1 X42.355665 Y55.427653 F100.000000
G1 X42.387288 Y55.468282 F100.000000
G1 X42.430390 Y55.496442 F100.000000
G1 X42.480300 Y55.509081 F100.000000
G1 X42.531609 Y55.504829 F100.000000
G1 X42.578758 Y55.484148 F100.000000
G1 X42.616637 Y55.449278 F100.000000
G1 X42.641141 Y55.403998 F100.000000
G1 X42.649615 Y55.353215 F100.000000
G0 Z2.000000
G0 X41.125615 Y7.093215
G17
G0 Z-0.283333 F30.000000
G1 X41.125615 Y7.093215 F100.000000
G1 X41.117141 Y7.042432 F100.000000
G1 X41.092637 Y6.997152 F100.000000
G1 X41.054758 Y6.962282 F100.000000
G1 X41.007609 Y6.941601 F100.000000
G1 X40.956300 Y6.937349 F100.000000
G1 X40.906390 Y6.949988 F100.000000
G1 X40.863288 Y6.978148 F100.000000
G1 X40.831665 Y7.018777 F100.000000
G1 X40.814948 Y7.067472 F100.000000
G1 Y7.118958 F100.000000
G1 X40.831665 Y7.167653 F100.000000
G1 X40.863288 Y7.208282 F100.000000
G1 X40.906390 Y7.236442 F100.000000
G1 X40.956300 Y7.249081 F100.000000
G1 X41.007609 Y7.244829 F100.000000
G1 X41.054758 Y7.224148 F100.000000
G1 X41.092637 Y7.189278 F100.000000
G1 X41.117141 Y7.143998 F100.000000
G1 X41.125615 Y7.093215 F100.000000
G0 Z-0.566667 F30.000000
G1 X41.117141 Y7.042432 F100.000000
G1 X41.092637 Y6.997152 F100.000000
G1 X41.054758 Y6.962282 F100.000000
G1 X41.007609 Y6.941601 F100.000000
G1 X40.956300 Y6.937349 F100.000000
G1 X40.906390 Y6.949988 F100.000000
G1 X40.863288 Y6.978148 F100.000000
G1 X40.831665 Y7.018777 F100.000000
G1 X40.814948 Y7.067472 F100.000000
G1 Y7.118958 F100.000000
G1 X40.831665 Y7.167653 F100.000000
G1 X40.863288 Y7.208282 F100.000000
G1 X40.906390 Y7.236442 F100.000000
G1 X40.956300 Y7.249081 F100.000000
G1 X41.007609 Y7.244829 F100.000000
G1 X41.054758 Y7.224148 F100.000000
G1 X41.092637 Y7.189278 F100.000000
G1 X41.117141 Y7.143998 F100.000000
G1 X41.125615 Y7.093215 F100.000000
G0 Z-0.850000 F30.000000
G1 X41.117141 Y7.042432 F100.000000
G1 X41.092637 Y6.997152 F100.000000
G1 X41.054758 Y6.962282 F100.000000
G1 X41.007609 Y6.941601 F100.000000
G1 X40.956300 Y6.937349 F100.000000
G1 X40.906390 Y6.949988 F100.000000
G1 X40.863288 Y6.978148 F100.000000
G1 X40.831665 Y7.018777 F100.000000
G1 X40.814948 Y7.067472 F100.000000
G1 Y7.118958 F100.000000
G1 X40.831665 Y7.167653 F100.000000
G1 X40.863288 Y7.208282 F100.000000
G1 X40.906390 Y7.236442 F100.000000
G1 X40.956300 Y7.249081 F100.000000
G1 X41.007609 Y7.244829 F100.000000
G1 X41.054758 Y7.224148 F100.000000
G1 X41.092637 Y7.189278 F100.000000
G1 X41.117141 Y7.143998 F100.000000
G1 X41.125615 Y7.093215 F100.000000
G0 Z-1.133333 F30.000000
G1 X41.117141 Y7.042432 F100.000000
G1 X41.092637 Y6.997152 F100.000000
G1 X41.054758 Y6.962282 F100.000000
G1 X41.007609 Y6.941601 F100.000000
G1 X40.956300 Y6.937349 F100.000000
G1 X40.906390 Y6.949988 F100.000000
G1 X40.863288 Y6.978148 F100.000000
G1 X40.831665 Y7.018777 F100.000000
G1 X40.814948 Y7.067472 F100.000000
G1 Y7.118958 F100.000000
G1 X40.831665 Y7.167653 F100.000000
G1 X40.863288 Y7.208282 F100.000000
G1 X40.906390 Y7.236442 F100.000000
G1 X40.956300 Y7.249081 F100.000000
G1 X41.007609 Y7.244829 F100.000000
G1 X41.054758 Y7.224148 F100.000000
G1 X41.092637 Y7.189278 F100.000000
G1 X41.117141 Y7.143998 F100.000000
G1 X41.125615 Y7.093215 F100.000000
G0 Z-1.416667 F30.000000
G1 X41.117141 Y7.042432 F100.000000
G1 X41.092637 Y6.997152 F100.000000
G1 X41.054758 Y6.962282 F100.000000
G1 X41.007609 Y6.941601 F100.000000
G1 X40.956300 Y6.937349 F100.000000
G1 X40.906390 Y6.949988 F100.000000
G1 X40.863288 Y6.978148 F100.000000
G1 X40.831665 Y7.018777 F100.000000
G1 X40.814948 Y7.067472 F100.000000
G1 Y7.118958 F100.000000
G1 X40.831665 Y7.167653 F100.000000
G1 X40.863288 Y7.208282 F100.000000
G1 X40.906390 Y7.236442 F100.000000
G1 X40.956300 Y7.249081 F100.000000
G1 X41.007609 Y7.244829 F100.000000
G1 X41.054758 Y7.224148 F100.000000
G1 X41.092637 Y7.189278 F100.000000
G1 X41.117141 Y7.143998 F100.000000
G1 X41.125615 Y7.093215 F100.000000
G0 Z-1.700000 F30.000000
G1 X41.117141 Y7.042432 F100.000000
G1 X41.092637 Y6.997152 F100.000000
G1 X41.054758 Y6.962282 F100.000000
G1 X41.007609 Y6.941601 F100.000000
G1 X40.956300 Y6.937349 F100.000000
G1 X40.906390 Y6.949988 F100.000000
G1 X40.863288 Y6.978148 F100.000000
G1 X40.831665 Y7.018777 F100.000000
G1 X40.814948 Y7.067472 F100.000000
G1 Y7.118958 F100.000000
G1 X40.831665 Y7.167653 F100.000000
G1 X40.863288 Y7.208282 F100.000000
G1 X40.906390 Y7.236442 F100.000000
G1 X40.956300 Y7.249081 F100.000000
G1 X41.007609 Y7.244829 F100.000000
G1 X41.054758 Y7.224148 F100.000000
G1 X41.092637 Y7.189278 F100.000000
G1 X41.117141 Y7.143998 F100.000000
G1 X41.125615 Y7.093215 F100.000000
G0 Z2.000000
G0 X40.109615 Y55.353215
G17
G0 Z-0.283333 F30.000000
G1 X40.109615 Y55.353215 F100.000000
G1 X40.101141 Y55.302432 F100.000000
G1 X40.076637 Y55.257152 F100.000000
G1 X40.038758 Y55.222282 F100.000000
G1 X39.991609 Y55.201601 F100.000000
G1 X39.940300 Y55.197349 F100.000000
G1 X39.890390 Y55.209988 F100.000000
G1 X39.847288 Y55.238148 F100.000000
G1 X39.815665 Y55.278777 F100.000000
G1 X39.798948 Y55.327472 F100.000000
G1 Y55.378958 F100.000000
G1 X39.815665 Y55.427653 F100.000000
G1 X39.847288 Y55.468282 F100.000000
G1 X39.890390 Y55.496442 F100.000000
G1 X39.940300 Y55.509081 F100.000000
G1 X39.991609 Y55.504829 F100.000000
G1 X40.038758 Y55.484148 F100.000000
G1 X40.076637 Y55.449278 F100.000000
G1 X40.101141 Y55.403998 F100.000000
G1 X40.109615 Y55.353215 F100.000000
G0 Z-0.566667 F30.000000
G1 X40.101141 Y55.302432 F100.000000
G1 X40.076637 Y55.257152 F100.000000
G1 X40.038758 Y55.222282 F100.000000
G1 X39.991609 Y55.201601 F100.000000
G1 X39.940300 Y55.197349 F100.000000
G1 X39.890390 Y55.209988 F100.000000
G1 X39.847288 Y55.238148 F100.000000
G1 X39.815665 Y55.278777 F100.000000
G1 X39.798948 Y55.327472 F100.000000
G1 Y55.378958 F100.000000
G1 X39.815665 Y55.427653 F100.000000
G1 X39.847288 Y55.468282 F100.000000
G1 X39.890390 Y55.496442 F100.000000
G1 X39.940300 Y55.509081 F100.000000
G1 X39.991609 Y55.504829 F100.000000
G1 X40.038758 Y55.484148 F100.000000
G1 X40.076637 Y55.449278 F100.000000
G1 X40.101141 Y55.403998 F100.000000
G1 X40.109615 Y55.353215 F100.000000
G0 Z-0.850000 F30.000000
G1 X40.101141 Y55.302432 F100.000000
G1 X40.076637 Y55.257152 F100.000000
G1 X40.038758 Y55.222282 F100.000000
G1 X39.991609 Y55.201601 F100.000000
G1 X39.940300 Y55.197349 F100.000000
G1 X39.890390 Y55.209988 F100.000000
G1 X39.847288 Y55.238148 F100.000000
G1 X39.815665 Y55.278777 F100.000000
G1 X39.798948 Y55.327472 F100.000000
G1 Y55.378958 F100.000000
G1 X39.815665 Y55.427653 F100.000000
G1 X39.847288 Y55.468282 F100.000000
G1 X39.890390 Y55.496442 F100.000000
G1 X39.940300 Y55.509081 F100.000000
G1 X39.991609 Y55.504829 F100.000000
G1 X40.038758 Y55.484148 F100.000000
G1 X40.076637 Y55.449278 F100.000000
G1 X40.101141 Y55.403998 F100.000000
G1 X40.109615 Y55.353215 F100.000000
G0 Z-1.133333 F30.000000
G1 X40.101141 Y55.302432 F100.000000
G1 X40.076637 Y55.257152 F100.000000
G1 X40.038758 Y55.222282 F100.000000
G1 X39.991609 Y55.201601 F100.000000
G1 X39.940300 Y55.197349 F100.000000
G1 X39.890390 Y55.209988 F100.000000
G1 X39.847288 Y55.238148 F100.000000
G1 X39.815665 Y55.278777 F100.000000
G1 X39.798948 Y55.327472 F100.000000
G1 Y55.378958 F100.000000
G1 X39.815665 Y55.427653 F100.000000
G1 X39.847288 Y55.468282 F100.000000
G1 X39.890390 Y55.496442 F100.000000
G1 X39.940300 Y55.509081 F100.000000
G1 X39.991609 Y55.504829 F100.000000
G1 X40.038758 Y55.484148 F100.000000
G1 X40.076637 Y55.449278 F100.000000
G1 X40.101141 Y55.403998 F100.000000
G1 X40.109615 Y55.353215 F100.000000
G0 Z-1.416667 F30.000000
G1 X40.101141 Y55.302432 F100.000000
G1 X40.076637 Y55.257152 F100.000000
G1 X40.038758 Y55.222282 F100.000000
G1 X39.991609 Y55.201601 F100.000000
G1 X39.940300 Y55.197349 F100.000000
G1 X39.890390 Y55.209988 F100.000000
G1 X39.847288 Y55.238148 F100.000000
G1 X39.815665 Y55.278777 F100.000000
G1 X39.798948 Y55.327472 F100.000000
G1 Y55.378958 F100.000000
G1 X39.815665 Y55.427653 F100.000000
G1 X39.847288 Y55.468282 F100.000000
G1 X39.890390 Y55.496442 F100.000000
G1 X39.940300 Y55.509081 F100.000000
G1 X39.991609 Y55.504829 F100.000000
G1 X40.038758 Y55.484148 F100.000000
G1 X40.076637 Y55.449278 F100.000000
G1 X40.101141 Y55.403998 F100.000000
G1 X40.109615 Y55.353215 F100.000000
G0 Z-1.700000 F30.000000
G1 X40.101141 Y55.302432 F100.000000
G1 X40.076637 Y55.257152 F100.000000
G1 X40.038758 Y55.222282 F100.000000
G1 X39.991609 Y55.201601 F100.000000
G1 X39.940300 Y55.197349 F100.000000
G1 X39.890390 Y55.209988 F100.000000
G1 X39.847288 Y55.238148 F100.000000
G1 X39.815665 Y55.278777 F100.000000
G1 X39.798948 Y55.327472 F100.000000
G1 Y55.378958 F100.000000
G1 X39.815665 Y55.427653 F100.000000
G1 X39.847288 Y55.468282 F100.000000
G1 X39.890390 Y55.496442 F100.000000
G1 X39.940300 Y55.509081 F100.000000
G1 X39.991609 Y55.504829 F100.000000
G1 X40.038758 Y55.484148 F100.000000
G1 X40.076637 Y55.449278 F100.000000
G1 X40.101141 Y55.403998 F100.000000
G1 X40.109615 Y55.353215 F100.000000
G0 Z2.000000
G0 X38.585615 Y7.093215
G17
G0 Z-0.283333 F30.000000
G1 X38.585615 Y7.093215 F100.000000
G1 X38.577141 Y7.042432 F100.000000
G1 X38.552637 Y6.997152 F100.000000
G1 X38.514758 Y6.962282 F100.000000
G1 X38.467609 Y6.941601 F100.000000
G1 X38.416300 Y6.937349 F100.000000
G1 X38.366390 Y6.949988 F100.000000
G1 X38.323288 Y6.978148 F100.000000
G1 X38.291665 Y7.018777 F100.000000
G1 X38.274948 Y7.067472 F100.000000
G1 Y7.118958 F100.000000
G1 X38.291665 Y7.167653 F100.000000
G1 X38.323288 Y7.208282 F100.000000
G1 X38.366390 Y7.236442 F100.000000
G1 X38.416300 Y7.249081 F100.000000
G1 X38.467609 Y7.244829 F100.000000
G1 X38.514758 Y7.224148 F100.000000
G1 X38.552637 Y7.189278 F100.000000
G1 X38.577141 Y7.143998 F100.000000
G1 X38.585615 Y7.093215 F100.000000
G0 Z-0.566667 F30.000000
G1 X38.577141 Y7.042432 F100.000000
G1 X38.552637 Y6.997152 F100.000000
G1 X38.514758 Y6.962282 F100.000000
G1 X38.467609 Y6.941601 F100.000000
G1 X38.416300 Y6.937349 F100.000000
G1 X38.366390 Y6.949988 F100.000000
G1 X38.323288 Y6.978148 F100.000000
G1 X38.291665 Y7.018777 F100.000000
G1 X38.274948 Y7.067472 F100.000000
G1 Y7.118958 F100.000000
G1 X38.291665 Y7.167653 F100.000000
G1 X38.323288 Y7.208282 F100.000000
G1 X38.366390 Y7.236442 F100.000000
G1 X38.416300 Y7.249081 F100.000000
G1 X38.467609 Y7.244829 F100.000000
G1 X38.514758 Y7.224148 F100.000000
G1 X38.552637 Y7.189278 F100.000000
G1 X38.577141 Y7.143998 F100.000000
G1 X38.585615 Y7.093215 F100.000000
G0 Z-0.850000 F30.000000
G1 X38.577141 Y7.042432 F100.000000
G1 X38.552637 Y6.997152 F100.000000
G1 X38.514758 Y6.962282 F100.000000
G1 X38.467609 Y6.941601 F100.000000
G1 X38.416300 Y6.937349 F100.000000
G1 X38.366390 Y6.949988 F100.000000
G1 X38.323288 Y6.978148 F100.000000
G1 X38.291665 Y7.018777 F100.000000
G1 X38.274948 Y7.067472 F100.000000
G1 Y7.118958 F100.000000
G1 X38.291665 Y7.167653 F100.000000
G1 X38.323288 Y7.208282 F100.000000
G1 X38.366390 Y7.236442 F100.000000
G1 X38.416300 Y7.249081 F100.000000
G1 X38.467609 Y7.244829 F100.000000
G1 X38.514758 Y7.224148 F100.000000
G1 X38.552637 Y7.189278 F100.000000
G1 X38.577141 Y7.143998 F100.000000
G1 X38.585615 Y7.093215 F100.000000
G0 Z-1.133333 F30.000000
G1 X38.577141 Y7.042432 F100.000000
G1 X38.552637 Y6.997152 F100.000000
G1 X38.514758 Y6.962282 F100.000000
G1 X38.467609 Y6.941601 F100.000000
G1 X38.416300 Y6.937349 F100.000000
G1 X38.366390 Y6.949988 F100.000000
G1 X38.323288 Y6.978148 F100.000000
G1 X38.291665 Y7.018777 F100.000000
G1 X38.274948 Y7.067472 F100.000000
G1 Y7.118958 F100.000000
G1 X38.291665 Y7.167653 F100.000000
G1 X38.323288 Y7.208282 F100.000000
G1 X38.366390 Y7.236442 F100.000000
G1 X38.416300 Y7.249081 F100.000000
G1 X38.467609 Y7.244829 F100.000000
G1 X38.514758 Y7.224148 F100.000000
G1 X38.552637 Y7.189278 F100.000000
G1 X38.577141 Y7.143998 F100.000000
G1 X38.585615 Y7.093215 F100.000000
G0 Z-1.416667 F30.000000
G1 X38.577141 Y7.042432 F100.000000
G1 X38.552637 Y6.997152 F100.000000
G1 X38.514758 Y6.962282 F100.000000
G1 X38.467609 Y6.941601 F100.000000
G1 X38.416300 Y6.937349 F100.000000
G1 X38.366390 Y6.949988 F100.000000
G1 X38.323288 Y6.978148 F100.000000
G1 X38.291665 Y7.018777 F100.000000
G1 X38.274948 Y7.067472 F100.000000
G1 Y7.118958 F100.000000
G1 X38.291665 Y7.167653 F100.000000
G1 X38.323288 Y7.208282 F100.000000
G1 X38.366390 Y7.236442 F100.000000
G1 X38.416300 Y7.249081 F100.000000
G1 X38.467609 Y7.244829 F100.000000
G1 X38.514758 Y7.224148 F100.000000
G1 X38.552637 Y7.189278 F100.000000
G1 X38.577141 Y7.143998 F100.000000
G1 X38.585615 Y7.093215 F100.000000
G0 Z-1.700000 F30.000000
G1 X38.577141 Y7.042432 F100.000000
G1 X38.552637 Y6.997152 F100.000000
G1 X38.514758 Y6.962282 F100.000000
G1 X38.467609 Y6.941601 F100.000000
G1 X38.416300 Y6.937349 F100.000000
G1 X38.366390 Y6.949988 F100.000000
G1 X38.323288 Y6.978148 F100.000000
G1 X38.291665 Y7.018777 F100.000000
G1 X38.274948 Y7.067472 F100.000000
G1 Y7.118958 F100.000000
G1 X38.291665 Y7.167653 F100.000000
G1 X38.323288 Y7.208282 F100.000000
G1 X38.366390 Y7.236442 F100.000000
G1 X38.416300 Y7.249081 F100.000000
G1 X38.467609 Y7.244829 F100.000000
G1 X38.514758 Y7.224148 F100.000000
G1 X38.552637 Y7.189278 F100.000000
G1 X38.577141 Y7.143998 F100.000000
G1 X38.585615 Y7.093215 F100.000000
G0 Z2.000000
G0 X37.315615 Y25.635215
G17
G0 Z-0.283333 F30.000000
G1 X37.315615 Y25.635215 F100.000000
G1 X37.307141 Y25.584432 F100.000000
G1 X37.282637 Y25.539152 F100.000000
G1 X37.244758 Y25.504282 F100.000000
G1 X37.197609 Y25.483601 F100.000000
G1 X37.146300 Y25.479349 F100.000000
G1 X37.096390 Y25.491988 F100.000000
G1 X37.053288 Y25.520148 F100.000000
G1 X37.021665 Y25.560777 F100.000000
G1 X37.004948 Y25.609472 F100.000000
G1 Y25.660958 F100.000000
G1 X37.021665 Y25.709653 F100.000000
G1 X37.053288 Y25.750282 F100.000000
G1 X37.096390 Y25.778442 F100.000000
G1 X37.146300 Y25.791081 F100.000000
G1 X37.197609 Y25.786829 F100.000000
G1 X37.244758 Y25.766148 F100.000000
G1 X37.282637 Y25.731278 F100.000000
G1 X37.307141 Y25.685998 F100.000000
G1 X37.315615 Y25.635215 F100.000000
G0 Z-0.566667 F30.000000
G1 X37.307141 Y25.584432 F100.000000
G1 X37.282637 Y25.539152 F100.000000
G1 X37.244758 Y25.504282 F100.000000
G1 X37.197609 Y25.483601 F100.000000
G1 X37.146300 Y25.479349 F100.000000
G1 X37.096390 Y25.491988 F100.000000
G1 X37.053288 Y25.520148 F100.000000
G1 X37.021665 Y25.560777 F100.000000
G1 X37.004948 Y25.609472 F100.000000
G1 Y25.660958 F100.000000
G1 X37.021665 Y25.709653 F100.000000
G1 X37.053288 Y25.750282 F100.000000
G1 X37.096390 Y25.778442 F100.000000
G1 X37.146300 Y25.791081 F100.000000
G1 X37.197609 Y25.786829 F100.000000
G1 X37.244758 Y25.766148 F100.000000
G1 X37.282637 Y25.731278 F100.000000
G1 X37.307141 Y25.685998 F100.000000
G1 X37.315615 Y25.635215 F100.000000
G0 Z-0.850000 F30.000000
G1 X37.307141 Y25.584432 F100.000000
G1 X37.282637 Y25.539152 F100.000000
G1 X37.244758 Y25.504282 F100.000000
G1 X37.197609 Y25.483601 F100.000000
G1 X37.146300 Y25.479349 F100.000000
G1 X37.096390 Y25.491988 F100.000000
G1 X37.053288 Y25.520148 F100.000000
G1 X37.021665 Y25.560777 F100.000000
G1 X37.004948 Y25.609472 F100.000000
G1 Y25.660958 F100.000000
G1 X37.021665 Y25.709653 F100.000000
G1 X37.053288 Y25.750282 F100.000000
G1 X37.096390 Y25.778442 F100.000000
G1 X37.146300 Y25.791081 F100.000000
G1 X37.197609 Y25.786829 F100.000000
G1 X37.244758 Y25.766148 F100.000000
G1 X37.282637 Y25.731278 F100.000000
G1 X37.307141 Y25.685998 F100.000000
G1 X37.315615 Y25.635215 F100.000000
G0 Z-1.133333 F30.000000
G1 X37.307141 Y25.584432 F100.000000
G1 X37.282637 Y25.539152 F100.000000
G1 X37.244758 Y25.504282 F100.000000
G1 X37.197609 Y25.483601 F100.000000
G1 X37.146300 Y25.479349 F100.000000
G1 X37.096390 Y25.491988 F100.000000
G1 X37.053288 Y25.520148 F100.000000
G1 X37.021665 Y25.560777 F100.000000
G1 X37.004948 Y25.609472 F100.000000
G1 Y25.660958 F100.000000
G1 X37.021665 Y25.709653 F100.000000
G1 X37.053288 Y25.750282 F100.000000
G1 X37.096390 Y25.778442 F100.000000
G1 X37.146300 Y25.791081 F100.000000
G1 X37.197609 Y25.786829 F100.000000
G1 X37.244758 Y25.766148 F100.000000
G1 X37.282637 Y25.731278 F100.000000
G1 X37.307141 Y25.685998 F100.000000
G1 X37.315615 Y25.635215 F100.000000
G0 Z-1.416667 F30.000000
G1 X37.307141 Y25.584432 F100.000000
G1 X37.282637 Y25.539152 F100.000000
G1 X37.244758 Y25.504282 F100.000000
G1 X37.197609 Y25.483601 F100.000000
G1 X37.146300 Y25.479349 F100.000000
G1 X37.096390 Y25.491988 F100.000000
G1 X37.053288 Y25.520148 F100.000000
G1 X37.021665 Y25.560777 F100.000000
G1 X37.004948 Y25.609472 F100.000000
G1 Y25.660958 F100.000000
G1 X37.021665 Y25.709653 F100.000000
G1 X37.053288 Y25.750282 F100.000000
G1 X37.096390 Y25.778442 F100.000000
G1 X37.146300 Y25.791081 F100.000000
G1 X37.197609 Y25.786829 F100.000000
G1 X37.244758 Y25.766148 F100.000000
G1 X37.282637 Y25.731278 F100.000000
G1 X37.307141 Y25.685998 F100.000000
G1 X37.315615 Y25.635215 F100.000000
G0 Z-1.700000 F30.000000
G1 X37.307141 Y25.584432 F100.000000
G1 X37.282637 Y25.539152 F100.000000
G1 X37.244758 Y25.504282 F100.000000
G1 X37.197609 Y25.483601 F100.000000
G1 X37.146300 Y25.479349 F100.000000
G1 X37.096390 Y25.491988 F100.000000
G1 X37.053288 Y25.520148 F100.000000
G1 X37.021665 Y25.560777 F100.000000
G1 X37.004948 Y25.609472 F100.000000
G1 Y25.660958 F100.000000
G1 X37.021665 Y25.709653 F100.000000
G1 X37.053288 Y25.750282 F100.000000
G1 X37.096390 Y25.778442 F100.000000
G1 X37.146300 Y25.791081 F100.000000
G1 X37.197609 Y25.786829 F100.000000
G1 X37.244758 Y25.766148 F100.000000
G1 X37.282637 Y25.731278 F100.000000
G1 X37.307141 Y25.685998 F100.000000
G1 X37.315615 Y25.635215 F100.000000
G0 Z2.000000
G0 X37.315615 Y22.587215
G17
G0 Z-0.283333 F30.000000
G1 Y22.587215 F100.000000
G1 X37.307141 Y22.536432 F100.000000
G1 X37.282637 Y22.491152 F100.000000
G1 X37.244758 Y22.456282 F100.000000
G1 X37.197609 Y22.435601 F100.000000
G1 X37.146300 Y22.431349 F100.000000
G1 X37.096390 Y22.443988 F100.000000
G1 X37.053288 Y22.472148 F100.000000
G1 X37.021665 Y22.512777 F100.000000
G1 X37.004948 Y22.561472 F100.000000
G1 Y22.612958 F100.000000
G1 X37.021665 Y22.661653 F100.000000
