(Generated by ./pygerber2gcode_cui_MOD.py )
( 2013-05-29 19:50:34 )
(Initialize)

(Start form here)
G0 Z2.000000
G0 X25.808457 Y11.908725
G1 Z-0.040000 F60.000000
G1 X25.806600 Y11.908783 F100.000000
G1 X25.809225 Y11.910047 F100.000000
G1 X25.812830 Y11.908311 F100.000000
G1 X25.808457 Y11.908725 F100.000000
G0 Z2.000000
G0 X29.068935 Y8.571557
G1 Z-0.040000 F60.000000
G1 Y9.673175 F100.000000
G1 X29.073644 Y9.676827 F100.000000
G1 X29.133113 Y9.729257 F100.000000
G1 X29.189173 Y9.785317 F100.000000
G1 X29.241603 Y9.844786 F100.000000
G1 X29.290194 Y9.907430 F100.000000
G1 X29.334757 Y9.973002 F100.000000
G1 X29.375114 Y10.041242 F100.000000
G1 X29.411107 Y10.111882 F100.000000
G1 X29.442593 Y10.184642 F100.000000
G1 X29.469448 Y10.259236 F100.000000
G1 X29.491567 Y10.335368 F100.000000
G1 X29.508862 Y10.412740 F100.000000
G1 X29.521264 Y10.491044 F100.000000
G1 X29.528725 Y10.569973 F100.000000
G1 X29.531215 Y10.649215 F100.000000
G1 X29.528725 Y10.728457 F100.000000
G1 X29.521264 Y10.807386 F100.000000
G1 X29.508862 Y10.885690 F100.000000
G1 X29.491567 Y10.963062 F100.000000
G1 X29.469448 Y11.039194 F100.000000
G1 X29.442593 Y11.113788 F100.000000
G1 X29.411107 Y11.186548 F100.000000
G1 X29.375114 Y11.257188 F100.000000
G1 X29.334757 Y11.325428 F100.000000
G1 X29.290194 Y11.391000 F100.000000
G1 X29.241603 Y11.453644 F100.000000
G1 X29.189173 Y11.513113 F100.000000
G1 X29.159243 Y11.543044 F100.000000
G1 X29.217610 Y11.557948 F100.000000
G1 X29.345614 Y11.587164 F100.000000
G1 X29.352012 Y11.592266 F100.000000
G1 X29.359941 Y11.594291 F100.000000
G1 X29.453921 Y11.642551 F100.000000
G1 X29.521877 Y11.699650 F100.000000
G1 X29.547215 Y11.714632 F100.000000
G1 Y9.387215 F100.000000
G1 X30.009495 F100.000000
G1 Y8.571557 F100.000000
G0 Z2.000000
G0 X40.498935 Y21.571215
G1 Z-0.040000 F60.000000
G1 Y38.335215 F100.000000
G1 X40.469080 Y38.466020 F100.000000
G1 X40.454057 Y38.599346 F100.000000
G1 X40.429859 Y38.637858 F100.000000
G1 X40.419738 Y38.682201 F100.000000
G1 X40.415097 Y38.688020 F100.000000
G1 X40.461215 F100.000000
G1 X40.529880 Y38.703692 F100.000000
G1 X40.600312 F100.000000
G1 X40.663768 Y38.734251 F100.000000
G1 X40.712897 Y38.745465 F100.000000
G1 X40.799638 Y38.703692 F100.000000
G1 X41.077832 F100.000000
G1 X41.220626 Y38.772459 F100.000000
G1 X41.265062 Y38.754776 F100.000000
G1 X41.371138 Y38.703692 F100.000000
G1 X41.393434 F100.000000
G1 X41.414149 Y38.695449 F100.000000
G1 X41.531596 Y38.703692 F100.000000
G1 X41.649332 F100.000000
G1 X41.669419 Y38.713366 F100.000000
G1 X41.691660 Y38.714927 F100.000000
G1 X41.779422 Y38.765045 F100.000000
G1 X41.808277 Y38.751008 F100.000000
G1 X41.809519 Y38.750719 F100.000000
G1 X41.810516 Y38.749924 F100.000000
G1 X41.944944 Y38.719242 F100.000000
G1 X42.079247 Y38.688025 F100.000000
G1 X42.080492 Y38.688304 F100.000000
G1 X42.081735 Y38.688020 F100.000000
G1 X42.223975 F100.000000
G1 X42.317054 Y38.709265 F100.000000
G1 X42.412211 Y38.717035 F100.000000
G1 X42.556991 Y38.762755 F100.000000
G1 X42.569115 Y38.769864 F100.000000
G1 X42.583059 Y38.771623 F100.000000
G1 X42.688567 Y38.839897 F100.000000
G1 X42.796979 Y38.903458 F100.000000
G1 X42.804818 Y38.915123 F100.000000
G1 X42.816618 Y38.922758 F100.000000
G1 X42.910598 Y39.019278 F100.000000
G1 X42.960715 Y39.101452 F100.000000
G1 X43.021837 Y39.175804 F100.000000
G1 X43.070097 Y39.272324 F100.000000
G1 X43.086139 Y39.338090 F100.000000
G1 X43.116948 Y39.398367 F100.000000
G1 X43.165208 Y39.588867 F100.000000
G1 X43.167051 Y39.666585 F100.000000
G1 X43.184350 Y39.742375 F100.000000
G1 Y39.884615 F100.000000
G1 X43.167051 Y39.960405 F100.000000
G1 X43.165208 Y40.038123 F100.000000
G1 X43.116948 Y40.228623 F100.000000
G1 X43.084628 Y40.291855 F100.000000
G1 X43.067059 Y40.360661 F100.000000
G1 X43.018799 Y40.454641 F100.000000
G1 X42.996864 Y40.480747 F100.000000
G1 X43.030548 Y40.495323 F100.000000
G1 X43.101188 Y40.531316 F100.000000
G1 X43.169428 Y40.571673 F100.000000
G1 X43.235000 Y40.616236 F100.000000
G1 X43.297644 Y40.664827 F100.000000
G1 X43.357113 Y40.717257 F100.000000
G1 X43.413173 Y40.773317 F100.000000
G1 X43.465603 Y40.832786 F100.000000
G1 X43.469255 Y40.837495 F100.000000
G1 X43.771215 Y40.837495 F100.000000
G1 Y40.375215 F100.000000
G1 X44.995495 F100.000000
G0 Z2.000000
G0 X38.560020 Y40.375080
G1 Z-0.040000 F60.000000
G1 X38.429215 Y40.404935 F100.000000
G1 X37.682646 F100.000000
G1 X37.727062 Y40.414863 F100.000000
G1 X37.803194 Y40.436982 F100.000000
G1 X37.877788 Y40.463837 F100.000000
G1 X37.950548 Y40.495323 F100.000000
G1 X38.021188 Y40.531316 F100.000000
G1 X38.089428 Y40.571673 F100.000000
G1 X38.155000 Y40.616236 F100.000000
G1 X38.217644 Y40.664827 F100.000000
G1 X38.277113 Y40.717257 F100.000000
G1 X38.333173 Y40.773317 F100.000000
G1 X38.385603 Y40.832786 F100.000000
G1 X38.389255 Y40.837495 F100.000000
G1 X38.977175 Y40.837495 F100.000000
G1 X38.980827 Y40.832786 F100.000000
G1 X39.033257 Y40.773317 F100.000000
G1 X39.089317 Y40.717257 F100.000000
G1 X39.148786 Y40.664827 F100.000000
G1 X39.211430 Y40.616236 F100.000000
G1 X39.277002 Y40.571673 F100.000000
G1 X39.345242 Y40.531316 F100.000000
G1 X39.415882 Y40.495323 F100.000000
G1 X39.451429 Y40.479941 F100.000000
G1 X39.430171 Y40.454641 F100.000000
G1 X39.381911 Y40.360661 F100.000000
G1 X39.364342 Y40.291855 F100.000000
G1 X39.332022 Y40.228623 F100.000000
G1 X39.283762 Y40.038123 F100.000000
G1 X39.281919 Y39.960405 F100.000000
G1 X39.267625 Y39.897780 F100.000000
G1 X38.994702 Y40.170702 F100.000000
G1 X38.881098 Y40.242085 F100.000000
G1 X38.776201 Y40.325738 F100.000000
G1 X38.731858 Y40.335859 F100.000000
G1 X38.693346 Y40.360057 F100.000000
G1 X38.560020 Y40.375080 F100.000000
G0 Z2.000000
G0 X44.308935 Y15.515175
G1 Z-0.040000 F60.000000
G1 X44.313644 Y15.518827 F100.000000
G1 X44.373113 Y15.571257 F100.000000
G1 X44.429173 Y15.627317 F100.000000
G1 X44.481603 Y15.686786 F100.000000
G1 X44.530194 Y15.749430 F100.000000
G1 X44.574757 Y15.815002 F100.000000
G1 X44.615114 Y15.883242 F100.000000
G1 X44.650352 Y15.952400 F100.000000
G1 X44.674850 Y15.932864 F100.000000
G1 X44.643717 Y15.883317 F100.000000
G1 X44.581291 Y15.809021 F100.000000
G1 X44.533031 Y15.715041 F100.000000
G1 X44.531006 Y15.707112 F100.000000
G1 X44.525904 Y15.700714 F100.000000
G1 X44.496688 Y15.572710 F100.000000
G0 Z2.000000
G0 Y15.572710
G1 Z-0.040000 F60.000000
G1 X44.464205 Y15.445496 F100.000000
G1 X44.465821 Y15.437474 F100.000000
G1 X44.464000 Y15.429495 F100.000000
G1 Y15.190735 F100.000000
G1 X44.465057 Y15.186102 F100.000000
G1 X44.464069 Y15.181454 F100.000000
G1 X44.495959 Y15.050715 F100.000000
G1 X44.525904 Y14.919516 F100.000000
G1 X44.528867 Y14.915801 F100.000000
G1 X44.529993 Y14.911184 F100.000000
G1 X44.578253 Y14.814664 F100.000000
G1 X44.615241 Y14.769670 F100.000000
G1 X44.610398 Y14.762223 F100.000000
G1 X44.554685 Y14.704743 F100.000000
G1 X44.544018 Y14.672660 F100.000000
G1 X44.530194 Y14.693000 F100.000000
G1 X44.481603 Y14.755644 F100.000000
G1 X44.429173 Y14.815113 F100.000000
G1 X44.373113 Y14.871173 F100.000000
G1 X44.313644 Y14.923603 F100.000000
G1 X44.308935 Y14.927255 F100.000000
G1 Y15.515175 F100.000000
G0 Z2.000000
G0 X54.639557 Y38.043495
G1 Z-0.040000 F60.000000
G1 X55.172888 F100.000000
G1 X55.129134 Y38.022424 F100.000000
G1 X55.057469 Y38.006067 F100.000000
G1 X54.999999 Y37.960236 F100.000000
G1 X54.933770 Y37.928342 F100.000000
G1 X54.887939 Y37.870871 F100.000000
G1 X54.830468 Y37.825040 F100.000000
G1 X54.798574 Y37.758811 F100.000000
G1 X54.752743 Y37.701341 F100.000000
G1 X54.736386 Y37.629676 F100.000000
G1 X54.704492 Y37.563448 F100.000000
G1 Y37.489940 F100.000000
G1 X54.688135 Y37.418275 F100.000000
G1 Y35.386275 F100.000000
G1 X54.752743 Y35.103209 F100.000000
G1 X54.933770 Y34.876208 F100.000000
G1 X55.195362 Y34.750232 F100.000000
G1 X55.485708 F100.000000
G1 X55.747300 Y34.876208 F100.000000
G1 X55.928327 Y35.103209 F100.000000
G1 X55.992935 Y35.386275 F100.000000
G1 Y35.709398 F100.000000
G1 X56.010178 Y35.707926 F100.000000
G1 X56.104418 Y35.743786 F100.000000
G1 X56.202721 Y35.766223 F100.000000
G1 X56.238623 Y35.794854 F100.000000
G1 X56.281541 Y35.811185 F100.000000
G1 X56.415792 Y35.900686 F100.000000
G1 X56.280808 Y35.793040 F100.000000
G1 X56.154832 Y35.531448 F100.000000
G1 Y35.241102 F100.000000
G1 X56.280808 Y34.979510 F100.000000
G1 X56.507809 Y34.798483 F100.000000
G1 X56.790875 Y34.733875 F100.000000
G1 X57.662095 F100.000000
G1 X57.945161 Y34.798483 F100.000000
G1 X58.172162 Y34.979510 F100.000000
G1 X58.298138 Y35.241102 F100.000000
G1 Y35.531448 F100.000000
G1 X58.172162 Y35.793040 F100.000000
G1 X57.945161 Y35.974067 F100.000000
G1 X57.877615 Y35.989484 F100.000000
G1 Y37.418275 F100.000000
G1 X57.846115 Y37.556284 F100.000000
G1 X57.816186 Y37.694643 F100.000000
G1 X57.813852 Y37.697638 F100.000000
G1 X57.813007 Y37.701341 F100.000000
G1 X57.724747 Y37.812016 F100.000000
G1 X57.637750 Y37.923686 F100.000000
G1 X57.634347 Y37.925373 F100.000000
G1 X57.631980 Y37.928342 F100.000000
G1 X57.504440 Y37.989762 F100.000000
G1 X57.396031 Y38.043495 F100.000000
G1 X57.524873 F100.000000
G0 Z2.000000
G0 X56.952503 Y37.992898
G1 Z-0.040000 F60.000000
G1 X56.824273 Y37.932931 F100.000000
G1 X56.821872 Y37.929990 F100.000000
G1 X56.818450 Y37.928342 F100.000000
G1 X56.730190 Y37.817667 F100.000000
G1 X56.640678 Y37.708002 F100.000000
G1 X56.620097 Y37.666479 F100.000000
G1 X56.583061 Y37.715009 F100.000000
G1 X56.503309 Y37.781441 F100.000000
G1 X56.432835 Y37.857645 F100.000000
G1 X56.288055 Y37.956705 F100.000000
G1 X56.241689 Y37.974991 F100.000000
G1 X56.202721 Y38.006067 F100.000000
G1 X56.108173 Y38.027647 F100.000000
G1 X56.067988 Y38.043495 F100.000000
G1 X57.057568 F100.000000
G1 X56.952503 Y37.992898 F100.000000
G0 Z2.000000
G0 X56.572815 Y35.988904
G1 Z-0.040000 F60.000000
G1 X56.507809 Y35.974067 F100.000000
G1 X56.431659 Y35.913339 F100.000000
G1 X56.500353 Y35.985848 F100.000000
G1 X56.572815 Y36.046206 F100.000000
G1 Y35.988904 F100.000000
G0 Z2.000000
G0 X59.368668 Y7.234787
G1 Z-0.040000 F60.000000
G1 X59.297855 Y7.250950 F100.000000
G1 X58.822875 F100.000000
G1 X58.754210 Y7.235278 F100.000000
G1 X58.683778 F100.000000
G1 X58.620322 Y7.204719 F100.000000
G1 X58.551656 Y7.189046 F100.000000
G1 X58.547277 Y7.185554 F100.000000
G1 X58.452216 Y7.217807 F100.000000
G1 X58.350786 Y7.228260 F100.000000
G1 X58.251375 Y7.250950 F100.000000
G1 X58.012615 F100.000000
G1 X58.007982 Y7.249893 F100.000000
G1 X58.003334 Y7.250881 F100.000000
G1 X57.872595 Y7.218991 F100.000000
G1 X57.741396 Y7.189046 F100.000000
G1 X57.737681 Y7.186083 F100.000000
G1 X57.733064 Y7.184957 F100.000000
G1 X57.723474 Y7.180162 F100.000000
G1 X57.712334 Y7.189046 F100.000000
G1 X57.441115 Y7.250950 F100.000000
G1 X56.963595 F100.000000
G1 X56.894930 Y7.235278 F100.000000
G1 X56.824498 F100.000000
G1 X56.761042 Y7.204719 F100.000000
G1 X56.692376 Y7.189046 F100.000000
G1 X56.662638 Y7.165331 F100.000000
G1 X56.623386 Y7.184957 F100.000000
G1 X56.618769 Y7.186083 F100.000000
G1 X56.615054 Y7.189046 F100.000000
G1 X56.483855 Y7.218991 F100.000000
G1 X56.366115 Y7.247711 F100.000000
G0 Z2.000000
G0 X55.388264 Y6.847215
G1 Z-0.040000 F60.000000
G1 X55.383971 Y6.828408 F100.000000
G1 X55.353412 Y6.764952 F100.000000
G1 Y6.694520 F100.000000
G1 X55.337740 Y6.625855 F100.000000
G1 Y5.625095 F100.000000
G1 X55.399644 Y5.353876 F100.000000
G1 X55.573095 Y5.136376 F100.000000
G1 X55.823738 Y5.015672 F100.000000
G1 X56.101932 F100.000000
G1 X56.233142 Y5.078860 F100.000000
G1 X56.493971 Y5.001305 F100.000000
G1 X56.763978 Y5.044818 F100.000000
G1 X56.824498 Y5.015672 F100.000000
G1 X56.894930 F100.000000
G1 X56.963595 Y5.000000 F100.000000
G1 X57.441115 F100.000000
G1 X57.692254 Y5.057321 F100.000000
G1 X57.763514 Y5.033143 F100.000000
G1 X57.864944 Y5.022690 F100.000000
G1 X57.964355 Y5.000000 F100.000000
G1 X58.203115 F100.000000
G1 X58.211094 Y5.001821 F100.000000
G1 X58.219116 Y5.000205 F100.000000
G1 X58.346330 Y5.032688 F100.000000
G1 X58.474334 Y5.061904 F100.000000
G1 X58.480732 Y5.067006 F100.000000
G1 X58.488661 Y5.069031 F100.000000
G1 X58.521545 Y5.085917 F100.000000
G1 X58.551656 Y5.061904 F100.000000
G1 X58.620322 Y5.046231 F100.000000
G1 X58.683778 Y5.015672 F100.000000
G1 X58.754210 F100.000000
G1 X58.822875 Y5.000000 F100.000000
G1 X59.297855 F100.000000
G1 X59.569074 Y5.061904 F100.000000
G1 X59.594572 Y5.082239 F100.000000
G1 X59.732798 Y5.015672 F100.000000
G1 X60.010992 F100.000000
G1 X60.261635 Y5.136376 F100.000000
G1 X60.435086 Y5.353876 F100.000000
G1 X60.496990 Y5.625095 F100.000000
G1 Y6.118006 F100.000000
G1 X60.645094 Y6.236115 F100.000000
G1 X60.765798 Y6.486758 F100.000000
G1 Y6.764952 F100.000000
G1 X60.726182 Y6.847215 F100.000000
G0 Z2.000000
G0 X39.189492 Y14.675495
G1 Z-0.040000 F60.000000
G1 X39.936339 Y14.675495 F100.000000
G1 X39.903673 Y14.627428 F100.000000
G1 X39.863316 Y14.559188 F100.000000
G1 X39.827323 Y14.488548 F100.000000
G1 X39.795837 Y14.415788 F100.000000
G1 X39.778379 Y14.367296 F100.000000
G1 X39.700671 Y14.416123 F100.000000
G1 X39.623166 Y14.479837 F100.000000
G1 X39.526646 Y14.528097 F100.000000
G1 X39.460880 Y14.544139 F100.000000
G1 X39.400603 Y14.574948 F100.000000
G1 X39.210103 Y14.623208 F100.000000
G1 X39.155174 Y14.624511 F100.000000
G1 X39.187276 Y14.671748 F100.000000
G1 X39.189492 Y14.675495 F100.000000
G0 Z2.000000
G0 X40.169495 Y12.975175
G1 Z-0.040000 F60.000000
G1 Y12.673215 F100.000000
G1 X40.029117 Y12.673215 F100.000000
G1 X40.026511 Y12.678626 F100.000000
G1 X40.044194 Y12.723062 F100.000000
G1 X40.095278 Y12.829138 F100.000000
G1 Y12.851434 F100.000000
G1 X40.103521 Y12.872149 F100.000000
G1 X40.095278 Y12.989596 F100.000000
G1 Y13.041296 F100.000000
G1 X40.105317 Y13.031257 F100.000000
G1 X40.164786 Y12.978827 F100.000000
G1 X40.169495 Y12.975175 F100.000000
G0 Z2.000000
G0 X36.688935 Y8.571557
G1 Z-0.040000 F60.000000
G1 Y14.622040 F100.000000
G1 X36.708102 Y14.593837 F100.000000
G1 X36.765838 Y14.519404 F100.000000
G1 X36.828134 Y14.448743 F100.000000
G1 X36.894743 Y14.382134 F100.000000
G1 X36.965404 Y14.319838 F100.000000
G1 X37.039837 Y14.262102 F100.000000
G1 X37.117748 Y14.209154 F100.000000
G1 X37.198830 Y14.161202 F100.000000
G1 X37.282763 Y14.118436 F100.000000
G1 X37.369216 Y14.081024 F100.000000
G1 X37.457847 Y14.049115 F100.000000
G1 X37.548307 Y14.022834 F100.000000
G1 X37.640239 Y14.002285 F100.000000
G1 X37.733279 Y13.987549 F100.000000
G1 X37.827061 Y13.978684 F100.000000
G1 X37.921215 Y13.975725 F100.000000
G1 X37.924134 Y13.975817 F100.000000
G1 X37.892078 Y13.879647 F100.000000
G1 X37.882326 Y13.779791 F100.000000
G1 X37.860000 Y13.681975 F100.000000
G1 Y13.587995 F100.000000
G1 X37.882690 Y13.488584 F100.000000
G1 X37.893143 Y13.387154 F100.000000
G1 X37.941403 Y13.244914 F100.000000
G1 X37.941698 Y13.244435 F100.000000
G1 X37.875672 Y13.107332 F100.000000
G1 Y12.829138 F100.000000
G1 X37.944439 Y12.686344 F100.000000
G1 X37.926756 Y12.641908 F100.000000
G1 X37.875672 Y12.535832 F100.000000
G1 Y12.513536 F100.000000
G1 X37.867429 Y12.492821 F100.000000
G1 X37.875672 Y12.375374 F100.000000
G1 Y12.257638 F100.000000
G1 X37.885346 Y12.237551 F100.000000
G1 X37.886907 Y12.215310 F100.000000
G1 X37.915967 Y12.164423 F100.000000
G1 X37.906231 Y12.121768 F100.000000
G1 X37.875672 Y12.058312 F100.000000
G1 Y11.987880 F100.000000
G1 X37.860000 Y11.919215 F100.000000
G1 Y11.680455 F100.000000
G1 X37.882690 Y11.581044 F100.000000
G1 X37.893143 Y11.479614 F100.000000
G1 X37.941403 Y11.337374 F100.000000
G1 X37.945229 Y11.331155 F100.000000
G1 X37.946143 Y11.323911 F100.000000
G1 X38.017931 Y11.212974 F100.000000
G1 X38.087167 Y11.100426 F100.000000
G1 X38.093312 Y11.096482 F100.000000
G1 X38.097278 Y11.090352 F100.000000
G1 X38.193798 Y10.996372 F100.000000
G1 X38.273159 Y10.947970 F100.000000
G1 X38.344329 Y10.888171 F100.000000
G1 X38.438309 Y10.839911 F100.000000
G1 X38.507115 Y10.822342 F100.000000
G1 X38.570347 Y10.790022 F100.000000
G1 X38.760847 Y10.741762 F100.000000
G1 X38.838565 Y10.739919 F100.000000
G1 X38.914355 Y10.722620 F100.000000
G1 X39.056595 F100.000000
G1 X39.132385 Y10.739919 F100.000000
G1 X39.210103 Y10.741762 F100.000000
G1 X39.400603 Y10.790022 F100.000000
G1 X39.460880 Y10.820831 F100.000000
G1 X39.526646 Y10.836873 F100.000000
G1 X39.623166 Y10.885133 F100.000000
G1 X39.700671 Y10.948847 F100.000000
G1 X39.707215 Y10.952959 F100.000000
G1 Y10.149215 F100.000000
G1 X40.169495 F100.000000
G1 Y8.571557 F100.000000
G0 Z2.000000
G0 X17.151467 Y25.767817
G1 Z-0.040000 F60.000000
G1 X17.078896 Y25.838818 F100.000000
G1 X17.015595 Y25.918194 F100.000000
G1 X16.980476 Y25.935106 F100.000000
G1 X16.952614 Y25.962366 F100.000000
G1 X16.913112 Y25.975705 F100.000000
G1 X16.996518 Y26.148898 F100.000000
G1 Y26.427092 F100.000000
G1 X16.875814 Y26.677735 F100.000000
G1 X16.658314 Y26.851186 F100.000000
G1 X16.585830 Y26.867730 F100.000000
G1 X16.569286 Y26.940214 F100.000000
G1 X16.395835 Y27.157714 F100.000000
G1 X16.145192 Y27.278418 F100.000000
G1 X15.866998 F100.000000
G1 X15.616355 Y27.157714 F100.000000
G1 X15.442904 Y26.940214 F100.000000
G1 X15.426360 Y26.867730 F100.000000
G1 X15.353876 Y26.851186 F100.000000
G1 X15.136376 Y26.677735 F100.000000
G1 X15.015672 Y26.427092 F100.000000
G1 Y26.148898 F100.000000
G1 X15.136376 Y25.898255 F100.000000
G1 X15.210850 Y25.838864 F100.000000
G1 X15.179717 Y25.789317 F100.000000
G1 X15.117291 Y25.715021 F100.000000
G1 X15.069031 Y25.621041 F100.000000
G1 X15.067006 Y25.613112 F100.000000
G1 X15.061904 Y25.606714 F100.000000
G1 X15.032688 Y25.478710 F100.000000
G0 Z2.000000
G0 X15.354830 Y23.647228
G1 Z-0.040000 F60.000000
G1 X15.273748 Y23.599276 F100.000000
G1 X15.195837 Y23.546328 F100.000000
G1 X15.121404 Y23.488592 F100.000000
G1 X15.050743 Y23.426296 F100.000000
G1 X14.984134 Y23.359687 F100.000000
G1 X14.921838 Y23.289026 F100.000000
G1 X14.864102 Y23.214593 F100.000000
G1 X14.811154 Y23.136682 F100.000000
G1 X14.763202 Y23.055600 F100.000000
G1 X14.720436 Y22.971667 F100.000000
G1 X14.683024 Y22.885214 F100.000000
G1 X14.651115 Y22.796583 F100.000000
G1 X14.624834 Y22.706123 F100.000000
G1 X14.604285 Y22.614191 F100.000000
G1 X14.589549 Y22.521151 F100.000000
G1 X14.580684 Y22.427369 F100.000000
G1 X14.577725 Y22.333215 F100.000000
G1 X14.580684 Y22.239061 F100.000000
G1 X14.589549 Y22.145279 F100.000000
G1 X14.604285 Y22.052239 F100.000000
G1 X14.624834 Y21.960307 F100.000000
G1 X14.651115 Y21.869847 F100.000000
G1 X14.683024 Y21.781216 F100.000000
G1 X14.720436 Y21.694763 F100.000000
G1 X14.763202 Y21.610830 F100.000000
G1 X14.811154 Y21.529748 F100.000000
G1 X14.864102 Y21.451837 F100.000000
G1 X14.921838 Y21.377404 F100.000000
G1 X14.984134 Y21.306743 F100.000000
G1 X15.050743 Y21.240134 F100.000000
G1 X15.121404 Y21.177838 F100.000000
G1 X15.195837 Y21.120102 F100.000000
G1 X15.273748 Y21.067154 F100.000000
G1 X15.354830 Y21.019202 F100.000000
G1 X15.438763 Y20.976436 F100.000000
G1 X15.525216 Y20.939024 F100.000000
G1 X15.613847 Y20.907115 F100.000000
G1 X15.704307 Y20.880834 F100.000000
G1 X15.796239 Y20.860285 F100.000000
G1 X15.889279 Y20.845549 F100.000000
G1 X15.983061 Y20.836684 F100.000000
G1 X16.077215 Y20.833725 F100.000000
G1 X16.171369 Y20.836684 F100.000000
G1 X16.265151 Y20.845549 F100.000000
G1 X16.358191 Y20.860285 F100.000000
G1 X16.450123 Y20.880834 F100.000000
G1 X16.540583 Y20.907115 F100.000000
G1 X16.629214 Y20.939024 F100.000000
G1 X16.715667 Y20.976436 F100.000000
G1 X16.799600 Y21.019202 F100.000000
G1 X16.880682 Y21.067154 F100.000000
G1 X16.958593 Y21.120102 F100.000000
G1 X17.033026 Y21.177838 F100.000000
G1 X17.103687 Y21.240134 F100.000000
G1 X17.170296 Y21.306743 F100.000000
G1 X17.232592 Y21.377404 F100.000000
G1 X17.290328 Y21.451837 F100.000000
G1 X17.343276 Y21.529748 F100.000000
G1 X17.391228 Y21.610830 F100.000000
G1 X17.433994 Y21.694763 F100.000000
G1 X17.471406 Y21.781216 F100.000000
G1 X17.503315 Y21.869847 F100.000000
G1 X17.529596 Y21.960307 F100.000000
G1 X17.550145 Y22.052239 F100.000000
G1 X17.564881 Y22.145279 F100.000000
G1 X17.573746 Y22.239061 F100.000000
G1 X17.576705 Y22.333215 F100.000000
G1 X17.573746 Y22.427369 F100.000000
G1 X17.564881 Y22.521151 F100.000000
G1 X17.550145 Y22.614191 F100.000000
G1 X17.539005 Y22.664030 F100.000000
G1 X21.648736 Y26.773761 F100.000000
G1 X21.708642 Y26.747837 F100.000000
G1 X21.783236 Y26.720982 F100.000000
G1 X21.859368 Y26.698863 F100.000000
G1 X21.936740 Y26.681568 F100.000000
G1 X22.015044 Y26.669166 F100.000000
G1 X22.093973 Y26.661705 F100.000000
G1 X22.173215 Y26.659215 F100.000000
G1 X22.252457 Y26.661705 F100.000000
G1 X22.331386 Y26.669166 F100.000000
G1 X22.409690 Y26.681568 F100.000000
G1 X22.487062 Y26.698863 F100.000000
G1 X22.563194 Y26.720982 F100.000000
G1 X22.637788 Y26.747837 F100.000000
G1 X22.710548 Y26.779323 F100.000000
G1 X22.781188 Y26.815316 F100.000000
G1 X22.849428 Y26.855673 F100.000000
G1 X22.915000 Y26.900236 F100.000000
G1 X22.977644 Y26.948827 F100.000000
G1 X23.037113 Y27.001257 F100.000000
G1 X23.093173 Y27.057317 F100.000000
G1 X23.145603 Y27.116786 F100.000000
G1 X23.194194 Y27.179430 F100.000000
G1 X23.238757 Y27.245002 F100.000000
G1 X23.279114 Y27.313242 F100.000000
G1 X23.315107 Y27.383882 F100.000000
G1 X23.346593 Y27.456642 F100.000000
G1 X23.373448 Y27.531236 F100.000000
G1 X23.395567 Y27.607368 F100.000000
G1 X23.412862 Y27.684740 F100.000000
G1 X23.425264 Y27.763044 F100.000000
G1 X23.432725 Y27.841973 F100.000000
G1 X23.435215 Y27.921215 F100.000000
G1 X23.432725 Y28.000457 F100.000000
G1 X23.425264 Y28.079386 F100.000000
G1 X23.412862 Y28.157690 F100.000000
G1 X23.395567 Y28.235062 F100.000000
G1 X23.373448 Y28.311194 F100.000000
G1 X23.346593 Y28.385788 F100.000000
G1 X23.315107 Y28.458548 F100.000000
G1 X23.279114 Y28.529188 F100.000000
G1 X23.238757 Y28.597428 F100.000000
G1 X23.194194 Y28.663000 F100.000000
G1 X23.145603 Y28.725644 F100.000000
G1 X23.093173 Y28.785113 F100.000000
G1 X23.037113 Y28.841173 F100.000000
G1 X22.977644 Y28.893603 F100.000000
G1 X22.915000 Y28.942194 F100.000000
G1 X22.849428 Y28.986757 F100.000000
G1 X22.781188 Y29.027114 F100.000000
G1 X22.710548 Y29.063107 F100.000000
G1 X22.637788 Y29.094593 F100.000000
G1 X22.563194 Y29.121448 F100.000000
G1 X22.487062 Y29.143567 F100.000000
G1 X22.409690 Y29.160862 F100.000000
G1 X22.331386 Y29.173264 F100.000000
G1 X22.252457 Y29.180725 F100.000000
G1 X22.173215 Y29.183215 F100.000000
G1 X22.093973 Y29.180725 F100.000000
G1 X22.015044 Y29.173264 F100.000000
G1 X21.936740 Y29.160862 F100.000000
G1 X21.859368 Y29.143567 F100.000000
G1 X21.783236 Y29.121448 F100.000000
G1 X21.708642 Y29.094593 F100.000000
G1 X21.635882 Y29.063107 F100.000000
G1 X21.565242 Y29.027114 F100.000000
G1 X21.497002 Y28.986757 F100.000000
G1 X21.431430 Y28.942194 F100.000000
G1 X21.368786 Y28.893603 F100.000000
G1 X21.309317 Y28.841173 F100.000000
G1 X21.253257 Y28.785113 F100.000000
G1 X21.200827 Y28.725644 F100.000000
G1 X21.152236 Y28.663000 F100.000000
G1 X21.107673 Y28.597428 F100.000000
G1 X21.067316 Y28.529188 F100.000000
G1 X21.031323 Y28.458548 F100.000000
G1 X21.000618 Y28.387593 F100.000000
G1 X17.241476 Y24.628451 F100.000000
G1 X17.248036 Y24.679499 F100.000000
G1 X17.212547 Y24.786239 F100.000000
G1 X17.250950 Y24.954495 F100.000000
G1 Y25.429475 F100.000000
G1 X17.242276 Y25.467477 F100.000000
G1 X17.246216 Y25.506256 F100.000000
G1 X17.211638 Y25.601713 F100.000000
G1 X17.189046 Y25.700694 F100.000000
G1 X17.164743 Y25.731169 F100.000000
G1 X17.151467 Y25.767817 F100.000000
G0 Z2.000000
G0 X15.032688 Y25.478710
G1 Z-0.040000 F60.000000
G1 X15.000205 Y25.351496 F100.000000
G1 X15.001821 Y25.343474 F100.000000
G1 X15.000000 Y25.335495 F100.000000
G1 Y25.096735 F100.000000
G1 X15.001057 Y25.092102 F100.000000
G1 X15.000069 Y25.087454 F100.000000
G1 X15.031959 Y24.956715 F100.000000
G1 X15.061904 Y24.825516 F100.000000
G1 X15.064867 Y24.821801 F100.000000
G1 X15.065993 Y24.817184 F100.000000
G1 X15.114253 Y24.720664 F100.000000
G1 X15.151241 Y24.675670 F100.000000
G1 X15.146398 Y24.668223 F100.000000
G1 X15.090685 Y24.610743 F100.000000
G1 X15.071509 Y24.553068 F100.000000
G1 X15.038373 Y24.502116 F100.000000
G1 X15.028170 Y24.422719 F100.000000
G1 X15.002914 Y24.346759 F100.000000
G1 X15.010661 Y24.286475 F100.000000
G1 X15.002914 Y24.226191 F100.000000
G1 X15.028170 Y24.150231 F100.000000
G1 X15.038373 Y24.070834 F100.000000
G1 X15.071509 Y24.019882 F100.000000
G1 X15.090685 Y23.962207 F100.000000
G1 X15.146398 Y23.904727 F100.000000
G1 X15.190040 Y23.837620 F100.000000
G1 X15.242002 Y23.806091 F100.000000
G1 X15.284303 Y23.762448 F100.000000
G1 X15.359438 Y23.734833 F100.000000
G1 X15.427874 Y23.693307 F100.000000
G1 X15.438398 Y23.689808 F100.000000
G1 X15.354830 Y23.647228 F100.000000
G0 Z2.000000
G0 X64.805618 Y44.474198
G1 Z-0.040000 F60.000000
G1 Y44.540828 F100.000000
G1 X64.779070 Y44.595955 F100.000000
G1 X64.767741 Y44.656083 F100.000000
G1 X64.756008 Y44.672007 F100.000000
G1 X64.751196 Y44.691193 F100.000000
G1 X64.708552 Y44.742388 F100.000000
G1 X64.679987 Y44.801704 F100.000000
G1 X64.715282 Y44.835683 F100.000000
G1 X64.811802 Y44.983003 F100.000000
G1 X64.826882 Y45.023606 F100.000000
G1 X64.853887 Y45.057469 F100.000000
G1 X64.876893 Y45.158264 F100.000000
G1 X64.912888 Y45.255183 F100.000000
G1 X64.908857 Y45.298308 F100.000000
G1 X64.918495 Y45.340535 F100.000000
G1 Y45.630095 F100.000000
G1 X64.908277 Y45.674864 F100.000000
G1 X64.912184 Y45.720618 F100.000000
G1 X64.902138 Y45.747020 F100.000000
G1 Y45.920048 F100.000000
G1 X64.866671 Y45.993695 F100.000000
G1 X64.944275 F100.000000
G1 X65.227341 Y46.058303 F100.000000
G1 X65.454342 Y46.239330 F100.000000
G1 X65.580318 Y46.500922 F100.000000
G1 Y46.791268 F100.000000
G1 X65.454342 Y47.052860 F100.000000
G1 X65.418171 Y47.081705 F100.000000
G1 X65.454342 Y47.110550 F100.000000
G1 X65.580318 Y47.372142 F100.000000
G1 Y47.662488 F100.000000
G1 X65.454342 Y47.924080 F100.000000
G1 X65.227341 Y48.105107 F100.000000
G1 X64.944275 Y48.169715 F100.000000
G1 X64.848405 Y48.169715 F100.000000
G1 X64.853887 Y48.176589 F100.000000
G1 X64.869304 Y48.244135 F100.000000
G1 X64.944275 F100.000000
G1 X65.227341 Y48.308743 F100.000000
G1 X65.454342 Y48.489770 F100.000000
G1 X65.580318 Y48.751362 F100.000000
G1 Y49.041708 F100.000000
G1 X65.454342 Y49.303300 F100.000000
G1 X65.227341 Y49.484327 F100.000000
G1 X64.944275 Y49.548935 F100.000000
G1 X62.912275 F100.000000
G1 X62.629209 Y49.484327 F100.000000
G1 X62.402208 Y49.303300 F100.000000
G1 X62.276232 Y49.041708 F100.000000
G1 Y48.751362 F100.000000
G1 X62.364113 Y48.568875 F100.000000
G1 X62.276232 Y48.386388 F100.000000
G1 Y48.096042 F100.000000
G1 X62.402208 Y47.834450 F100.000000
G1 X62.456418 Y47.791220 F100.000000
G1 X62.369445 Y47.660761 F100.000000
G1 X62.353114 Y47.617843 F100.000000
G1 X62.324483 Y47.581941 F100.000000
G1 X62.302046 Y47.483638 F100.000000
G1 X62.266186 Y47.389398 F100.000000
G1 X62.270093 Y47.343644 F100.000000
G1 X62.259875 Y47.298875 F100.000000
G1 Y47.154095 F100.000000
G1 X62.324483 Y46.871029 F100.000000
G1 X62.378562 Y46.803216 F100.000000
G1 X62.369445 Y46.789541 F100.000000
G1 X62.353114 Y46.746623 F100.000000
G1 X62.324483 Y46.710721 F100.000000
G1 X62.302046 Y46.612418 F100.000000
G1 X62.266186 Y46.518178 F100.000000
G1 X62.270093 Y46.472424 F100.000000
G1 X62.259875 Y46.427655 F100.000000
G1 Y46.427275 F100.000000
G1 X62.234095 F100.000000
G1 X61.951029 Y46.362667 F100.000000
G1 X61.724028 Y46.181640 F100.000000
G1 X61.598052 Y45.920048 F100.000000
G1 Y45.629702 F100.000000
G1 X61.724028 Y45.368110 F100.000000
G1 X61.951029 Y45.187083 F100.000000
G1 X62.234095 Y45.122475 F100.000000
G1 X62.309646 F100.000000
G1 X62.324483 Y45.057469 F100.000000
G1 X62.351488 Y45.023606 F100.000000
G1 X62.366568 Y44.983003 F100.000000
G1 X62.455255 Y44.847638 F100.000000
G1 X62.450046 Y44.840569 F100.000000
G1 X62.402208 Y44.802420 F100.000000
G1 X62.373298 Y44.742388 F100.000000
G1 X62.330654 Y44.691193 F100.000000
G1 X62.325842 Y44.672007 F100.000000
G1 X62.314109 Y44.656083 F100.000000
G1 X62.302780 Y44.595955 F100.000000
G1 X62.276232 Y44.540828 F100.000000
G1 Y44.505822 F100.000000
G1 X62.152598 Y44.479479 F100.000000
G1 X61.923003 Y44.301752 F100.000000
G1 X61.793258 Y44.042009 F100.000000
G1 X61.789059 Y43.751694 F100.000000
G1 X61.911240 Y43.488308 F100.000000
G1 X62.135600 Y43.304017 F100.000000
G1 X64.749260 Y41.998457 F100.000000
G1 X65.031362 Y41.929763 F100.000000
G1 X65.315332 Y41.990271 F100.000000
G1 X65.544927 Y42.167998 F100.000000
G1 X65.674672 Y42.427741 F100.000000
G1 X65.678871 Y42.718056 F100.000000
G1 X65.556690 Y42.981442 F100.000000
G1 X65.332330 Y43.165733 F100.000000
G1 X64.257628 Y43.702562 F100.000000
G1 X64.349225 Y43.751062 F100.000000
G1 X64.460058 Y43.799317 F100.000000
G1 X64.556578 Y43.870437 F100.000000
G1 X64.569492 Y43.885419 F100.000000
G1 X64.587126 Y43.894380 F100.000000
G1 X64.627548 Y43.947347 F100.000000
G1 X64.679642 Y43.988890 F100.000000
G1 X64.706190 Y44.044017 F100.000000
G1 X64.746136 Y44.090364 F100.000000
G1 X64.751271 Y44.109466 F100.000000
G1 X64.763271 Y44.125190 F100.000000
G1 X64.776708 Y44.190451 F100.000000
G1 X64.805618 Y44.250482 F100.000000
G1 Y44.311669 F100.000000
G1 X64.821500 Y44.370758 F100.000000
G1 X64.817837 Y44.390196 F100.000000
G1 X64.821827 Y44.409569 F100.000000
G1 X64.805618 Y44.474198 F100.000000
G0 Z2.000000
G0 X63.937553 Y30.941128
G1 Z-0.040000 F60.000000
G1 X64.225090 Y30.900841 F100.000000
G1 X64.501631 Y30.989302 F100.000000
G1 X64.712405 Y31.188989 F100.000000
G1 X64.808925 Y31.333769 F100.000000
G1 X64.825256 Y31.376687 F100.000000
G1 X64.853887 Y31.412589 F100.000000
G1 X64.876324 Y31.510892 F100.000000
G1 X64.912184 Y31.605132 F100.000000
G1 X64.908277 Y31.650886 F100.000000
G1 X64.918495 Y31.695655 F100.000000
G1 Y31.914095 F100.000000
G1 X64.908277 Y31.958864 F100.000000
G1 X64.912184 Y32.004618 F100.000000
G1 X64.876324 Y32.098858 F100.000000
G1 X64.853887 Y32.197161 F100.000000
G1 X64.825256 Y32.233063 F100.000000
G1 X64.808925 Y32.275981 F100.000000
G1 X64.752908 Y32.360006 F100.000000
G1 X64.776162 Y32.378550 F100.000000
G1 X64.902138 Y32.640142 F100.000000
G1 Y32.813170 F100.000000
G1 X64.912184 Y32.839572 F100.000000
G1 X64.908277 Y32.885326 F100.000000
G1 X64.918495 Y32.930095 F100.000000
G1 Y33.219655 F100.000000
G1 X64.908277 Y33.264424 F100.000000
G1 X64.912184 Y33.310178 F100.000000
G1 X64.876324 Y33.404418 F100.000000
G1 X64.853887 Y33.502721 F100.000000
G1 X64.825256 Y33.538623 F100.000000
G1 X64.808925 Y33.581541 F100.000000
G1 X64.712405 Y33.726321 F100.000000
G1 X64.672122 Y33.764485 F100.000000
G1 X64.712405 Y33.802649 F100.000000
G1 X64.808925 Y33.947429 F100.000000
G1 X64.825256 Y33.990347 F100.000000
G1 X64.853887 Y34.026249 F100.000000
G1 X64.876324 Y34.124552 F100.000000
G1 X64.912184 Y34.218792 F100.000000
G1 X64.908277 Y34.264546 F100.000000
G1 X64.918495 Y34.309315 F100.000000
G1 Y34.525215 F100.000000
G1 X64.908857 Y34.567442 F100.000000
G1 X64.912888 Y34.610567 F100.000000
G1 X64.876893 Y34.707486 F100.000000
G1 X64.853887 Y34.808281 F100.000000
G1 X64.826882 Y34.842144 F100.000000
G1 X64.811802 Y34.882747 F100.000000
G1 X64.715282 Y35.030067 F100.000000
G1 X64.672945 Y35.070825 F100.000000
G1 X64.712405 Y35.108209 F100.000000
G1 X64.808925 Y35.252989 F100.000000
G1 X64.825256 Y35.295907 F100.000000
G1 X64.853887 Y35.331809 F100.000000
G1 X64.876324 Y35.430112 F100.000000
G1 X64.912184 Y35.524352 F100.000000
G1 X64.908277 Y35.570106 F100.000000
G1 X64.918495 Y35.614875 F100.000000
G1 Y35.833315 F100.000000
G1 X64.908277 Y35.878084 F100.000000
G1 X64.912184 Y35.923838 F100.000000
G1 X64.876324 Y36.018078 F100.000000
G1 X64.853887 Y36.116381 F100.000000
G1 X64.825256 Y36.152283 F100.000000
G1 X64.808925 Y36.195201 F100.000000
G1 X64.807782 Y36.196915 F100.000000
G1 X64.944275 F100.000000
G1 X65.227341 Y36.261523 F100.000000
G1 X65.454342 Y36.442550 F100.000000
G1 X65.580318 Y36.704142 F100.000000
G1 Y36.994488 F100.000000
G1 X65.454342 Y37.256080 F100.000000
G1 X65.227341 Y37.437107 F100.000000
G1 X64.944275 Y37.501715 F100.000000
G1 X64.918495 F100.000000
G1 Y37.502095 F100.000000
G1 X64.908277 Y37.546864 F100.000000
G1 X64.912184 Y37.592618 F100.000000
G1 X64.896300 Y37.634361 F100.000000
G1 X64.902138 Y37.646482 F100.000000
G1 Y37.936828 F100.000000
G1 X64.776162 Y38.198420 F100.000000
G1 X64.721861 Y38.241723 F100.000000
G1 X64.811802 Y38.379003 F100.000000
G1 X64.826882 Y38.419606 F100.000000
G1 X64.853887 Y38.453469 F100.000000
G1 X64.876893 Y38.554264 F100.000000
G1 X64.912888 Y38.651183 F100.000000
G1 X64.908857 Y38.694308 F100.000000
G1 X64.918495 Y38.736535 F100.000000
G1 Y39.026095 F100.000000
G1 X64.908277 Y39.070864 F100.000000
G1 X64.912184 Y39.116618 F100.000000
G1 X64.876324 Y39.210858 F100.000000
G1 X64.853887 Y39.309161 F100.000000
G1 X64.825256 Y39.345063 F100.000000
G1 X64.808925 Y39.387981 F100.000000
G1 X64.736069 Y39.497265 F100.000000
G1 X64.808925 Y39.606549 F100.000000
G1 X64.825256 Y39.649467 F100.000000
G1 X64.853887 Y39.685369 F100.000000
G1 X64.876324 Y39.783672 F100.000000
G1 X64.912184 Y39.877912 F100.000000
G1 X64.908277 Y39.923666 F100.000000
G1 X64.918495 Y39.968435 F100.000000
G1 Y40.260535 F100.000000
G1 X64.908277 Y40.305304 F100.000000
G1 X64.912184 Y40.351058 F100.000000
G1 X64.907969 Y40.362136 F100.000000
G1 X65.030855 Y40.332111 F100.000000
G1 X65.314872 Y40.392398 F100.000000
G1 X65.544605 Y40.569946 F100.000000
G1 X65.674552 Y40.829588 F100.000000
G1 X65.678976 Y41.119900 F100.000000
G1 X65.557000 Y41.383381 F100.000000
G1 X65.332784 Y41.567846 F100.000000
G1 X62.719124 Y42.875946 F100.000000
G1 X62.437075 Y42.944859 F100.000000
G1 X62.153058 Y42.884572 F100.000000
G1 X61.923325 Y42.707024 F100.000000
G1 X61.793378 Y42.447382 F100.000000
G1 X61.788954 Y42.157070 F100.000000
G1 X61.910930 Y41.893589 F100.000000
G1 X62.135146 Y41.709124 F100.000000
G1 X63.194694 Y41.178835 F100.000000
G1 X63.182966 Y41.176158 F100.000000
G1 X63.065770 Y41.159628 F100.000000
G1 X62.872730 Y41.085968 F100.000000
G1 X62.799289 Y41.036909 F100.000000
G1 X62.718312 Y41.001653 F100.000000
G1 X62.621792 Y40.930533 F100.000000
G1 X62.548008 Y40.844928 F100.000000
G1 X62.465965 Y40.767201 F100.000000
G1 X62.369445 Y40.622421 F100.000000
G1 X62.353114 Y40.579503 F100.000000
G1 X62.324483 Y40.543601 F100.000000
G1 X62.302046 Y40.445298 F100.000000
G1 X62.266186 Y40.351058 F100.000000
G1 X62.270093 Y40.305304 F100.000000
G1 X62.259875 Y40.260535 F100.000000
G1 Y39.968435 F100.000000
G1 X62.270093 Y39.923666 F100.000000
G1 X62.266186 Y39.877912 F100.000000
G1 X62.302046 Y39.783672 F100.000000
G1 X62.324483 Y39.685369 F100.000000
G1 X62.353114 Y39.649467 F100.000000
G1 X62.369445 Y39.606549 F100.000000
G1 X62.442301 Y39.497265 F100.000000
G1 X62.369445 Y39.387981 F100.000000
G1 X62.353114 Y39.345063 F100.000000
G1 X62.324483 Y39.309161 F100.000000
G1 X62.302046 Y39.210858 F100.000000
G1 X62.266186 Y39.116618 F100.000000
G1 X62.270093 Y39.070864 F100.000000
G1 X62.259875 Y39.026095 F100.000000
G1 Y38.662875 F100.000000
G1 X62.270093 Y38.618106 F100.000000
G1 X62.266186 Y38.572352 F100.000000
G1 X62.276232 Y38.545950 F100.000000
G1 Y38.372922 F100.000000
G1 X62.381238 Y38.154875 F100.000000
G1 X62.276232 Y37.936828 F100.000000
G1 Y37.646482 F100.000000
G1 X62.402208 Y37.384890 F100.000000
G1 X62.572485 Y37.249099 F100.000000
G1 X62.534777 Y37.223910 F100.000000
G1 X62.506442 Y37.175889 F100.000000
G1 X62.465965 Y37.137541 F100.000000
G1 X62.369445 Y36.992761 F100.000000
G1 X62.266186 Y36.721398 F100.000000
G1 X62.290892 Y36.432106 F100.000000
G1 X62.402052 Y36.244112 F100.000000
G1 X62.369445 Y36.195201 F100.000000
G1 X62.353114 Y36.152283 F100.000000
G1 X62.324483 Y36.116381 F100.000000
G1 X62.302046 Y36.018078 F100.000000
G1 X62.266186 Y35.923838 F100.000000
G1 X62.270093 Y35.878084 F100.000000
G1 X62.259875 Y35.833315 F100.000000
G1 Y35.614875 F100.000000
G1 X62.270093 Y35.570106 F100.000000
G1 X62.266186 Y35.524352 F100.000000
G1 X62.302046 Y35.430112 F100.000000
G1 X62.324483 Y35.331809 F100.000000
G1 X62.353114 Y35.295907 F100.000000
G1 X62.369445 Y35.252989 F100.000000
G1 X62.465965 Y35.108209 F100.000000
G1 X62.467373 Y35.106875 F100.000000
G1 X62.465965 Y35.105541 F100.000000
G1 X62.369445 Y34.960761 F100.000000
G1 X62.353114 Y34.917843 F100.000000
G1 X62.324483 Y34.881941 F100.000000
G1 X62.302046 Y34.783638 F100.000000
G1 X62.266186 Y34.689398 F100.000000
G1 X62.270093 Y34.643644 F100.000000
G1 X62.259875 Y34.598875 F100.000000
G1 Y34.309315 F100.000000
G1 X62.270093 Y34.264546 F100.000000
G1 X62.266186 Y34.218792 F100.000000
G1 X62.302046 Y34.124552 F100.000000
G1 X62.311524 Y34.083025 F100.000000
G1 X62.275100 Y34.088129 F100.000000
G1 X61.998559 Y33.999668 F100.000000
G1 X61.787785 Y33.799981 F100.000000
G1 X61.691265 Y33.655201 F100.000000
G1 X61.674934 Y33.612283 F100.000000
G1 X61.646303 Y33.576381 F100.000000
G1 X61.623866 Y33.478078 F100.000000
G0 Z2.000000
G0 X63.942438 Y27.672851
G1 Z-0.040000 F60.000000
G1 X64.230288 Y27.634866 F100.000000
G1 X64.506113 Y27.725536 F100.000000
G1 X64.715282 Y27.926903 F100.000000
G1 X64.811802 Y28.074223 F100.000000
G1 X64.826882 Y28.114826 F100.000000
G1 X64.853887 Y28.148689 F100.000000
G1 X64.876893 Y28.249484 F100.000000
G1 X64.912888 Y28.346403 F100.000000
G1 X64.908857 Y28.389528 F100.000000
G1 X64.918495 Y28.431755 F100.000000
G1 Y28.647655 F100.000000
G1 X64.908277 Y28.692424 F100.000000
G1 X64.912184 Y28.738178 F100.000000
G1 X64.876324 Y28.832418 F100.000000
G1 X64.853887 Y28.930721 F100.000000
G1 X64.825256 Y28.966623 F100.000000
G1 X64.808925 Y29.009541 F100.000000
G1 X64.712405 Y29.154321 F100.000000
G1 X64.710997 Y29.155655 F100.000000
G1 X64.712405 Y29.156989 F100.000000
G1 X64.808925 Y29.301769 F100.000000
G1 X64.825256 Y29.344687 F100.000000
G1 X64.853887 Y29.380589 F100.000000
G1 X64.876324 Y29.478892 F100.000000
G1 X64.912184 Y29.573132 F100.000000
G1 X64.908277 Y29.618886 F100.000000
G1 X64.918495 Y29.663655 F100.000000
G1 Y29.955755 F100.000000
G1 X64.908277 Y30.000524 F100.000000
G1 X64.912184 Y30.046278 F100.000000
G1 X64.876324 Y30.140518 F100.000000
G1 X64.853887 Y30.238821 F100.000000
G1 X64.825256 Y30.274723 F100.000000
G1 X64.808925 Y30.317641 F100.000000
G1 X64.712405 Y30.462421 F100.000000
G1 X64.669214 Y30.503340 F100.000000
G1 X64.638391 Y30.554228 F100.000000
G1 X64.565116 Y30.601963 F100.000000
G1 X64.501631 Y30.662108 F100.000000
G1 X64.444964 Y30.680235 F100.000000
G1 X64.395113 Y30.712710 F100.000000
G1 X64.202073 Y30.783830 F100.000000
G1 X64.088340 Y30.798536 F100.000000
G1 X63.976535 Y30.824055 F100.000000
G1 X63.754623 Y30.824055 F100.000000
G1 X63.757567 Y30.838349 F100.000000
G1 X63.741358 Y30.902978 F100.000000
G1 Y30.952951 F100.000000
G1 X63.770344 Y30.972314 F100.000000
G1 X63.823451 Y30.989302 F100.000000
G1 X63.840733 Y31.005675 F100.000000
G1 X63.937553 Y30.941128 F100.000000
G0 Z2.000000
G0 X61.623866 Y33.478078
G1 Z-0.040000 F60.000000
G1 X61.588006 Y33.383838 F100.000000
G1 X61.591913 Y33.338084 F100.000000
G1 X61.581695 Y33.293315 F100.000000
G1 Y33.074875 F100.000000
G1 X61.591913 Y33.030106 F100.000000
G1 X61.588006 Y32.984352 F100.000000
G1 X61.623866 Y32.890112 F100.000000
G1 X61.646303 Y32.791809 F100.000000
G1 X61.674934 Y32.755907 F100.000000
G1 X61.691265 Y32.712989 F100.000000
G1 X61.787785 Y32.568209 F100.000000
G1 X61.865928 Y32.494177 F100.000000
G1 X61.934821 Y32.411469 F100.000000
G1 X62.031341 Y32.337809 F100.000000
G1 X62.119982 Y32.297428 F100.000000
G1 X62.201597 Y32.244260 F100.000000
G1 X62.309894 Y32.204361 F100.000000
G1 X62.301477 Y32.167486 F100.000000
G1 X62.265482 Y32.070567 F100.000000
G1 X62.269513 Y32.027442 F100.000000
G1 X62.259875 Y31.985215 F100.000000
G1 Y31.695655 F100.000000
G1 X62.270093 Y31.650886 F100.000000
G1 X62.266186 Y31.605132 F100.000000
G1 X62.302046 Y31.510892 F100.000000
G1 X62.324483 Y31.412589 F100.000000
G1 X62.353114 Y31.376687 F100.000000
G1 X62.369445 Y31.333769 F100.000000
G1 X62.425462 Y31.249744 F100.000000
G1 X62.402208 Y31.231200 F100.000000
G1 X62.373298 Y31.171168 F100.000000
G1 X62.330654 Y31.119973 F100.000000
G1 X62.325842 Y31.100787 F100.000000
G1 X62.314109 Y31.084863 F100.000000
G1 X62.302780 Y31.024735 F100.000000
G1 X62.276232 Y30.969608 F100.000000
G1 Y30.902978 F100.000000
G1 X62.260023 Y30.838349 F100.000000
G1 X62.264013 Y30.818976 F100.000000
G1 X62.260350 Y30.799538 F100.000000
G1 X62.276232 Y30.740449 F100.000000
G1 Y30.679262 F100.000000
G1 X62.305142 Y30.619231 F100.000000
G1 X62.318579 Y30.553970 F100.000000
G1 X62.330579 Y30.538246 F100.000000
G1 X62.335714 Y30.519144 F100.000000
G1 X62.375660 Y30.472797 F100.000000
G1 X62.402208 Y30.417670 F100.000000
G1 X62.424356 Y30.400008 F100.000000
G1 X62.369445 Y30.317641 F100.000000
G1 X62.353114 Y30.274723 F100.000000
G1 X62.324483 Y30.238821 F100.000000
G1 X62.302046 Y30.140518 F100.000000
G1 X62.266186 Y30.046278 F100.000000
G1 X62.270093 Y30.000524 F100.000000
G1 X62.259875 Y29.955755 F100.000000
G1 Y29.663655 F100.000000
G1 X62.270093 Y29.618886 F100.000000
G1 X62.266186 Y29.573132 F100.000000
G1 X62.302046 Y29.478892 F100.000000
G1 X62.324483 Y29.380589 F100.000000
G1 X62.353114 Y29.344687 F100.000000
G1 X62.369445 Y29.301769 F100.000000
G1 X62.442301 Y29.192485 F100.000000
G1 X62.369445 Y29.083201 F100.000000
G1 X62.353114 Y29.040283 F100.000000
G1 X62.324483 Y29.004381 F100.000000
G1 X62.302046 Y28.906078 F100.000000
G1 X62.266186 Y28.811838 F100.000000
G1 X62.270093 Y28.766084 F100.000000
G1 X62.259875 Y28.721315 F100.000000
G1 Y28.431755 F100.000000
G1 X62.269513 Y28.389528 F100.000000
G1 X62.265482 Y28.346403 F100.000000
G1 X62.301477 Y28.249484 F100.000000
G1 X62.324483 Y28.148689 F100.000000
G1 X62.351488 Y28.114826 F100.000000
G1 X62.366568 Y28.074223 F100.000000
G1 X62.463088 Y27.926903 F100.000000
G1 X62.507814 Y27.883844 F100.000000
G1 X62.539979 Y27.830742 F100.000000
G1 X62.611104 Y27.784408 F100.000000
G1 X62.672257 Y27.725536 F100.000000
G1 X62.731237 Y27.706148 F100.000000
G1 X62.783257 Y27.672260 F100.000000
G1 X62.976297 Y27.601140 F100.000000
G1 X63.090030 Y27.586434 F100.000000
G1 X63.201835 Y27.560915 F100.000000
G1 X63.298355 F100.000000
G1 X63.410160 Y27.586434 F100.000000
G1 X63.523893 Y27.601140 F100.000000
G1 X63.716933 Y27.672260 F100.000000
G1 X63.768953 Y27.706148 F100.000000
G1 X63.827933 Y27.725536 F100.000000
G1 X63.841739 Y27.738827 F100.000000
G1 X63.942438 Y27.672851 F100.000000
G0 Z2.000000
G0 X56.969040 Y33.366502
G1 Z-0.040000 F60.000000
G1 X56.902811 Y33.398396 F100.000000
G1 X56.845341 Y33.444227 F100.000000
G1 X56.773676 Y33.460584 F100.000000
G1 X56.707448 Y33.492478 F100.000000
G1 X56.633940 F100.000000
G1 X56.562275 Y33.508835 F100.000000
G1 X54.530275 F100.000000
G1 X54.247209 Y33.444227 F100.000000
G1 X54.020208 Y33.263200 F100.000000
G1 X53.894232 Y33.001608 F100.000000
G1 Y32.711262 F100.000000
G1 X54.020208 Y32.449670 F100.000000
G1 X54.247209 Y32.268643 F100.000000
G1 X54.530275 Y32.204035 F100.000000
G1 X54.853398 F100.000000
G1 X54.851926 Y32.186792 F100.000000
G1 X54.887786 Y32.092552 F100.000000
G1 X54.910223 Y31.994249 F100.000000
G1 X54.917731 Y31.984835 F100.000000
G1 X54.530275 Y31.984835 F100.000000
G1 X54.247209 Y31.920227 F100.000000
G1 X54.020208 Y31.739200 F100.000000
G1 X53.894232 Y31.477608 F100.000000
G1 Y31.187262 F100.000000
G1 X54.020208 Y30.925670 F100.000000
G1 X54.100970 Y30.861265 F100.000000
G1 X54.020208 Y30.796860 F100.000000
G1 X53.894232 Y30.535268 F100.000000
G1 Y30.244922 F100.000000
G1 X53.999238 Y30.026875 F100.000000
G1 X53.894232 Y29.808828 F100.000000
G1 Y29.518482 F100.000000
G1 X53.981502 Y29.337265 F100.000000
G1 X53.894232 Y29.156048 F100.000000
G1 Y28.865702 F100.000000
G1 X54.020208 Y28.604110 F100.000000
G1 X54.074418 Y28.560880 F100.000000
G1 X53.987445 Y28.430421 F100.000000
G1 X53.971114 Y28.387503 F100.000000
G1 X53.942483 Y28.351601 F100.000000
G1 X53.920046 Y28.253298 F100.000000
G1 X53.884186 Y28.159058 F100.000000
G1 X53.888093 Y28.113304 F100.000000
G1 X53.877875 Y28.068535 F100.000000
G1 Y27.921215 F100.000000
G1 X53.942483 Y27.638149 F100.000000
G1 X53.947662 Y27.631655 F100.000000
G1 X53.942483 Y27.625161 F100.000000
G1 X53.920046 Y27.526858 F100.000000
G1 X53.884186 Y27.432618 F100.000000
G1 X53.888093 Y27.386864 F100.000000
G1 X53.877875 Y27.342095 F100.000000
G1 Y27.052535 F100.000000
G1 X53.887513 Y27.010308 F100.000000
G1 X53.883482 Y26.967183 F100.000000
G1 X53.919477 Y26.870264 F100.000000
G1 X53.942483 Y26.769469 F100.000000
G1 X53.969488 Y26.735606 F100.000000
G1 X53.984568 Y26.695003 F100.000000
G1 X54.042811 Y26.606105 F100.000000
G1 X54.020208 Y26.588080 F100.000000
G1 X53.894232 Y26.326488 F100.000000
G1 Y26.036142 F100.000000
G1 X53.981502 Y25.854925 F100.000000
G1 X53.894232 Y25.673708 F100.000000
G1 Y25.383362 F100.000000
G1 X53.999238 Y25.165315 F100.000000
G1 X53.894232 Y24.947268 F100.000000
G1 Y24.656922 F100.000000
G1 X54.020208 Y24.395330 F100.000000
G1 X54.043462 Y24.376786 F100.000000
G1 X53.987445 Y24.292761 F100.000000
G1 X53.971114 Y24.249843 F100.000000
G1 X53.942483 Y24.213941 F100.000000
G1 X53.920046 Y24.115638 F100.000000
G0 Z2.000000
G0 X57.072342 Y30.796860
G1 Z-0.040000 F60.000000
G1 X57.023402 Y30.835888 F100.000000
G1 X56.986051 Y30.886119 F100.000000
G1 X56.961278 Y30.899098 F100.000000
G1 X56.942759 Y30.920055 F100.000000
G1 X56.843699 Y30.991175 F100.000000
G1 X56.735906 Y31.036530 F100.000000
G1 X56.632555 Y31.091255 F100.000000
G1 X56.603177 Y31.092376 F100.000000
G1 X56.576078 Y31.103778 F100.000000
G1 X56.527445 Y31.101319 F100.000000
G1 X56.530184 Y31.133398 F100.000000
G1 X56.514300 Y31.175141 F100.000000
G1 X56.520138 Y31.187262 F100.000000
G1 Y31.419143 F100.000000
G1 X56.599280 Y31.449342 F100.000000
G1 X56.677207 Y31.501398 F100.000000
G1 X56.762489 Y31.540249 F100.000000
G1 X56.859009 Y31.613909 F100.000000
G1 X56.925441 Y31.693661 F100.000000
G1 X57.001645 Y31.764135 F100.000000
G1 X57.100705 Y31.908915 F100.000000
G1 X57.118991 Y31.955281 F100.000000
G1 X57.150067 Y31.994249 F100.000000
G1 X57.171647 Y32.088797 F100.000000
G1 X57.207227 Y32.179014 F100.000000
G1 X57.203584 Y32.228723 F100.000000
G1 X57.214675 Y32.277315 F100.000000
G1 Y32.856435 F100.000000
G1 X57.198318 Y32.928100 F100.000000
G1 Y33.001608 F100.000000
G1 X57.166424 Y33.067836 F100.000000
G1 X57.150067 Y33.139501 F100.000000
G1 X57.104236 Y33.196971 F100.000000
G1 X57.072342 Y33.263200 F100.000000
G1 X57.014871 Y33.309031 F100.000000
G1 X56.969040 Y33.366502 F100.000000
G0 Z2.000000
G0 X57.072342 Y25.208860
G1 Z-0.040000 F60.000000
G1 X57.023402 Y25.247888 F100.000000
G1 X56.986051 Y25.298119 F100.000000
G1 X56.961278 Y25.311098 F100.000000
G1 X56.942759 Y25.332055 F100.000000
G1 X56.843699 Y25.403175 F100.000000
G1 X56.735906 Y25.448530 F100.000000
G1 X56.632555 Y25.503255 F100.000000
G1 X56.603177 Y25.504376 F100.000000
G1 X56.576078 Y25.515778 F100.000000
G1 X56.483234 Y25.511083 F100.000000
G1 X56.487304 Y25.528915 F100.000000
G1 X56.562275 F100.000000
G1 X56.845341 Y25.593523 F100.000000
G1 X57.072342 Y25.774550 F100.000000
G1 X57.198318 Y26.036142 F100.000000
G1 Y26.326488 F100.000000
G1 X57.072342 Y26.588080 F100.000000
G1 X56.845341 Y26.769107 F100.000000
G1 X56.562275 Y26.833715 F100.000000
G1 X56.486551 Y26.833715 F100.000000
G1 X56.494893 Y26.870264 F100.000000
G1 X56.530888 Y26.967183 F100.000000
G1 X56.526857 Y27.010308 F100.000000
G1 X56.536495 Y27.052535 F100.000000
G1 Y27.268435 F100.000000
G1 X56.526277 Y27.313204 F100.000000
G1 X56.530184 Y27.358958 F100.000000
G1 X56.494324 Y27.453198 F100.000000
G1 X56.471887 Y27.551501 F100.000000
G1 X56.443256 Y27.587403 F100.000000
G1 X56.439432 Y27.597452 F100.000000
G1 X56.467011 Y27.632035 F100.000000
G1 X56.562275 Y27.632035 F100.000000
G1 X56.845341 Y27.696643 F100.000000
G1 X57.072342 Y27.877670 F100.000000
G1 X57.198318 Y28.139262 F100.000000
G1 Y28.429608 F100.000000
G1 X57.072342 Y28.691200 F100.000000
G1 X56.845341 Y28.872227 F100.000000
G1 X56.562275 Y28.936835 F100.000000
G1 X56.464379 Y28.936835 F100.000000
G1 X56.471887 Y28.946249 F100.000000
G1 X56.494324 Y29.044552 F100.000000
G1 X56.530184 Y29.138792 F100.000000
G1 X56.526277 Y29.184546 F100.000000
G1 X56.536495 Y29.229315 F100.000000
G1 Y29.445215 F100.000000
G1 X56.526857 Y29.487442 F100.000000
G1 X56.530888 Y29.530567 F100.000000
G1 X56.520138 Y29.559511 F100.000000
G1 Y29.678103 F100.000000
G1 X56.586803 Y29.675848 F100.000000
G1 X56.603585 Y29.683242 F100.000000
G1 X56.621920 Y29.683633 F100.000000
G1 X56.735705 Y29.741450 F100.000000
G1 X56.852504 Y29.792909 F100.000000
G1 X56.951564 Y29.866569 F100.000000
G1 X56.969730 Y29.887832 F100.000000
G1 X56.994282 Y29.901223 F100.000000
G1 X57.027633 Y29.947676 F100.000000
G1 X57.072342 Y29.983330 F100.000000
G1 X57.099501 Y30.039728 F100.000000
G1 X57.140162 Y30.087320 F100.000000
G1 X57.147303 Y30.114360 F100.000000
G1 X57.163613 Y30.137078 F100.000000
G1 X57.173506 Y30.193400 F100.000000
G1 X57.198318 Y30.244922 F100.000000
G1 Y30.307519 F100.000000
G1 X57.214302 Y30.368040 F100.000000
G1 X57.209004 Y30.395500 F100.000000
G1 X57.213842 Y30.423045 F100.000000
G1 X57.198318 Y30.478083 F100.000000
G1 Y30.535268 F100.000000
G1 X57.171158 Y30.591665 F100.000000
G1 X57.159300 Y30.653128 F100.000000
G1 X57.142613 Y30.675570 F100.000000
G1 X57.135020 Y30.702487 F100.000000
G1 X57.097154 Y30.745338 F100.000000
G1 X57.072342 Y30.796860 F100.000000
G0 Z2.000000
G0 X53.987445 Y22.115981
G1 Z-0.040000 F60.000000
G1 X53.971114 Y22.073063 F100.000000
G1 X53.942483 Y22.037161 F100.000000
G1 X53.920046 Y21.938858 F100.000000
G1 X53.884186 Y21.844618 F100.000000
G1 X53.888093 Y21.798864 F100.000000
G1 X53.877875 Y21.754095 F100.000000
G1 Y21.464535 F100.000000
G1 X53.887513 Y21.422308 F100.000000
G1 X53.883482 Y21.379183 F100.000000
G1 X53.894232 Y21.350239 F100.000000
G1 Y21.172042 F100.000000
G1 X54.020208 Y20.910450 F100.000000
G1 X54.247209 Y20.729423 F100.000000
G1 X54.530275 Y20.664815 F100.000000
G1 X56.562275 F100.000000
G1 X56.845341 Y20.729423 F100.000000
G1 X57.072342 Y20.910450 F100.000000
G1 X57.198318 Y21.172042 F100.000000
G1 Y21.462388 F100.000000
G1 X57.072342 Y21.723980 F100.000000
G1 X56.845341 Y21.905007 F100.000000
G1 X56.562275 Y21.969615 F100.000000
G1 X56.487304 Y21.969615 F100.000000
G1 X56.471887 Y22.037161 F100.000000
G1 X56.443256 Y22.073063 F100.000000
G1 X56.426925 Y22.115981 F100.000000
G1 X56.425782 Y22.117695 F100.000000
G1 X56.562275 F100.000000
G1 X56.845341 Y22.182303 F100.000000
G1 X57.072342 Y22.363330 F100.000000
G1 X57.198318 Y22.624922 F100.000000
G1 Y22.915268 F100.000000
G1 X57.072342 Y23.176860 F100.000000
G1 X56.845341 Y23.357887 F100.000000
G1 X56.562275 Y23.422495 F100.000000
G1 X56.486551 F100.000000
G1 X56.494324 Y23.456552 F100.000000
G1 X56.530184 Y23.550792 F100.000000
G1 X56.526277 Y23.596546 F100.000000
G1 X56.536495 Y23.641315 F100.000000
G1 Y23.930875 F100.000000
G1 X56.526277 Y23.975644 F100.000000
G1 X56.530184 Y24.021398 F100.000000
G1 X56.503831 Y24.090654 F100.000000
G1 X56.586803 Y24.087848 F100.000000
G1 X56.603585 Y24.095242 F100.000000
G1 X56.621920 Y24.095633 F100.000000
G1 X56.735705 Y24.153450 F100.000000
G1 X56.852504 Y24.204909 F100.000000
G1 X56.951564 Y24.278569 F100.000000
G1 X56.969730 Y24.299832 F100.000000
G1 X56.994282 Y24.313223 F100.000000
G1 X57.027633 Y24.359676 F100.000000
G1 X57.072342 Y24.395330 F100.000000
G1 X57.099501 Y24.451728 F100.000000
G1 X57.140162 Y24.499320 F100.000000
G1 X57.147303 Y24.526360 F100.000000
G1 X57.163613 Y24.549078 F100.000000
G1 X57.173506 Y24.605400 F100.000000
G1 X57.198318 Y24.656922 F100.000000
G1 Y24.719519 F100.000000
G1 X57.214302 Y24.780040 F100.000000
G1 X57.209004 Y24.807500 F100.000000
G1 X57.213842 Y24.835045 F100.000000
G1 X57.198318 Y24.890083 F100.000000
G1 Y24.947268 F100.000000
G1 X57.171158 Y25.003665 F100.000000
G1 X57.159300 Y25.065128 F100.000000
G1 X57.142613 Y25.087570 F100.000000
G1 X57.135020 Y25.114487 F100.000000
G1 X57.097154 Y25.157338 F100.000000
G1 X57.072342 Y25.208860 F100.000000
G0 Z2.000000
G0 X53.920046 Y24.115638
G1 Z-0.040000 F60.000000
G1 X53.884186 Y24.021398 F100.000000
G1 X53.888093 Y23.975644 F100.000000
G1 X53.877875 Y23.930875 F100.000000
G1 Y23.641315 F100.000000
G1 X53.888093 Y23.596546 F100.000000
G1 X53.884186 Y23.550792 F100.000000
G1 X53.920046 Y23.456552 F100.000000
G1 X53.942483 Y23.358249 F100.000000
G1 X53.971114 Y23.322347 F100.000000
G1 X53.987445 Y23.279429 F100.000000
G1 X54.083965 Y23.134649 F100.000000
G1 X54.124248 Y23.096485 F100.000000
G1 X54.083965 Y23.058321 F100.000000
G1 X53.987445 Y22.913541 F100.000000
G1 X53.884186 Y22.642178 F100.000000
G1 X53.908892 Y22.352886 F100.000000
G1 X54.020052 Y22.164892 F100.000000
G1 X53.987445 Y22.115981 F100.000000
G0 Z2.000000
G0 X57.076931 Y18.309477
G1 Z-0.040000 F60.000000
G1 X57.073990 Y18.311878 F100.000000
G1 X57.072342 Y18.315300 F100.000000
G1 X56.961667 Y18.403560 F100.000000
G1 X56.852002 Y18.493072 F100.000000
G1 X56.613637 Y18.611219 F100.000000
G1 X56.557976 Y18.652964 F100.000000
G1 X56.523445 Y18.704761 F100.000000
G1 X56.507487 Y18.719880 F100.000000
G1 X56.536031 Y18.826272 F100.000000
G1 X56.482144 Y19.111573 F100.000000
G1 X56.406530 Y19.214095 F100.000000
G1 X56.482144 Y19.316617 F100.000000
G1 X56.536031 Y19.601918 F100.000000
G1 X56.460794 Y19.882346 F100.000000
G1 X56.271335 Y20.102359 F100.000000
G1 X56.005178 Y20.218380 F100.000000
G1 X55.715040 Y20.207431 F100.000000
G1 X54.361220 Y19.844211 F100.000000
G1 X54.254110 Y19.787558 F100.000000
G1 X54.143035 Y19.739139 F100.000000
G1 X54.126697 Y19.720166 F100.000000
G1 X54.104564 Y19.708459 F100.000000
G1 X54.032643 Y19.610944 F100.000000
G1 X53.953576 Y19.519126 F100.000000
G1 X53.947088 Y19.494943 F100.000000
G1 X53.932226 Y19.474793 F100.000000
G1 X53.909738 Y19.355729 F100.000000
G1 X53.878339 Y19.238698 F100.000000
G1 X53.882986 Y19.214095 F100.000000
G1 X53.878339 Y19.189492 F100.000000
G1 X53.909738 Y19.072461 F100.000000
G1 X53.932226 Y18.953397 F100.000000
G1 X53.947088 Y18.933247 F100.000000
G1 X53.953576 Y18.909064 F100.000000
G1 X54.032643 Y18.817246 F100.000000
G1 X54.062625 Y18.776594 F100.000000
G1 X53.942483 Y18.625941 F100.000000
G1 X53.877875 Y18.342875 F100.000000
G1 Y17.471655 F100.000000
G1 X53.942483 Y17.188589 F100.000000
G1 X53.975722 Y17.146909 F100.000000
G1 X53.948654 Y17.114413 F100.000000
G1 X53.945198 Y17.100633 F100.000000
G1 X53.936579 Y17.089340 F100.000000
G1 X53.923142 Y17.024079 F100.000000
G1 X53.894232 Y16.964048 F100.000000
G1 Y16.897418 F100.000000
G1 X53.878023 Y16.832789 F100.000000
G1 X53.880888 Y16.818875 F100.000000
G1 X53.878023 Y16.804961 F100.000000
G1 X53.894232 Y16.740332 F100.000000
G1 Y16.673702 F100.000000
G1 X53.923142 Y16.613671 F100.000000
G1 X53.936579 Y16.548410 F100.000000
G1 X53.945198 Y16.537117 F100.000000
G1 X53.948654 Y16.523337 F100.000000
G1 X53.991298 Y16.472142 F100.000000
G1 X54.020208 Y16.412110 F100.000000
G1 X54.072302 Y16.370567 F100.000000
G1 X54.104225 Y16.328736 F100.000000
G1 X54.083965 Y16.309541 F100.000000
G1 X53.987445 Y16.164761 F100.000000
G1 X53.971114 Y16.121843 F100.000000
G1 X53.942483 Y16.085941 F100.000000
G1 X53.920046 Y15.987638 F100.000000
G0 Z2.000000
G1 Z-0.040000 F60.000000
G1 X53.884186 Y15.893398 F100.000000
G1 X53.888093 Y15.847644 F100.000000
G1 X53.877875 Y15.802875 F100.000000
G1 Y15.658095 F100.000000
G1 X53.888093 Y15.613326 F100.000000
G1 X53.884186 Y15.567572 F100.000000
G1 X53.920046 Y15.473332 F100.000000
G1 X53.942483 Y15.375029 F100.000000
G1 X53.971114 Y15.339127 F100.000000
G1 X53.987445 Y15.296209 F100.000000
G1 X54.083965 Y15.151429 F100.000000
G1 X54.162108 Y15.077397 F100.000000
G1 X54.231001 Y14.994689 F100.000000
G1 X54.327521 Y14.921029 F100.000000
G1 X54.416162 Y14.880648 F100.000000
G1 X54.497777 Y14.827480 F100.000000
G1 X54.690817 Y14.756360 F100.000000
G1 X54.744505 Y14.749418 F100.000000
G1 X54.794089 Y14.727694 F100.000000
G1 X55.180169 Y14.654034 F100.000000
G1 X55.242059 Y14.656256 F100.000000
G1 X55.302435 Y14.642475 F100.000000
G1 X55.787575 F100.000000
G1 X55.847951 Y14.656256 F100.000000
G1 X55.909841 Y14.654034 F100.000000
G1 X56.295921 Y14.727694 F100.000000
G1 X56.345505 Y14.749418 F100.000000
G1 X56.399193 Y14.756360 F100.000000
G1 X56.592233 Y14.827480 F100.000000
G1 X56.673848 Y14.880648 F100.000000
G1 X56.762489 Y14.921029 F100.000000
G1 X56.859009 Y14.994689 F100.000000
G1 X56.925441 Y15.074441 F100.000000
G1 X57.001645 Y15.144915 F100.000000
G1 X57.100705 Y15.289695 F100.000000
G1 X57.118991 Y15.336061 F100.000000
G1 X57.150067 Y15.375029 F100.000000
G1 X57.171647 Y15.469577 F100.000000
G1 X57.207227 Y15.559794 F100.000000
G1 X57.203584 Y15.609503 F100.000000
G1 X57.214675 Y15.658095 F100.000000
G1 Y15.802875 F100.000000
G1 X57.203584 Y15.851467 F100.000000
G1 X57.207227 Y15.901176 F100.000000
G1 X57.171647 Y15.991393 F100.000000
G1 X57.150067 Y16.085941 F100.000000
G1 X57.118991 Y16.124909 F100.000000
G1 X57.100705 Y16.171275 F100.000000
G1 X57.001645 Y16.316055 F100.000000
G1 X56.925441 Y16.386529 F100.000000
G1 X56.859009 Y16.466281 F100.000000
G1 X56.762489 Y16.539941 F100.000000
G1 X56.673848 Y16.580322 F100.000000
G1 X56.592233 Y16.633490 F100.000000
G1 X56.399193 Y16.704610 F100.000000
G1 X56.345505 Y16.711552 F100.000000
G1 X56.295921 Y16.733276 F100.000000
G1 X55.909841 Y16.806936 F100.000000
G1 X55.847951 Y16.804714 F100.000000
G1 X55.787575 Y16.818495 F100.000000
G1 X55.372780 Y16.818495 F100.000000
G1 X55.372702 Y16.818875 F100.000000
G1 X55.375567 Y16.832789 F100.000000
G1 X55.359358 Y16.897418 F100.000000
G1 Y16.964048 F100.000000
G1 X55.330448 Y17.024079 F100.000000
G1 X55.317011 Y17.089340 F100.000000
G1 X55.308392 Y17.100633 F100.000000
G1 X55.304936 Y17.114413 F100.000000
G1 X55.262292 Y17.165608 F100.000000
G1 X55.233382 Y17.225640 F100.000000
G1 X55.195142 Y17.256135 F100.000000
G1 X56.562275 F100.000000
G1 X56.700284 Y17.287635 F100.000000
G1 X56.838643 Y17.317564 F100.000000
G1 X56.841638 Y17.319898 F100.000000
G1 X56.845341 Y17.320743 F100.000000
G1 X56.956016 Y17.409003 F100.000000
G1 X57.067686 Y17.496000 F100.000000
G1 X57.069373 Y17.499403 F100.000000
G1 X57.072342 Y17.501770 F100.000000
G1 X57.133762 Y17.629310 F100.000000
G1 X57.196627 Y17.756144 F100.000000
G1 X57.196670 Y17.759941 F100.000000
G1 X57.198318 Y17.763362 F100.000000
G1 Y17.904921 F100.000000
G1 X57.199927 Y18.046470 F100.000000
G1 X57.198318 Y18.049910 F100.000000
G1 Y18.053708 F100.000000
G1 X57.136898 Y18.181247 F100.000000
G1 X57.076931 Y18.309477 F100.000000
G0 Z2.000000
G0 X56.534715 Y46.280715
G1 Z-0.040000 F60.000000
G1 X58.931715 F100.000000
G1 Y47.688628 F100.000000
G1 X61.857053 Y50.613967 F100.000000
G1 X61.894792 Y50.619944 F100.000000
G1 X61.968270 Y50.636368 F100.000000
G1 X62.040572 Y50.657374 F100.000000
G1 X62.111412 Y50.682878 F100.000000
G1 X62.180511 Y50.712780 F100.000000
G1 X62.247597 Y50.746961 F100.000000
G1 X62.312403 Y50.785288 F100.000000
G1 X62.374676 Y50.827608 F100.000000
G1 X62.434168 Y50.873755 F100.000000
G1 X62.490645 Y50.923546 F100.000000
G1 X62.543884 Y50.976785 F100.000000
G1 X62.593675 Y51.033262 F100.000000
G1 X62.639822 Y51.092754 F100.000000
G1 X62.682142 Y51.155027 F100.000000
G1 X62.720469 Y51.219833 F100.000000
G1 X62.754650 Y51.286919 F100.000000
G1 X62.784552 Y51.356018 F100.000000
G1 X62.810056 Y51.426858 F100.000000
G1 X62.831062 Y51.499160 F100.000000
G1 X62.847486 Y51.572638 F100.000000
G1 X62.859264 Y51.647003 F100.000000
G1 X62.866350 Y51.721961 F100.000000
G1 X62.868715 Y51.797215 F100.000000
G1 X62.866350 Y51.872469 F100.000000
G1 X62.859264 Y51.947427 F100.000000
G1 X62.847486 Y52.021792 F100.000000
G1 X62.831062 Y52.095270 F100.000000
G1 X62.810056 Y52.167572 F100.000000
G1 X62.784552 Y52.238412 F100.000000
G1 X62.754650 Y52.307511 F100.000000
G1 X62.720469 Y52.374597 F100.000000
G1 X62.682142 Y52.439403 F100.000000
G1 X62.639822 Y52.501676 F100.000000
G1 X62.593675 Y52.561168 F100.000000
G1 X62.543884 Y52.617645 F100.000000
G1 X62.490645 Y52.670884 F100.000000
G1 X62.434168 Y52.720675 F100.000000
G1 X62.374676 Y52.766822 F100.000000
G1 X62.312403 Y52.809142 F100.000000
G1 X62.247597 Y52.847469 F100.000000
G1 X62.180511 Y52.881650 F100.000000
G1 X62.111412 Y52.911552 F100.000000
G1 X62.040572 Y52.937056 F100.000000
G1 X61.968270 Y52.958062 F100.000000
G1 X61.894792 Y52.974486 F100.000000
G1 X61.820427 Y52.986264 F100.000000
G1 X61.745469 Y52.993350 F100.000000
G1 X61.670215 Y52.995715 F100.000000
G1 X61.594961 Y52.993350 F100.000000
G1 X61.520003 Y52.986264 F100.000000
G1 X61.445638 Y52.974486 F100.000000
G1 X61.372160 Y52.958062 F100.000000
G1 X61.299858 Y52.937056 F100.000000
G1 X61.229018 Y52.911552 F100.000000
G1 X61.159919 Y52.881650 F100.000000
G1 X61.092833 Y52.847469 F100.000000
G1 X61.028027 Y52.809142 F100.000000
G1 X60.965754 Y52.766822 F100.000000
G1 X60.906262 Y52.720675 F100.000000
G1 X60.849785 Y52.670884 F100.000000
G1 X60.796546 Y52.617645 F100.000000
G1 X60.746755 Y52.561168 F100.000000
G1 X60.700608 Y52.501676 F100.000000
G1 X60.658288 Y52.439403 F100.000000
G1 X60.619961 Y52.374597 F100.000000
G1 X60.585780 Y52.307511 F100.000000
G1 X60.555878 Y52.238412 F100.000000
G1 X60.530374 Y52.167572 F100.000000
G1 X60.509368 Y52.095270 F100.000000
G1 X60.492944 Y52.021792 F100.000000
G1 X60.481166 Y51.947427 F100.000000
G1 X60.474080 Y51.872469 F100.000000
G1 X60.471715 Y51.797215 F100.000000
G1 X60.474080 Y51.721961 F100.000000
G1 X60.481166 Y51.647003 F100.000000
G1 X60.492944 Y51.572638 F100.000000
G1 X60.509368 Y51.499160 F100.000000
G1 X60.530374 Y51.426858 F100.000000
G1 X60.555878 Y51.356018 F100.000000
G1 X60.575526 Y51.310613 F100.000000
G1 X57.942628 Y48.677715 F100.000000
G1 X56.534715 Y48.677715 F100.000000
G1 Y46.280715 F100.000000
G0 Z2.000000
G0 X51.953825 Y53.801979
G1 Z-0.040000 F60.000000
G1 Y52.664924 F100.000000
G1 X51.906546 Y52.617645 F100.000000
G1 X51.856755 Y52.561168 F100.000000
G1 X51.810608 Y52.501676 F100.000000
G1 X51.768288 Y52.439403 F100.000000
G1 X51.729961 Y52.374597 F100.000000
G1 X51.695780 Y52.307511 F100.000000
G1 X51.665878 Y52.238412 F100.000000
G1 X51.640374 Y52.167572 F100.000000
G1 X51.619368 Y52.095270 F100.000000
G1 X51.602944 Y52.021792 F100.000000
G1 X51.591166 Y51.947427 F100.000000
G1 X51.584080 Y51.872469 F100.000000
G1 X51.581715 Y51.797215 F100.000000
G1 X51.584080 Y51.721961 F100.000000
G1 X51.591166 Y51.647003 F100.000000
G1 X51.602944 Y51.572638 F100.000000
G1 X51.619368 Y51.499160 F100.000000
G1 X51.640374 Y51.426858 F100.000000
G1 X51.665878 Y51.356018 F100.000000
G1 X51.695780 Y51.286919 F100.000000
G1 X51.729961 Y51.219833 F100.000000
G1 X51.768288 Y51.155027 F100.000000
G1 X51.810608 Y51.092754 F100.000000
G1 X51.856755 Y51.033262 F100.000000
G1 X51.906546 Y50.976785 F100.000000
G1 X51.959785 Y50.923546 F100.000000
G1 X52.016262 Y50.873755 F100.000000
G1 X52.075754 Y50.827608 F100.000000
G1 X52.138027 Y50.785288 F100.000000
G1 X52.202833 Y50.746961 F100.000000
G1 X52.269919 Y50.712780 F100.000000
G1 X52.339018 Y50.682878 F100.000000
G1 X52.409858 Y50.657374 F100.000000
G1 X52.482160 Y50.636368 F100.000000
G1 X52.555638 Y50.619944 F100.000000
G1 X52.630003 Y50.608166 F100.000000
G1 X52.704961 Y50.601080 F100.000000
G1 X52.780215 Y50.598715 F100.000000
G1 X52.855469 Y50.601080 F100.000000
G1 X52.930427 Y50.608166 F100.000000
G1 X53.004792 Y50.619944 F100.000000
G1 X53.078270 Y50.636368 F100.000000
G1 X53.150572 Y50.657374 F100.000000
G1 X53.221412 Y50.682878 F100.000000
G1 X53.290511 Y50.712780 F100.000000
G1 X53.357597 Y50.746961 F100.000000
G1 X53.422403 Y50.785288 F100.000000
G1 X53.484676 Y50.827608 F100.000000
G1 X53.544168 Y50.873755 F100.000000
G1 X53.600645 Y50.923546 F100.000000
G1 X53.653884 Y50.976785 F100.000000
G1 X53.703675 Y51.033262 F100.000000
G1 X53.749822 Y51.092754 F100.000000
G1 X53.792142 Y51.155027 F100.000000
G1 X53.830469 Y51.219833 F100.000000
G1 X53.864650 Y51.286919 F100.000000
G1 X53.894552 Y51.356018 F100.000000
G1 X53.920056 Y51.426858 F100.000000
G1 X53.941062 Y51.499160 F100.000000
G1 X53.957486 Y51.572638 F100.000000
G1 X53.969264 Y51.647003 F100.000000
G1 X53.976350 Y51.721961 F100.000000
G1 X53.978715 Y51.797215 F100.000000
G1 X53.976350 Y51.872469 F100.000000
G1 X53.969264 Y51.947427 F100.000000
G1 X53.957486 Y52.021792 F100.000000
G1 X53.941062 Y52.095270 F100.000000
G1 X53.920056 Y52.167572 F100.000000
G1 X53.894552 Y52.238412 F100.000000
G1 X53.864650 Y52.307511 F100.000000
G1 X53.830469 Y52.374597 F100.000000
G1 X53.792142 Y52.439403 F100.000000
G1 X53.749822 Y52.501676 F100.000000
G1 X53.703675 Y52.561168 F100.000000
G1 X53.653884 Y52.617645 F100.000000
G1 X53.600645 Y52.670884 F100.000000
G1 X53.544168 Y52.720675 F100.000000
G1 X53.484676 Y52.766822 F100.000000
G1 X53.422403 Y52.809142 F100.000000
G1 X53.357597 Y52.847469 F100.000000
G1 X53.352605 Y52.850012 F100.000000
G1 Y53.801979 F100.000000
G0 Z2.000000
G0 X56.754935 Y40.113215
G1 Z-0.040000 F60.000000
G1 Y44.685215 F100.000000
G1 X56.725080 Y44.816020 F100.000000
G1 X56.710057 Y44.949346 F100.000000
G1 X56.685859 Y44.987858 F100.000000
G1 X56.675738 Y45.032201 F100.000000
G1 X56.592085 Y45.137098 F100.000000
G1 X56.520702 Y45.250702 F100.000000
G1 X55.992935 Y45.778470 F100.000000
G1 Y46.587288 F100.000000
G1 X56.013645 Y46.605546 F100.000000
G1 X56.066884 Y46.658785 F100.000000
G1 X56.116675 Y46.715262 F100.000000
G1 X56.162822 Y46.774754 F100.000000
G1 X56.205142 Y46.837027 F100.000000
G1 X56.243469 Y46.901833 F100.000000
G1 X56.277650 Y46.968919 F100.000000
G1 X56.307552 Y47.038018 F100.000000
G1 X56.333056 Y47.108858 F100.000000
G1 X56.354062 Y47.181160 F100.000000
G1 X56.370486 Y47.254638 F100.000000
G1 X56.382264 Y47.329003 F100.000000
G1 X56.389350 Y47.403961 F100.000000
G1 X56.391715 Y47.479215 F100.000000
G1 X56.389350 Y47.554469 F100.000000
G1 X56.382264 Y47.629427 F100.000000
G1 X56.370486 Y47.703792 F100.000000
G1 X56.354062 Y47.777270 F100.000000
G1 X56.333056 Y47.849572 F100.000000
G1 X56.307552 Y47.920412 F100.000000
G1 X56.277650 Y47.989511 F100.000000
G1 X56.243469 Y48.056597 F100.000000
G1 X56.205142 Y48.121403 F100.000000
G1 X56.193595 Y48.138394 F100.000000
G1 Y54.080552 F100.000000
G0 Z2.000000
G0 X18.908935 Y8.571557
G1 Z-0.040000 F60.000000
G1 X18.953658 Y8.539064 F100.000000
G1 X19.130194 Y8.343000 F100.000000
G1 X19.262109 Y8.114517 F100.000000
G1 X19.343637 Y7.863600 F100.000000
G1 X19.371215 Y7.601215 F100.000000
G1 Y6.585215 F100.000000
G1 X19.343637 Y6.322830 F100.000000
G1 X19.262109 Y6.071913 F100.000000
G1 X19.130194 Y5.843430 F100.000000
G1 X18.953658 Y5.647366 F100.000000
G1 X18.740215 Y5.492291 F100.000000
G1 X18.499194 Y5.384982 F100.000000
G1 X18.241130 Y5.330128 F100.000000
G1 X17.977300 Y5.330128 F100.000000
G1 X17.719236 Y5.384982 F100.000000
G1 X17.478215 Y5.492291 F100.000000
G1 X17.264772 Y5.647366 F100.000000
G1 X17.088236 Y5.843430 F100.000000
G1 X16.956321 Y6.071913 F100.000000
G1 X16.874793 Y6.322830 F100.000000
G1 X16.847215 Y6.585215 F100.000000
G1 Y7.601215 F100.000000
G1 X16.874793 Y7.863600 F100.000000
G1 X16.956321 Y8.114517 F100.000000
G1 X17.088236 Y8.343000 F100.000000
G1 X17.264772 Y8.539064 F100.000000
G1 X17.309495 Y8.571557 F100.000000
G0 Z2.000000
G0 X21.448935
G1 Z-0.040000 F60.000000
G1 X21.493658 Y8.539064 F100.000000
G1 X21.670194 Y8.343000 F100.000000
G1 X21.802109 Y8.114517 F100.000000
G1 X21.883637 Y7.863600 F100.000000
G1 X21.911215 Y7.601215 F100.000000
G1 Y6.585215 F100.000000
G1 X21.883637 Y6.322830 F100.000000
G1 X21.802109 Y6.071913 F100.000000
G1 X21.670194 Y5.843430 F100.000000
G1 X21.493658 Y5.647366 F100.000000
G1 X21.280215 Y5.492291 F100.000000
G1 X21.039194 Y5.384982 F100.000000
G1 X20.781130 Y5.330128 F100.000000
G1 X20.517300 Y5.330128 F100.000000
G1 X20.259236 Y5.384982 F100.000000
G1 X20.018215 Y5.492291 F100.000000
G1 X19.804772 Y5.647366 F100.000000
G1 X19.628236 Y5.843430 F100.000000
G1 X19.496321 Y6.071913 F100.000000
G1 X19.414793 Y6.322830 F100.000000
G1 X19.387215 Y6.585215 F100.000000
G1 Y7.601215 F100.000000
G1 X19.414793 Y7.863600 F100.000000
G1 X19.496321 Y8.114517 F100.000000
G1 X19.628236 Y8.343000 F100.000000
G1 X19.804772 Y8.539064 F100.000000
G1 X19.849495 Y8.571557 F100.000000
G0 Z2.000000
G0 X23.988935 Y8.571557
G1 Z-0.040000 F60.000000
G1 X24.033658 Y8.539064 F100.000000
G1 X24.210194 Y8.343000 F100.000000
G1 X24.342109 Y8.114517 F100.000000
G1 X24.423637 Y7.863600 F100.000000
G1 X24.451215 Y7.601215 F100.000000
G1 Y6.585215 F100.000000
G1 X24.423637 Y6.322830 F100.000000
G1 X24.342109 Y6.071913 F100.000000
G1 X24.210194 Y5.843430 F100.000000
G1 X24.033658 Y5.647366 F100.000000
G1 X23.820215 Y5.492291 F100.000000
G1 X23.579194 Y5.384982 F100.000000
G1 X23.321130 Y5.330128 F100.000000
G1 X23.057300 Y5.330128 F100.000000
G1 X22.799236 Y5.384982 F100.000000
G1 X22.558215 Y5.492291 F100.000000
G1 X22.344772 Y5.647366 F100.000000
G1 X22.168236 Y5.843430 F100.000000
G1 X22.036321 Y6.071913 F100.000000
G1 X21.954793 Y6.322830 F100.000000
G1 X21.927215 Y6.585215 F100.000000
G1 Y7.601215 F100.000000
G1 X21.954793 Y7.863600 F100.000000
G1 X22.036321 Y8.114517 F100.000000
G1 X22.168236 Y8.343000 F100.000000
G1 X22.344772 Y8.539064 F100.000000
G1 X22.389495 Y8.571557 F100.000000
G0 Z2.000000
G0 X31.608935
G1 Z-0.040000 F60.000000
G1 X31.653658 Y8.539064 F100.000000
G1 X31.830194 Y8.343000 F100.000000
G1 X31.962109 Y8.114517 F100.000000
G1 X32.043637 Y7.863600 F100.000000
G1 X32.071215 Y7.601215 F100.000000
G1 Y6.585215 F100.000000
G1 X32.043637 Y6.322830 F100.000000
G1 X31.962109 Y6.071913 F100.000000
G1 X31.830194 Y5.843430 F100.000000
G1 X31.653658 Y5.647366 F100.000000
G1 X31.440215 Y5.492291 F100.000000
G1 X31.199194 Y5.384982 F100.000000
G1 X30.941130 Y5.330128 F100.000000
G1 X30.677300 Y5.330128 F100.000000
G1 X30.419236 Y5.384982 F100.000000
G1 X30.178215 Y5.492291 F100.000000
G1 X29.964772 Y5.647366 F100.000000
G1 X29.788236 Y5.843430 F100.000000
G1 X29.656321 Y6.071913 F100.000000
G1 X29.574793 Y6.322830 F100.000000
G1 X29.547215 Y6.585215 F100.000000
G1 Y7.601215 F100.000000
G1 X29.574793 Y7.863600 F100.000000
G1 X29.656321 Y8.114517 F100.000000
G1 X29.788236 Y8.343000 F100.000000
G1 X29.964772 Y8.539064 F100.000000
G1 X30.009495 Y8.571557 F100.000000
G0 Z2.000000
G0 X29.068935 Y8.571557
G1 Z-0.040000 F60.000000
G1 X29.113658 Y8.539064 F100.000000
G1 X29.290194 Y8.343000 F100.000000
G1 X29.422109 Y8.114517 F100.000000
G1 X29.503637 Y7.863600 F100.000000
G1 X29.531215 Y7.601215 F100.000000
G1 Y6.585215 F100.000000
G1 X29.503637 Y6.322830 F100.000000
G1 X29.422109 Y6.071913 F100.000000
G1 X29.290194 Y5.843430 F100.000000
G1 X29.113658 Y5.647366 F100.000000
G1 X28.900215 Y5.492291 F100.000000
G1 X28.659194 Y5.384982 F100.000000
G1 X28.401130 Y5.330128 F100.000000
G1 X28.137300 Y5.330128 F100.000000
G1 X27.879236 Y5.384982 F100.000000
G1 X27.638215 Y5.492291 F100.000000
G1 X27.424772 Y5.647366 F100.000000
G1 X27.248236 Y5.843430 F100.000000
G1 X27.116321 Y6.071913 F100.000000
G1 X27.034793 Y6.322830 F100.000000
G1 X27.007215 Y6.585215 F100.000000
G1 Y7.601215 F100.000000
G1 X27.034793 Y7.863600 F100.000000
G1 X27.116321 Y8.114517 F100.000000
G1 X27.248236 Y8.343000 F100.000000
G1 X27.424772 Y8.539064 F100.000000
G1 X27.469495 Y8.571557 F100.000000
G0 Z2.000000
G0 X26.528935 Y8.571557
G1 Z-0.040000 F60.000000
G1 X26.573658 Y8.539064 F100.000000
G1 X26.750194 Y8.343000 F100.000000
G1 X26.882109 Y8.114517 F100.000000
G1 X26.963637 Y7.863600 F100.000000
G1 X26.991215 Y7.601215 F100.000000
G1 Y6.585215 F100.000000
G1 X26.963637 Y6.322830 F100.000000
G1 X26.882109 Y6.071913 F100.000000
G1 X26.750194 Y5.843430 F100.000000
G1 X26.573658 Y5.647366 F100.000000
G1 X26.360215 Y5.492291 F100.000000
G1 X26.119194 Y5.384982 F100.000000
G1 X25.861130 Y5.330128 F100.000000
G1 X25.597300 Y5.330128 F100.000000
G1 X25.339236 Y5.384982 F100.000000
G1 X25.098215 Y5.492291 F100.000000
G1 X24.884772 Y5.647366 F100.000000
G1 X24.708236 Y5.843430 F100.000000
G1 X24.576321 Y6.071913 F100.000000
G1 X24.494793 Y6.322830 F100.000000
G1 X24.467215 Y6.585215 F100.000000
G1 Y7.601215 F100.000000
G1 X24.494793 Y7.863600 F100.000000
G1 X24.576321 Y8.114517 F100.000000
G1 X24.708236 Y8.343000 F100.000000
G1 X24.884772 Y8.539064 F100.000000
G1 X24.929495 Y8.571557 F100.000000
G0 Z2.000000
G0 X36.688935
G1 Z-0.040000 F60.000000
G1 X36.733658 Y8.539064 F100.000000
G1 X36.910194 Y8.343000 F100.000000
G1 X37.042109 Y8.114517 F100.000000
G1 X37.123637 Y7.863600 F100.000000
G1 X37.151215 Y7.601215 F100.000000
G1 Y6.585215 F100.000000
G1 X37.123637 Y6.322830 F100.000000
G1 X37.042109 Y6.071913 F100.000000
G1 X36.910194 Y5.843430 F100.000000
G1 X36.733658 Y5.647366 F100.000000
G1 X36.520215 Y5.492291 F100.000000
G1 X36.279194 Y5.384982 F100.000000
G1 X36.021130 Y5.330128 F100.000000
G1 X35.757300 Y5.330128 F100.000000
G1 X35.499236 Y5.384982 F100.000000
G1 X35.258215 Y5.492291 F100.000000
G1 X35.044772 Y5.647366 F100.000000
G1 X34.868236 Y5.843430 F100.000000
G1 X34.736321 Y6.071913 F100.000000
G1 X34.654793 Y6.322830 F100.000000
G1 X34.627215 Y6.585215 F100.000000
G1 Y7.601215 F100.000000
G1 X34.654793 Y7.863600 F100.000000
G1 X34.736321 Y8.114517 F100.000000
G1 X34.868236 Y8.343000 F100.000000
G1 X35.044772 Y8.539064 F100.000000
G1 X35.089495 Y8.571557 F100.000000
G0 Z2.000000
G0 X39.654106 Y6.293495
G1 Z-0.040000 F60.000000
G1 X39.582109 Y6.071913 F100.000000
G1 X39.450194 Y5.843430 F100.000000
G1 X39.273658 Y5.647366 F100.000000
G1 X39.060215 Y5.492291 F100.000000
G1 X38.819194 Y5.384982 F100.000000
G1 X38.561130 Y5.330128 F100.000000
G1 X38.297300 Y5.330128 F100.000000
G1 X38.039236 Y5.384982 F100.000000
G1 X37.798215 Y5.492291 F100.000000
G1 X37.584772 Y5.647366 F100.000000
G1 X37.408236 Y5.843430 F100.000000
G1 X37.276321 Y6.071913 F100.000000
G1 X37.194793 Y6.322830 F100.000000
G1 X37.167215 Y6.585215 F100.000000
G1 Y7.601215 F100.000000
G1 X37.194793 Y7.863600 F100.000000
G1 X37.276321 Y8.114517 F100.000000
G1 X37.408236 Y8.343000 F100.000000
G1 X37.584772 Y8.539064 F100.000000
G1 X37.798215 Y8.694139 F100.000000
G1 X38.039236 Y8.801448 F100.000000
G1 X38.297300 Y8.856302 F100.000000
G1 X38.561130 F100.000000
G1 X38.819194 Y8.801448 F100.000000
G1 X39.060215 Y8.694139 F100.000000
G1 X39.273658 Y8.539064 F100.000000
G1 X39.450194 Y8.343000 F100.000000
G1 X39.582109 Y8.114517 F100.000000
G1 X39.654106 Y7.892935 F100.000000
G0 Z2.000000
G0 X39.744324 Y7.892935
G1 Z-0.040000 F60.000000
G1 X39.816321 Y8.114517 F100.000000
G1 X39.948236 Y8.343000 F100.000000
G1 X40.124772 Y8.539064 F100.000000
G1 X40.169495 Y8.571557 F100.000000
G0 Z2.000000
G0 X41.768935 Y8.571557
G1 Z-0.040000 F60.000000
G1 X41.813658 Y8.539064 F100.000000
G1 X41.990194 Y8.343000 F100.000000
G1 X42.122109 Y8.114517 F100.000000
G1 X42.203637 Y7.863600 F100.000000
G1 X42.231215 Y7.601215 F100.000000
G1 Y6.585215 F100.000000
G1 X42.203637 Y6.322830 F100.000000
G1 X42.122109 Y6.071913 F100.000000
G1 X41.990194 Y5.843430 F100.000000
G1 X41.813658 Y5.647366 F100.000000
G1 X41.600215 Y5.492291 F100.000000
G1 X41.359194 Y5.384982 F100.000000
G1 X41.101130 Y5.330128 F100.000000
G1 X40.837300 Y5.330128 F100.000000
G1 X40.579236 Y5.384982 F100.000000
G1 X40.338215 Y5.492291 F100.000000
G1 X40.124772 Y5.647366 F100.000000
G1 X39.948236 Y5.843430 F100.000000
G1 X39.816321 Y6.071913 F100.000000
G1 X39.744324 Y6.293495 F100.000000
G0 Z2.000000
G0 X44.787215 Y7.601215
G1 Z-0.040000 F60.000000
G1 X44.814793 Y7.863600 F100.000000
G1 X44.896321 Y8.114517 F100.000000
G1 X45.028236 Y8.343000 F100.000000
G1 X45.204772 Y8.539064 F100.000000
G1 X45.418215 Y8.694139 F100.000000
G1 X45.659236 Y8.801448 F100.000000
G1 X45.917300 Y8.856302 F100.000000
G1 X46.181130 F100.000000
G1 X46.439194 Y8.801448 F100.000000
G1 X46.680215 Y8.694139 F100.000000
G1 X46.893658 Y8.539064 F100.000000
G1 X47.070194 Y8.343000 F100.000000
G1 X47.202109 Y8.114517 F100.000000
G1 X47.283637 Y7.863600 F100.000000
G1 X47.311215 Y7.601215 F100.000000
G1 Y6.585215 F100.000000
G1 X47.283637 Y6.322830 F100.000000
G1 X47.202109 Y6.071913 F100.000000
G1 X47.070194 Y5.843430 F100.000000
G1 X46.893658 Y5.647366 F100.000000
G1 X46.680215 Y5.492291 F100.000000
G1 X46.439194 Y5.384982 F100.000000
G1 X46.181130 Y5.330128 F100.000000
G1 X45.917300 Y5.330128 F100.000000
G1 X45.659236 Y5.384982 F100.000000
G1 X45.418215 Y5.492291 F100.000000
G1 X45.204772 Y5.647366 F100.000000
G1 X45.028236 Y5.843430 F100.000000
G1 X44.896321 Y6.071913 F100.000000
G1 X44.814793 Y6.322830 F100.000000
G1 X44.787215 Y6.585215 F100.000000
G1 Y7.601215 F100.000000
G0 Z2.000000
G0 X49.814106 Y6.293495
G1 Z-0.040000 F60.000000
G1 X49.742109 Y6.071913 F100.000000
G1 X49.610194 Y5.843430 F100.000000
G1 X49.433658 Y5.647366 F100.000000
G1 X49.220215 Y5.492291 F100.000000
G1 X48.979194 Y5.384982 F100.000000
G1 X48.721130 Y5.330128 F100.000000
G1 X48.457300 Y5.330128 F100.000000
G1 X48.199236 Y5.384982 F100.000000
G1 X47.958215 Y5.492291 F100.000000
G1 X47.744772 Y5.647366 F100.000000
G1 X47.568236 Y5.843430 F100.000000
G1 X47.436321 Y6.071913 F100.000000
G1 X47.354793 Y6.322830 F100.000000
G1 X47.327215 Y6.585215 F100.000000
G1 Y7.601215 F100.000000
G1 X47.354793 Y7.863600 F100.000000
G1 X47.436321 Y8.114517 F100.000000
G1 X47.568236 Y8.343000 F100.000000
G1 X47.744772 Y8.539064 F100.000000
G1 X47.958215 Y8.694139 F100.000000
G1 X48.199236 Y8.801448 F100.000000
G1 X48.457300 Y8.856302 F100.000000
G1 X48.721130 F100.000000
G1 X48.979194 Y8.801448 F100.000000
G1 X49.220215 Y8.694139 F100.000000
G1 X49.433658 Y8.539064 F100.000000
G1 X49.610194 Y8.343000 F100.000000
G1 X49.742109 Y8.114517 F100.000000
G1 X49.814106 Y7.892935 F100.000000
G0 Z2.000000
G0 X16.847215 Y55.861215
G1 Z-0.040000 F60.000000
G1 X16.874793 Y56.123600 F100.000000
G1 X16.956321 Y56.374517 F100.000000
G1 X17.088236 Y56.603000 F100.000000
G1 X17.264772 Y56.799064 F100.000000
G1 X17.478215 Y56.954139 F100.000000
G1 X17.719236 Y57.061448 F100.000000
G1 X17.977300 Y57.116302 F100.000000
G1 X18.241130 F100.000000
G1 X18.499194 Y57.061448 F100.000000
G1 X18.740215 Y56.954139 F100.000000
G1 X18.953658 Y56.799064 F100.000000
G1 X19.130194 Y56.603000 F100.000000
G1 X19.262109 Y56.374517 F100.000000
G1 X19.343637 Y56.123600 F100.000000
G1 X19.371215 Y55.861215 F100.000000
G1 Y54.845215 F100.000000
G1 X19.343637 Y54.582830 F100.000000
G1 X19.262109 Y54.331913 F100.000000
G1 X19.130194 Y54.103430 F100.000000
G1 X18.953658 Y53.907366 F100.000000
G1 X18.740215 Y53.752291 F100.000000
G1 X18.499194 Y53.644982 F100.000000
G1 X18.241130 Y53.590128 F100.000000
G1 X17.977300 F100.000000
G1 X17.719236 Y53.644982 F100.000000
G1 X17.478215 Y53.752291 F100.000000
G1 X17.264772 Y53.907366 F100.000000
G1 X17.088236 Y54.103430 F100.000000
G1 X16.956321 Y54.331913 F100.000000
G1 X16.874793 Y54.582830 F100.000000
G1 X16.847215 Y54.845215 F100.000000
G1 Y55.861215 F100.000000
G0 Z2.000000
G0 X19.387215
G1 Z-0.040000 F60.000000
G1 X19.414793 Y56.123600 F100.000000
G1 X19.496321 Y56.374517 F100.000000
G1 X19.628236 Y56.603000 F100.000000
G1 X19.804772 Y56.799064 F100.000000
G1 X20.018215 Y56.954139 F100.000000
G1 X20.259236 Y57.061448 F100.000000
G1 X20.517300 Y57.116302 F100.000000
G1 X20.781130 F100.000000
G1 X21.039194 Y57.061448 F100.000000
G1 X21.280215 Y56.954139 F100.000000
G1 X21.493658 Y56.799064 F100.000000
G1 X21.670194 Y56.603000 F100.000000
G1 X21.802109 Y56.374517 F100.000000
G1 X21.883637 Y56.123600 F100.000000
G1 X21.911215 Y55.861215 F100.000000
G1 Y54.845215 F100.000000
G1 X21.883637 Y54.582830 F100.000000
G1 X21.802109 Y54.331913 F100.000000
G1 X21.670194 Y54.103430 F100.000000
G1 X21.493658 Y53.907366 F100.000000
G1 X21.280215 Y53.752291 F100.000000
G1 X21.039194 Y53.644982 F100.000000
G1 X20.781130 Y53.590128 F100.000000
G1 X20.517300 F100.000000
G1 X20.259236 Y53.644982 F100.000000
G1 X20.018215 Y53.752291 F100.000000
G1 X19.804772 Y53.907366 F100.000000
G1 X19.628236 Y54.103430 F100.000000
G1 X19.496321 Y54.331913 F100.000000
G1 X19.414793 Y54.582830 F100.000000
G1 X19.387215 Y54.845215 F100.000000
G1 Y55.861215 F100.000000
G0 Z2.000000
G0 X22.389495 Y53.874873
G1 Z-0.040000 F60.000000
G1 X22.344772 Y53.907366 F100.000000
G1 X22.168236 Y54.103430 F100.000000
G1 X22.036321 Y54.331913 F100.000000
G1 X21.954793 Y54.582830 F100.000000
G1 X21.927215 Y54.845215 F100.000000
G1 Y55.861215 F100.000000
G1 X21.954793 Y56.123600 F100.000000
G1 X22.036321 Y56.374517 F100.000000
G1 X22.168236 Y56.603000 F100.000000
G1 X22.344772 Y56.799064 F100.000000
G1 X22.558215 Y56.954139 F100.000000
G1 X22.799236 Y57.061448 F100.000000
G1 X23.057300 Y57.116302 F100.000000
G1 X23.321130 F100.000000
G1 X23.579194 Y57.061448 F100.000000
G1 X23.820215 Y56.954139 F100.000000
G1 X24.033658 Y56.799064 F100.000000
G1 X24.210194 Y56.603000 F100.000000
G1 X24.342109 Y56.374517 F100.000000
G1 X24.423637 Y56.123600 F100.000000
G1 X24.451215 Y55.861215 F100.000000
G1 Y54.845215 F100.000000
G1 X24.423637 Y54.582830 F100.000000
G1 X24.342109 Y54.331913 F100.000000
G1 X24.210194 Y54.103430 F100.000000
G1 X24.033658 Y53.907366 F100.000000
G1 X23.988935 Y53.874873 F100.000000
G0 Z2.000000
G0 X24.929495 Y53.874873
G1 Z-0.040000 F60.000000
G1 X24.884772 Y53.907366 F100.000000
G1 X24.708236 Y54.103430 F100.000000
G1 X24.576321 Y54.331913 F100.000000
G1 X24.494793 Y54.582830 F100.000000
G1 X24.467215 Y54.845215 F100.000000
G1 Y55.861215 F100.000000
G1 X24.494793 Y56.123600 F100.000000
G1 X24.576321 Y56.374517 F100.000000
G1 X24.708236 Y56.603000 F100.000000
G1 X24.884772 Y56.799064 F100.000000
G1 X25.098215 Y56.954139 F100.000000
G1 X25.339236 Y57.061448 F100.000000
G1 X25.597300 Y57.116302 F100.000000
G1 X25.861130 F100.000000
G1 X26.119194 Y57.061448 F100.000000
G1 X26.360215 Y56.954139 F100.000000
G1 X26.573658 Y56.799064 F100.000000
G1 X26.750194 Y56.603000 F100.000000
G1 X26.882109 Y56.374517 F100.000000
G1 X26.963637 Y56.123600 F100.000000
G1 X26.991215 Y55.861215 F100.000000
G1 Y54.845215 F100.000000
G1 X26.963637 Y54.582830 F100.000000
G1 X26.882109 Y54.331913 F100.000000
G1 X26.750194 Y54.103430 F100.000000
G1 X26.573658 Y53.907366 F100.000000
G1 X26.528935 Y53.874873 F100.000000
G0 Z2.000000
G0 X27.469495
G1 Z-0.040000 F60.000000
G1 X27.424772 Y53.907366 F100.000000
G1 X27.248236 Y54.103430 F100.000000
G1 X27.116321 Y54.331913 F100.000000
G1 X27.034793 Y54.582830 F100.000000
G1 X27.007215 Y54.845215 F100.000000
G1 Y55.861215 F100.000000
G1 X27.034793 Y56.123600 F100.000000
G1 X27.116321 Y56.374517 F100.000000
G1 X27.248236 Y56.603000 F100.000000
G1 X27.424772 Y56.799064 F100.000000
G1 X27.638215 Y56.954139 F100.000000
G1 X27.879236 Y57.061448 F100.000000
G1 X28.137300 Y57.116302 F100.000000
G1 X28.401130 F100.000000
G1 X28.659194 Y57.061448 F100.000000
G1 X28.900215 Y56.954139 F100.000000
G1 X29.113658 Y56.799064 F100.000000
G1 X29.290194 Y56.603000 F100.000000
G1 X29.422109 Y56.374517 F100.000000
G1 X29.503637 Y56.123600 F100.000000
G1 X29.531215 Y55.861215 F100.000000
G1 Y54.845215 F100.000000
G1 X29.503637 Y54.582830 F100.000000
G1 X29.422109 Y54.331913 F100.000000
G1 X29.290194 Y54.103430 F100.000000
G1 X29.113658 Y53.907366 F100.000000
G1 X29.068935 Y53.874873 F100.000000
G0 Z2.000000
G0 X30.009495
G1 Z-0.040000 F60.000000
G1 X29.964772 Y53.907366 F100.000000
G1 X29.788236 Y54.103430 F100.000000
G1 X29.656321 Y54.331913 F100.000000
G1 X29.574793 Y54.582830 F100.000000
G1 X29.547215 Y54.845215 F100.000000
G1 Y55.861215 F100.000000
G1 X29.574793 Y56.123600 F100.000000
G1 X29.656321 Y56.374517 F100.000000
G1 X29.788236 Y56.603000 F100.000000
G1 X29.964772 Y56.799064 F100.000000
G1 X30.178215 Y56.954139 F100.000000
G1 X30.419236 Y57.061448 F100.000000
G1 X30.677300 Y57.116302 F100.000000
G1 X30.941130 F100.000000
G1 X31.199194 Y57.061448 F100.000000
G1 X31.440215 Y56.954139 F100.000000
G1 X31.653658 Y56.799064 F100.000000
G1 X31.830194 Y56.603000 F100.000000
G1 X31.962109 Y56.374517 F100.000000
G1 X32.043637 Y56.123600 F100.000000
G1 X32.071215 Y55.861215 F100.000000
G1 Y54.845215 F100.000000
G1 X32.043637 Y54.582830 F100.000000
G1 X31.962109 Y54.331913 F100.000000
G1 X31.830194 Y54.103430 F100.000000
G1 X31.653658 Y53.907366 F100.000000
G1 X31.608935 Y53.874873 F100.000000
G0 Z2.000000
G0 X32.803495 Y53.714322
G1 Z-0.040000 F60.000000
G1 X32.718215 Y53.752291 F100.000000
G1 X32.504772 Y53.907366 F100.000000
G1 X32.328236 Y54.103430 F100.000000
G1 X32.196321 Y54.331913 F100.000000
G1 X32.114793 Y54.582830 F100.000000
G1 X32.087215 Y54.845215 F100.000000
G1 Y55.861215 F100.000000
G1 X32.114793 Y56.123600 F100.000000
G1 X32.196321 Y56.374517 F100.000000
G1 X32.328236 Y56.603000 F100.000000
G1 X32.504772 Y56.799064 F100.000000
G1 X32.718215 Y56.954139 F100.000000
G1 X32.959236 Y57.061448 F100.000000
G1 X33.217300 Y57.116302 F100.000000
G1 X33.481130 F100.000000
G1 X33.739194 Y57.061448 F100.000000
G1 X33.980215 Y56.954139 F100.000000
G1 X34.193658 Y56.799064 F100.000000
G1 X34.370194 Y56.603000 F100.000000
G1 X34.502109 Y56.374517 F100.000000
G1 X34.583637 Y56.123600 F100.000000
G1 X34.611215 Y55.861215 F100.000000
G1 Y54.845215 F100.000000
G1 X34.583637 Y54.582830 F100.000000
G1 X34.502109 Y54.331913 F100.000000
G1 X34.402935 Y54.160138 F100.000000
G0 Z2.000000
G0 X35.089495 Y53.874873
G1 Z-0.040000 F60.000000
G1 X35.044772 Y53.907366 F100.000000
G1 X34.868236 Y54.103430 F100.000000
G1 X34.736321 Y54.331913 F100.000000
G1 X34.654793 Y54.582830 F100.000000
G1 X34.627215 Y54.845215 F100.000000
G1 Y55.861215 F100.000000
G1 X34.654793 Y56.123600 F100.000000
G1 X34.736321 Y56.374517 F100.000000
G1 X34.868236 Y56.603000 F100.000000
G1 X35.044772 Y56.799064 F100.000000
G1 X35.258215 Y56.954139 F100.000000
G1 X35.499236 Y57.061448 F100.000000
G1 X35.757300 Y57.116302 F100.000000
G1 X36.021130 F100.000000
G1 X36.279194 Y57.061448 F100.000000
G1 X36.520215 Y56.954139 F100.000000
G1 X36.733658 Y56.799064 F100.000000
G1 X36.910194 Y56.603000 F100.000000
G1 X37.042109 Y56.374517 F100.000000
G1 X37.123637 Y56.123600 F100.000000
G1 X37.151215 Y55.861215 F100.000000
G1 Y54.845215 F100.000000
G1 X37.123637 Y54.582830 F100.000000
G1 X37.042109 Y54.331913 F100.000000
G1 X36.910194 Y54.103430 F100.000000
G1 X36.733658 Y53.907366 F100.000000
G1 X36.688935 Y53.874873 F100.000000
G0 Z2.000000
G0 X39.153495
G1 Z-0.040000 F60.000000
G1 X39.108772 Y53.907366 F100.000000
G1 X38.932236 Y54.103430 F100.000000
G1 X38.800321 Y54.331913 F100.000000
G1 X38.718793 Y54.582830 F100.000000
G1 X38.691215 Y54.845215 F100.000000
G1 Y55.861215 F100.000000
G1 X38.718793 Y56.123600 F100.000000
G1 X38.800321 Y56.374517 F100.000000
G1 X38.932236 Y56.603000 F100.000000
G1 X39.108772 Y56.799064 F100.000000
G1 X39.322215 Y56.954139 F100.000000
G1 X39.563236 Y57.061448 F100.000000
G1 X39.821300 Y57.116302 F100.000000
G1 X40.085130 F100.000000
G1 X40.343194 Y57.061448 F100.000000
G1 X40.584215 Y56.954139 F100.000000
G1 X40.797658 Y56.799064 F100.000000
G1 X40.974194 Y56.603000 F100.000000
G1 X41.106109 Y56.374517 F100.000000
G1 X41.187637 Y56.123600 F100.000000
G1 X41.215215 Y55.861215 F100.000000
G1 Y54.845215 F100.000000
G1 X41.187637 Y54.582830 F100.000000
G1 X41.106109 Y54.331913 F100.000000
G1 X40.974194 Y54.103430 F100.000000
G1 X40.797658 Y53.907366 F100.000000
G1 X40.752935 Y53.874873 F100.000000
G0 Z2.000000
G0 X41.693495 Y53.874873
G1 Z-0.040000 F60.000000
G1 X41.648772 Y53.907366 F100.000000
G1 X41.472236 Y54.103430 F100.000000
G1 X41.340321 Y54.331913 F100.000000
G1 X41.258793 Y54.582830 F100.000000
G1 X41.231215 Y54.845215 F100.000000
G1 Y55.861215 F100.000000
G1 X41.258793 Y56.123600 F100.000000
G1 X41.340321 Y56.374517 F100.000000
G1 X41.472236 Y56.603000 F100.000000
G1 X41.648772 Y56.799064 F100.000000
G1 X41.862215 Y56.954139 F100.000000
G1 X42.103236 Y57.061448 F100.000000
G1 X42.361300 Y57.116302 F100.000000
G1 X42.625130 F100.000000
G1 X42.883194 Y57.061448 F100.000000
G1 X43.124215 Y56.954139 F100.000000
G1 X43.337658 Y56.799064 F100.000000
G1 X43.514194 Y56.603000 F100.000000
G1 X43.646109 Y56.374517 F100.000000
G1 X43.727637 Y56.123600 F100.000000
G1 X43.755215 Y55.861215 F100.000000
G1 Y54.845215 F100.000000
G1 X43.727637 Y54.582830 F100.000000
G1 X43.646109 Y54.331913 F100.000000
G1 X43.514194 Y54.103430 F100.000000
G1 X43.337658 Y53.907366 F100.000000
G1 X43.292935 Y53.874873 F100.000000
G0 Z2.000000
G0 X44.233495 Y53.874873
G1 Z-0.040000 F60.000000
G1 X44.188772 Y53.907366 F100.000000
G1 X44.012236 Y54.103430 F100.000000
G1 X43.880321 Y54.331913 F100.000000
G1 X43.798793 Y54.582830 F100.000000
G1 X43.771215 Y54.845215 F100.000000
G1 Y55.861215 F100.000000
G1 X43.798793 Y56.123600 F100.000000
G1 X43.880321 Y56.374517 F100.000000
G1 X44.012236 Y56.603000 F100.000000
G1 X44.188772 Y56.799064 F100.000000
G1 X44.402215 Y56.954139 F100.000000
G1 X44.643236 Y57.061448 F100.000000
G1 X44.901300 Y57.116302 F100.000000
G1 X45.165130 F100.000000
G1 X45.423194 Y57.061448 F100.000000
G1 X45.664215 Y56.954139 F100.000000
G1 X45.877658 Y56.799064 F100.000000
G1 X46.054194 Y56.603000 F100.000000
G1 X46.186109 Y56.374517 F100.000000
G1 X46.267637 Y56.123600 F100.000000
G1 X46.295215 Y55.861215 F100.000000
G1 Y54.845215 F100.000000
G1 X46.267637 Y54.582830 F100.000000
G1 X46.186109 Y54.331913 F100.000000
G1 X46.054194 Y54.103430 F100.000000
G1 X45.877658 Y53.907366 F100.000000
G1 X45.832935 Y53.874873 F100.000000
G0 Z2.000000
G0 X47.027495 Y53.714322
G1 Z-0.040000 F60.000000
G1 X46.942215 Y53.752291 F100.000000
G1 X46.728772 Y53.907366 F100.000000
G1 X46.552236 Y54.103430 F100.000000
G1 X46.420321 Y54.331913 F100.000000
G1 X46.338793 Y54.582830 F100.000000
G1 X46.311215 Y54.845215 F100.000000
G1 Y55.861215 F100.000000
G1 X46.338793 Y56.123600 F100.000000
G1 X46.420321 Y56.374517 F100.000000
G1 X46.552236 Y56.603000 F100.000000
G1 X46.728772 Y56.799064 F100.000000
G1 X46.942215 Y56.954139 F100.000000
G1 X47.183236 Y57.061448 F100.000000
G1 X47.441300 Y57.116302 F100.000000
G1 X47.705130 F100.000000
G1 X47.963194 Y57.061448 F100.000000
G1 X48.204215 Y56.954139 F100.000000
G1 X48.417658 Y56.799064 F100.000000
G1 X48.594194 Y56.603000 F100.000000
G1 X48.726109 Y56.374517 F100.000000
G1 X48.807637 Y56.123600 F100.000000
G1 X48.835215 Y55.861215 F100.000000
G1 Y54.845215 F100.000000
G1 X48.807637 Y54.582830 F100.000000
G1 X48.726109 Y54.331913 F100.000000
G1 X48.626935 Y54.160138 F100.000000
G0 Z2.000000
G0 X49.313495 Y53.874873
G1 Z-0.040000 F60.000000
G1 X49.268772 Y53.907366 F100.000000
G1 X49.092236 Y54.103430 F100.000000
G1 X48.960321 Y54.331913 F100.000000
G1 X48.878793 Y54.582830 F100.000000
G1 X48.851215 Y54.845215 F100.000000
G1 Y55.861215 F100.000000
G1 X48.878793 Y56.123600 F100.000000
G1 X48.960321 Y56.374517 F100.000000
G1 X49.092236 Y56.603000 F100.000000
G1 X49.268772 Y56.799064 F100.000000
G1 X49.482215 Y56.954139 F100.000000
G1 X49.723236 Y57.061448 F100.000000
G1 X49.981300 Y57.116302 F100.000000
G1 X50.245130 F100.000000
G1 X50.503194 Y57.061448 F100.000000
G1 X50.744215 Y56.954139 F100.000000
G1 X50.957658 Y56.799064 F100.000000
G1 X51.134194 Y56.603000 F100.000000
G1 X51.266109 Y56.374517 F100.000000
G1 X51.347637 Y56.123600 F100.000000
G1 X51.375215 Y55.861215 F100.000000
G1 Y54.845215 F100.000000
G1 X51.347637 Y54.582830 F100.000000
G1 X51.266109 Y54.331913 F100.000000
G1 X51.134194 Y54.103430 F100.000000
G1 X50.957658 Y53.907366 F100.000000
G1 X50.912935 Y53.874873 F100.000000
G0 Z2.000000
G0 X51.953825 Y53.801979
G1 Z-0.040000 F60.000000
G1 X51.808772 Y53.907366 F100.000000
G1 X51.632236 Y54.103430 F100.000000
G1 X51.500321 Y54.331913 F100.000000
G1 X51.418793 Y54.582830 F100.000000
G1 X51.391215 Y54.845215 F100.000000
G1 Y55.861215 F100.000000
G1 X51.418793 Y56.123600 F100.000000
G1 X51.500321 Y56.374517 F100.000000
G1 X51.632236 Y56.603000 F100.000000
G1 X51.808772 Y56.799064 F100.000000
G1 X52.022215 Y56.954139 F100.000000
G1 X52.263236 Y57.061448 F100.000000
G1 X52.521300 Y57.116302 F100.000000
G1 X52.785130 F100.000000
G1 X53.043194 Y57.061448 F100.000000
G1 X53.284215 Y56.954139 F100.000000
G1 X53.497658 Y56.799064 F100.000000
G1 X53.674194 Y56.603000 F100.000000
G1 X53.806109 Y56.374517 F100.000000
G1 X53.887637 Y56.123600 F100.000000
G1 X53.915215 Y55.861215 F100.000000
G1 Y54.845215 F100.000000
G1 X53.887637 Y54.582830 F100.000000
G1 X53.806109 Y54.331913 F100.000000
G1 X53.674194 Y54.103430 F100.000000
G1 X53.497658 Y53.907366 F100.000000
G1 X53.352605 Y53.801979 F100.000000
G0 Z2.000000
G0 X54.192835 Y54.080552
G1 Z-0.040000 F60.000000
G1 X54.172236 Y54.103430 F100.000000
G1 X54.040321 Y54.331913 F100.000000
G1 X53.958793 Y54.582830 F100.000000
G1 X53.931215 Y54.845215 F100.000000
G1 Y55.861215 F100.000000
G1 X53.958793 Y56.123600 F100.000000
G1 X54.040321 Y56.374517 F100.000000
G1 X54.172236 Y56.603000 F100.000000
G1 X54.348772 Y56.799064 F100.000000
G1 X54.562215 Y56.954139 F100.000000
G1 X54.803236 Y57.061448 F100.000000
G1 X55.061300 Y57.116302 F100.000000
G1 X55.325130 F100.000000
G1 X55.583194 Y57.061448 F100.000000
G1 X55.824215 Y56.954139 F100.000000
G1 X56.037658 Y56.799064 F100.000000
G1 X56.214194 Y56.603000 F100.000000
G1 X56.346109 Y56.374517 F100.000000
G1 X56.427637 Y56.123600 F100.000000
G1 X56.455215 Y55.861215 F100.000000
G1 Y54.845215 F100.000000
G1 X56.427637 Y54.582830 F100.000000
G1 X56.346109 Y54.331913 F100.000000
G1 X56.214194 Y54.103430 F100.000000
G1 X56.193595 Y54.080552 F100.000000
G0 Z2.000000
G0 X56.471215 Y55.861215
G1 Z-0.040000 F60.000000
G1 X56.498793 Y56.123600 F100.000000
G1 X56.580321 Y56.374517 F100.000000
G1 X56.712236 Y56.603000 F100.000000
G1 X56.888772 Y56.799064 F100.000000
G1 X57.102215 Y56.954139 F100.000000
G1 X57.343236 Y57.061448 F100.000000
G1 X57.601300 Y57.116302 F100.000000
G1 X57.865130 F100.000000
G1 X58.123194 Y57.061448 F100.000000
G1 X58.364215 Y56.954139 F100.000000
G1 X58.577658 Y56.799064 F100.000000
G1 X58.754194 Y56.603000 F100.000000
G1 X58.886109 Y56.374517 F100.000000
G1 X58.967637 Y56.123600 F100.000000
G1 X58.995215 Y55.861215 F100.000000
G1 Y54.845215 F100.000000
G1 X58.967637 Y54.582830 F100.000000
G1 X58.886109 Y54.331913 F100.000000
G1 X58.754194 Y54.103430 F100.000000
G1 X58.577658 Y53.907366 F100.000000
G1 X58.364215 Y53.752291 F100.000000
G1 X58.123194 Y53.644982 F100.000000
G1 X57.865130 Y53.590128 F100.000000
G1 X57.601300 F100.000000
G1 X57.343236 Y53.644982 F100.000000
G1 X57.102215 Y53.752291 F100.000000
G1 X56.888772 Y53.907366 F100.000000
G1 X56.712236 Y54.103430 F100.000000
G1 X56.580321 Y54.331913 F100.000000
G1 X56.498793 Y54.582830 F100.000000
G1 X56.471215 Y54.845215 F100.000000
G1 Y55.861215 F100.000000
G0 Z2.000000
G0 X44.308935 Y8.571557
G1 Z-0.040000 F60.000000
G1 X44.353658 Y8.539064 F100.000000
G1 X44.530194 Y8.343000 F100.000000
G1 X44.662109 Y8.114517 F100.000000
G1 X44.743637 Y7.863600 F100.000000
G1 X44.771215 Y7.601215 F100.000000
G1 Y6.585215 F100.000000
G1 X44.743637 Y6.322830 F100.000000
G1 X44.662109 Y6.071913 F100.000000
G1 X44.530194 Y5.843430 F100.000000
G1 X44.353658 Y5.647366 F100.000000
G1 X44.140215 Y5.492291 F100.000000
G1 X43.899194 Y5.384982 F100.000000
G1 X43.641130 Y5.330128 F100.000000
G1 X43.377300 Y5.330128 F100.000000
G1 X43.119236 Y5.384982 F100.000000
G1 X42.878215 Y5.492291 F100.000000
G1 X42.664772 Y5.647366 F100.000000
G1 X42.488236 Y5.843430 F100.000000
G1 X42.356321 Y6.071913 F100.000000
G1 X42.274793 Y6.322830 F100.000000
G1 X42.247215 Y6.585215 F100.000000
G1 Y7.601215 F100.000000
G1 X42.274793 Y7.863600 F100.000000
G1 X42.356321 Y8.114517 F100.000000
G1 X42.488236 Y8.343000 F100.000000
G1 X42.664772 Y8.539064 F100.000000
G1 X42.709495 Y8.571557 F100.000000
G0 Z2.000000
G0 X63.900715 Y55.353215
G1 Z-0.040000 F60.000000
G1 X63.905586 Y55.198217 F100.000000
G1 X63.920180 Y55.043830 F100.000000
G1 X63.944439 Y54.890664 F100.000000
G1 X63.978267 Y54.739324 F100.000000
G1 X64.021532 Y54.590407 F100.000000
G1 X64.074062 Y54.444500 F100.000000
G1 X64.135649 Y54.302179 F100.000000
G1 X64.206052 Y54.164006 F100.000000
G1 X64.284992 Y54.030527 F100.000000
G1 X64.372157 Y53.902267 F100.000000
G1 X64.467203 Y53.779734 F100.000000
G1 X64.569756 Y53.663410 F100.000000
G1 X64.679410 Y53.553756 F100.000000
G1 X64.795734 Y53.451203 F100.000000
G1 X64.918267 Y53.356157 F100.000000
G1 X65.046527 Y53.268992 F100.000000
G1 X65.180006 Y53.190052 F100.000000
G1 X65.318179 Y53.119649 F100.000000
G1 X65.460500 Y53.058062 F100.000000
G1 X65.606407 Y53.005532 F100.000000
G1 X65.755324 Y52.962267 F100.000000
G1 X65.906664 Y52.928439 F100.000000
G1 X66.059830 Y52.904180 F100.000000
G1 X66.214217 Y52.889586 F100.000000
G1 X66.369215 Y52.884715 F100.000000
G1 X66.524213 Y52.889586 F100.000000
G1 X66.678600 Y52.904180 F100.000000
G1 X66.831766 Y52.928439 F100.000000
G1 X66.983106 Y52.962267 F100.000000
G1 X67.132023 Y53.005532 F100.000000
G1 X67.277930 Y53.058062 F100.000000
G1 X67.420251 Y53.119649 F100.000000
G1 X67.558424 Y53.190052 F100.000000
G1 X67.691903 Y53.268992 F100.000000
G1 X67.820163 Y53.356157 F100.000000
G1 X67.942696 Y53.451203 F100.000000
G1 X68.059020 Y53.553756 F100.000000
G1 X68.168674 Y53.663410 F100.000000
G1 X68.271227 Y53.779734 F100.000000
G1 X68.366273 Y53.902267 F100.000000
G1 X68.453438 Y54.030527 F100.000000
G1 X68.532378 Y54.164006 F100.000000
G1 X68.602781 Y54.302179 F100.000000
G1 X68.664368 Y54.444500 F100.000000
G1 X68.716898 Y54.590407 F100.000000
G1 X68.760163 Y54.739324 F100.000000
G1 X68.793991 Y54.890664 F100.000000
G1 X68.818250 Y55.043830 F100.000000
G1 X68.832844 Y55.198217 F100.000000
G1 X68.837715 Y55.353215 F100.000000
G1 X68.832844 Y55.508213 F100.000000
G1 X68.818250 Y55.662600 F100.000000
G1 X68.793991 Y55.815766 F100.000000
G1 X68.760163 Y55.967106 F100.000000
G1 X68.716898 Y56.116023 F100.000000
G1 X68.664368 Y56.261930 F100.000000
G1 X68.602781 Y56.404251 F100.000000
G1 X68.532378 Y56.542424 F100.000000
G1 X68.453438 Y56.675903 F100.000000
G1 X68.366273 Y56.804163 F100.000000
G1 X68.271227 Y56.926696 F100.000000
G1 X68.168674 Y57.043020 F100.000000
G1 X68.059020 Y57.152674 F100.000000
G1 X67.942696 Y57.255227 F100.000000
G1 X67.820163 Y57.350273 F100.000000
G1 X67.691903 Y57.437438 F100.000000
G1 X67.558424 Y57.516378 F100.000000
G1 X67.420251 Y57.586781 F100.000000
G1 X67.277930 Y57.648368 F100.000000
G1 X67.132023 Y57.700898 F100.000000
G1 X66.983106 Y57.744163 F100.000000
G1 X66.831766 Y57.777991 F100.000000
G1 X66.678600 Y57.802250 F100.000000
G1 X66.524213 Y57.816844 F100.000000
G1 X66.369215 Y57.821715 F100.000000
G1 X66.214217 Y57.816844 F100.000000
G1 X66.059830 Y57.802250 F100.000000
G1 X65.906664 Y57.777991 F100.000000
G1 X65.755324 Y57.744163 F100.000000
G1 X65.606407 Y57.700898 F100.000000
G1 X65.460500 Y57.648368 F100.000000
G1 X65.318179 Y57.586781 F100.000000
G1 X65.180006 Y57.516378 F100.000000
G1 X65.046527 Y57.437438 F100.000000
G1 X64.918267 Y57.350273 F100.000000
G1 X64.795734 Y57.255227 F100.000000
G1 X64.679410 Y57.152674 F100.000000
G1 X64.569756 Y57.043020 F100.000000
G1 X64.467203 Y56.926696 F100.000000
G1 X64.372157 Y56.804163 F100.000000
G1 X64.284992 Y56.675903 F100.000000
G1 X64.206052 Y56.542424 F100.000000
G1 X64.135649 Y56.404251 F100.000000
G1 X64.074062 Y56.261930 F100.000000
G1 X64.021532 Y56.116023 F100.000000
G1 X63.978267 Y55.967106 F100.000000
G1 X63.944439 Y55.815766 F100.000000
G1 X63.920180 Y55.662600 F100.000000
G1 X63.905586 Y55.508213 F100.000000
G1 X63.900715 Y55.353215 F100.000000
G0 Z2.000000
G0 X65.170715 Y7.093215
G1 Z-0.040000 F60.000000
G1 X65.175586 Y6.938217 F100.000000
G1 X65.190180 Y6.783830 F100.000000
G1 X65.214439 Y6.630664 F100.000000
G1 X65.248267 Y6.479324 F100.000000
G1 X65.291532 Y6.330407 F100.000000
G1 X65.344062 Y6.184500 F100.000000
G1 X65.405649 Y6.042179 F100.000000
G1 X65.476052 Y5.904006 F100.000000
G1 X65.554992 Y5.770527 F100.000000
G1 X65.642157 Y5.642267 F100.000000
G1 X65.737203 Y5.519734 F100.000000
G1 X65.839756 Y5.403410 F100.000000
G1 X65.949410 Y5.293756 F100.000000
G1 X66.065734 Y5.191203 F100.000000
G1 X66.188267 Y5.096157 F100.000000
G1 X66.316527 Y5.008992 F100.000000
G1 X66.450006 Y4.930052 F100.000000
G1 X66.588179 Y4.859649 F100.000000
G1 X66.730500 Y4.798062 F100.000000
G1 X66.876407 Y4.745532 F100.000000
G1 X67.025324 Y4.702267 F100.000000
G1 X67.176664 Y4.668439 F100.000000
G1 X67.329830 Y4.644180 F100.000000
G1 X67.484217 Y4.629586 F100.000000
G1 X67.639215 Y4.624715 F100.000000
G1 X67.794213 Y4.629586 F100.000000
