(Generated by ./pygerber2gcode_cui_MOD.py )
( 2013-05-30 00:31:03 )
(Initialize)

(Start form here)
G0 Z2.000000
G0 X24.825595 Y13.633340
G1 Z-0.040000 F60.000000
G1 X24.809671 Y13.617835 F100.000000
G1 X24.791039 Y13.605718 F100.000000
G1 X24.782104 Y13.590994 F100.000000
G1 X24.769765 Y13.578979 F100.000000
G1 X24.762145 Y13.558100 F100.000000
G1 X24.750616 Y13.539098 F100.000000
G1 X24.417876 Y12.538338 F100.000000
G1 X24.410361 Y12.460777 F100.000000
G1 X24.437242 Y12.387636 F100.000000
G1 X24.493197 Y12.333402 F100.000000
G1 X24.567141 Y12.308816 F100.000000
G1 X24.644430 Y12.318749 F100.000000
G1 X24.709756 Y12.361232 F100.000000
G1 X24.750179 Y12.427852 F100.000000
G1 X24.805761 Y12.595020 F100.000000
G1 X25.029889 F100.000000
G1 X25.086022 Y12.427472 F100.000000
G1 X25.126598 Y12.360945 F100.000000
G1 X25.192020 Y12.318611 F100.000000
G1 X25.269331 Y12.308855 F100.000000
G1 X25.343220 Y12.333610 F100.000000
G1 X25.399050 Y12.387971 F100.000000
G1 X25.418955 Y12.442514 F100.000000
G1 X25.427032 Y12.407124 F100.000000
G1 X25.475617 Y12.346200 F100.000000
G1 X25.545825 Y12.312390 F100.000000
G1 X25.623750 F100.000000
G1 X25.693957 Y12.346200 F100.000000
G1 X25.742542 Y12.407124 F100.000000
G1 X25.759882 Y12.483095 F100.000000
G1 Y12.971155 F100.000000
G1 X25.769357 Y12.976020 F100.000000
G1 X25.829478 F100.000000
G1 X25.835738 Y12.972805 F100.000000
G1 X25.838952 Y12.966546 F100.000000
G1 Y12.483095 F100.000000
G1 X25.856292 Y12.407124 F100.000000
G1 X25.904877 Y12.346200 F100.000000
G1 X25.975085 Y12.312390 F100.000000
G1 X26.053010 F100.000000
G1 X26.123217 Y12.346200 F100.000000
G1 X26.171802 Y12.407124 F100.000000
G1 X26.189142 Y12.483095 F100.000000
G0 Z2.000000
G1 Z-0.040000 F60.000000
G1 Y13.008875 F100.000000
G1 X26.188632 Y13.011110 F100.000000
G1 X26.189085 Y13.013357 F100.000000
G1 X26.179986 Y13.048991 F100.000000
G1 X26.171802 Y13.084846 F100.000000
G1 X26.170373 Y13.086638 F100.000000
G1 X26.169806 Y13.088859 F100.000000
G1 X26.121546 Y13.182839 F100.000000
G1 X26.111711 Y13.194545 F100.000000
G1 X26.105432 Y13.208485 F100.000000
G1 X26.086948 Y13.224016 F100.000000
G1 X26.071417 Y13.242499 F100.000000
G1 X26.057477 Y13.248778 F100.000000
G1 X26.045772 Y13.258614 F100.000000
G1 X25.951792 Y13.306874 F100.000000
G1 X25.949570 Y13.307441 F100.000000
G1 X25.947778 Y13.308870 F100.000000
G1 X25.911923 Y13.317054 F100.000000
G1 X25.876289 Y13.326153 F100.000000
G1 X25.874042 Y13.325700 F100.000000
G1 X25.871807 Y13.326210 F100.000000
G1 X25.727027 F100.000000
G1 X25.724792 Y13.325700 F100.000000
G1 X25.722545 Y13.326153 F100.000000
G1 X25.686911 Y13.317054 F100.000000
G1 X25.651056 Y13.308870 F100.000000
G1 X25.650900 Y13.308745 F100.000000
G1 X25.623750 Y13.321820 F100.000000
G1 X25.545825 F100.000000
G1 X25.475617 Y13.288010 F100.000000
G1 X25.427032 Y13.227086 F100.000000
G1 X25.409692 Y13.151115 F100.000000
G1 Y12.563731 F100.000000
G1 X25.082793 Y13.539478 F100.000000
G1 X25.071220 Y13.558453 F100.000000
G1 X25.063552 Y13.579314 F100.000000
G1 X25.051185 Y13.591301 F100.000000
G1 X25.042217 Y13.606005 F100.000000
G1 X25.023557 Y13.618079 F100.000000
G1 X25.007598 Y13.633548 F100.000000
G1 X24.991255 Y13.638982 F100.000000
G1 X24.976795 Y13.648339 F100.000000
G1 X24.954744 Y13.651122 F100.000000
G1 X24.933653 Y13.658134 F100.000000
G1 X24.916571 Y13.655939 F100.000000
G1 X24.899483 Y13.658095 F100.000000
G1 X24.878409 Y13.651034 F100.000000
G1 X24.856364 Y13.648201 F100.000000
G1 X24.841926 Y13.638812 F100.000000
G1 X24.825595 Y13.633340 F100.000000
G0 Z2.000000
G0 X26.367466 Y12.939936
G1 Z-0.040000 F60.000000
G1 X26.352837 Y12.928422 F100.000000
G1 X26.343675 Y12.909706 F100.000000
G1 X26.330787 Y12.893331 F100.000000
G1 X26.285067 Y12.796811 F100.000000
G1 X26.276760 Y12.759306 F100.000000
G1 X26.268212 Y12.721855 F100.000000
G1 Y12.627875 F100.000000
G1 X26.276760 Y12.590424 F100.000000
G1 X26.285067 Y12.552919 F100.000000
G1 X26.330787 Y12.456399 F100.000000
G1 X26.342538 Y12.441469 F100.000000
G1 X26.350527 Y12.424230 F100.000000
G1 X26.366329 Y12.411239 F100.000000
G1 X26.378980 Y12.395164 F100.000000
G1 X26.396045 Y12.386811 F100.000000
G1 X26.410722 Y12.374745 F100.000000
G1 X26.507242 Y12.326485 F100.000000
G1 X26.508536 Y12.326170 F100.000000
G1 X26.509576 Y12.325340 F100.000000
G1 X26.546326 Y12.316952 F100.000000
G1 X26.582948 Y12.308019 F100.000000
G1 X26.584250 Y12.308296 F100.000000
G1 X26.585547 Y12.308000 F100.000000
G1 X26.824307 F100.000000
G1 X26.826542 Y12.308510 F100.000000
G1 X26.828789 Y12.308057 F100.000000
G1 X26.864423 Y12.317156 F100.000000
G1 X26.867819 Y12.317931 F100.000000
G1 X26.879325 Y12.312390 F100.000000
G1 X26.957250 F100.000000
G1 X27.027457 Y12.346200 F100.000000
G1 X27.076042 Y12.407124 F100.000000
G1 X27.093382 Y12.483095 F100.000000
G1 Y13.008875 F100.000000
G1 X27.093303 Y13.009223 F100.000000
G1 X27.093381 Y13.009572 F100.000000
G1 X27.084637 Y13.047192 F100.000000
G1 X27.076042 Y13.084846 F100.000000
G1 X27.075820 Y13.085125 F100.000000
G1 X27.075739 Y13.085473 F100.000000
G1 X27.030019 Y13.179453 F100.000000
G1 X27.018678 Y13.193559 F100.000000
G1 X27.011068 Y13.209980 F100.000000
G1 X26.994572 Y13.223541 F100.000000
G1 X26.981192 Y13.240183 F100.000000
G1 X26.964854 Y13.247971 F100.000000
G1 X26.950872 Y13.259465 F100.000000
G1 X26.854352 Y13.307725 F100.000000
G1 X26.853059 Y13.308040 F100.000000
G1 X26.852018 Y13.308870 F100.000000
G1 X26.815268 Y13.317258 F100.000000
G1 X26.778647 Y13.326191 F100.000000
G1 X26.777345 Y13.325914 F100.000000
G1 X26.776047 Y13.326210 F100.000000
G1 X26.585547 F100.000000
G1 X26.584250 Y13.325914 F100.000000
G1 X26.582948 Y13.326191 F100.000000
G1 X26.546326 Y13.317258 F100.000000
G1 X26.509576 Y13.308870 F100.000000
G1 X26.508536 Y13.308040 F100.000000
G1 X26.507242 Y13.307725 F100.000000
G1 X26.410722 Y13.259465 F100.000000
G1 X26.350527 Y13.209980 F100.000000
G1 X26.317763 Y13.139278 F100.000000
G1 X26.318920 Y13.061362 F100.000000
G1 X26.353769 Y12.991664 F100.000000
G1 X26.392914 Y12.961387 F100.000000
G1 X26.378980 Y12.954566 F100.000000
G1 X26.367466 Y12.939936 F100.000000
G0 Z2.000000
G0 X26.743192 Y12.689000
G1 Z-0.040000 F60.000000
G1 Y12.658190 F100.000000
G1 X26.626882 F100.000000
G1 X26.621393 Y12.660934 F100.000000
G1 X26.618402 Y12.667248 F100.000000
G1 Y12.682482 F100.000000
G1 X26.620497 Y12.686905 F100.000000
G1 X26.624920 Y12.689000 F100.000000
G1 X26.743192 F100.000000
G0 Z2.000000
G0 X27.220712 Y13.483855
G1 Z-0.040000 F60.000000
G1 Y12.627875 F100.000000
G1 X27.221009 Y12.626577 F100.000000
G1 X27.220732 Y12.625275 F100.000000
G1 X27.229664 Y12.588654 F100.000000
G1 X27.238052 Y12.551904 F100.000000
G1 X27.238882 Y12.550863 F100.000000
G1 X27.239198 Y12.549570 F100.000000
G1 X27.287458 Y12.453050 F100.000000
G1 X27.297760 Y12.440518 F100.000000
G1 X27.304423 Y12.425725 F100.000000
G1 X27.322198 Y12.410789 F100.000000
G1 X27.336942 Y12.392854 F100.000000
G1 X27.351662 Y12.386033 F100.000000
G1 X27.364083 Y12.375596 F100.000000
G1 X27.458063 Y12.327336 F100.000000
G1 X27.533565 Y12.308057 F100.000000
G1 X27.609955 Y12.323447 F100.000000
G1 X27.672103 Y12.370457 F100.000000
G1 X27.707699 Y12.439776 F100.000000
G1 X27.709694 Y12.517675 F100.000000
G1 X27.677692 Y12.588725 F100.000000
G1 X27.618032 Y12.638854 F100.000000
G1 X27.575042 Y12.660929 F100.000000
G1 X27.570902 Y12.669209 F100.000000
G1 Y13.483855 F100.000000
G1 X27.553562 Y13.559826 F100.000000
G1 X27.504977 Y13.620750 F100.000000
G1 X27.434770 Y13.654560 F100.000000
G1 X27.356845 F100.000000
G1 X27.286637 Y13.620750 F100.000000
G1 X27.238052 Y13.559826 F100.000000
G1 X27.220712 Y13.483855 F100.000000
G0 Z2.000000
G0 X28.246183 Y12.317156
G1 Z-0.040000 F60.000000
G1 X28.282038 Y12.325340 F100.000000
G1 X28.283830 Y12.326769 F100.000000
G1 X28.286052 Y12.327336 F100.000000
G1 X28.380032 Y12.375596 F100.000000
G1 X28.400843 Y12.393082 F100.000000
G1 X28.423858 Y12.407544 F100.000000
G1 X28.472118 Y12.455804 F100.000000
G1 X28.486580 Y12.478820 F100.000000
G1 X28.504066 Y12.499631 F100.000000
G1 X28.552326 Y12.593611 F100.000000
G1 X28.552893 Y12.595832 F100.000000
G1 X28.554322 Y12.597624 F100.000000
G1 X28.562506 Y12.633479 F100.000000
G1 X28.571605 Y12.669113 F100.000000
G1 X28.571152 Y12.671360 F100.000000
G1 X28.571662 Y12.673595 F100.000000
G1 Y12.960615 F100.000000
G1 X28.571152 Y12.962850 F100.000000
G1 X28.571605 Y12.965097 F100.000000
G1 X28.562506 Y13.000731 F100.000000
G1 X28.554322 Y13.036586 F100.000000
G1 X28.552893 Y13.038378 F100.000000
G1 X28.552326 Y13.040599 F100.000000
G1 X28.504066 Y13.134579 F100.000000
G1 X28.486580 Y13.155390 F100.000000
G1 X28.472118 Y13.178406 F100.000000
G1 X28.423858 Y13.226666 F100.000000
G1 X28.400843 Y13.241128 F100.000000
G1 X28.380032 Y13.258614 F100.000000
G1 X28.286052 Y13.306874 F100.000000
G1 X28.283830 Y13.307441 F100.000000
G1 X28.282038 Y13.308870 F100.000000
G1 X28.246183 Y13.317054 F100.000000
G1 X28.210549 Y13.326153 F100.000000
G1 X28.208302 Y13.325700 F100.000000
G1 X28.206067 Y13.326210 F100.000000
G1 X28.063827 F100.000000
G1 X28.062530 Y13.325914 F100.000000
G1 X28.061228 Y13.326191 F100.000000
G1 X28.024606 Y13.317258 F100.000000
G1 X27.987856 Y13.308870 F100.000000
G1 X27.986816 Y13.308040 F100.000000
G1 X27.985522 Y13.307725 F100.000000
G1 X27.889002 Y13.259465 F100.000000
G1 X27.867293 Y13.241618 F100.000000
G1 X27.843496 Y13.226666 F100.000000
G1 X27.795236 Y13.178406 F100.000000
G1 X27.779789 Y13.153821 F100.000000
G1 X27.761596 Y13.131193 F100.000000
G1 X27.715876 Y13.037213 F100.000000
G1 X27.715795 Y13.036865 F100.000000
G1 X27.715572 Y13.036586 F100.000000
G1 X27.706978 Y12.998932 F100.000000
G1 X27.698234 Y12.961312 F100.000000
G1 X27.698312 Y12.960963 F100.000000
G1 X27.698232 Y12.960615 F100.000000
G1 Y12.673595 F100.000000
G1 X27.698312 Y12.673247 F100.000000
G1 X27.698234 Y12.672898 F100.000000
G1 X27.706978 Y12.635278 F100.000000
G1 X27.715572 Y12.597624 F100.000000
G1 X27.715795 Y12.597345 F100.000000
G1 X27.715876 Y12.596997 F100.000000
G1 X27.761596 Y12.503017 F100.000000
G1 X27.779789 Y12.480389 F100.000000
G1 X27.795236 Y12.455804 F100.000000
G1 X27.843496 Y12.407544 F100.000000
G1 X27.867293 Y12.392592 F100.000000
G1 X27.889002 Y12.374745 F100.000000
G1 X27.985522 Y12.326485 F100.000000
G1 X27.986816 Y12.326170 F100.000000
G1 X27.987856 Y12.325340 F100.000000
G1 X28.024606 Y12.316952 F100.000000
G1 X28.061228 Y12.308019 F100.000000
G1 X28.062530 Y12.308296 F100.000000
G1 X28.063827 Y12.308000 F100.000000
G1 X28.206067 F100.000000
G1 X28.208302 Y12.308510 F100.000000
G1 X28.210549 Y12.308057 F100.000000
G1 X28.246183 Y12.317156 F100.000000
G0 Z2.000000
G0 X28.105162 Y12.658190
G1 Z-0.040000 F60.000000
G1 X28.071026 Y12.675258 F100.000000
G1 X28.063641 Y12.682643 F100.000000
G1 X28.048422 Y12.713926 F100.000000
G1 Y12.920284 F100.000000
G1 X28.063641 Y12.951567 F100.000000
G1 X28.071026 Y12.958952 F100.000000
G1 X28.105162 Y12.976020 F100.000000
G1 X28.163738 F100.000000
G1 X28.195646 Y12.959635 F100.000000
G1 X28.205087 Y12.950193 F100.000000
G1 X28.221472 Y12.918286 F100.000000
G1 Y12.715924 F100.000000
G1 X28.205087 Y12.684017 F100.000000
G1 X28.195646 Y12.674575 F100.000000
G1 X28.163738 Y12.658190 F100.000000
G1 X28.105162 F100.000000
G0 Z2.000000
G0 X28.927951 Y13.317054
G1 Z-0.040000 F60.000000
G1 X28.892096 Y13.308870 F100.000000
G1 X28.890304 Y13.307441 F100.000000
G1 X28.888083 Y13.306874 F100.000000
G1 X28.794103 Y13.258614 F100.000000
G1 X28.773292 Y13.241128 F100.000000
G1 X28.750276 Y13.226666 F100.000000
G1 X28.702016 Y13.178406 F100.000000
G1 X28.687555 Y13.155390 F100.000000
G1 X28.670069 Y13.134579 F100.000000
G1 X28.621809 Y13.040599 F100.000000
G1 X28.621241 Y13.038378 F100.000000
G1 X28.619812 Y13.036586 F100.000000
G1 X28.611629 Y13.000731 F100.000000
G1 X28.602530 Y12.965097 F100.000000
G1 X28.602982 Y12.962850 F100.000000
G1 X28.602472 Y12.960615 F100.000000
G1 Y12.673595 F100.000000
G1 X28.602982 Y12.671360 F100.000000
G1 X28.602530 Y12.669113 F100.000000
G1 X28.611629 Y12.633479 F100.000000
G1 X28.619812 Y12.597624 F100.000000
G1 X28.621241 Y12.595832 F100.000000
G1 X28.621809 Y12.593611 F100.000000
G1 X28.670069 Y12.499631 F100.000000
G1 X28.687555 Y12.478820 F100.000000
G1 X28.702016 Y12.455804 F100.000000
G1 X28.750276 Y12.407544 F100.000000
G1 X28.773292 Y12.393082 F100.000000
G1 X28.794103 Y12.375596 F100.000000
G1 X28.807024 Y12.368961 F100.000000
G1 X28.753920 Y12.358263 F100.000000
G1 X28.691772 Y12.311253 F100.000000
G1 X28.656176 Y12.241934 F100.000000
G1 X28.654181 Y12.164035 F100.000000
G1 X28.686183 Y12.092985 F100.000000
G1 X28.745843 Y12.042856 F100.000000
G1 X28.839823 Y11.994596 F100.000000
G1 X28.842044 Y11.994029 F100.000000
G1 X28.843836 Y11.992600 F100.000000
G1 X28.879691 Y11.984416 F100.000000
G1 X28.915325 Y11.975317 F100.000000
G1 X28.917572 Y11.975770 F100.000000
G1 X28.919807 Y11.975260 F100.000000
G1 X29.064587 F100.000000
G1 X29.066822 Y11.975770 F100.000000
G1 X29.069069 Y11.975317 F100.000000
G1 X29.104703 Y11.984416 F100.000000
G1 X29.140558 Y11.992600 F100.000000
G1 X29.142350 Y11.994029 F100.000000
G1 X29.144572 Y11.994596 F100.000000
G1 X29.238552 Y12.042856 F100.000000
G1 X29.257587 Y12.058850 F100.000000
G1 X29.278988 Y12.071504 F100.000000
G1 X29.327248 Y12.117224 F100.000000
G1 X29.344121 Y12.142533 F100.000000
G1 X29.363437 Y12.166030 F100.000000
G1 X29.411697 Y12.262550 F100.000000
G1 X29.412013 Y12.263843 F100.000000
G1 X29.412842 Y12.264884 F100.000000
G1 X29.421230 Y12.301634 F100.000000
G1 X29.430163 Y12.338255 F100.000000
G1 X29.429886 Y12.339557 F100.000000
G1 X29.430182 Y12.340855 F100.000000
G1 Y13.151115 F100.000000
G1 X29.412842 Y13.227086 F100.000000
G1 X29.364257 Y13.288010 F100.000000
G1 X29.294050 Y13.321820 F100.000000
G1 X29.216125 F100.000000
G1 X29.203802 Y13.315886 F100.000000
G1 X29.197788 Y13.317258 F100.000000
G1 X29.161167 Y13.326191 F100.000000
G1 X29.159865 Y13.325914 F100.000000
G1 X29.158567 Y13.326210 F100.000000
G1 X28.968067 F100.000000
G1 X28.965832 Y13.325700 F100.000000
G1 X28.963585 Y13.326153 F100.000000
G1 X28.927951 Y13.317054 F100.000000
G0 Z2.000000
G0 X29.079992 Y12.976020
G1 Z-0.040000 F60.000000
G1 Y12.658190 F100.000000
G1 X29.010397 F100.000000
G1 X28.978489 Y12.674575 F100.000000
G1 X28.969047 Y12.684017 F100.000000
G1 X28.952662 Y12.715924 F100.000000
G1 Y12.918286 F100.000000
G1 X28.969047 Y12.950193 F100.000000
G1 X28.978489 Y12.959635 F100.000000
G1 X29.010397 Y12.976020 F100.000000
G1 X29.079992 F100.000000
G0 Z2.000000
G0 X42.120187 Y40.059710
G1 Z-0.040000 F60.000000
G1 X42.104782 F100.000000
G1 Y40.123750 F100.000000
G1 X42.149082 Y40.138780 F100.000000
G1 X42.185753 F100.000000
G1 X42.263193 Y40.112967 F100.000000
G1 X42.309162 Y40.065756 F100.000000
G1 X42.336340 Y40.012829 F100.000000
G1 X42.374352 Y39.862781 F100.000000
G1 Y39.764209 F100.000000
G1 X42.336106 Y39.613237 F100.000000
G1 X42.308490 Y39.558004 F100.000000
G1 X42.264222 Y39.512540 F100.000000
G1 X42.187178 Y39.488210 F100.000000
G1 X42.112258 F100.000000
G1 X42.054545 Y39.516287 F100.000000
G1 X41.978644 Y39.533929 F100.000000
G1 X41.902605 Y39.516891 F100.000000
G1 X41.841488 Y39.468549 F100.000000
G1 X41.807399 Y39.398476 F100.000000
G1 X41.807089 Y39.320552 F100.000000
G1 X41.840619 Y39.250211 F100.000000
G1 X41.901349 Y39.201383 F100.000000
G1 X41.995329 Y39.155663 F100.000000
G1 X41.995677 Y39.155583 F100.000000
G1 X41.995956 Y39.155360 F100.000000
G1 X42.033611 Y39.146766 F100.000000
G1 X42.071231 Y39.138021 F100.000000
G1 X42.071579 Y39.138099 F100.000000
G1 X42.071927 Y39.138020 F100.000000
G1 X42.214167 F100.000000
G1 X42.240240 Y39.143971 F100.000000
G1 X42.266894 Y39.146147 F100.000000
G1 X42.411674 Y39.191867 F100.000000
G1 X42.415070 Y39.193859 F100.000000
G1 X42.418976 Y39.194351 F100.000000
G1 X42.448530 Y39.213476 F100.000000
G1 X42.478897 Y39.231280 F100.000000
G1 X42.481093 Y39.234547 F100.000000
G1 X42.484398 Y39.236686 F100.000000
G1 X42.578378 Y39.333206 F100.000000
G1 X42.592416 Y39.356223 F100.000000
G1 X42.609537 Y39.377050 F100.000000
G1 X42.657797 Y39.473570 F100.000000
G1 X42.662291 Y39.491992 F100.000000
G1 X42.670920 Y39.508876 F100.000000
G1 X42.719180 Y39.699376 F100.000000
G1 X42.719697 Y39.721145 F100.000000
G1 X42.724542 Y39.742375 F100.000000
G1 Y39.884615 F100.000000
G1 X42.719697 Y39.905845 F100.000000
G1 X42.719180 Y39.927614 F100.000000
G1 X42.670920 Y40.118114 F100.000000
G1 X42.661867 Y40.135826 F100.000000
G1 X42.656946 Y40.155099 F100.000000
G1 X42.608686 Y40.249079 F100.000000
G1 X42.591936 Y40.269014 F100.000000
G1 X42.578378 Y40.291244 F100.000000
G1 X42.484398 Y40.387764 F100.000000
G1 X42.482280 Y40.389135 F100.000000
G1 X42.480906 Y40.391251 F100.000000
G1 X42.449667 Y40.410238 F100.000000
G1 X42.418976 Y40.430099 F100.000000
G1 X42.416473 Y40.430414 F100.000000
G1 X42.414317 Y40.431725 F100.000000
G1 X42.269537 Y40.479985 F100.000000
G1 X42.241567 Y40.482716 F100.000000
G1 X42.214167 Y40.488970 F100.000000
G1 X42.120187 F100.000000
G1 X42.092341 Y40.482614 F100.000000
G1 X42.063930 Y40.479686 F100.000000
G1 X41.921690 Y40.431426 F100.000000
G1 X41.920964 Y40.430980 F100.000000
G1 X41.920117 Y40.430884 F100.000000
G1 X41.887813 Y40.410587 F100.000000
G1 X41.855318 Y40.390597 F100.000000
G1 X41.854858 Y40.389879 F100.000000
G1 X41.854136 Y40.389426 F100.000000
G1 X41.805876 Y40.341166 F100.000000
G1 X41.790248 Y40.316293 F100.000000
G1 X41.771932 Y40.293326 F100.000000
G1 X41.769716 Y40.283617 F100.000000
G1 X41.764418 Y40.275185 F100.000000
G1 X41.761129 Y40.245994 F100.000000
G1 X41.754592 Y40.217355 F100.000000
G1 Y39.884615 F100.000000
G1 X41.758982 Y39.865381 F100.000000
G1 Y39.845653 F100.000000
G1 X41.767542 Y39.827878 F100.000000
G1 X41.771932 Y39.808644 F100.000000
G1 X41.784233 Y39.793220 F100.000000
G1 X41.792793 Y39.775445 F100.000000
G1 X41.808217 Y39.763145 F100.000000
G1 X41.820517 Y39.747720 F100.000000
G1 X41.838292 Y39.739160 F100.000000
G1 X41.853716 Y39.726860 F100.000000
G1 X41.872950 Y39.722470 F100.000000
G1 X41.890725 Y39.713910 F100.000000
G1 X41.910454 F100.000000
G1 X41.929687 Y39.709520 F100.000000
G1 X42.120187 F100.000000
G1 X42.196158 Y39.726860 F100.000000
G1 X42.257082 Y39.775445 F100.000000
G1 X42.290892 Y39.845653 F100.000000
G1 Y39.923577 F100.000000
G1 X42.257082 Y39.993785 F100.000000
G1 X42.196158 Y40.042370 F100.000000
G1 X42.120187 Y40.059710 F100.000000
G0 Z2.000000
G0 X41.618914 Y39.184200
G1 Z-0.040000 F60.000000
G1 X41.637620 Y39.211360 F100.000000
G1 X41.658182 Y39.237144 F100.000000
G1 X41.659572 Y39.243233 F100.000000
G1 X41.663115 Y39.248376 F100.000000
G1 X41.668184 Y39.280963 F100.000000
G1 X41.675522 Y39.313115 F100.000000
G1 Y40.313875 F100.000000
G1 X41.658182 Y40.389846 F100.000000
G1 X41.609597 Y40.450770 F100.000000
G1 X41.539390 Y40.484580 F100.000000
G1 X41.461465 F100.000000
G1 X41.391257 Y40.450770 F100.000000
G1 X41.342672 Y40.389846 F100.000000
G1 X41.325332 Y40.313875 F100.000000
G1 Y39.972810 F100.000000
G1 X41.080976 Y40.400705 F100.000000
G1 X41.058659 Y40.424986 F100.000000
G1 X41.038097 Y40.450770 F100.000000
G1 X41.032471 Y40.453479 F100.000000
G1 X41.028244 Y40.458078 F100.000000
G1 X40.997603 Y40.470271 F100.000000
G1 X40.967890 Y40.484580 F100.000000
G1 X40.961644 F100.000000
G1 X40.955842 Y40.486889 F100.000000
G1 X40.922944 Y40.484580 F100.000000
G1 X40.889965 F100.000000
G1 X40.884338 Y40.481870 F100.000000
G1 X40.878109 Y40.481433 F100.000000
G1 X40.849470 Y40.465079 F100.000000
G1 X40.819757 Y40.450770 F100.000000
G1 X40.815864 Y40.445887 F100.000000
G1 X40.810440 Y40.442790 F100.000000
G1 X40.791734 Y40.415630 F100.000000
G1 X40.771172 Y40.389846 F100.000000
G1 X40.769783 Y40.383757 F100.000000
G1 X40.766240 Y40.378614 F100.000000
G1 X40.761171 Y40.346027 F100.000000
G1 X40.753832 Y40.313875 F100.000000
G1 Y39.313115 F100.000000
G1 X40.771172 Y39.237144 F100.000000
G1 X40.819757 Y39.176220 F100.000000
G1 X40.889965 Y39.142410 F100.000000
G1 X40.967890 F100.000000
G1 X41.038097 Y39.176220 F100.000000
G1 X41.086682 Y39.237144 F100.000000
G1 X41.104022 Y39.313115 F100.000000
G1 Y39.654180 F100.000000
G1 X41.348379 Y39.226285 F100.000000
G1 X41.370695 Y39.202004 F100.000000
G1 X41.391257 Y39.176220 F100.000000
G1 X41.396884 Y39.173511 F100.000000
G1 X41.401110 Y39.168912 F100.000000
G1 X41.431752 Y39.156719 F100.000000
G1 X41.461465 Y39.142410 F100.000000
G1 X41.467710 F100.000000
G1 X41.473513 Y39.140101 F100.000000
G1 X41.506411 Y39.142410 F100.000000
G1 X41.539390 F100.000000
G1 X41.545016 Y39.145120 F100.000000
G1 X41.551246 Y39.145557 F100.000000
G1 X41.579884 Y39.161911 F100.000000
G1 X41.609597 Y39.176220 F100.000000
G1 X41.613491 Y39.181103 F100.000000
G1 X41.618914 Y39.184200 F100.000000
G0 Z2.000000
G0 X40.588302 Y39.203945
G1 Z-0.040000 F60.000000
G1 X40.596862 Y39.221720 F100.000000
G1 X40.609162 Y39.237144 F100.000000
G1 X40.613552 Y39.256378 F100.000000
G1 X40.622112 Y39.274153 F100.000000
G1 Y39.293881 F100.000000
G1 X40.626502 Y39.313115 F100.000000
G1 Y40.313875 F100.000000
G1 X40.622112 Y40.333109 F100.000000
G1 Y40.352837 F100.000000
G1 X40.613552 Y40.370612 F100.000000
G1 X40.609162 Y40.389846 F100.000000
G1 X40.596862 Y40.405270 F100.000000
G1 X40.588302 Y40.423045 F100.000000
G1 X40.572878 Y40.435345 F100.000000
G1 X40.560577 Y40.450770 F100.000000
G1 X40.542803 Y40.459330 F100.000000
G1 X40.527378 Y40.471630 F100.000000
G1 X40.508144 Y40.476020 F100.000000
G1 X40.490370 Y40.484580 F100.000000
G1 X40.470641 F100.000000
G1 X40.451407 Y40.488970 F100.000000
G1 X40.212647 F100.000000
G1 X40.184801 Y40.482614 F100.000000
G1 X40.156390 Y40.479686 F100.000000
G1 X40.014150 Y40.431426 F100.000000
G1 X40.012408 Y40.430355 F100.000000
G1 X40.010379 Y40.430099 F100.000000
G1 X39.979304 Y40.409990 F100.000000
G0 Z2.000000
G1 Z-0.040000 F60.000000
G1 X39.947778 Y40.390597 F100.000000
G1 X39.946674 Y40.388875 F100.000000
G1 X39.944957 Y40.387764 F100.000000
G1 X39.850977 Y40.291244 F100.000000
G1 X39.837419 Y40.269014 F100.000000
G1 X39.820669 Y40.249079 F100.000000
G1 X39.772409 Y40.155099 F100.000000
G1 X39.767487 Y40.135826 F100.000000
G1 X39.758434 Y40.118114 F100.000000
G1 X39.710174 Y39.927614 F100.000000
G1 X39.709658 Y39.905845 F100.000000
G1 X39.704812 Y39.884615 F100.000000
G1 Y39.742375 F100.000000
G1 X39.709658 Y39.721145 F100.000000
G1 X39.710174 Y39.699376 F100.000000
G1 X39.758434 Y39.508876 F100.000000
G1 X39.767064 Y39.491992 F100.000000
G1 X39.771558 Y39.473570 F100.000000
G1 X39.819818 Y39.377050 F100.000000
G1 X39.836938 Y39.356223 F100.000000
G1 X39.850977 Y39.333206 F100.000000
G1 X39.944957 Y39.236686 F100.000000
G1 X39.947879 Y39.234795 F100.000000
G1 X39.949806 Y39.231895 F100.000000
G1 X39.980458 Y39.213713 F100.000000
G1 X40.010379 Y39.194351 F100.000000
G1 X40.013833 Y39.193916 F100.000000
G1 X40.016827 Y39.192140 F100.000000
G1 X40.159067 Y39.146420 F100.000000
G1 X40.186147 Y39.144069 F100.000000
G1 X40.212647 Y39.138020 F100.000000
G1 X40.451407 F100.000000
G1 X40.470641 Y39.142410 F100.000000
G1 X40.490370 F100.000000
G1 X40.508144 Y39.150970 F100.000000
G1 X40.527378 Y39.155360 F100.000000
G1 X40.542803 Y39.167660 F100.000000
G1 X40.560577 Y39.176220 F100.000000
G1 X40.572878 Y39.191645 F100.000000
G1 X40.588302 Y39.203945 F100.000000
G0 Z2.000000
G0 X40.276312 Y40.138780
G1 Z-0.040000 F60.000000
G1 Y39.488210 F100.000000
G1 X40.240096 F100.000000
G1 X40.165465 Y39.512199 F100.000000
G1 X40.120865 Y39.558004 F100.000000
G1 X40.093249 Y39.613237 F100.000000
G1 X40.055002 Y39.764209 F100.000000
G1 Y39.862781 F100.000000
G1 X40.093015 Y40.012829 F100.000000
G1 X40.120193 Y40.065756 F100.000000
G1 X40.166507 Y40.113322 F100.000000
G1 X40.241542 Y40.138780 F100.000000
G1 X40.276312 F100.000000
G0 Z2.000000
G0 X45.079287 Y16.206900
G1 Z-0.040000 F60.000000
G1 X45.285192 F100.000000
G1 Y16.000995 F100.000000
G1 X45.302532 Y15.925024 F100.000000
G1 X45.351117 Y15.864100 F100.000000
G1 X45.421325 Y15.830290 F100.000000
G1 X45.499250 F100.000000
G1 X45.569457 Y15.864100 F100.000000
G1 X45.618042 Y15.925024 F100.000000
G1 X45.635382 Y16.000995 F100.000000
G1 Y16.206900 F100.000000
G1 X45.841287 F100.000000
G1 X45.917258 Y16.224240 F100.000000
G1 X45.978182 Y16.272825 F100.000000
G1 X46.011992 Y16.343033 F100.000000
G1 Y16.420957 F100.000000
G1 X45.978182 Y16.491165 F100.000000
G1 X45.917258 Y16.539750 F100.000000
G1 X45.841287 Y16.557090 F100.000000
G1 X45.635382 F100.000000
G1 Y16.762995 F100.000000
G1 X45.618042 Y16.838966 F100.000000
G1 X45.569457 Y16.899890 F100.000000
G1 X45.499250 Y16.933700 F100.000000
G1 X45.421325 F100.000000
G1 X45.351117 Y16.899890 F100.000000
G1 X45.302532 Y16.838966 F100.000000
G1 X45.285192 Y16.762995 F100.000000
G1 Y16.557090 F100.000000
G1 X45.079287 F100.000000
G1 X45.003316 Y16.539750 F100.000000
G1 X44.942393 Y16.491165 F100.000000
G1 X44.908582 Y16.420957 F100.000000
G1 Y16.343033 F100.000000
G1 X44.942393 Y16.272825 F100.000000
G1 X45.003316 Y16.224240 F100.000000
G1 X45.079287 Y16.206900 F100.000000
G0 Z2.000000
G0 X45.299618 Y15.447924
G1 Z-0.040000 F60.000000
G1 X45.341077 Y15.513905 F100.000000
G1 X45.349801 Y15.591339 F100.000000
G1 X45.324065 Y15.664891 F100.000000
G1 X45.268964 Y15.719992 F100.000000
G1 X45.195412 Y15.745729 F100.000000
G1 X45.117977 Y15.737004 F100.000000
G1 X45.051996 Y15.695546 F100.000000
G1 X45.003736 Y15.647286 F100.000000
G1 X44.989275 Y15.624270 F100.000000
G1 X44.971789 Y15.603459 F100.000000
G1 X44.923529 Y15.509479 F100.000000
G1 X44.922961 Y15.507258 F100.000000
G1 X44.921532 Y15.505466 F100.000000
G1 X44.913349 Y15.469611 F100.000000
G1 X44.904250 Y15.433977 F100.000000
G1 X44.904702 Y15.431730 F100.000000
G1 X44.904192 Y15.429495 F100.000000
G1 Y15.190735 F100.000000
G1 X44.904489 Y15.189437 F100.000000
G1 X44.904212 Y15.188135 F100.000000
G1 X44.913144 Y15.151514 F100.000000
G1 X44.921532 Y15.114764 F100.000000
G1 X44.922362 Y15.113723 F100.000000
G1 X44.922678 Y15.112430 F100.000000
G1 X44.970938 Y15.015910 F100.000000
G1 X44.990254 Y14.992413 F100.000000
G1 X45.007127 Y14.967104 F100.000000
G1 X45.055387 Y14.921384 F100.000000
G1 X45.076788 Y14.908730 F100.000000
G1 X45.095823 Y14.892736 F100.000000
G1 X45.189803 Y14.844476 F100.000000
G1 X45.192024 Y14.843909 F100.000000
G1 X45.193816 Y14.842480 F100.000000
G1 X45.229671 Y14.834296 F100.000000
G1 X45.265305 Y14.825197 F100.000000
G1 X45.267552 Y14.825650 F100.000000
G1 X45.269787 Y14.825140 F100.000000
G1 X45.508547 F100.000000
G1 X45.509845 Y14.825436 F100.000000
G1 X45.511147 Y14.825159 F100.000000
G1 X45.547768 Y14.834092 F100.000000
G1 X45.584518 Y14.842480 F100.000000
G1 X45.585559 Y14.843310 F100.000000
G1 X45.586852 Y14.843625 F100.000000
G1 X45.683372 Y14.891885 F100.000000
G1 X45.705082 Y14.909732 F100.000000
G1 X45.728878 Y14.924684 F100.000000
G1 X45.774598 Y14.970404 F100.000000
G1 X45.789550 Y14.994200 F100.000000
G1 X45.807397 Y15.015910 F100.000000
G1 X45.855657 Y15.112430 F100.000000
G1 X45.855973 Y15.113723 F100.000000
G1 X45.856802 Y15.114764 F100.000000
G1 X45.865190 Y15.151514 F100.000000
G1 X45.874123 Y15.188135 F100.000000
G1 X45.873846 Y15.189437 F100.000000
G1 X45.874142 Y15.190735 F100.000000
G1 Y15.368399 F100.000000
G1 X45.904952 Y15.365269 F100.000000
G1 Y15.048495 F100.000000
G1 X45.922292 Y14.972524 F100.000000
G1 X45.970877 Y14.911600 F100.000000
G1 X46.035632 Y14.880416 F100.000000
G1 X46.024804 Y14.879367 F100.000000
G1 X45.024044 Y14.546627 F100.000000
G1 X45.004874 Y14.534995 F100.000000
G1 X44.983828 Y14.527260 F100.000000
G1 X44.971979 Y14.515035 F100.000000
G1 X44.957424 Y14.506203 F100.000000
G1 X44.945200 Y14.487406 F100.000000
G1 X44.929594 Y14.471306 F100.000000
G1 X44.924223 Y14.455150 F100.000000
G1 X44.914941 Y14.440878 F100.000000
G1 X44.912083 Y14.418638 F100.000000
G1 X44.905008 Y14.397361 F100.000000
G1 X44.907179 Y14.380475 F100.000000
G1 X44.905008 Y14.363589 F100.000000
G1 X44.912083 Y14.342312 F100.000000
G1 X44.914941 Y14.320072 F100.000000
G1 X44.924223 Y14.305800 F100.000000
G1 X44.929594 Y14.289644 F100.000000
G1 X44.945200 Y14.273544 F100.000000
G1 X44.957424 Y14.254747 F100.000000
G1 X44.971979 Y14.245915 F100.000000
G1 X44.983828 Y14.233690 F100.000000
G1 X45.004874 Y14.225955 F100.000000
G1 X45.024044 Y14.214323 F100.000000
G1 X46.024804 Y13.881583 F100.000000
G1 X46.102365 Y13.874068 F100.000000
G1 X46.175506 Y13.900950 F100.000000
G1 X46.229741 Y13.956904 F100.000000
G1 X46.254326 Y14.030849 F100.000000
G1 X46.244394 Y14.108138 F100.000000
G1 X46.201910 Y14.173463 F100.000000
G1 X46.135291 Y14.213887 F100.000000
G0 Z2.000000
G1 Z-0.040000 F60.000000
G1 X45.634255 Y14.380475 F100.000000
G1 X46.135291 Y14.547063 F100.000000
G1 X46.201910 Y14.587487 F100.000000
G1 X46.244394 Y14.652812 F100.000000
G1 X46.254326 Y14.730101 F100.000000
G1 X46.229741 Y14.804046 F100.000000
G1 X46.175506 Y14.860000 F100.000000
G1 X46.122513 Y14.879477 F100.000000
G1 X46.189217 Y14.911600 F100.000000
G1 X46.237802 Y14.972524 F100.000000
G1 X46.255142 Y15.048495 F100.000000
G1 Y15.523475 F100.000000
G1 X46.252713 Y15.534120 F100.000000
G1 X46.253816 Y15.544982 F100.000000
G1 X46.244131 Y15.571720 F100.000000
G1 X46.237802 Y15.599446 F100.000000
G1 X46.230995 Y15.607982 F100.000000
G1 X46.227276 Y15.618248 F100.000000
G1 X46.206948 Y15.638136 F100.000000
G1 X46.189217 Y15.660370 F100.000000
G1 X46.179380 Y15.665107 F100.000000
G1 X46.171576 Y15.672743 F100.000000
G1 X46.144632 Y15.681841 F100.000000
G1 X46.119010 Y15.694180 F100.000000
G1 X46.108091 F100.000000
G1 X46.097747 Y15.697673 F100.000000
G1 X45.622767 Y15.745933 F100.000000
G1 X45.606451 Y15.743914 F100.000000
G1 X45.590171 Y15.746195 F100.000000
G1 X45.568261 Y15.739187 F100.000000
G1 X45.545432 Y15.736362 F100.000000
G1 X45.531609 Y15.727463 F100.000000
G1 X45.515951 Y15.722455 F100.000000
G1 X45.499251 Y15.706634 F100.000000
G1 X45.479909 Y15.694184 F100.000000
G1 X45.471316 Y15.680169 F100.000000
G1 X45.459381 Y15.668863 F100.000000
G1 X45.451200 Y15.647363 F100.000000
G1 X45.439175 Y15.627753 F100.000000
G1 X45.437513 Y15.611398 F100.000000
G1 X45.431666 Y15.596033 F100.000000
G1 X45.433624 Y15.573113 F100.000000
G1 X45.431298 Y15.550228 F100.000000
G1 X45.436897 Y15.534771 F100.000000
G1 X45.438296 Y15.518391 F100.000000
G1 X45.450004 Y15.498590 F100.000000
G1 X45.457838 Y15.476962 F100.000000
G1 X45.469590 Y15.465465 F100.000000
G1 X45.477957 Y15.451314 F100.000000
G1 X45.506462 Y15.421225 F100.000000
G1 X45.523952 Y15.387166 F100.000000
G1 Y15.232069 F100.000000
G1 X45.506885 Y15.197934 F100.000000
G1 X45.501348 Y15.192398 F100.000000
G1 X45.467213 Y15.175330 F100.000000
G1 X45.312117 F100.000000
G1 X45.278057 Y15.192820 F100.000000
G1 X45.270362 Y15.200111 F100.000000
G1 X45.254382 Y15.232069 F100.000000
G1 Y15.387166 F100.000000
G1 X45.270767 Y15.419073 F100.000000
G1 X45.299618 Y15.447924 F100.000000
G0 Z2.000000
G0 X55.172485 Y37.544469
G1 Z-0.040000 F60.000000
G1 X55.162590 Y37.523923 F100.000000
G1 X55.148371 Y37.506093 F100.000000
G1 X55.143297 Y37.483860 F100.000000
G1 X55.133402 Y37.463313 F100.000000
G1 Y37.440508 F100.000000
G1 X55.128327 Y37.418275 F100.000000
G1 Y35.386275 F100.000000
G1 X55.148371 Y35.298457 F100.000000
G1 X55.204533 Y35.228032 F100.000000
G1 X55.285689 Y35.188950 F100.000000
G1 X55.375766 F100.000000
G1 X55.456922 Y35.228032 F100.000000
G1 X55.513083 Y35.298457 F100.000000
G1 X55.533127 Y35.386275 F100.000000
G1 Y36.151615 F100.000000
G1 X55.909847 F100.000000
G1 X55.923737 Y36.154785 F100.000000
G1 X55.937931 Y36.153573 F100.000000
G1 X55.967168 Y36.164698 F100.000000
G0 Z2.000000
G1 Z-0.040000 F60.000000
G1 X55.997665 Y36.171659 F100.000000
G1 X56.008804 Y36.180541 F100.000000
G1 X56.022119 Y36.185608 F100.000000
G1 X56.166899 Y36.282128 F100.000000
G1 X56.189866 Y36.306371 F100.000000
G1 X56.215525 Y36.327744 F100.000000
G1 X56.289185 Y36.424264 F100.000000
G1 X56.301713 Y36.451764 F100.000000
G1 X56.318208 Y36.477084 F100.000000
G1 X56.389328 Y36.670124 F100.000000
G1 X56.393890 Y36.705409 F100.000000
G1 X56.401807 Y36.740095 F100.000000
G1 Y37.029655 F100.000000
G1 X56.393890 Y37.064341 F100.000000
G1 X56.389328 Y37.099626 F100.000000
G1 X56.318208 Y37.292666 F100.000000
G1 X56.301713 Y37.317986 F100.000000
G1 X56.289185 Y37.345486 F100.000000
G1 X56.215525 Y37.442006 F100.000000
G1 X56.190783 Y37.462616 F100.000000
G1 X56.168919 Y37.486257 F100.000000
G1 X56.024139 Y37.585317 F100.000000
G1 X56.009755 Y37.590990 F100.000000
G1 X55.997665 Y37.600631 F100.000000
G1 X55.968333 Y37.607326 F100.000000
G1 X55.940344 Y37.618364 F100.000000
G1 X55.924923 Y37.617234 F100.000000
G1 X55.909847 Y37.620675 F100.000000
G1 X55.330727 F100.000000
G1 X55.308494 Y37.615600 F100.000000
G1 X55.285689 F100.000000
G1 X55.265143 Y37.605706 F100.000000
G1 X55.242909 Y37.600631 F100.000000
G1 X55.225080 Y37.586412 F100.000000
G1 X55.204533 Y37.576518 F100.000000
G1 X55.190314 Y37.558688 F100.000000
G1 X55.172485 Y37.544469 F100.000000
G0 Z2.000000
G0 X55.533127 Y36.556415
G1 Z-0.040000 F60.000000
G1 Y37.215875 F100.000000
G1 X55.847232 F100.000000
G1 X55.913474 Y37.170551 F100.000000
G1 X55.948902 Y37.124129 F100.000000
G1 X55.997007 Y36.993557 F100.000000
G1 Y36.776193 F100.000000
G1 X55.948902 Y36.645621 F100.000000
G1 X55.914234 Y36.600194 F100.000000
G1 X55.848566 Y36.556415 F100.000000
G1 X55.533127 F100.000000
G0 Z2.000000
G0 X56.893339 Y36.668208
G1 Z-0.040000 F60.000000
G1 X57.013007 Y36.747987 F100.000000
G1 Y35.588675 F100.000000
G1 X56.781067 F100.000000
G1 X56.693249 Y35.568631 F100.000000
G1 X56.622825 Y35.512469 F100.000000
G1 X56.583742 Y35.431313 F100.000000
G1 Y35.341237 F100.000000
G1 X56.622825 Y35.260081 F100.000000
G1 X56.693249 Y35.203919 F100.000000
G1 X56.781067 Y35.183875 F100.000000
G1 X57.652287 F100.000000
G1 X57.740105 Y35.203919 F100.000000
G1 X57.810530 Y35.260081 F100.000000
G1 X57.849613 Y35.341237 F100.000000
G1 Y35.431313 F100.000000
G1 X57.810530 Y35.512469 F100.000000
G1 X57.740105 Y35.568631 F100.000000
G1 X57.652287 Y35.588675 F100.000000
G1 X57.417807 F100.000000
G1 Y37.418275 F100.000000
G1 X57.408035 Y37.461091 F100.000000
G1 X57.398750 Y37.504015 F100.000000
G1 X57.398026 Y37.504944 F100.000000
G1 X57.397763 Y37.506093 F100.000000
G1 X57.370382 Y37.540429 F100.000000
G1 X57.343392 Y37.575073 F100.000000
G1 X57.342336 Y37.575597 F100.000000
G1 X57.341602 Y37.576518 F100.000000
G1 X57.302034 Y37.595573 F100.000000
G1 X57.262685 Y37.615076 F100.000000
G1 X57.261507 Y37.615089 F100.000000
G1 X57.260446 Y37.615600 F100.000000
G1 X57.216529 F100.000000
G1 X57.172614 Y37.616099 F100.000000
G1 X57.171547 Y37.615600 F100.000000
G1 X57.170369 F100.000000
G1 X57.130801 Y37.596546 F100.000000
G1 X57.091019 Y37.577942 F100.000000
G1 X57.090274 Y37.577029 F100.000000
G1 X57.089213 Y37.576518 F100.000000
G1 X57.061831 Y37.542182 F100.000000
G1 X57.034061 Y37.508160 F100.000000
G1 X56.897544 Y37.232730 F100.000000
G1 X56.784729 Y37.082311 F100.000000
G1 X56.668796 Y37.005022 F100.000000
G1 X56.606845 Y36.939632 F100.000000
G1 X56.579401 Y36.853838 F100.000000
G1 X56.591900 Y36.764633 F100.000000
G1 X56.641865 Y36.689684 F100.000000
G1 X56.719401 Y36.643838 F100.000000
G1 X56.809151 Y36.636173 F100.000000
G1 X56.893339 Y36.668208 F100.000000
G0 Z2.000000
G0 X55.816133 Y6.735025
G1 Z-0.040000 F60.000000
G1 X55.807573 Y6.717250 F100.000000
G1 X55.795272 Y6.701826 F100.000000
G1 X55.790882 Y6.682592 F100.000000
G1 X55.782322 Y6.664817 F100.000000
G1 Y6.645089 F100.000000
G1 X55.777932 Y6.625855 F100.000000
G1 Y5.625095 F100.000000
G1 X55.795272 Y5.549124 F100.000000
G1 X55.843857 Y5.488200 F100.000000
G1 X55.914065 Y5.454390 F100.000000
G1 X55.991990 F100.000000
G1 X56.062197 Y5.488200 F100.000000
G1 X56.110782 Y5.549124 F100.000000
G1 X56.128122 Y5.625095 F100.000000
G1 Y5.887713 F100.000000
G1 X56.380869 Y5.524993 F100.000000
G1 X56.438528 Y5.472575 F100.000000
G1 X56.513221 Y5.450365 F100.000000
G1 X56.590153 Y5.462763 F100.000000
G1 X56.654087 Y5.507313 F100.000000
G1 X56.692360 Y5.575191 F100.000000
G1 X56.697392 Y5.652953 F100.000000
G1 X56.668186 Y5.725197 F100.000000
G1 X56.487972 Y5.983825 F100.000000
G1 X56.508852 Y5.994265 F100.000000
G1 X56.530562 Y6.012112 F100.000000
G1 X56.554358 Y6.027064 F100.000000
G1 X56.600078 Y6.072784 F100.000000
G1 X56.615030 Y6.096580 F100.000000
G1 X56.632877 Y6.118290 F100.000000
G1 X56.681137 Y6.214810 F100.000000
G1 X56.681453 Y6.216103 F100.000000
G1 X56.682282 Y6.217144 F100.000000
G1 X56.690670 Y6.253894 F100.000000
G0 Z2.000000
G1 Z-0.040000 F60.000000
G1 X56.699603 Y6.290515 F100.000000
G1 X56.699326 Y6.291817 F100.000000
G1 X56.699622 Y6.293115 F100.000000
G1 Y6.435355 F100.000000
G1 X56.699326 Y6.436653 F100.000000
G1 X56.699603 Y6.437955 F100.000000
G1 X56.690670 Y6.474576 F100.000000
G1 X56.682282 Y6.511326 F100.000000
G1 X56.681453 Y6.512367 F100.000000
G1 X56.681137 Y6.513660 F100.000000
G1 X56.632877 Y6.610180 F100.000000
G1 X56.615030 Y6.631890 F100.000000
G1 X56.600078 Y6.655686 F100.000000
G1 X56.554358 Y6.701406 F100.000000
G1 X56.530562 Y6.716358 F100.000000
G1 X56.508852 Y6.734205 F100.000000
G1 X56.412332 Y6.782465 F100.000000
G1 X56.411039 Y6.782780 F100.000000
G1 X56.409998 Y6.783610 F100.000000
G1 X56.373248 Y6.791998 F100.000000
G1 X56.336627 Y6.800931 F100.000000
G1 X56.335325 Y6.800654 F100.000000
G1 X56.334027 Y6.800950 F100.000000
G1 X55.953027 F100.000000
G1 X55.933794 Y6.796560 F100.000000
G1 X55.914065 F100.000000
G1 X55.896290 Y6.788000 F100.000000
G1 X55.877056 Y6.783610 F100.000000
G1 X55.861632 Y6.771310 F100.000000
G1 X55.843857 Y6.762750 F100.000000
G1 X55.831557 Y6.747325 F100.000000
G1 X55.816133 Y6.735025 F100.000000
G0 Z2.000000
G0 X56.128122 Y6.277710
G1 Z-0.040000 F60.000000
G1 Y6.450760 F100.000000
G1 X56.292693 F100.000000
G1 X56.326828 Y6.433692 F100.000000
G1 X56.332365 Y6.428156 F100.000000
G1 X56.349432 Y6.394021 F100.000000
G1 Y6.334449 F100.000000
G1 X56.332365 Y6.300314 F100.000000
G1 X56.326828 Y6.294778 F100.000000
G1 X56.292693 Y6.277710 F100.000000
G1 X56.128122 F100.000000
G0 Z2.000000
G0 X56.816893 Y6.735025
G1 Z-0.040000 F60.000000
G1 X56.808333 Y6.717250 F100.000000
G1 X56.796032 Y6.701826 F100.000000
G1 X56.791642 Y6.682592 F100.000000
G1 X56.783082 Y6.664817 F100.000000
G1 Y6.645089 F100.000000
G1 X56.778692 Y6.625855 F100.000000
G1 Y5.625095 F100.000000
G1 X56.783082 Y5.605861 F100.000000
G1 Y5.586133 F100.000000
G1 X56.791642 Y5.568358 F100.000000
G1 X56.796032 Y5.549124 F100.000000
G1 X56.808333 Y5.533700 F100.000000
G1 X56.816893 Y5.515925 F100.000000
G1 X56.832317 Y5.503625 F100.000000
G1 X56.844617 Y5.488200 F100.000000
G1 X56.862392 Y5.479640 F100.000000
G1 X56.877816 Y5.467340 F100.000000
G1 X56.897050 Y5.462950 F100.000000
G1 X56.914825 Y5.454390 F100.000000
G1 X56.934554 F100.000000
G1 X56.953787 Y5.450000 F100.000000
G1 X57.431307 F100.000000
G1 X57.507278 Y5.467340 F100.000000
G1 X57.568202 Y5.515925 F100.000000
G1 X57.602012 Y5.586133 F100.000000
G1 Y5.664057 F100.000000
G1 X57.568202 Y5.734265 F100.000000
G1 X57.507278 Y5.782850 F100.000000
G1 X57.431307 Y5.800190 F100.000000
G1 X57.128882 F100.000000
G1 Y5.975780 F100.000000
G1 X57.286527 F100.000000
G1 X57.362498 Y5.993120 F100.000000
G1 X57.423422 Y6.041705 F100.000000
G1 X57.457232 Y6.111913 F100.000000
G1 Y6.189837 F100.000000
G1 X57.423422 Y6.260045 F100.000000
G1 X57.362498 Y6.308630 F100.000000
G1 X57.286527 Y6.325970 F100.000000
G1 X57.128882 F100.000000
G1 Y6.450760 F100.000000
G1 X57.431307 F100.000000
G1 X57.507278 Y6.468100 F100.000000
G1 X57.568202 Y6.516685 F100.000000
G1 X57.602012 Y6.586893 F100.000000
G1 Y6.664817 F100.000000
G1 X57.568202 Y6.735025 F100.000000
G1 X57.507278 Y6.783610 F100.000000
G1 X57.431307 Y6.800950 F100.000000
G1 X56.953787 F100.000000
G1 X56.934554 Y6.796560 F100.000000
G1 X56.914825 F100.000000
G1 X56.897050 Y6.788000 F100.000000
G1 X56.877816 Y6.783610 F100.000000
G1 X56.862392 Y6.771310 F100.000000
G1 X56.844617 Y6.762750 F100.000000
G1 X56.832317 Y6.747325 F100.000000
G1 X56.816893 Y6.735025 F100.000000
G0 Z2.000000
G0 X58.440065 Y6.743406
G1 Z-0.040000 F60.000000
G1 X58.297825 Y6.791666 F100.000000
G1 X58.269413 Y6.794594 F100.000000
G1 X58.241567 Y6.800950 F100.000000
G1 X58.002807 F100.000000
G1 X58.001510 Y6.800654 F100.000000
G1 X58.000208 Y6.800931 F100.000000
G1 X57.963586 Y6.791998 F100.000000
G1 X57.926836 Y6.783610 F100.000000
G1 X57.925796 Y6.782780 F100.000000
G1 X57.924502 Y6.782465 F100.000000
G1 X57.827982 Y6.734205 F100.000000
G1 X57.806273 Y6.716358 F100.000000
G1 X57.782476 Y6.701406 F100.000000
G1 X57.736756 Y6.655686 F100.000000
G1 X57.721804 Y6.631890 F100.000000
G1 X57.703958 Y6.610180 F100.000000
G1 X57.655698 Y6.513660 F100.000000
G1 X57.655382 Y6.512367 F100.000000
G1 X57.654552 Y6.511326 F100.000000
G1 X57.646164 Y6.474576 F100.000000
G1 X57.637232 Y6.437955 F100.000000
G1 X57.637509 Y6.436653 F100.000000
G1 X57.637212 Y6.435355 F100.000000
G1 Y6.341375 F100.000000
G1 X57.637509 Y6.340077 F100.000000
G1 X57.637232 Y6.338775 F100.000000
G1 X57.646164 Y6.302154 F100.000000
G1 X57.654552 Y6.265404 F100.000000
G1 X57.655382 Y6.264363 F100.000000
G1 X57.655698 Y6.263070 F100.000000
G1 X57.703958 Y6.166550 F100.000000
G1 X57.720333 Y6.146631 F100.000000
G1 X57.733457 Y6.124434 F100.000000
G1 X57.779177 Y6.076174 F100.000000
G1 X57.805999 Y6.058292 F100.000000
G1 X57.831332 Y6.038355 F100.000000
G1 X57.927852 Y5.992635 F100.000000
G1 X57.944565 Y5.988933 F100.000000
G1 X57.959808 Y5.981142 F100.000000
G1 X58.131022 Y5.937768 F100.000000
G1 X58.182886 Y5.911135 F100.000000
G1 X58.192327 Y5.901693 F100.000000
G1 X58.208712 Y5.869786 F100.000000
G1 Y5.857924 F100.000000
G1 X58.192327 Y5.826017 F100.000000
G1 X58.182886 Y5.816575 F100.000000
G1 X58.150978 Y5.800190 F100.000000
G1 X57.983442 F100.000000
G1 X57.868565 Y5.839166 F100.000000
G1 X57.791051 Y5.847155 F100.000000
G1 X57.717747 Y5.820720 F100.000000
G1 X57.663172 Y5.765098 F100.000000
G1 X57.638135 Y5.691305 F100.000000
G1 X57.647595 Y5.613957 F100.000000
G1 X57.689678 Y5.548373 F100.000000
G1 X57.756050 Y5.507544 F100.000000
G1 X57.898290 Y5.459284 F100.000000
G1 X57.926701 Y5.456356 F100.000000
G1 X57.954547 Y5.450000 F100.000000
G1 X58.193307 F100.000000
G1 X58.195542 Y5.450510 F100.000000
G1 X58.197789 Y5.450057 F100.000000
G1 X58.233423 Y5.459156 F100.000000
G1 X58.269278 Y5.467340 F100.000000
G1 X58.271070 Y5.468769 F100.000000
G1 X58.273292 Y5.469336 F100.000000
G1 X58.367272 Y5.517596 F100.000000
G1 X58.388083 Y5.535082 F100.000000
G1 X58.411098 Y5.549544 F100.000000
G1 X58.459358 Y5.597804 F100.000000
G1 X58.473820 Y5.620820 F100.000000
G1 X58.491306 Y5.641631 F100.000000
G1 X58.539566 Y5.735611 F100.000000
G1 X58.540133 Y5.737832 F100.000000
G1 X58.541562 Y5.739624 F100.000000
G1 X58.549746 Y5.775479 F100.000000
G1 X58.558845 Y5.811113 F100.000000
G1 X58.558392 Y5.813360 F100.000000
G1 X58.558902 Y5.815595 F100.000000
G1 Y5.912115 F100.000000
G1 X58.558392 Y5.914350 F100.000000
G1 X58.558845 Y5.916597 F100.000000
G1 X58.549746 Y5.952231 F100.000000
G1 X58.541562 Y5.988086 F100.000000
G1 X58.540133 Y5.989878 F100.000000
G1 X58.539566 Y5.992099 F100.000000
G1 X58.491306 Y6.086079 F100.000000
G1 X58.473820 Y6.106890 F100.000000
G1 X58.459358 Y6.129906 F100.000000
G1 X58.411098 Y6.178166 F100.000000
G1 X58.388083 Y6.192628 F100.000000
G1 X58.367272 Y6.210114 F100.000000
G1 X58.273292 Y6.258374 F100.000000
G1 X58.254018 Y6.263295 F100.000000
G1 X58.236306 Y6.272348 F100.000000
G1 X58.062345 Y6.316418 F100.000000
G1 X58.010860 Y6.340806 F100.000000
G1 X58.005553 Y6.346407 F100.000000
G1 X57.987402 Y6.382709 F100.000000
G1 Y6.394021 F100.000000
G1 X58.004470 Y6.428156 F100.000000
G1 X58.010006 Y6.433692 F100.000000
G1 X58.044142 Y6.450760 F100.000000
G1 X58.212673 F100.000000
G1 X58.327550 Y6.411784 F100.000000
G1 X58.405064 Y6.403795 F100.000000
G1 X58.478368 Y6.430230 F100.000000
G1 X58.532943 Y6.485852 F100.000000
G1 X58.557980 Y6.559645 F100.000000
G1 X58.548520 Y6.636993 F100.000000
G1 X58.506436 Y6.702577 F100.000000
G1 X58.440065 Y6.743406 F100.000000
G0 Z2.000000
G0 X58.703897 Y5.488200
G1 Z-0.040000 F60.000000
G1 X58.721672 Y5.479640 F100.000000
G1 X58.737096 Y5.467340 F100.000000
G1 X58.756330 Y5.462950 F100.000000
G1 X58.774105 Y5.454390 F100.000000
G1 X58.793834 F100.000000
G1 X58.813067 Y5.450000 F100.000000
G1 X59.288047 F100.000000
G1 X59.364018 Y5.467340 F100.000000
G1 X59.424942 Y5.515925 F100.000000
G1 X59.458752 Y5.586133 F100.000000
G1 Y5.664057 F100.000000
G1 X59.424942 Y5.734265 F100.000000
G1 X59.364018 Y5.782850 F100.000000
G1 X59.288047 Y5.800190 F100.000000
G1 X58.988162 F100.000000
G1 Y5.975780 F100.000000
G1 X59.145807 F100.000000
G1 X59.221778 Y5.993120 F100.000000
G1 X59.282702 Y6.041705 F100.000000
G1 X59.316512 Y6.111913 F100.000000
G1 Y6.189837 F100.000000
G1 X59.282702 Y6.260045 F100.000000
G1 X59.221778 Y6.308630 F100.000000
G1 X59.145807 Y6.325970 F100.000000
G1 X58.988162 F100.000000
G1 Y6.450760 F100.000000
G1 X59.288047 F100.000000
G1 X59.364018 Y6.468100 F100.000000
G1 X59.424942 Y6.516685 F100.000000
G1 X59.431557 Y6.530422 F100.000000
G1 X59.438173 Y6.516685 F100.000000
G1 X59.499096 Y6.468100 F100.000000
G1 X59.575067 Y6.450760 F100.000000
G1 X59.686992 F100.000000
G1 Y5.625095 F100.000000
G1 X59.704332 Y5.549124 F100.000000
G1 X59.752917 Y5.488200 F100.000000
G1 X59.823125 Y5.454390 F100.000000
G1 X59.901050 F100.000000
G1 X59.971257 Y5.488200 F100.000000
G1 X60.019842 Y5.549124 F100.000000
G1 X60.037182 Y5.625095 F100.000000
G0 Z2.000000
G0 X58.676173 Y6.735025
G1 Z-0.040000 F60.000000
G1 X58.667613 Y6.717250 F100.000000
G1 X58.655312 Y6.701826 F100.000000
G1 X58.650922 Y6.682592 F100.000000
G1 X58.642362 Y6.664817 F100.000000
G1 Y6.645089 F100.000000
G1 X58.637972 Y6.625855 F100.000000
G1 Y5.625095 F100.000000
G1 X58.642362 Y5.605861 F100.000000
G1 Y5.586133 F100.000000
G1 X58.650922 Y5.568358 F100.000000
G1 X58.655312 Y5.549124 F100.000000
G1 X58.667613 Y5.533700 F100.000000
G1 X58.676173 Y5.515925 F100.000000
G1 X58.691597 Y5.503625 F100.000000
G1 X58.703897 Y5.488200 F100.000000
G0 Z2.000000
G0 X60.037182 Y5.625095
G1 Z-0.040000 F60.000000
G1 Y6.450760 F100.000000
G1 X60.146567 F100.000000
G1 X60.222538 Y6.468100 F100.000000
G1 X60.283462 Y6.516685 F100.000000
G1 X60.317272 Y6.586893 F100.000000
G1 Y6.664817 F100.000000
G1 X60.283462 Y6.735025 F100.000000
G1 X60.222538 Y6.783610 F100.000000
G1 X60.146567 Y6.800950 F100.000000
G1 X59.575067 F100.000000
G1 X59.499096 Y6.783610 F100.000000
G1 X59.438173 Y6.735025 F100.000000
G1 X59.431557 Y6.721288 F100.000000
G1 X59.424942 Y6.735025 F100.000000
G1 X59.364018 Y6.783610 F100.000000
G1 X59.288047 Y6.800950 F100.000000
G1 X58.813067 F100.000000
G1 X58.793834 Y6.796560 F100.000000
G1 X58.774105 F100.000000
G1 X58.756330 Y6.788000 F100.000000
G1 X58.737096 Y6.783610 F100.000000
G1 X58.721672 Y6.771310 F100.000000
G1 X58.703897 Y6.762750 F100.000000
G1 X58.691597 Y6.747325 F100.000000
G1 X58.676173 Y6.735025 F100.000000
G0 Z2.000000
G0 X38.729452 Y13.587995
G1 Z-0.040000 F60.000000
G1 Y13.572590 F100.000000
G1 X38.665413 F100.000000
G1 X38.650382 Y13.616890 F100.000000
G1 Y13.653561 F100.000000
G1 X38.676196 Y13.731001 F100.000000
G1 X38.723406 Y13.776969 F100.000000
G1 X38.776333 Y13.804148 F100.000000
G1 X38.926381 Y13.842160 F100.000000
G1 X39.024954 F100.000000
G1 X39.175926 Y13.803914 F100.000000
G1 X39.230088 Y13.776832 F100.000000
G1 X39.274749 Y13.732172 F100.000000
G1 X39.300952 Y13.653561 F100.000000
G1 Y13.582064 F100.000000
G1 X39.272029 Y13.525739 F100.000000
G1 X39.252750 Y13.450237 F100.000000
G1 X39.268139 Y13.373847 F100.000000
G1 X39.315149 Y13.311700 F100.000000
G1 X39.384468 Y13.276103 F100.000000
G1 X39.462367 Y13.274109 F100.000000
G1 X39.533417 Y13.306111 F100.000000
G1 X39.583546 Y13.365771 F100.000000
G1 X39.631806 Y13.459751 F100.000000
G1 X39.632373 Y13.461972 F100.000000
G1 X39.633802 Y13.463764 F100.000000
G1 X39.641986 Y13.499619 F100.000000
G1 X39.651085 Y13.535253 F100.000000
G1 X39.650632 Y13.537500 F100.000000
G1 X39.651142 Y13.539735 F100.000000
G1 Y13.681975 F100.000000
G1 X39.644889 Y13.709374 F100.000000
G1 X39.642157 Y13.737345 F100.000000
G1 X39.593897 Y13.882125 F100.000000
G1 X39.593206 Y13.883262 F100.000000
G1 X39.593057 Y13.884585 F100.000000
G1 X39.573002 Y13.916502 F100.000000
G1 X39.553423 Y13.948714 F100.000000
G1 X39.552306 Y13.949439 F100.000000
G1 X39.551598 Y13.950566 F100.000000
G1 X39.457618 Y14.044546 F100.000000
G1 X39.433822 Y14.059498 F100.000000
G1 X39.412112 Y14.077345 F100.000000
G1 X39.315592 Y14.125605 F100.000000
G1 X39.297171 Y14.130098 F100.000000
G1 X39.280286 Y14.138728 F100.000000
G1 X39.089786 Y14.186988 F100.000000
G1 X39.068017 Y14.187504 F100.000000
G1 X39.046787 Y14.192350 F100.000000
G1 X38.904547 F100.000000
G1 X38.883318 Y14.187504 F100.000000
G1 X38.861548 Y14.186988 F100.000000
G1 X38.671048 Y14.138728 F100.000000
G1 X38.653336 Y14.129675 F100.000000
G1 X38.634063 Y14.124754 F100.000000
G1 X38.540083 Y14.076494 F100.000000
G1 X38.520148 Y14.059743 F100.000000
G1 X38.497918 Y14.046186 F100.000000
G1 X38.401398 Y13.952206 F100.000000
G1 X38.400028 Y13.950088 F100.000000
G1 X38.397912 Y13.948714 F100.000000
G1 X38.378924 Y13.917475 F100.000000
G1 X38.359064 Y13.886783 F100.000000
G1 X38.358748 Y13.884281 F100.000000
G1 X38.357438 Y13.882125 F100.000000
G1 X38.309178 Y13.737345 F100.000000
G1 X38.306446 Y13.709374 F100.000000
G1 X38.300192 Y13.681975 F100.000000
G1 Y13.587995 F100.000000
G1 X38.306548 Y13.560149 F100.000000
G1 X38.309476 Y13.531738 F100.000000
G1 X38.357736 Y13.389498 F100.000000
G1 X38.358183 Y13.388772 F100.000000
G1 X38.358278 Y13.387925 F100.000000
G1 X38.378576 Y13.355621 F100.000000
G1 X38.398566 Y13.323126 F100.000000
G1 X38.399283 Y13.322666 F100.000000
G1 X38.399736 Y13.321944 F100.000000
G1 X38.447996 Y13.273684 F100.000000
G1 X38.472870 Y13.258055 F100.000000
G1 X38.495836 Y13.239740 F100.000000
G1 X38.505545 Y13.237524 F100.000000
G1 X38.513977 Y13.232226 F100.000000
G1 X38.543168 Y13.228937 F100.000000
G1 X38.571807 Y13.222400 F100.000000
G1 X38.904547 F100.000000
G1 X38.923781 Y13.226790 F100.000000
G1 X38.943510 F100.000000
G1 X38.961284 Y13.235350 F100.000000
G1 X38.980518 Y13.239740 F100.000000
G1 X38.995943 Y13.252040 F100.000000
G1 X39.013717 Y13.260600 F100.000000
G1 X39.026018 Y13.276025 F100.000000
G1 X39.041442 Y13.288325 F100.000000
G1 X39.050002 Y13.306100 F100.000000
G1 X39.062302 Y13.321524 F100.000000
G1 X39.066692 Y13.340758 F100.000000
G1 X39.075252 Y13.358533 F100.000000
G1 Y13.378261 F100.000000
G1 X39.079642 Y13.397495 F100.000000
G1 Y13.587995 F100.000000
G1 X39.062302 Y13.663966 F100.000000
G1 X39.013717 Y13.724890 F100.000000
G1 X38.943510 Y13.758700 F100.000000
G1 X38.865585 F100.000000
G1 X38.795377 Y13.724890 F100.000000
G1 X38.746792 Y13.663966 F100.000000
G1 X38.729452 Y13.587995 F100.000000
G0 Z2.000000
G0 X39.604962 Y13.086722
G1 Z-0.040000 F60.000000
G1 X39.577802 Y13.105428 F100.000000
G1 X39.552018 Y13.125990 F100.000000
G1 X39.545930 Y13.127380 F100.000000
G1 X39.540786 Y13.130922 F100.000000
G1 X39.508199 Y13.135992 F100.000000
G1 X39.476047 Y13.143330 F100.000000
G1 X38.475287 F100.000000
G1 X38.399316 Y13.125990 F100.000000
G1 X38.338393 Y13.077405 F100.000000
G1 X38.304582 Y13.007197 F100.000000
G1 Y12.929273 F100.000000
G1 X38.338393 Y12.859065 F100.000000
G1 X38.399316 Y12.810480 F100.000000
G1 X38.475287 Y12.793140 F100.000000
G1 X38.816352 F100.000000
G1 X38.388457 Y12.548784 F100.000000
G1 X38.364176 Y12.526467 F100.000000
G1 X38.338393 Y12.505905 F100.000000
G1 X38.335683 Y12.500278 F100.000000
G1 X38.331085 Y12.496052 F100.000000
G1 X38.318891 Y12.465410 F100.000000
G1 X38.304582 Y12.435697 F100.000000
G1 Y12.429452 F100.000000
G1 X38.302273 Y12.423650 F100.000000
G1 X38.304582 Y12.390752 F100.000000
G1 Y12.357773 F100.000000
G1 X38.307292 Y12.352146 F100.000000
G1 X38.307729 Y12.345916 F100.000000
G1 X38.324084 Y12.317278 F100.000000
G1 X38.338393 Y12.287565 F100.000000
G1 X38.343275 Y12.283671 F100.000000
G1 X38.346372 Y12.278248 F100.000000
G1 X38.373533 Y12.259542 F100.000000
G1 X38.399316 Y12.238980 F100.000000
G1 X38.405405 Y12.237590 F100.000000
G1 X38.410548 Y12.234048 F100.000000
G1 X38.443135 Y12.228978 F100.000000
G1 X38.475287 Y12.221640 F100.000000
G1 X39.476047 F100.000000
G1 X39.552018 Y12.238980 F100.000000
G1 X39.612942 Y12.287565 F100.000000
G1 X39.646752 Y12.357773 F100.000000
G1 Y12.435697 F100.000000
G1 X39.612942 Y12.505905 F100.000000
G1 X39.552018 Y12.554490 F100.000000
G1 X39.476047 Y12.571830 F100.000000
G1 X39.134982 F100.000000
G1 X39.562877 Y12.816186 F100.000000
G1 X39.587158 Y12.838503 F100.000000
G1 X39.612942 Y12.859065 F100.000000
G1 X39.615652 Y12.864692 F100.000000
G1 X39.620250 Y12.868918 F100.000000
G1 X39.632443 Y12.899560 F100.000000
G1 X39.646752 Y12.929273 F100.000000
G1 Y12.935518 F100.000000
G1 X39.649061 Y12.941320 F100.000000
G1 X39.646752 Y12.974218 F100.000000
G1 Y13.007197 F100.000000
G1 X39.644043 Y13.012824 F100.000000
G1 X39.643605 Y13.019054 F100.000000
G1 X39.627251 Y13.047692 F100.000000
G1 X39.612942 Y13.077405 F100.000000
G1 X39.608059 Y13.081299 F100.000000
G1 X39.604962 Y13.086722 F100.000000
G0 Z2.000000
G0 X39.585217 Y12.056110
G1 Z-0.040000 F60.000000
G1 X39.567443 Y12.064670 F100.000000
G1 X39.552018 Y12.076970 F100.000000
G1 X39.532784 Y12.081360 F100.000000
G1 X39.515010 Y12.089920 F100.000000
G1 X39.495281 F100.000000
G1 X39.476047 Y12.094310 F100.000000
G1 X38.475287 F100.000000
G1 X38.456054 Y12.089920 F100.000000
G1 X38.436325 F100.000000
G1 X38.418550 Y12.081360 F100.000000
G1 X38.399316 Y12.076970 F100.000000
G1 X38.383892 Y12.064670 F100.000000
G1 X38.366117 Y12.056110 F100.000000
G1 X38.353817 Y12.040685 F100.000000
G1 X38.338393 Y12.028385 F100.000000
G1 X38.329833 Y12.010610 F100.000000
G1 X38.317532 Y11.995186 F100.000000
G1 X38.313142 Y11.975952 F100.000000
G1 X38.304582 Y11.958177 F100.000000
G1 Y11.938449 F100.000000
G1 X38.300192 Y11.919215 F100.000000
G1 Y11.680455 F100.000000
G1 X38.306548 Y11.652609 F100.000000
G1 X38.309476 Y11.624198 F100.000000
G1 X38.357736 Y11.481958 F100.000000
G1 X38.358808 Y11.480216 F100.000000
G1 X38.359064 Y11.478187 F100.000000
G1 X38.379172 Y11.447112 F100.000000
G0 Z2.000000
G0 Y11.447112
G1 Z-0.040000 F60.000000
G1 X38.398566 Y11.415586 F100.000000
G1 X38.400287 Y11.414482 F100.000000
G1 X38.401398 Y11.412764 F100.000000
G1 X38.497918 Y11.318784 F100.000000
G1 X38.520148 Y11.305227 F100.000000
G1 X38.540083 Y11.288476 F100.000000
G1 X38.634063 Y11.240216 F100.000000
G1 X38.653336 Y11.235295 F100.000000
G1 X38.671048 Y11.226242 F100.000000
G1 X38.861548 Y11.177982 F100.000000
G1 X38.883318 Y11.177466 F100.000000
G1 X38.904547 Y11.172620 F100.000000
G1 X39.046787 F100.000000
G1 X39.068017 Y11.177466 F100.000000
G1 X39.089786 Y11.177982 F100.000000
G1 X39.280286 Y11.226242 F100.000000
G1 X39.297171 Y11.234872 F100.000000
G1 X39.315592 Y11.239365 F100.000000
G1 X39.412112 Y11.287625 F100.000000
G1 X39.433822 Y11.305472 F100.000000
G1 X39.457618 Y11.320424 F100.000000
G1 X39.551598 Y11.414404 F100.000000
G1 X39.552052 Y11.415126 F100.000000
G1 X39.552769 Y11.415586 F100.000000
G1 X39.572759 Y11.448081 F100.000000
G1 X39.593057 Y11.480385 F100.000000
G1 X39.593152 Y11.481232 F100.000000
G1 X39.593599 Y11.481958 F100.000000
G1 X39.641859 Y11.624198 F100.000000
G1 X39.644787 Y11.652609 F100.000000
G1 X39.651142 Y11.680455 F100.000000
G1 Y11.919215 F100.000000
G1 X39.646752 Y11.938449 F100.000000
G1 Y11.958177 F100.000000
G1 X39.638192 Y11.975952 F100.000000
G1 X39.633802 Y11.995186 F100.000000
G1 X39.621502 Y12.010610 F100.000000
G1 X39.612942 Y12.028385 F100.000000
G1 X39.597518 Y12.040685 F100.000000
G1 X39.585217 Y12.056110 F100.000000
G0 Z2.000000
G0 X38.650382 Y11.744120
G1 Z-0.040000 F60.000000
G1 X39.300952 F100.000000
G1 Y11.709350 F100.000000
G1 X39.275098 Y11.633147 F100.000000
G1 X39.230088 Y11.588138 F100.000000
G1 X39.175926 Y11.561056 F100.000000
G1 X39.024954 Y11.522810 F100.000000
G1 X38.926381 F100.000000
G1 X38.776333 Y11.560822 F100.000000
G1 X38.723406 Y11.588001 F100.000000
G1 X38.675841 Y11.634315 F100.000000
G1 X38.650382 Y11.709350 F100.000000
G1 Y11.744120 F100.000000
G0 Z2.000000
G0 X49.871618 Y29.021684
G1 Z-0.040000 F60.000000
G1 X49.913077 Y29.087665 F100.000000
G1 X49.921801 Y29.165099 F100.000000
G1 X49.896065 Y29.238651 F100.000000
G1 X49.840964 Y29.293752 F100.000000
G1 X49.767412 Y29.319489 F100.000000
G1 X49.689977 Y29.310764 F100.000000
G1 X49.623996 Y29.269306 F100.000000
G1 X49.575736 Y29.221046 F100.000000
G1 X49.561275 Y29.198030 F100.000000
G1 X49.543789 Y29.177219 F100.000000
G1 X49.495529 Y29.083239 F100.000000
G1 X49.494961 Y29.081018 F100.000000
G1 X49.493532 Y29.079226 F100.000000
G1 X49.485349 Y29.043371 F100.000000
G1 X49.476250 Y29.007737 F100.000000
G1 X49.476702 Y29.005490 F100.000000
G1 X49.476192 Y29.003255 F100.000000
G1 Y28.764495 F100.000000
G1 X49.476489 Y28.763197 F100.000000
G1 X49.476212 Y28.761895 F100.000000
G1 X49.485144 Y28.725274 F100.000000
G1 X49.493532 Y28.688524 F100.000000
G1 X49.494362 Y28.687483 F100.000000
G1 X49.494678 Y28.686190 F100.000000
G1 X49.542938 Y28.589670 F100.000000
G1 X49.562254 Y28.566173 F100.000000
G1 X49.579127 Y28.540864 F100.000000
G1 X49.627387 Y28.495144 F100.000000
G1 X49.648788 Y28.482490 F100.000000
G1 X49.667823 Y28.466496 F100.000000
G1 X49.761803 Y28.418236 F100.000000
G1 X49.764024 Y28.417669 F100.000000
G1 X49.765816 Y28.416240 F100.000000
G1 X49.801671 Y28.408056 F100.000000
G1 X49.837305 Y28.398957 F100.000000
G1 X49.839552 Y28.399410 F100.000000
G1 X49.841787 Y28.398900 F100.000000
G1 X50.080547 F100.000000
G1 X50.081845 Y28.399196 F100.000000
G1 X50.083147 Y28.398919 F100.000000
G1 X50.119768 Y28.407852 F100.000000
G1 X50.156518 Y28.416240 F100.000000
G1 X50.157559 Y28.417070 F100.000000
G1 X50.158852 Y28.417385 F100.000000
G1 X50.255372 Y28.465645 F100.000000
G1 X50.277082 Y28.483492 F100.000000
G1 X50.300878 Y28.498444 F100.000000
G1 X50.346598 Y28.544164 F100.000000
G1 X50.361550 Y28.567960 F100.000000
G1 X50.379397 Y28.589670 F100.000000
G1 X50.427657 Y28.686190 F100.000000
G1 X50.427973 Y28.687483 F100.000000
G1 X50.428802 Y28.688524 F100.000000
G1 X50.437190 Y28.725274 F100.000000
G1 X50.446123 Y28.761895 F100.000000
G1 X50.445846 Y28.763197 F100.000000
G1 X50.446142 Y28.764495 F100.000000
G1 Y28.942159 F100.000000
G1 X50.476952 Y28.939029 F100.000000
G1 Y28.622255 F100.000000
G1 X50.494292 Y28.546284 F100.000000
G1 X50.542877 Y28.485360 F100.000000
G1 X50.607632 Y28.454176 F100.000000
G1 X50.596804 Y28.453127 F100.000000
G1 X49.596044 Y28.120387 F100.000000
G1 X49.576874 Y28.108755 F100.000000
G1 X49.555828 Y28.101020 F100.000000
G1 X49.543979 Y28.088795 F100.000000
G1 X49.529424 Y28.079963 F100.000000
G1 X49.517200 Y28.061166 F100.000000
G1 X49.501594 Y28.045066 F100.000000
G1 X49.496223 Y28.028910 F100.000000
G1 X49.486941 Y28.014638 F100.000000
G1 X49.484083 Y27.992398 F100.000000
G1 X49.477008 Y27.971121 F100.000000
G1 X49.479179 Y27.954235 F100.000000
G1 X49.477008 Y27.937349 F100.000000
G1 X49.484083 Y27.916072 F100.000000
G1 X49.486941 Y27.893832 F100.000000
G1 X49.496223 Y27.879560 F100.000000
G1 X49.501594 Y27.863404 F100.000000
G1 X49.517200 Y27.847304 F100.000000
G1 X49.529424 Y27.828507 F100.000000
G1 X49.543979 Y27.819675 F100.000000
G1 X49.555828 Y27.807450 F100.000000
G1 X49.576874 Y27.799715 F100.000000
G1 X49.596044 Y27.788083 F100.000000
G1 X50.596804 Y27.455343 F100.000000
G1 X50.674365 Y27.447828 F100.000000
G1 X50.747506 Y27.474710 F100.000000
G1 X50.801741 Y27.530664 F100.000000
G1 X50.826326 Y27.604609 F100.000000
G1 X50.816394 Y27.681898 F100.000000
G1 X50.773910 Y27.747223 F100.000000
G1 X50.707291 Y27.787647 F100.000000
G0 Z2.000000
G1 Z-0.040000 F60.000000
G1 X50.206255 Y27.954235 F100.000000
G1 X50.707291 Y28.120823 F100.000000
G1 X50.773910 Y28.161247 F100.000000
G1 X50.816394 Y28.226572 F100.000000
G1 X50.826326 Y28.303861 F100.000000
G1 X50.801741 Y28.377806 F100.000000
G1 X50.747506 Y28.433760 F100.000000
G1 X50.694513 Y28.453237 F100.000000
G1 X50.761217 Y28.485360 F100.000000
G1 X50.809802 Y28.546284 F100.000000
G1 X50.827142 Y28.622255 F100.000000
G1 Y29.097235 F100.000000
G1 X50.824713 Y29.107880 F100.000000
G1 X50.825816 Y29.118742 F100.000000
G1 X50.816131 Y29.145480 F100.000000
G1 X50.809802 Y29.173206 F100.000000
G1 X50.802995 Y29.181742 F100.000000
G1 X50.799276 Y29.192008 F100.000000
G1 X50.778948 Y29.211896 F100.000000
G1 X50.761217 Y29.234130 F100.000000
G1 X50.751380 Y29.238867 F100.000000
G1 X50.743576 Y29.246503 F100.000000
G1 X50.716632 Y29.255601 F100.000000
G1 X50.691010 Y29.267940 F100.000000
G1 X50.680091 F100.000000
G1 X50.669747 Y29.271433 F100.000000
G1 X50.194767 Y29.319693 F100.000000
G1 X50.178451 Y29.317674 F100.000000
G1 X50.162171 Y29.319955 F100.000000
G1 X50.140261 Y29.312947 F100.000000
G1 X50.117432 Y29.310122 F100.000000
G1 X50.103609 Y29.301223 F100.000000
G1 X50.087951 Y29.296215 F100.000000
G1 X50.071251 Y29.280394 F100.000000
G1 X50.051909 Y29.267944 F100.000000
G1 X50.043316 Y29.253929 F100.000000
G1 X50.031381 Y29.242623 F100.000000
G1 X50.023200 Y29.221123 F100.000000
G1 X50.011175 Y29.201513 F100.000000
G1 X50.009513 Y29.185158 F100.000000
G1 X50.003666 Y29.169793 F100.000000
G1 X50.005624 Y29.146873 F100.000000
G1 X50.003298 Y29.123988 F100.000000
G1 X50.008897 Y29.108531 F100.000000
G1 X50.010296 Y29.092151 F100.000000
G1 X50.022004 Y29.072350 F100.000000
G1 X50.029838 Y29.050722 F100.000000
G1 X50.041590 Y29.039225 F100.000000
G1 X50.049957 Y29.025074 F100.000000
G1 X50.078462 Y28.994985 F100.000000
G1 X50.095952 Y28.960926 F100.000000
G1 Y28.805829 F100.000000
G1 X50.078885 Y28.771694 F100.000000
G1 X50.073348 Y28.766158 F100.000000
G1 X50.039213 Y28.749090 F100.000000
G1 X49.884117 F100.000000
G1 X49.850057 Y28.766580 F100.000000
G1 X49.842362 Y28.773871 F100.000000
G1 X49.826382 Y28.805829 F100.000000
G1 Y28.960926 F100.000000
G1 X49.842767 Y28.992833 F100.000000
G1 X49.871618 Y29.021684 F100.000000
G0 Z2.000000
G0 X15.869452 Y17.143995
G1 Z-0.040000 F60.000000
G1 Y17.128590 F100.000000
G1 X15.805413 Y17.128590 F100.000000
G1 X15.790382 Y17.172890 F100.000000
G1 Y17.209561 F100.000000
G1 X15.816196 Y17.287001 F100.000000
G1 X15.863406 Y17.332969 F100.000000
G1 X15.916333 Y17.360148 F100.000000
G1 X16.066381 Y17.398160 F100.000000
G1 X16.164954 F100.000000
G1 X16.315926 Y17.359914 F100.000000
G1 X16.370088 Y17.332832 F100.000000
G1 X16.414749 Y17.288172 F100.000000
G1 X16.440952 Y17.209561 F100.000000
G1 Y17.138064 F100.000000
G1 X16.412029 Y17.081739 F100.000000
G1 X16.392750 Y17.006237 F100.000000
G1 X16.408139 Y16.929847 F100.000000
G1 X16.455149 Y16.867700 F100.000000
G1 X16.524468 Y16.832103 F100.000000
G1 X16.602367 Y16.830109 F100.000000
G1 X16.673417 Y16.862111 F100.000000
G1 X16.723546 Y16.921771 F100.000000
G1 X16.771806 Y17.015751 F100.000000
G1 X16.772373 Y17.017972 F100.000000
G1 X16.773802 Y17.019764 F100.000000
G1 X16.781986 Y17.055619 F100.000000
G1 X16.791085 Y17.091253 F100.000000
G1 X16.790632 Y17.093500 F100.000000
G1 X16.791142 Y17.095735 F100.000000
G1 Y17.237975 F100.000000
G1 X16.784889 Y17.265374 F100.000000
G1 X16.782157 Y17.293345 F100.000000
G1 X16.733897 Y17.438125 F100.000000
G1 X16.733206 Y17.439262 F100.000000
G1 X16.733057 Y17.440585 F100.000000
G1 X16.713002 Y17.472502 F100.000000
G1 X16.693423 Y17.504714 F100.000000
G1 X16.692306 Y17.505439 F100.000000
G1 X16.691598 Y17.506566 F100.000000
G1 X16.597618 Y17.600546 F100.000000
G1 X16.573822 Y17.615498 F100.000000
G1 X16.552112 Y17.633345 F100.000000
G1 X16.455592 Y17.681605 F100.000000
G1 X16.437171 Y17.686098 F100.000000
G1 X16.420286 Y17.694728 F100.000000
G1 X16.229786 Y17.742988 F100.000000
G1 X16.208017 Y17.743504 F100.000000
G1 X16.186787 Y17.748350 F100.000000
G1 X16.044547 F100.000000
G1 X16.023318 Y17.743504 F100.000000
G1 X16.001548 Y17.742988 F100.000000
G1 X15.811048 Y17.694728 F100.000000
G1 X15.793336 Y17.685675 F100.000000
G1 X15.774063 Y17.680754 F100.000000
G1 X15.680083 Y17.632494 F100.000000
G1 X15.660148 Y17.615743 F100.000000
G1 X15.637918 Y17.602186 F100.000000
G1 X15.541398 Y17.508206 F100.000000
G1 X15.540028 Y17.506088 F100.000000
G1 X15.537912 Y17.504714 F100.000000
G1 X15.518924 Y17.473475 F100.000000
G1 X15.499064 Y17.442783 F100.000000
G1 X15.498748 Y17.440281 F100.000000
G1 X15.497438 Y17.438125 F100.000000
G1 X15.449178 Y17.293345 F100.000000
G1 X15.446446 Y17.265374 F100.000000
G1 X15.440192 Y17.237975 F100.000000
G1 Y17.143995 F100.000000
G1 X15.446548 Y17.116149 F100.000000
G1 X15.449476 Y17.087738 F100.000000
G1 X15.497736 Y16.945498 F100.000000
G1 X15.498183 Y16.944772 F100.000000
G1 X15.498278 Y16.943925 F100.000000
G1 X15.518576 Y16.911621 F100.000000
G1 X15.538566 Y16.879126 F100.000000
G1 X15.539283 Y16.878666 F100.000000
G1 X15.539736 Y16.877944 F100.000000
G1 X15.587996 Y16.829684 F100.000000
G1 X15.612870 Y16.814055 F100.000000
G1 X15.635836 Y16.795740 F100.000000
G1 X15.645545 Y16.793524 F100.000000
G1 X15.653977 Y16.788226 F100.000000
G1 X15.683168 Y16.784937 F100.000000
G1 X15.711807 Y16.778400 F100.000000
G1 X16.044547 F100.000000
G1 X16.063781 Y16.782790 F100.000000
G1 X16.083510 F100.000000
G1 X16.101284 Y16.791350 F100.000000
G1 X16.120518 Y16.795740 F100.000000
G1 X16.135943 Y16.808040 F100.000000
G1 X16.153717 Y16.816600 F100.000000
G1 X16.166018 Y16.832025 F100.000000
G1 X16.181442 Y16.844325 F100.000000
G1 X16.190002 Y16.862100 F100.000000
G1 X16.202302 Y16.877524 F100.000000
G1 X16.206692 Y16.896758 F100.000000
G1 X16.215252 Y16.914533 F100.000000
G1 Y16.934261 F100.000000
G1 X16.219642 Y16.953495 F100.000000
G1 Y17.143995 F100.000000
G1 X16.202302 Y17.219966 F100.000000
G1 X16.153717 Y17.280890 F100.000000
G1 X16.083510 Y17.314700 F100.000000
G1 X16.005585 F100.000000
G1 X15.935377 Y17.280890 F100.000000
G1 X15.886792 Y17.219966 F100.000000
G1 X15.869452 Y17.143995 F100.000000
G0 Z2.000000
G0 X16.744962 Y16.642722
G1 Z-0.040000 F60.000000
G1 X16.717802 Y16.661428 F100.000000
G1 X16.692018 Y16.681990 F100.000000
G1 X16.685930 Y16.683380 F100.000000
G1 X16.680786 Y16.686922 F100.000000
G1 X16.648199 Y16.691992 F100.000000
G1 X16.616047 Y16.699330 F100.000000
G1 X15.615287 F100.000000
G1 X15.539316 Y16.681990 F100.000000
G1 X15.478393 Y16.633405 F100.000000
G1 X15.444582 Y16.563197 F100.000000
G1 Y16.485273 F100.000000
G1 X15.478393 Y16.415065 F100.000000
G1 X15.539316 Y16.366480 F100.000000
G1 X15.615287 Y16.349140 F100.000000
G1 X15.956352 F100.000000
G1 X15.528457 Y16.104784 F100.000000
G1 X15.504176 Y16.082467 F100.000000
G1 X15.478393 Y16.061905 F100.000000
G1 X15.475683 Y16.056278 F100.000000
G1 X15.471085 Y16.052052 F100.000000
G1 X15.458891 Y16.021410 F100.000000
G1 X15.444582 Y15.991697 F100.000000
G1 Y15.985452 F100.000000
G1 X15.442273 Y15.979650 F100.000000
G1 X15.444582 Y15.946752 F100.000000
G1 Y15.913773 F100.000000
G1 X15.447292 Y15.908146 F100.000000
G1 X15.447729 Y15.901916 F100.000000
G1 X15.464084 Y15.873278 F100.000000
G1 X15.478393 Y15.843565 F100.000000
G1 X15.483275 Y15.839671 F100.000000
G1 X15.486372 Y15.834248 F100.000000
G1 X15.513533 Y15.815542 F100.000000
G1 X15.539316 Y15.794980 F100.000000
G1 X15.545405 Y15.793590 F100.000000
G1 X15.550548 Y15.790048 F100.000000
G1 X15.583135 Y15.784978 F100.000000
G1 X15.615287 Y15.777640 F100.000000
G1 X16.616047 F100.000000
G1 X16.692018 Y15.794980 F100.000000
G1 X16.752942 Y15.843565 F100.000000
G1 X16.786752 Y15.913773 F100.000000
G1 Y15.991697 F100.000000
G1 X16.752942 Y16.061905 F100.000000
G1 X16.692018 Y16.110490 F100.000000
G1 X16.616047 Y16.127830 F100.000000
G1 X16.274982 F100.000000
G1 X16.702877 Y16.372186 F100.000000
G1 X16.727158 Y16.394503 F100.000000
G1 X16.752942 Y16.415065 F100.000000
G1 X16.755652 Y16.420692 F100.000000
G1 X16.760250 Y16.424918 F100.000000
G1 X16.772443 Y16.455560 F100.000000
G1 X16.786752 Y16.485273 F100.000000
G1 Y16.491518 F100.000000
G1 X16.789061 Y16.497320 F100.000000
G1 X16.786752 Y16.530218 F100.000000
G1 Y16.563197 F100.000000
G1 X16.784043 Y16.568824 F100.000000
G1 X16.783605 Y16.575054 F100.000000
G1 X16.767251 Y16.603692 F100.000000
G1 X16.752942 Y16.633405 F100.000000
G1 X16.748059 Y16.637299 F100.000000
G1 X16.744962 Y16.642722 F100.000000
G0 Z2.000000
G0 X16.725217 Y15.612110
G1 Z-0.040000 F60.000000
G1 X16.707443 Y15.620670 F100.000000
G1 X16.692018 Y15.632970 F100.000000
G1 X16.672784 Y15.637360 F100.000000
G1 X16.655010 Y15.645920 F100.000000
G1 X16.635281 F100.000000
G1 X16.616047 Y15.650310 F100.000000
G1 X15.615287 F100.000000
G1 X15.596054 Y15.645920 F100.000000
G1 X15.576325 F100.000000
G1 X15.558550 Y15.637360 F100.000000
G1 X15.539316 Y15.632970 F100.000000
G1 X15.523892 Y15.620670 F100.000000
G1 X15.506117 Y15.612110 F100.000000
G1 X15.493817 Y15.596685 F100.000000
G1 X15.478393 Y15.584385 F100.000000
G1 X15.469833 Y15.566610 F100.000000
G1 X15.457532 Y15.551186 F100.000000
G1 X15.453142 Y15.531952 F100.000000
G1 X15.444582 Y15.514177 F100.000000
G1 Y15.494449 F100.000000
G1 X15.440192 Y15.475215 F100.000000
G1 Y15.236455 F100.000000
G1 X15.446548 Y15.208609 F100.000000
G1 X15.449476 Y15.180198 F100.000000
G1 X15.497736 Y15.037958 F100.000000
G1 X15.498808 Y15.036216 F100.000000
G1 X15.499064 Y15.034187 F100.000000
G1 X15.519172 Y15.003112 F100.000000
G0 Z2.000000
G1 Z-0.040000 F60.000000
G1 X15.538566 Y14.971586 F100.000000
G1 X15.540287 Y14.970482 F100.000000
G1 X15.541398 Y14.968764 F100.000000
G1 X15.637918 Y14.874784 F100.000000
G1 X15.660148 Y14.861227 F100.000000
G1 X15.680083 Y14.844476 F100.000000
G1 X15.774063 Y14.796216 F100.000000
G1 X15.793336 Y14.791295 F100.000000
G1 X15.811048 Y14.782242 F100.000000
G1 X16.001548 Y14.733982 F100.000000
G1 X16.023318 Y14.733466 F100.000000
G1 X16.044547 Y14.728620 F100.000000
G1 X16.186787 F100.000000
G1 X16.208017 Y14.733466 F100.000000
G1 X16.229786 Y14.733982 F100.000000
G1 X16.420286 Y14.782242 F100.000000
G1 X16.437171 Y14.790872 F100.000000
G1 X16.455592 Y14.795365 F100.000000
G1 X16.552112 Y14.843625 F100.000000
G1 X16.573822 Y14.861472 F100.000000
G1 X16.597618 Y14.876424 F100.000000
G1 X16.691598 Y14.970404 F100.000000
G1 X16.692052 Y14.971126 F100.000000
G1 X16.692769 Y14.971586 F100.000000
G1 X16.712759 Y15.004081 F100.000000
G1 X16.733057 Y15.036385 F100.000000
G1 X16.733152 Y15.037232 F100.000000
G1 X16.733599 Y15.037958 F100.000000
G1 X16.781859 Y15.180198 F100.000000
G1 X16.784787 Y15.208609 F100.000000
G1 X16.791142 Y15.236455 F100.000000
G1 Y15.475215 F100.000000
G1 X16.786752 Y15.494449 F100.000000
G1 Y15.514177 F100.000000
G1 X16.778192 Y15.531952 F100.000000
G1 X16.773802 Y15.551186 F100.000000
G1 X16.761502 Y15.566610 F100.000000
G1 X16.752942 Y15.584385 F100.000000
G1 X16.737518 Y15.596685 F100.000000
G1 X16.725217 Y15.612110 F100.000000
G0 Z2.000000
G0 X15.790382 Y15.300120
G1 Z-0.040000 F60.000000
G1 X16.440952 F100.000000
G1 Y15.265350 F100.000000
G1 X16.415098 Y15.189147 F100.000000
G1 X16.370088 Y15.144138 F100.000000
G1 X16.315926 Y15.117056 F100.000000
G1 X16.164954 Y15.078810 F100.000000
G1 X16.066381 F100.000000
G1 X15.916333 Y15.116822 F100.000000
G1 X15.863406 Y15.144001 F100.000000
G1 X15.815841 Y15.190315 F100.000000
G1 X15.790382 Y15.265350 F100.000000
G1 Y15.300120 F100.000000
G0 Z2.000000
G0 X15.615287 Y26.112900
G1 Z-0.040000 F60.000000
G1 X15.821192 F100.000000
G1 Y25.906995 F100.000000
G1 X15.838532 Y25.831024 F100.000000
G1 X15.887117 Y25.770100 F100.000000
G1 X15.957325 Y25.736290 F100.000000
G1 X16.035250 F100.000000
G1 X16.105457 Y25.770100 F100.000000
G1 X16.154042 Y25.831024 F100.000000
G1 X16.171382 Y25.906995 F100.000000
G1 Y26.112900 F100.000000
G1 X16.377287 F100.000000
G1 X16.453258 Y26.130240 F100.000000
G1 X16.514182 Y26.178825 F100.000000
G1 X16.547992 Y26.249033 F100.000000
G1 Y26.326957 F100.000000
G1 X16.514182 Y26.397165 F100.000000
G1 X16.453258 Y26.445750 F100.000000
G1 X16.377287 Y26.463090 F100.000000
G1 X16.171382 F100.000000
G1 Y26.668995 F100.000000
G1 X16.154042 Y26.744966 F100.000000
G1 X16.105457 Y26.805890 F100.000000
G1 X16.035250 Y26.839700 F100.000000
G1 X15.957325 F100.000000
G1 X15.887117 Y26.805890 F100.000000
G1 X15.838532 Y26.744966 F100.000000
G1 X15.821192 Y26.668995 F100.000000
G1 Y26.463090 F100.000000
G1 X15.615287 F100.000000
G1 X15.539316 Y26.445750 F100.000000
G1 X15.478393 Y26.397165 F100.000000
G1 X15.444582 Y26.326957 F100.000000
G1 Y26.249033 F100.000000
G1 X15.478393 Y26.178825 F100.000000
G1 X15.539316 Y26.130240 F100.000000
G1 X15.615287 Y26.112900 F100.000000
G0 Z2.000000
G0 X15.835618 Y25.353924
G1 Z-0.040000 F60.000000
G1 X15.877077 Y25.419905 F100.000000
G1 X15.885801 Y25.497339 F100.000000
G1 X15.860065 Y25.570891 F100.000000
G1 X15.804964 Y25.625992 F100.000000
G1 X15.731412 Y25.651729 F100.000000
G1 X15.653977 Y25.643004 F100.000000
G1 X15.587996 Y25.601546 F100.000000
G1 X15.539736 Y25.553286 F100.000000
G1 X15.525275 Y25.530270 F100.000000
G1 X15.507789 Y25.509459 F100.000000
G1 X15.459529 Y25.415479 F100.000000
G1 X15.458961 Y25.413258 F100.000000
G1 X15.457532 Y25.411466 F100.000000
G1 X15.449349 Y25.375611 F100.000000
G1 X15.440250 Y25.339977 F100.000000
G1 X15.440702 Y25.337730 F100.000000
G1 X15.440192 Y25.335495 F100.000000
G1 Y25.096735 F100.000000
G1 X15.440489 Y25.095437 F100.000000
G1 X15.440212 Y25.094135 F100.000000
G1 X15.449144 Y25.057514 F100.000000
G1 X15.457532 Y25.020764 F100.000000
G1 X15.458362 Y25.019723 F100.000000
G1 X15.458678 Y25.018430 F100.000000
G1 X15.506938 Y24.921910 F100.000000
G1 X15.526254 Y24.898413 F100.000000
G1 X15.543127 Y24.873104 F100.000000
G1 X15.591387 Y24.827384 F100.000000
G1 X15.612788 Y24.814730 F100.000000
G1 X15.631823 Y24.798736 F100.000000
G1 X15.725803 Y24.750476 F100.000000
G1 X15.728024 Y24.749909 F100.000000
G1 X15.729816 Y24.748480 F100.000000
G1 X15.765671 Y24.740296 F100.000000
G1 X15.801305 Y24.731197 F100.000000
G1 X15.803552 Y24.731650 F100.000000
G1 X15.805787 Y24.731140 F100.000000
G1 X16.044547 F100.000000
G1 X16.045845 Y24.731436 F100.000000
G1 X16.047147 Y24.731159 F100.000000
G1 X16.083768 Y24.740092 F100.000000
G1 X16.120518 Y24.748480 F100.000000
G1 X16.121559 Y24.749310 F100.000000
G1 X16.122852 Y24.749625 F100.000000
G1 X16.219372 Y24.797885 F100.000000
G1 X16.241082 Y24.815732 F100.000000
G1 X16.264878 Y24.830684 F100.000000
G1 X16.310598 Y24.876404 F100.000000
G1 X16.325550 Y24.900200 F100.000000
G1 X16.343397 Y24.921910 F100.000000
G1 X16.391657 Y25.018430 F100.000000
G1 X16.391973 Y25.019723 F100.000000
G1 X16.392802 Y25.020764 F100.000000
G1 X16.401190 Y25.057514 F100.000000
G1 X16.410123 Y25.094135 F100.000000
G1 X16.409846 Y25.095437 F100.000000
G1 X16.410142 Y25.096735 F100.000000
G1 Y25.274399 F100.000000
G1 X16.440952 Y25.271269 F100.000000
G1 Y24.954495 F100.000000
G1 X16.458292 Y24.878524 F100.000000
G1 X16.506877 Y24.817600 F100.000000
G1 X16.571632 Y24.786416 F100.000000
G1 X16.560804 Y24.785367 F100.000000
G1 X15.560044 Y24.452627 F100.000000
G1 X15.540874 Y24.440995 F100.000000
G1 X15.519828 Y24.433260 F100.000000
G1 X15.507979 Y24.421035 F100.000000
G1 X15.493424 Y24.412203 F100.000000
G1 X15.481200 Y24.393406 F100.000000
G1 X15.465594 Y24.377306 F100.000000
G1 X15.460223 Y24.361150 F100.000000
G1 X15.450941 Y24.346878 F100.000000
G1 X15.448083 Y24.324638 F100.000000
G1 X15.441008 Y24.303361 F100.000000
G1 X15.443179 Y24.286475 F100.000000
G1 X15.441008 Y24.269589 F100.000000
G1 X15.448083 Y24.248312 F100.000000
G1 X15.450941 Y24.226072 F100.000000
G1 X15.460223 Y24.211800 F100.000000
G1 X15.465594 Y24.195644 F100.000000
G1 X15.481200 Y24.179544 F100.000000
G1 X15.493424 Y24.160747 F100.000000
G1 X15.507979 Y24.151915 F100.000000
G1 X15.519828 Y24.139690 F100.000000
G1 X15.540874 Y24.131955 F100.000000
G1 X15.560044 Y24.120323 F100.000000
G1 X16.560804 Y23.787583 F100.000000
G1 X16.638365 Y23.780068 F100.000000
G1 X16.711506 Y23.806950 F100.000000
G1 X16.765741 Y23.862904 F100.000000
G1 X16.790326 Y23.936849 F100.000000
G1 X16.780394 Y24.014138 F100.000000
G1 X16.737910 Y24.079463 F100.000000
G1 X16.671291 Y24.119887 F100.000000
G0 Z2.000000
G1 Z-0.040000 F60.000000
G1 X16.170255 Y24.286475 F100.000000
G1 X16.671291 Y24.453063 F100.000000
G1 X16.737910 Y24.493487 F100.000000
G1 X16.780394 Y24.558812 F100.000000
G1 X16.790326 Y24.636101 F100.000000
G1 X16.765741 Y24.710046 F100.000000
G1 X16.711506 Y24.766000 F100.000000
G1 X16.658513 Y24.785477 F100.000000
G1 X16.725217 Y24.817600 F100.000000
G1 X16.773802 Y24.878524 F100.000000
G1 X16.791142 Y24.954495 F100.000000
G1 Y25.429475 F100.000000
G1 X16.788713 Y25.440120 F100.000000
G1 X16.789816 Y25.450982 F100.000000
G1 X16.780131 Y25.477720 F100.000000
G1 X16.773802 Y25.505446 F100.000000
G1 X16.766995 Y25.513982 F100.000000
G1 X16.763276 Y25.524248 F100.000000
G1 X16.742948 Y25.544136 F100.000000
G1 X16.725217 Y25.566370 F100.000000
G1 X16.715380 Y25.571107 F100.000000
G1 X16.707576 Y25.578743 F100.000000
G1 X16.680632 Y25.587841 F100.000000
G1 X16.655010 Y25.600180 F100.000000
G1 X16.644091 F100.000000
G1 X16.633747 Y25.603673 F100.000000
G1 X16.158767 Y25.651933 F100.000000
G1 X16.142451 Y25.649914 F100.000000
G1 X16.126171 Y25.652195 F100.000000
G1 X16.104261 Y25.645187 F100.000000
G1 X16.081432 Y25.642362 F100.000000
G1 X16.067609 Y25.633463 F100.000000
G1 X16.051951 Y25.628455 F100.000000
G1 X16.035251 Y25.612634 F100.000000
G1 X16.015909 Y25.600184 F100.000000
G1 X16.007316 Y25.586169 F100.000000
G1 X15.995381 Y25.574863 F100.000000
G1 X15.987200 Y25.553363 F100.000000
G1 X15.975175 Y25.533753 F100.000000
G1 X15.973513 Y25.517398 F100.000000
G1 X15.967666 Y25.502033 F100.000000
G1 X15.969624 Y25.479113 F100.000000
G1 X15.967298 Y25.456228 F100.000000
G1 X15.972897 Y25.440771 F100.000000
G1 X15.974296 Y25.424391 F100.000000
G1 X15.986004 Y25.404590 F100.000000
G1 X15.993838 Y25.382962 F100.000000
G1 X16.005590 Y25.371465 F100.000000
G1 X16.013957 Y25.357314 F100.000000
G1 X16.042462 Y25.327225 F100.000000
G1 X16.059952 Y25.293166 F100.000000
G1 Y25.138069 F100.000000
G1 X16.042885 Y25.103934 F100.000000
G1 X16.037348 Y25.098398 F100.000000
G1 X16.003213 Y25.081330 F100.000000
G1 X15.848117 F100.000000
G1 X15.814057 Y25.098820 F100.000000
G1 X15.806362 Y25.106111 F100.000000
G1 X15.790382 Y25.138069 F100.000000
G1 Y25.293166 F100.000000
G1 X15.806767 Y25.325073 F100.000000
G1 X15.835618 Y25.353924 F100.000000
G0 Z2.000000
G0 X64.455517 Y48.691984
G1 Z-0.040000 F60.000000
G1 X64.455701 Y48.694135 F100.000000
G1 X64.934467 F100.000000
G1 X65.022285 Y48.714179 F100.000000
G1 X65.092710 Y48.770341 F100.000000
G1 X65.131793 Y48.851497 F100.000000
G1 Y48.941573 F100.000000
G1 X65.092710 Y49.022729 F100.000000
G1 X65.022285 Y49.078891 F100.000000
G1 X64.934467 Y49.098935 F100.000000
G1 X62.902467 F100.000000
G1 X62.814649 Y49.078891 F100.000000
G1 X62.744225 Y49.022729 F100.000000
G1 X62.705142 Y48.941573 F100.000000
G1 Y48.851497 F100.000000
G1 X62.744225 Y48.770341 F100.000000
G1 X62.814649 Y48.714179 F100.000000
G1 X62.902467 Y48.694135 F100.000000
G1 X63.994838 F100.000000
G1 X64.010108 Y48.682482 F100.000000
G1 X64.053887 Y48.616813 F100.000000
G1 Y48.520937 F100.000000
G1 X64.027217 Y48.480931 F100.000000
G1 X63.929423 Y48.443615 F100.000000
G1 X62.902467 F100.000000
G1 X62.814649 Y48.423571 F100.000000
G1 X62.744225 Y48.367409 F100.000000
G1 X62.705142 Y48.286253 F100.000000
G1 Y48.196177 F100.000000
G1 X62.744225 Y48.115021 F100.000000
G1 X62.814649 Y48.058859 F100.000000
G1 X62.902467 Y48.038815 F100.000000
G1 X63.966727 F100.000000
G1 X64.002525 Y48.046986 F100.000000
G1 X64.038884 Y48.052114 F100.000000
G1 X64.231924 Y48.125774 F100.000000
G1 X64.246308 Y48.135383 F100.000000
G1 X64.262784 Y48.140653 F100.000000
G1 X64.283312 Y48.160101 F100.000000
G1 X64.306826 Y48.175809 F100.000000
G1 X64.315617 Y48.190707 F100.000000
G1 X64.328174 Y48.202604 F100.000000
G1 X64.424694 Y48.347384 F100.000000
G1 X64.429761 Y48.360699 F100.000000
G1 X64.438643 Y48.371837 F100.000000
G1 X64.445604 Y48.402334 F100.000000
G1 X64.456729 Y48.431571 F100.000000
G1 X64.455517 Y48.445766 F100.000000
G1 X64.458687 Y48.459655 F100.000000
G1 Y48.678095 F100.000000
G1 X64.455517 Y48.691984 F100.000000
G0 Z2.000000
G0 X63.104867 Y46.282875
G1 Z-0.040000 F60.000000
G1 Y46.366373 F100.000000
G1 X63.131538 Y46.406379 F100.000000
G1 X63.229331 Y46.443695 F100.000000
G1 X64.053887 F100.000000
G1 Y46.282875 F100.000000
G1 X64.073931 Y46.195057 F100.000000
G1 X64.130093 Y46.124632 F100.000000
G1 X64.211249 Y46.085550 F100.000000
G1 X64.301326 F100.000000
G1 X64.382482 Y46.124632 F100.000000
G1 X64.438643 Y46.195057 F100.000000
G1 X64.458687 Y46.282875 F100.000000
G1 Y46.443695 F100.000000
G1 X64.934467 F100.000000
G1 X65.022285 Y46.463739 F100.000000
G1 X65.092710 Y46.519901 F100.000000
G1 X65.131793 Y46.601057 F100.000000
G1 Y46.691133 F100.000000
G1 X65.092710 Y46.772289 F100.000000
G1 X65.022285 Y46.828451 F100.000000
G1 X64.934467 Y46.848495 F100.000000
G1 X64.458687 F100.000000
G1 Y46.864535 F100.000000
G1 X64.438643 Y46.952353 F100.000000
G1 X64.393218 Y47.009315 F100.000000
G1 X64.438643 Y47.066277 F100.000000
G1 X64.458687 Y47.154095 F100.000000
G1 Y47.314915 F100.000000
G1 X64.934467 F100.000000
G1 X65.022285 Y47.334959 F100.000000
G1 X65.092710 Y47.391121 F100.000000
G1 X65.131793 Y47.472277 F100.000000
G1 Y47.562353 F100.000000
G1 X65.092710 Y47.643509 F100.000000
G1 X65.022285 Y47.699671 F100.000000
G1 X64.934467 Y47.719715 F100.000000
G1 X64.458687 F100.000000
G1 Y47.733215 F100.000000
G1 X64.438643 Y47.821033 F100.000000
G1 X64.382482 Y47.891458 F100.000000
G1 X64.301326 Y47.930540 F100.000000
G1 X64.211249 F100.000000
G1 X64.130093 Y47.891458 F100.000000
G1 X64.073931 Y47.821033 F100.000000
G1 X64.053887 Y47.733215 F100.000000
G1 Y47.719715 F100.000000
G1 X63.192027 F100.000000
G1 X63.156229 Y47.711544 F100.000000
G1 X63.119870 Y47.706416 F100.000000
G1 X62.926830 Y47.632756 F100.000000
G1 X62.912446 Y47.623147 F100.000000
G1 X62.895971 Y47.617877 F100.000000
G1 X62.875443 Y47.598429 F100.000000
G1 X62.851928 Y47.582721 F100.000000
G1 X62.843138 Y47.567823 F100.000000
G1 X62.830580 Y47.555926 F100.000000
G1 X62.734060 Y47.411146 F100.000000
G1 X62.728994 Y47.397831 F100.000000
G1 X62.720111 Y47.386693 F100.000000
G1 X62.713150 Y47.356196 F100.000000
G1 X62.702025 Y47.326959 F100.000000
G1 X62.703237 Y47.312764 F100.000000
G1 X62.700067 Y47.298875 F100.000000
G1 Y47.154095 F100.000000
G1 X62.720111 Y47.066277 F100.000000
G1 X62.776273 Y46.995852 F100.000000
G1 X62.857429 Y46.956770 F100.000000
G1 X62.947506 F100.000000
G1 X63.028662 Y46.995852 F100.000000
G1 X63.084823 Y47.066277 F100.000000
G1 X63.104867 Y47.154095 F100.000000
G1 Y47.237593 F100.000000
G1 X63.131538 Y47.277599 F100.000000
G1 X63.229331 Y47.314915 F100.000000
G1 X64.053887 F100.000000
G1 Y47.154095 F100.000000
G1 X64.073931 Y47.066277 F100.000000
G1 X64.119357 Y47.009315 F100.000000
G1 X64.073931 Y46.952353 F100.000000
G1 X64.053887 Y46.864535 F100.000000
G1 Y46.848495 F100.000000
G1 X63.192027 F100.000000
G1 X63.156229 Y46.840324 F100.000000
G1 X63.119870 Y46.835196 F100.000000
G1 X62.926830 Y46.761536 F100.000000
G1 X62.912446 Y46.751927 F100.000000
G1 X62.895971 Y46.746657 F100.000000
G1 X62.875443 Y46.727209 F100.000000
G1 X62.851928 Y46.711501 F100.000000
G1 X62.843138 Y46.696603 F100.000000
G1 X62.830580 Y46.684706 F100.000000
G1 X62.734060 Y46.539926 F100.000000
G1 X62.728994 Y46.526611 F100.000000
G1 X62.720111 Y46.515473 F100.000000
G1 X62.713150 Y46.484976 F100.000000
G1 X62.702025 Y46.455739 F100.000000
G1 X62.703237 Y46.441544 F100.000000
G1 X62.700067 Y46.427655 F100.000000
G1 Y46.282875 F100.000000
G1 X62.720111 Y46.195057 F100.000000
G1 X62.776273 Y46.124632 F100.000000
G1 X62.857429 Y46.085550 F100.000000
G1 X62.947506 F100.000000
G1 X63.028662 Y46.124632 F100.000000
G1 X63.084823 Y46.195057 F100.000000
G1 X63.104867 Y46.282875 F100.000000
G0 Z2.000000
G0 X62.712974 Y45.283987
G1 Z-0.040000 F60.000000
G1 X62.720111 Y45.252717 F100.000000
G1 X62.728489 Y45.242211 F100.000000
G1 X62.733168 Y45.229614 F100.000000
G1 X62.829688 Y45.082294 F100.000000
G1 X62.855517 Y45.057429 F100.000000
G1 X62.878924 Y45.030272 F100.000000
G1 X62.975444 Y44.959152 F100.000000
G1 X63.000566 Y44.948214 F100.000000
G1 X63.023350 Y44.932994 F100.000000
G1 X63.216390 Y44.859334 F100.000000
G1 X63.252749 Y44.854206 F100.000000
G1 X63.288547 Y44.846035 F100.000000
G1 X63.870207 F100.000000
G1 X63.906005 Y44.854206 F100.000000
G1 X63.942364 Y44.859334 F100.000000
G1 X64.135404 Y44.932994 F100.000000
G1 X64.158188 Y44.948214 F100.000000
G1 X64.183311 Y44.959152 F100.000000
G1 X64.279831 Y45.030272 F100.000000
G1 X64.303238 Y45.057429 F100.000000
G1 X64.329067 Y45.082294 F100.000000
G1 X64.425587 Y45.229614 F100.000000
G1 X64.430265 Y45.242211 F100.000000
G1 X64.438643 Y45.252717 F100.000000
G1 X64.445781 Y45.283987 F100.000000
G1 X64.456948 Y45.314055 F100.000000
G1 X64.455697 Y45.327435 F100.000000
G1 X64.458687 Y45.340535 F100.000000
G1 Y45.630095 F100.000000
G1 X64.455517 Y45.643984 F100.000000
G1 X64.456729 Y45.658179 F100.000000
G1 X64.445604 Y45.687416 F100.000000
G1 X64.441610 Y45.704914 F100.000000
G1 X64.453613 Y45.729837 F100.000000
G1 Y45.819913 F100.000000
G1 X64.414530 Y45.901069 F100.000000
G1 X64.344105 Y45.957231 F100.000000
G1 X64.256287 Y45.977275 F100.000000
G1 X62.224287 F100.000000
G1 X62.136469 Y45.957231 F100.000000
G1 X62.066045 Y45.901069 F100.000000
G1 X62.026962 Y45.819913 F100.000000
G1 Y45.729837 F100.000000
G1 X62.066045 Y45.648681 F100.000000
G1 X62.136469 Y45.592519 F100.000000
G1 X62.224287 Y45.572475 F100.000000
G1 X62.700067 F100.000000
G1 Y45.340535 F100.000000
G1 X62.703057 Y45.327435 F100.000000
G1 X62.701807 Y45.314055 F100.000000
G1 X62.712974 Y45.283987 F100.000000
G0 Z2.000000
G0 X63.107309 Y45.572475
G1 Z-0.040000 F60.000000
G1 X64.051446 F100.000000
G1 X64.053887 Y45.568813 F100.000000
G1 Y45.400934 F100.000000
G1 X64.010409 Y45.334573 F100.000000
G1 X63.965357 Y45.301377 F100.000000
G1 X63.832903 Y45.250835 F100.000000
G1 X63.325851 F100.000000
G1 X63.193397 Y45.301377 F100.000000
G1 X63.148345 Y45.334573 F100.000000
G1 X63.104867 Y45.400934 F100.000000
G1 Y45.568813 F100.000000
G1 X63.107309 Y45.572475 F100.000000
G0 Z2.000000
G0 X62.954157 Y44.665729
G1 Z-0.040000 F60.000000
G1 X62.949751 Y44.665635 F100.000000
G1 X62.913352 Y44.647139 F100.000000
G1 X62.876197 Y44.630213 F100.000000
G1 X62.779677 Y44.556553 F100.000000
G1 X62.775749 Y44.551838 F100.000000
G1 X62.770326 Y44.548967 F100.000000
G1 X62.759066 Y44.533685 F100.000000
G1 X62.744225 Y44.521849 F100.000000
G1 X62.735256 Y44.503225 F100.000000
G1 X62.722026 Y44.487342 F100.000000
G1 X62.720533 Y44.481390 F100.000000
G1 X62.716893 Y44.476450 F100.000000
G1 X62.713378 Y44.457796 F100.000000
G1 X62.705142 Y44.440693 F100.000000
G1 Y44.420022 F100.000000
G1 X62.700113 Y44.399972 F100.000000
G1 X62.701351 Y44.393961 F100.000000
G1 X62.700215 Y44.387931 F100.000000
G1 X62.705142 Y44.369599 F100.000000
G1 Y44.350617 F100.000000
G1 X62.714111 Y44.331993 F100.000000
G1 X62.718280 Y44.311746 F100.000000
G1 X62.722003 Y44.306868 F100.000000
G1 X62.723595 Y44.300942 F100.000000
G1 X62.735989 Y44.286563 F100.000000
G1 X62.744225 Y44.269461 F100.000000
G1 X62.760386 Y44.256572 F100.000000
G1 X62.772927 Y44.240140 F100.000000
G1 X62.778398 Y44.237360 F100.000000
G1 X62.782404 Y44.232712 F100.000000
G1 X62.878924 Y44.161592 F100.000000
G1 X62.913309 Y44.146621 F100.000000
G1 X62.946452 Y44.129072 F100.000000
G1 X62.954306 Y44.128772 F100.000000
G1 X62.961512 Y44.125635 F100.000000
G1 X62.998987 Y44.127066 F100.000000
G1 X63.036462 Y44.125635 F100.000000
G1 X63.043669 Y44.128772 F100.000000
G1 X63.051523 Y44.129072 F100.000000
G1 X63.084666 Y44.146621 F100.000000
G1 X63.119051 Y44.161592 F100.000000
G1 X63.215571 Y44.232712 F100.000000
G1 X63.219577 Y44.237360 F100.000000
G1 X63.225048 Y44.240140 F100.000000
G1 X63.237589 Y44.256572 F100.000000
G1 X63.253750 Y44.269461 F100.000000
G1 X63.261986 Y44.286563 F100.000000
G1 X63.274379 Y44.300942 F100.000000
G1 X63.275972 Y44.306868 F100.000000
G1 X63.279695 Y44.311746 F100.000000
G1 X63.283864 Y44.331993 F100.000000
G1 X63.292833 Y44.350617 F100.000000
G1 Y44.369599 F100.000000
G1 X63.297760 Y44.387931 F100.000000
G1 X63.296624 Y44.393961 F100.000000
G1 X63.297861 Y44.399972 F100.000000
G1 X63.292833 Y44.420022 F100.000000
G1 Y44.440693 F100.000000
G1 X63.284597 Y44.457796 F100.000000
G1 X63.281082 Y44.476450 F100.000000
G1 X63.277442 Y44.481390 F100.000000
G1 X63.275949 Y44.487342 F100.000000
G1 X63.262719 Y44.503225 F100.000000
G1 X63.253750 Y44.521849 F100.000000
G1 X63.238909 Y44.533685 F100.000000
G1 X63.227649 Y44.548967 F100.000000
G1 X63.222226 Y44.551838 F100.000000
G1 X63.218298 Y44.556553 F100.000000
G1 X63.121778 Y44.630213 F100.000000
G1 X63.084623 Y44.647139 F100.000000
G1 X63.048224 Y44.665635 F100.000000
G1 X63.043818 Y44.665729 F100.000000
G1 X63.039807 Y44.667556 F100.000000
G1 X62.998987 Y44.666685 F100.000000
G1 X62.958168 Y44.667556 F100.000000
G1 X62.954157 Y44.665729 F100.000000
G0 Z2.000000
G0 X64.018417
G1 Z-0.040000 F60.000000
G1 X64.014011 Y44.665635 F100.000000
G1 X63.977612 Y44.647139 F100.000000
G1 X63.940457 Y44.630213 F100.000000
G1 X63.843937 Y44.556553 F100.000000
G1 X63.840009 Y44.551838 F100.000000
G1 X63.834586 Y44.548967 F100.000000
G1 X63.823326 Y44.533685 F100.000000
G1 X63.808485 Y44.521849 F100.000000
G1 X63.799516 Y44.503225 F100.000000
G1 X63.786286 Y44.487342 F100.000000
G1 X63.784793 Y44.481390 F100.000000
G1 X63.781153 Y44.476450 F100.000000
G1 X63.777638 Y44.457796 F100.000000
G1 X63.769402 Y44.440693 F100.000000
G1 Y44.420022 F100.000000
G1 X63.764373 Y44.399972 F100.000000
G1 X63.765611 Y44.393961 F100.000000
G1 X63.764475 Y44.387931 F100.000000
G1 X63.769402 Y44.369599 F100.000000
G1 Y44.350617 F100.000000
G1 X63.778371 Y44.331993 F100.000000
G1 X63.782540 Y44.311746 F100.000000
G1 X63.786263 Y44.306868 F100.000000
G1 X63.787855 Y44.300942 F100.000000
G1 X63.800249 Y44.286563 F100.000000
G1 X63.808485 Y44.269461 F100.000000
G1 X63.824646 Y44.256572 F100.000000
G1 X63.837187 Y44.240140 F100.000000
G1 X63.842658 Y44.237360 F100.000000
G1 X63.846664 Y44.232712 F100.000000
G1 X63.943184 Y44.161592 F100.000000
G1 X63.977569 Y44.146621 F100.000000
G1 X64.010712 Y44.129072 F100.000000
G1 X64.018566 Y44.128772 F100.000000
G1 X64.025772 Y44.125635 F100.000000
G1 X64.063247 Y44.127066 F100.000000
G1 X64.100722 Y44.125635 F100.000000
G1 X64.107929 Y44.128772 F100.000000
G1 X64.115783 Y44.129072 F100.000000
G1 X64.148926 Y44.146621 F100.000000
G1 X64.183311 Y44.161592 F100.000000
G1 X64.279831 Y44.232712 F100.000000
G1 X64.283837 Y44.237360 F100.000000
G1 X64.289308 Y44.240140 F100.000000
G1 X64.301849 Y44.256572 F100.000000
G1 X64.318010 Y44.269461 F100.000000
G1 X64.326246 Y44.286563 F100.000000
G1 X64.338639 Y44.300942 F100.000000
G1 X64.340232 Y44.306868 F100.000000
G1 X64.343955 Y44.311746 F100.000000
G1 X64.348124 Y44.331993 F100.000000
G1 X64.357093 Y44.350617 F100.000000
G1 Y44.369599 F100.000000
G1 X64.362020 Y44.387931 F100.000000
G1 X64.360884 Y44.393961 F100.000000
G1 X64.362121 Y44.399972 F100.000000
G1 X64.357093 Y44.420022 F100.000000
G1 Y44.440693 F100.000000
G1 X64.348857 Y44.457796 F100.000000
G1 X64.345342 Y44.476450 F100.000000
G1 X64.341702 Y44.481390 F100.000000
G1 X64.340209 Y44.487342 F100.000000
G1 X64.326979 Y44.503225 F100.000000
G1 X64.318010 Y44.521849 F100.000000
G1 X64.303169 Y44.533685 F100.000000
G1 X64.291909 Y44.548967 F100.000000
G1 X64.286486 Y44.551838 F100.000000
G1 X64.282558 Y44.556553 F100.000000
G1 X64.186038 Y44.630213 F100.000000
G1 X64.148883 Y44.647139 F100.000000
G1 X64.112484 Y44.665635 F100.000000
G1 X64.108078 Y44.665729 F100.000000
G1 X64.104067 Y44.667556 F100.000000
G1 X64.063247 Y44.666685 F100.000000
G1 X64.022428 Y44.667556 F100.000000
G1 X64.018417 Y44.665729 F100.000000
G0 Z2.000000
G0 X64.940542 Y42.401028
G1 Z-0.040000 F60.000000
G1 X65.028061 Y42.379716 F100.000000
G1 X65.116159 Y42.398488 F100.000000
G1 X65.187389 Y42.453626 F100.000000
G1 X65.227641 Y42.534208 F100.000000
G1 X65.228943 Y42.624275 F100.000000
G1 X65.191038 Y42.705988 F100.000000
G1 X65.121433 Y42.763162 F100.000000
G1 X62.507773 Y44.068722 F100.000000
G1 X62.420254 Y44.090034 F100.000000
G1 X62.332155 Y44.071262 F100.000000
G1 X62.260926 Y44.016124 F100.000000
G1 X62.220674 Y43.935542 F100.000000
G1 X62.219371 Y43.845475 F100.000000
G1 X62.257277 Y43.763762 F100.000000
G1 X62.326882 Y43.706588 F100.000000
G1 X64.940542 Y42.401028 F100.000000
G0 Z2.000000
G0 X64.940401 Y40.803438
G1 Z-0.040000 F60.000000
G1 X65.027903 Y40.782058 F100.000000
G1 X65.116017 Y40.800762 F100.000000
G1 X65.187289 Y40.855844 F100.000000
G1 X65.227604 Y40.936395 F100.000000
G1 X65.228976 Y41.026461 F100.000000
G1 X65.191134 Y41.108204 F100.000000
G1 X65.121574 Y41.165432 F100.000000
G1 X62.507914 Y42.473532 F100.000000
G1 X62.420411 Y42.494912 F100.000000
G1 X62.332298 Y42.476208 F100.000000
G1 X62.261026 Y42.421126 F100.000000
G1 X62.220711 Y42.340575 F100.000000
G1 X62.219339 Y42.250509 F100.000000
G1 X62.257180 Y42.168766 F100.000000
G1 X62.326741 Y42.111538 F100.000000
G1 X64.940401 Y40.803438 F100.000000
G0 Z2.000000
G0 X64.328174 Y39.711384
G1 Z-0.040000 F60.000000
G1 X64.424694 Y39.856164 F100.000000
G1 X64.429761 Y39.869479 F100.000000
G1 X64.438643 Y39.880617 F100.000000
G1 X64.445604 Y39.911114 F100.000000
G1 X64.456729 Y39.940351 F100.000000
G1 X64.455517 Y39.954546 F100.000000
G1 X64.458687 Y39.968435 F100.000000
G1 Y40.260535 F100.000000
G1 X64.455517 Y40.274424 F100.000000
G1 X64.456729 Y40.288619 F100.000000
G1 X64.445604 Y40.317856 F100.000000
G1 X64.438643 Y40.348353 F100.000000
G1 X64.429761 Y40.359491 F100.000000
G1 X64.424694 Y40.372806 F100.000000
G1 X64.328174 Y40.517586 F100.000000
G1 X64.302722 Y40.541700 F100.000000
G1 X64.279831 Y40.568258 F100.000000
G1 X64.183311 Y40.639378 F100.000000
G1 X64.158188 Y40.650316 F100.000000
G1 X64.135404 Y40.665536 F100.000000
G1 X63.942364 Y40.739196 F100.000000
G1 X63.906005 Y40.744324 F100.000000
G1 X63.870207 Y40.752495 F100.000000
G1 X63.288547 F100.000000
G1 X63.252749 Y40.744324 F100.000000
G1 X63.216390 Y40.739196 F100.000000
G1 X63.023350 Y40.665536 F100.000000
G1 X63.000566 Y40.650316 F100.000000
G1 X62.975444 Y40.639378 F100.000000
G1 X62.878924 Y40.568258 F100.000000
G1 X62.856033 Y40.541700 F100.000000
G1 X62.830580 Y40.517586 F100.000000
G1 X62.734060 Y40.372806 F100.000000
G1 X62.728994 Y40.359491 F100.000000
G1 X62.720111 Y40.348353 F100.000000
G1 X62.713150 Y40.317856 F100.000000
G1 X62.702025 Y40.288619 F100.000000
G1 X62.703237 Y40.274424 F100.000000
G1 X62.700067 Y40.260535 F100.000000
G1 Y39.968435 F100.000000
G1 X62.703237 Y39.954546 F100.000000
G1 X62.702025 Y39.940351 F100.000000
G1 X62.713150 Y39.911114 F100.000000
G1 X62.720111 Y39.880617 F100.000000
G1 X62.728994 Y39.869479 F100.000000
G1 X62.734060 Y39.856164 F100.000000
G1 X62.830580 Y39.711384 F100.000000
G1 X62.895971 Y39.649433 F100.000000
G1 X62.981765 Y39.621989 F100.000000
G1 X63.070970 Y39.634488 F100.000000
G1 X63.145918 Y39.684453 F100.000000
G1 X63.191765 Y39.761989 F100.000000
G1 X63.199429 Y39.851739 F100.000000
G1 X63.167394 Y39.935926 F100.000000
G1 X63.104867 Y40.029717 F100.000000
G1 Y40.199253 F100.000000
G1 X63.147673 Y40.263462 F100.000000
G1 X63.193397 Y40.297153 F100.000000
G1 X63.325851 Y40.347695 F100.000000
G1 X63.832903 F100.000000
G1 X63.965357 Y40.297153 F100.000000
G1 X64.011082 Y40.263462 F100.000000
G1 X64.053887 Y40.199253 F100.000000
G1 Y40.029717 F100.000000
G1 X63.991360 Y39.935926 F100.000000
G1 X63.959325 Y39.851739 F100.000000
G1 X63.966990 Y39.761989 F100.000000
G1 X64.012837 Y39.684453 F100.000000
G1 X64.087785 Y39.634488 F100.000000
G1 X64.176990 Y39.621989 F100.000000
G1 X64.262784 Y39.649433 F100.000000
G1 X64.328174 Y39.711384 F100.000000
G0 Z2.000000
G0 X63.991360 Y39.058604
G1 Z-0.040000 F60.000000
G1 X64.053887 Y38.964813 F100.000000
G1 Y38.796934 F100.000000
G1 X64.027090 Y38.756033 F100.000000
G1 X63.930629 Y38.720495 F100.000000
G1 X63.879469 F100.000000
G1 X63.877027 Y38.724157 F100.000000
G1 Y39.026095 F100.000000
G1 X63.873857 Y39.039984 F100.000000
G1 X63.875069 Y39.054179 F100.000000
G1 X63.863944 Y39.083416 F100.000000
G1 X63.856983 Y39.113913 F100.000000
G1 X63.848101 Y39.125051 F100.000000
G1 X63.843034 Y39.138366 F100.000000
G1 X63.746514 Y39.283146 F100.000000
G1 X63.733957 Y39.295043 F100.000000
G1 X63.725166 Y39.309941 F100.000000
G1 X63.701652 Y39.325649 F100.000000
G1 X63.681124 Y39.345097 F100.000000
G1 X63.664648 Y39.350367 F100.000000
G1 X63.650264 Y39.359976 F100.000000
G1 X63.457224 Y39.433636 F100.000000
G1 X63.420865 Y39.438764 F100.000000
G1 X63.385067 Y39.446935 F100.000000
G1 X63.192027 F100.000000
G1 X63.156229 Y39.438764 F100.000000
G1 X63.119870 Y39.433636 F100.000000
G1 X62.926830 Y39.359976 F100.000000
G1 X62.912446 Y39.350367 F100.000000
G1 X62.895971 Y39.345097 F100.000000
G1 X62.875443 Y39.325649 F100.000000
G1 X62.851928 Y39.309941 F100.000000
G1 X62.843138 Y39.295043 F100.000000
G1 X62.830580 Y39.283146 F100.000000
G1 X62.734060 Y39.138366 F100.000000
G1 X62.728994 Y39.125051 F100.000000
G1 X62.720111 Y39.113913 F100.000000
G1 X62.713150 Y39.083416 F100.000000
G1 X62.702025 Y39.054179 F100.000000
G1 X62.703237 Y39.039984 F100.000000
G1 X62.700067 Y39.026095 F100.000000
G1 Y38.662875 F100.000000
G1 X62.703237 Y38.648986 F100.000000
G1 X62.702025 Y38.634791 F100.000000
G1 X62.713150 Y38.605554 F100.000000
G1 X62.717144 Y38.588056 F100.000000
G1 X62.705142 Y38.563133 F100.000000
G1 Y38.473057 F100.000000
G1 X62.744225 Y38.391901 F100.000000
G1 X62.814649 Y38.335739 F100.000000
G1 X62.902467 Y38.315695 F100.000000
G1 X63.966727 F100.000000
G1 X64.001414 Y38.323612 F100.000000
G1 X64.036698 Y38.328174 F100.000000
G1 X64.229738 Y38.399294 F100.000000
G1 X64.245877 Y38.409808 F100.000000
G1 X64.264175 Y38.415823 F100.000000
G1 X64.283147 Y38.434087 F100.000000
G1 X64.305212 Y38.448462 F100.000000
G1 X64.315191 Y38.464936 F100.000000
G1 X64.329067 Y38.478294 F100.000000
G1 X64.425587 Y38.625614 F100.000000
G1 X64.430265 Y38.638211 F100.000000
G1 X64.438643 Y38.648717 F100.000000
G1 X64.445781 Y38.679987 F100.000000
G1 X64.456948 Y38.710055 F100.000000
G1 X64.455697 Y38.723435 F100.000000
G1 X64.458687 Y38.736535 F100.000000
G1 Y39.026095 F100.000000
G1 X64.455517 Y39.039984 F100.000000
G1 X64.456729 Y39.054179 F100.000000
G1 X64.445604 Y39.083416 F100.000000
G1 X64.438643 Y39.113913 F100.000000
G1 X64.429761 Y39.125051 F100.000000
G1 X64.424694 Y39.138366 F100.000000
G1 X64.328174 Y39.283146 F100.000000
G1 X64.262784 Y39.345097 F100.000000
G1 X64.176990 Y39.372541 F100.000000
G1 X64.087785 Y39.360042 F100.000000
G1 X64.012837 Y39.310077 F100.000000
G1 X63.966990 Y39.232541 F100.000000
G1 X63.959325 Y39.142791 F100.000000
G1 X63.991360 Y39.058604 F100.000000
G0 Z2.000000
G0 X63.472227 Y38.720495
G1 Z-0.040000 F60.000000
G1 X63.107309 F100.000000
G1 X63.104867 Y38.724157 F100.000000
G1 Y38.964813 F100.000000
G1 X63.131538 Y39.004819 F100.000000
G1 X63.229331 Y39.042135 F100.000000
G1 X63.347763 F100.000000
G1 X63.445557 Y39.004819 F100.000000
G1 X63.472227 Y38.964813 F100.000000
G1 Y38.720495 F100.000000
G0 Z2.000000
G0 X64.458687 Y37.357315
G1 Z-0.040000 F60.000000
G1 Y37.502095 F100.000000
G1 X64.455517 Y37.515984 F100.000000
G1 X64.456729 Y37.530179 F100.000000
G1 X64.445604 Y37.559416 F100.000000
G1 X64.438643 Y37.589913 F100.000000
G1 X64.429761 Y37.601051 F100.000000
G1 X64.424694 Y37.614366 F100.000000
G1 X64.398927 Y37.653018 F100.000000
G1 X64.414530 Y37.665461 F100.000000
G1 X64.453613 Y37.746617 F100.000000
G1 Y37.836693 F100.000000
G1 X64.414530 Y37.917849 F100.000000
G1 X64.344105 Y37.974011 F100.000000
G1 X64.256287 Y37.994055 F100.000000
G1 X62.902467 F100.000000
G1 X62.814649 Y37.974011 F100.000000
G1 X62.744225 Y37.917849 F100.000000
G1 X62.705142 Y37.836693 F100.000000
G1 Y37.746617 F100.000000
G1 X62.744225 Y37.665461 F100.000000
G1 X62.814649 Y37.609299 F100.000000
G1 X62.902467 Y37.589255 F100.000000
G1 X63.834109 F100.000000
G1 X63.964682 Y37.541149 F100.000000
G1 X64.010108 Y37.506482 F100.000000
G1 X64.053887 Y37.440813 F100.000000
G1 Y37.357315 F100.000000
G1 X64.073931 Y37.269497 F100.000000
G1 X64.130093 Y37.199072 F100.000000
G1 X64.211249 Y37.159990 F100.000000
