(Generated by ./pygerber2gcode_cui_MOD.py )
( 2013-05-30 00:31:03 )
(Initialize)

(Start form here)
G0 Z2.000000
G0 X25.779472 Y11.895719
G1 Z-0.040000 F60.000000
G1 X25.809225 Y11.910047 F100.000000
G1 X25.828317 Y11.900853 F100.000000
G1 X25.779472 Y11.895719 F100.000000
G0 Z2.000000
G0 X29.068935 Y8.571741
G1 Z-0.040000 F60.000000
G1 Y9.708207 F100.000000
G1 X29.290194 Y9.907430 F100.000000
G1 X29.503637 Y10.386830 F100.000000
G1 Y10.911600 F100.000000
G1 X29.290194 Y11.391000 F100.000000
G1 X29.129708 Y11.535503 F100.000000
G1 X29.217610 Y11.557948 F100.000000
G1 X29.345614 Y11.587164 F100.000000
G1 X29.352012 Y11.592266 F100.000000
G1 X29.359941 Y11.594291 F100.000000
G1 X29.453921 Y11.642551 F100.000000
G1 X29.521877 Y11.699650 F100.000000
G1 X29.547215 Y11.714632 F100.000000
G1 Y9.387215 F100.000000
G1 X30.009495 F100.000000
G1 Y8.571741 F100.000000
G0 Z2.000000
G0 X40.498935 Y21.571215
G1 Z-0.040000 F60.000000
G1 Y38.335215 F100.000000
G1 X40.469080 Y38.466020 F100.000000
G1 X40.454057 Y38.599346 F100.000000
G1 X40.429859 Y38.637858 F100.000000
G1 X40.419738 Y38.682201 F100.000000
G1 X40.415097 Y38.688020 F100.000000
G1 X40.461215 F100.000000
G1 X40.529880 Y38.703692 F100.000000
G1 X40.600312 F100.000000
G1 X40.663768 Y38.734251 F100.000000
G1 X40.712897 Y38.745465 F100.000000
G1 X40.799638 Y38.703692 F100.000000
G1 X41.077832 F100.000000
G1 X41.220626 Y38.772459 F100.000000
G1 X41.265062 Y38.754776 F100.000000
G1 X41.371138 Y38.703692 F100.000000
G1 X41.393434 F100.000000
G1 X41.414149 Y38.695449 F100.000000
G1 X41.531596 Y38.703692 F100.000000
G1 X41.649332 F100.000000
G1 X41.669419 Y38.713366 F100.000000
G1 X41.691660 Y38.714927 F100.000000
G1 X41.779422 Y38.765045 F100.000000
G1 X41.808277 Y38.751008 F100.000000
G1 X41.809519 Y38.750719 F100.000000
G1 X41.810516 Y38.749924 F100.000000
G1 X41.944944 Y38.719242 F100.000000
G1 X42.079247 Y38.688025 F100.000000
G1 X42.080492 Y38.688304 F100.000000
G1 X42.081735 Y38.688020 F100.000000
G1 X42.223975 F100.000000
G1 X42.317054 Y38.709265 F100.000000
G1 X42.412211 Y38.717035 F100.000000
G1 X42.556991 Y38.762755 F100.000000
G1 X42.569115 Y38.769864 F100.000000
G1 X42.583059 Y38.771623 F100.000000
G1 X42.688567 Y38.839897 F100.000000
G1 X42.796979 Y38.903458 F100.000000
G1 X42.804818 Y38.915123 F100.000000
G1 X42.816618 Y38.922758 F100.000000
G1 X42.910598 Y39.019278 F100.000000
G1 X42.960715 Y39.101452 F100.000000
G1 X43.021837 Y39.175804 F100.000000
G1 X43.070097 Y39.272324 F100.000000
G1 X43.086139 Y39.338090 F100.000000
G1 X43.116948 Y39.398367 F100.000000
G1 X43.165208 Y39.588867 F100.000000
G1 X43.167051 Y39.666585 F100.000000
G1 X43.184350 Y39.742375 F100.000000
G1 Y39.884615 F100.000000
G1 X43.167051 Y39.960405 F100.000000
G1 X43.165208 Y40.038123 F100.000000
G1 X43.116948 Y40.228623 F100.000000
G1 X43.084628 Y40.291855 F100.000000
G1 X43.067059 Y40.360661 F100.000000
G1 X43.018799 Y40.454641 F100.000000
G1 X42.982234 Y40.498159 F100.000000
G1 X43.124215 Y40.544291 F100.000000
G1 X43.449851 Y40.837495 F100.000000
G1 X43.771215 Y40.837495 F100.000000
G1 Y40.375215 F100.000000
G1 X44.995495 F100.000000
G0 Z2.000000
G0 X38.560020 Y40.375080
G1 Z-0.040000 F60.000000
G1 X38.429215 Y40.404935 F100.000000
G1 X37.615322 F100.000000
G1 X38.044215 Y40.544291 F100.000000
G1 X38.369851 Y40.837495 F100.000000
G1 X39.008416 Y40.837495 F100.000000
G1 X39.108772 Y40.699366 F100.000000
G1 X39.463645 Y40.494480 F100.000000
G1 X39.430171 Y40.454641 F100.000000
G1 X39.381911 Y40.360661 F100.000000
G1 X39.364342 Y40.291855 F100.000000
G1 X39.332022 Y40.228623 F100.000000
G1 X39.283762 Y40.038123 F100.000000
G1 X39.281919 Y39.960405 F100.000000
G1 X39.267625 Y39.897780 F100.000000
G1 X38.994702 Y40.170702 F100.000000
G1 X38.881098 Y40.242085 F100.000000
G1 X38.776201 Y40.325738 F100.000000
G1 X38.731858 Y40.335859 F100.000000
G1 X38.693346 Y40.360057 F100.000000
G1 X38.560020 Y40.375080 F100.000000
G0 Z2.000000
G0 X44.530194 Y14.693000
G1 Z-0.040000 F60.000000
G1 X44.308935 Y14.892223 F100.000000
G1 Y15.550207 F100.000000
G1 X44.530194 Y15.749430 F100.000000
G1 X44.628368 Y15.969932 F100.000000
G1 X44.674850 Y15.932864 F100.000000
G1 X44.643717 Y15.883317 F100.000000
G1 X44.581291 Y15.809021 F100.000000
G1 X44.533031 Y15.715041 F100.000000
G1 X44.531006 Y15.707112 F100.000000
G1 X44.525904 Y15.700714 F100.000000
G1 X44.496688 Y15.572710 F100.000000
G0 Z2.000000
G0 Y15.572710
G1 Z-0.040000 F60.000000
G1 X44.464205 Y15.445496 F100.000000
G1 X44.465821 Y15.437474 F100.000000
G1 X44.464000 Y15.429495 F100.000000
G1 Y15.190735 F100.000000
G1 X44.465057 Y15.186102 F100.000000
G1 X44.464069 Y15.181454 F100.000000
G1 X44.495959 Y15.050715 F100.000000
G1 X44.525904 Y14.919516 F100.000000
G1 X44.528867 Y14.915801 F100.000000
G1 X44.529993 Y14.911184 F100.000000
G1 X44.578253 Y14.814664 F100.000000
G1 X44.615241 Y14.769670 F100.000000
G1 X44.610398 Y14.762223 F100.000000
G1 X44.554685 Y14.704743 F100.000000
G1 X44.541980 Y14.666530 F100.000000
G1 X44.530194 Y14.693000 F100.000000
G0 Z2.000000
G0 X54.639741 Y38.043495
G1 Z-0.040000 F60.000000
G1 X55.172888 F100.000000
G1 X55.129134 Y38.022424 F100.000000
G1 X55.057469 Y38.006067 F100.000000
G1 X54.999999 Y37.960236 F100.000000
G1 X54.933770 Y37.928342 F100.000000
G1 X54.887939 Y37.870871 F100.000000
G1 X54.830468 Y37.825040 F100.000000
G1 X54.798574 Y37.758811 F100.000000
G1 X54.752743 Y37.701341 F100.000000
G1 X54.736386 Y37.629676 F100.000000
G1 X54.704492 Y37.563448 F100.000000
G1 Y37.489940 F100.000000
G1 X54.688135 Y37.418275 F100.000000
G1 Y35.386275 F100.000000
G1 X54.752743 Y35.103209 F100.000000
G1 X54.933770 Y34.876208 F100.000000
G1 X55.195362 Y34.750232 F100.000000
G1 X55.485708 F100.000000
G1 X55.747300 Y34.876208 F100.000000
G1 X55.928327 Y35.103209 F100.000000
G1 X55.992935 Y35.386275 F100.000000
G1 Y35.709398 F100.000000
G1 X56.010178 Y35.707926 F100.000000
G1 X56.104418 Y35.743786 F100.000000
G1 X56.202721 Y35.766223 F100.000000
G1 X56.238623 Y35.794854 F100.000000
G1 X56.281541 Y35.811185 F100.000000
G1 X56.415792 Y35.900686 F100.000000
G1 X56.280808 Y35.793040 F100.000000
G1 X56.154832 Y35.531448 F100.000000
G1 Y35.241102 F100.000000
G1 X56.280808 Y34.979510 F100.000000
G1 X56.507809 Y34.798483 F100.000000
G1 X56.790875 Y34.733875 F100.000000
G1 X57.662095 F100.000000
G1 X57.945161 Y34.798483 F100.000000
G1 X58.172162 Y34.979510 F100.000000
G1 X58.298138 Y35.241102 F100.000000
G1 Y35.531448 F100.000000
G1 X58.172162 Y35.793040 F100.000000
G1 X57.945161 Y35.974067 F100.000000
G1 X57.877615 Y35.989484 F100.000000
G1 Y37.418275 F100.000000
G1 X57.846115 Y37.556284 F100.000000
G1 X57.816186 Y37.694643 F100.000000
G1 X57.813852 Y37.697638 F100.000000
G1 X57.813007 Y37.701341 F100.000000
G1 X57.724747 Y37.812016 F100.000000
G1 X57.637750 Y37.923686 F100.000000
G1 X57.634347 Y37.925373 F100.000000
G1 X57.631980 Y37.928342 F100.000000
G1 X57.504440 Y37.989762 F100.000000
G1 X57.396031 Y38.043495 F100.000000
G1 X57.524689 F100.000000
G0 Z2.000000
G0 X56.952503 Y37.992898
G1 Z-0.040000 F60.000000
G1 X56.824273 Y37.932931 F100.000000
G1 X56.821872 Y37.929990 F100.000000
G1 X56.818450 Y37.928342 F100.000000
G1 X56.730190 Y37.817667 F100.000000
G1 X56.640678 Y37.708002 F100.000000
G1 X56.620097 Y37.666479 F100.000000
G1 X56.583061 Y37.715009 F100.000000
G1 X56.503309 Y37.781441 F100.000000
G1 X56.432835 Y37.857645 F100.000000
G1 X56.288055 Y37.956705 F100.000000
G1 X56.241689 Y37.974991 F100.000000
G1 X56.202721 Y38.006067 F100.000000
G1 X56.108173 Y38.027647 F100.000000
G1 X56.067988 Y38.043495 F100.000000
G1 X57.057568 F100.000000
G1 X56.952503 Y37.992898 F100.000000
G0 Z2.000000
G0 X56.572815 Y35.988904
G1 Z-0.040000 F60.000000
G1 X56.507809 Y35.974067 F100.000000
G1 X56.431659 Y35.913339 F100.000000
G1 X56.500353 Y35.985848 F100.000000
G1 X56.572815 Y36.046206 F100.000000
G1 Y35.988904 F100.000000
G0 Z2.000000
G0 X59.407477 Y7.225929
G1 Z-0.040000 F60.000000
G1 X59.297855 Y7.250950 F100.000000
G1 X58.822875 F100.000000
G1 X58.754210 Y7.235278 F100.000000
G1 X58.683778 F100.000000
G1 X58.620322 Y7.204719 F100.000000
G1 X58.551656 Y7.189046 F100.000000
G1 X58.547277 Y7.185554 F100.000000
G1 X58.452216 Y7.217807 F100.000000
G1 X58.350786 Y7.228260 F100.000000
G1 X58.251375 Y7.250950 F100.000000
G1 X58.012615 F100.000000
G1 X58.007982 Y7.249893 F100.000000
G1 X58.003334 Y7.250881 F100.000000
G1 X57.872595 Y7.218991 F100.000000
G1 X57.741396 Y7.189046 F100.000000
G1 X57.737681 Y7.186083 F100.000000
G1 X57.733064 Y7.184957 F100.000000
G1 X57.723474 Y7.180162 F100.000000
G1 X57.712334 Y7.189046 F100.000000
G1 X57.441115 Y7.250950 F100.000000
G1 X56.963595 F100.000000
G1 X56.894930 Y7.235278 F100.000000
G1 X56.824498 F100.000000
G1 X56.761042 Y7.204719 F100.000000
G1 X56.692376 Y7.189046 F100.000000
G1 X56.662638 Y7.165331 F100.000000
G1 X56.623386 Y7.184957 F100.000000
G1 X56.618769 Y7.186083 F100.000000
G1 X56.615054 Y7.189046 F100.000000
G1 X56.483855 Y7.218991 F100.000000
G1 X56.353116 Y7.250881 F100.000000
G1 X56.348468 Y7.249893 F100.000000
G1 X56.344218 Y7.250863 F100.000000
G0 Z2.000000
G0 X55.388264 Y6.847215
G1 Z-0.040000 F60.000000
G1 X55.383971 Y6.828408 F100.000000
G1 X55.353412 Y6.764952 F100.000000
G1 Y6.694520 F100.000000
G1 X55.337740 Y6.625855 F100.000000
G1 Y5.625095 F100.000000
G1 X55.399644 Y5.353876 F100.000000
G1 X55.573095 Y5.136376 F100.000000
G1 X55.823738 Y5.015672 F100.000000
G1 X56.101932 F100.000000
G1 X56.233142 Y5.078860 F100.000000
G1 X56.493971 Y5.001305 F100.000000
G1 X56.763978 Y5.044818 F100.000000
G1 X56.824498 Y5.015672 F100.000000
G1 X56.894930 F100.000000
G1 X56.963595 Y5.000000 F100.000000
G1 X57.441115 F100.000000
G1 X57.692254 Y5.057321 F100.000000
G1 X57.763514 Y5.033143 F100.000000
G1 X57.864944 Y5.022690 F100.000000
G1 X57.964355 Y5.000000 F100.000000
G1 X58.203115 F100.000000
G1 X58.211094 Y5.001821 F100.000000
G1 X58.219116 Y5.000205 F100.000000
G1 X58.346330 Y5.032688 F100.000000
G1 X58.474334 Y5.061904 F100.000000
G1 X58.480732 Y5.067006 F100.000000
G1 X58.488661 Y5.069031 F100.000000
G1 X58.521545 Y5.085917 F100.000000
G1 X58.551656 Y5.061904 F100.000000
G1 X58.620322 Y5.046231 F100.000000
G1 X58.683778 Y5.015672 F100.000000
G1 X58.754210 F100.000000
G1 X58.822875 Y5.000000 F100.000000
G1 X59.297855 F100.000000
G1 X59.569074 Y5.061904 F100.000000
G1 X59.594572 Y5.082239 F100.000000
G1 X59.732798 Y5.015672 F100.000000
G1 X60.010992 F100.000000
G1 X60.261635 Y5.136376 F100.000000
G1 X60.435086 Y5.353876 F100.000000
G1 X60.496990 Y5.625095 F100.000000
G1 Y6.118006 F100.000000
G1 X60.645094 Y6.236115 F100.000000
G1 X60.765798 Y6.486758 F100.000000
G1 Y6.764952 F100.000000
G1 X60.726182 Y6.847215 F100.000000
G0 Z2.000000
G0 X39.164654 Y14.675495
G1 Z-0.040000 F60.000000
G1 X39.969605 Y14.675495 F100.000000
G1 X39.816321 Y14.464517 F100.000000
G1 X39.793099 Y14.355269 F100.000000
G1 X39.785624 Y14.362744 F100.000000
G1 X39.700671 Y14.416123 F100.000000
G1 X39.623166 Y14.479837 F100.000000
G1 X39.526646 Y14.528097 F100.000000
G1 X39.460880 Y14.544139 F100.000000
G1 X39.400603 Y14.574948 F100.000000
G1 X39.210103 Y14.623208 F100.000000
G1 X39.135487 Y14.624978 F100.000000
G1 X39.164654 Y14.675495 F100.000000
G0 Z2.000000
G0 X40.169495 Y12.987545
G1 Z-0.040000 F60.000000
G1 Y12.673215 F100.000000
G1 X40.029117 Y12.673215 F100.000000
G1 X40.026511 Y12.678626 F100.000000
G1 X40.044194 Y12.723062 F100.000000
G1 X40.095278 Y12.829138 F100.000000
G1 Y12.851434 F100.000000
G1 X40.103521 Y12.872149 F100.000000
G1 X40.095278 Y12.989596 F100.000000
G1 Y13.053962 F100.000000
G1 X40.124772 Y13.013366 F100.000000
G1 X40.169495 Y12.987545 F100.000000
G0 Z2.000000
G0 X36.688935 Y8.571741
G1 Z-0.040000 F60.000000
G1 Y14.656168 F100.000000
G1 X36.772539 Y14.511361 F100.000000
G1 X37.171470 Y14.176619 F100.000000
G1 X37.660831 Y13.998506 F100.000000
G1 X37.931697 Y13.998506 F100.000000
G1 X37.892078 Y13.879647 F100.000000
G1 X37.882326 Y13.779791 F100.000000
G1 X37.860000 Y13.681975 F100.000000
G1 Y13.587995 F100.000000
G1 X37.882690 Y13.488584 F100.000000
G1 X37.893143 Y13.387154 F100.000000
G1 X37.941403 Y13.244914 F100.000000
G1 X37.941698 Y13.244435 F100.000000
G1 X37.875672 Y13.107332 F100.000000
G1 Y12.829138 F100.000000
G1 X37.944439 Y12.686344 F100.000000
G1 X37.926756 Y12.641908 F100.000000
G1 X37.875672 Y12.535832 F100.000000
G1 Y12.513536 F100.000000
G1 X37.867429 Y12.492821 F100.000000
G1 X37.875672 Y12.375374 F100.000000
G1 Y12.257638 F100.000000
G1 X37.885346 Y12.237551 F100.000000
G1 X37.886907 Y12.215310 F100.000000
G1 X37.915967 Y12.164423 F100.000000
G1 X37.906231 Y12.121768 F100.000000
G1 X37.875672 Y12.058312 F100.000000
G1 Y11.987880 F100.000000
G1 X37.860000 Y11.919215 F100.000000
G1 Y11.680455 F100.000000
G1 X37.882690 Y11.581044 F100.000000
G1 X37.893143 Y11.479614 F100.000000
G1 X37.941403 Y11.337374 F100.000000
G1 X37.945229 Y11.331155 F100.000000
G1 X37.946143 Y11.323911 F100.000000
G1 X38.017931 Y11.212974 F100.000000
G1 X38.087167 Y11.100426 F100.000000
G1 X38.093312 Y11.096482 F100.000000
G1 X38.097278 Y11.090352 F100.000000
G1 X38.193798 Y10.996372 F100.000000
G1 X38.273159 Y10.947970 F100.000000
G1 X38.344329 Y10.888171 F100.000000
G1 X38.438309 Y10.839911 F100.000000
G1 X38.507115 Y10.822342 F100.000000
G1 X38.570347 Y10.790022 F100.000000
G1 X38.760847 Y10.741762 F100.000000
G1 X38.838565 Y10.739919 F100.000000
G1 X38.914355 Y10.722620 F100.000000
G1 X39.056595 F100.000000
G1 X39.132385 Y10.739919 F100.000000
G1 X39.210103 Y10.741762 F100.000000
G1 X39.400603 Y10.790022 F100.000000
G1 X39.460880 Y10.820831 F100.000000
G1 X39.526646 Y10.836873 F100.000000
G1 X39.623166 Y10.885133 F100.000000
G1 X39.700671 Y10.948847 F100.000000
G1 X39.707215 Y10.952959 F100.000000
G1 Y10.149215 F100.000000
G1 X40.169495 F100.000000
G1 Y8.571741 F100.000000
G0 Z2.000000
G0 X17.151467 Y25.767817
G1 Z-0.040000 F60.000000
G1 X17.078896 Y25.838818 F100.000000
G1 X17.015595 Y25.918194 F100.000000
G1 X16.980476 Y25.935106 F100.000000
G1 X16.952614 Y25.962366 F100.000000
G1 X16.913112 Y25.975705 F100.000000
G1 X16.996518 Y26.148898 F100.000000
G1 Y26.427092 F100.000000
G1 X16.875814 Y26.677735 F100.000000
G1 X16.658314 Y26.851186 F100.000000
G1 X16.585830 Y26.867730 F100.000000
G1 X16.569286 Y26.940214 F100.000000
G1 X16.395835 Y27.157714 F100.000000
G1 X16.145192 Y27.278418 F100.000000
G1 X15.866998 F100.000000
G1 X15.616355 Y27.157714 F100.000000
G1 X15.442904 Y26.940214 F100.000000
G1 X15.426360 Y26.867730 F100.000000
G1 X15.353876 Y26.851186 F100.000000
G1 X15.136376 Y26.677735 F100.000000
G1 X15.015672 Y26.427092 F100.000000
G1 Y26.148898 F100.000000
G1 X15.136376 Y25.898255 F100.000000
G1 X15.210850 Y25.838864 F100.000000
G1 X15.179717 Y25.789317 F100.000000
G1 X15.117291 Y25.715021 F100.000000
G1 X15.069031 Y25.621041 F100.000000
G1 X15.067006 Y25.613112 F100.000000
G1 X15.061904 Y25.606714 F100.000000
G1 X15.032688 Y25.478710 F100.000000
G0 Z2.000000
G0 X15.327470 Y23.631811
G1 Z-0.040000 F60.000000
G1 X14.928539 Y23.297069 F100.000000
G1 X14.668155 Y22.846071 F100.000000
G1 X14.577725 Y22.333215 F100.000000
G1 X14.668155 Y21.820359 F100.000000
G1 X14.928539 Y21.369361 F100.000000
G1 X15.327470 Y21.034619 F100.000000
G1 X15.816831 Y20.856506 F100.000000
G1 X16.337599 F100.000000
G1 X16.826960 Y21.034619 F100.000000
G1 X17.225891 Y21.369361 F100.000000
G1 X17.486275 Y21.820359 F100.000000
G1 X17.576705 Y22.333215 F100.000000
G1 X17.521466 Y22.646491 F100.000000
G1 X21.664505 Y26.789531 F100.000000
G1 X21.783236 Y26.720982 F100.000000
G1 X22.305130 Y26.666128 F100.000000
G1 X22.804215 Y26.828291 F100.000000
G1 X23.194194 Y27.179430 F100.000000
G1 X23.407637 Y27.658830 F100.000000
G1 Y28.183600 F100.000000
G1 X23.194194 Y28.663000 F100.000000
G1 X22.804215 Y29.014139 F100.000000
G1 X22.305130 Y29.176302 F100.000000
G1 X21.783236 Y29.121448 F100.000000
G1 X21.328772 Y28.859064 F100.000000
G1 X21.020321 Y28.434517 F100.000000
G1 X21.012973 Y28.399948 F100.000000
G1 X17.241476 Y24.628451 F100.000000
G1 X17.248036 Y24.679499 F100.000000
G1 X17.212547 Y24.786239 F100.000000
G1 X17.250950 Y24.954495 F100.000000
G1 Y25.429475 F100.000000
G1 X17.242276 Y25.467477 F100.000000
G1 X17.246216 Y25.506256 F100.000000
G1 X17.211638 Y25.601713 F100.000000
G1 X17.189046 Y25.700694 F100.000000
G1 X17.164743 Y25.731169 F100.000000
G1 X17.151467 Y25.767817 F100.000000
G0 Z2.000000
G0 X15.032688 Y25.478710
G1 Z-0.040000 F60.000000
G1 X15.000205 Y25.351496 F100.000000
G1 X15.001821 Y25.343474 F100.000000
G1 X15.000000 Y25.335495 F100.000000
G1 Y25.096735 F100.000000
G1 X15.001057 Y25.092102 F100.000000
G1 X15.000069 Y25.087454 F100.000000
G1 X15.031959 Y24.956715 F100.000000
G1 X15.061904 Y24.825516 F100.000000
G1 X15.064867 Y24.821801 F100.000000
G1 X15.065993 Y24.817184 F100.000000
G1 X15.114253 Y24.720664 F100.000000
G1 X15.151241 Y24.675670 F100.000000
G1 X15.146398 Y24.668223 F100.000000
G1 X15.090685 Y24.610743 F100.000000
G1 X15.071509 Y24.553068 F100.000000
G1 X15.038373 Y24.502116 F100.000000
G1 X15.028170 Y24.422719 F100.000000
G1 X15.002914 Y24.346759 F100.000000
G1 X15.010661 Y24.286475 F100.000000
G1 X15.002914 Y24.226191 F100.000000
G1 X15.028170 Y24.150231 F100.000000
G1 X15.038373 Y24.070834 F100.000000
G1 X15.071509 Y24.019882 F100.000000
G1 X15.090685 Y23.962207 F100.000000
G1 X15.146398 Y23.904727 F100.000000
G1 X15.190040 Y23.837620 F100.000000
G1 X15.242002 Y23.806091 F100.000000
G1 X15.284303 Y23.762448 F100.000000
G1 X15.359438 Y23.734833 F100.000000
G1 X15.427874 Y23.693307 F100.000000
G1 X15.463701 Y23.681395 F100.000000
G1 X15.327470 Y23.631811 F100.000000
G0 Z2.000000
G0 X64.805618 Y44.474198
G1 Z-0.040000 F60.000000
G1 Y44.540828 F100.000000
G1 X64.779070 Y44.595955 F100.000000
G1 X64.767741 Y44.656083 F100.000000
G1 X64.756008 Y44.672007 F100.000000
G1 X64.751196 Y44.691193 F100.000000
G1 X64.708552 Y44.742388 F100.000000
G1 X64.679987 Y44.801704 F100.000000
G1 X64.715282 Y44.835683 F100.000000
G1 X64.811802 Y44.983003 F100.000000
G1 X64.826882 Y45.023606 F100.000000
G1 X64.853887 Y45.057469 F100.000000
G1 X64.876893 Y45.158264 F100.000000
G1 X64.912888 Y45.255183 F100.000000
G1 X64.908857 Y45.298308 F100.000000
G1 X64.918495 Y45.340535 F100.000000
G1 Y45.630095 F100.000000
G1 X64.908277 Y45.674864 F100.000000
G1 X64.912184 Y45.720618 F100.000000
G1 X64.902138 Y45.747020 F100.000000
G1 Y45.920048 F100.000000
G1 X64.866671 Y45.993695 F100.000000
G1 X64.944275 F100.000000
G1 X65.227341 Y46.058303 F100.000000
G1 X65.454342 Y46.239330 F100.000000
G1 X65.580318 Y46.500922 F100.000000
G1 Y46.791268 F100.000000
G1 X65.454342 Y47.052860 F100.000000
G1 X65.418171 Y47.081705 F100.000000
G1 X65.454342 Y47.110550 F100.000000
G1 X65.580318 Y47.372142 F100.000000
G1 Y47.662488 F100.000000
G1 X65.454342 Y47.924080 F100.000000
G1 X65.227341 Y48.105107 F100.000000
G1 X64.944275 Y48.169715 F100.000000
G1 X64.848405 Y48.169715 F100.000000
G1 X64.853887 Y48.176589 F100.000000
G1 X64.869304 Y48.244135 F100.000000
G1 X64.944275 F100.000000
G1 X65.227341 Y48.308743 F100.000000
G1 X65.454342 Y48.489770 F100.000000
G1 X65.580318 Y48.751362 F100.000000
G1 Y49.041708 F100.000000
G1 X65.454342 Y49.303300 F100.000000
G1 X65.227341 Y49.484327 F100.000000
G1 X64.944275 Y49.548935 F100.000000
G1 X62.912275 F100.000000
G1 X62.629209 Y49.484327 F100.000000
G1 X62.402208 Y49.303300 F100.000000
G1 X62.276232 Y49.041708 F100.000000
G1 Y48.751362 F100.000000
G1 X62.364113 Y48.568875 F100.000000
G1 X62.276232 Y48.386388 F100.000000
G1 Y48.096042 F100.000000
G1 X62.402208 Y47.834450 F100.000000
G1 X62.456418 Y47.791220 F100.000000
G1 X62.369445 Y47.660761 F100.000000
G1 X62.353114 Y47.617843 F100.000000
G1 X62.324483 Y47.581941 F100.000000
G1 X62.302046 Y47.483638 F100.000000
G1 X62.266186 Y47.389398 F100.000000
G1 X62.270093 Y47.343644 F100.000000
G1 X62.259875 Y47.298875 F100.000000
G1 Y47.154095 F100.000000
G1 X62.324483 Y46.871029 F100.000000
G1 X62.378562 Y46.803216 F100.000000
G1 X62.369445 Y46.789541 F100.000000
G1 X62.353114 Y46.746623 F100.000000
G1 X62.324483 Y46.710721 F100.000000
G1 X62.302046 Y46.612418 F100.000000
G1 X62.266186 Y46.518178 F100.000000
G1 X62.270093 Y46.472424 F100.000000
G1 X62.259875 Y46.427655 F100.000000
G1 Y46.427275 F100.000000
G1 X62.234095 F100.000000
G1 X61.951029 Y46.362667 F100.000000
G1 X61.724028 Y46.181640 F100.000000
G1 X61.598052 Y45.920048 F100.000000
G1 Y45.629702 F100.000000
G1 X61.724028 Y45.368110 F100.000000
G1 X61.951029 Y45.187083 F100.000000
G1 X62.234095 Y45.122475 F100.000000
G1 X62.309646 F100.000000
G1 X62.324483 Y45.057469 F100.000000
G1 X62.351488 Y45.023606 F100.000000
G1 X62.366568 Y44.983003 F100.000000
G1 X62.455255 Y44.847638 F100.000000
G1 X62.450046 Y44.840569 F100.000000
G1 X62.402208 Y44.802420 F100.000000
G1 X62.373298 Y44.742388 F100.000000
G1 X62.330654 Y44.691193 F100.000000
G1 X62.325842 Y44.672007 F100.000000
G1 X62.314109 Y44.656083 F100.000000
G1 X62.302780 Y44.595955 F100.000000
G1 X62.276232 Y44.540828 F100.000000
G1 Y44.505822 F100.000000
G1 X62.152598 Y44.479479 F100.000000
G1 X61.923003 Y44.301752 F100.000000
G1 X61.793258 Y44.042009 F100.000000
G1 X61.789059 Y43.751694 F100.000000
G1 X61.911240 Y43.488308 F100.000000
G1 X62.135600 Y43.304017 F100.000000
G1 X64.749260 Y41.998457 F100.000000
G1 X65.031362 Y41.929763 F100.000000
G1 X65.315332 Y41.990271 F100.000000
G1 X65.544927 Y42.167998 F100.000000
G1 X65.674672 Y42.427741 F100.000000
G1 X65.678871 Y42.718056 F100.000000
G1 X65.556690 Y42.981442 F100.000000
G1 X65.332330 Y43.165733 F100.000000
G1 X64.257628 Y43.702562 F100.000000
G1 X64.349225 Y43.751062 F100.000000
G1 X64.460058 Y43.799317 F100.000000
G1 X64.556578 Y43.870437 F100.000000
G1 X64.569492 Y43.885419 F100.000000
G1 X64.587126 Y43.894380 F100.000000
G1 X64.627548 Y43.947347 F100.000000
G1 X64.679642 Y43.988890 F100.000000
G1 X64.706190 Y44.044017 F100.000000
G1 X64.746136 Y44.090364 F100.000000
G1 X64.751271 Y44.109466 F100.000000
G1 X64.763271 Y44.125190 F100.000000
G1 X64.776708 Y44.190451 F100.000000
G1 X64.805618 Y44.250482 F100.000000
G1 Y44.311669 F100.000000
G1 X64.821500 Y44.370758 F100.000000
G1 X64.817837 Y44.390196 F100.000000
G1 X64.821827 Y44.409569 F100.000000
G1 X64.805618 Y44.474198 F100.000000
G0 Z2.000000
G0 X63.937553 Y30.941128
G1 Z-0.040000 F60.000000
G1 X64.225090 Y30.900841 F100.000000
G1 X64.501631 Y30.989302 F100.000000
G1 X64.712405 Y31.188989 F100.000000
G1 X64.808925 Y31.333769 F100.000000
G1 X64.825256 Y31.376687 F100.000000
G1 X64.853887 Y31.412589 F100.000000
G1 X64.876324 Y31.510892 F100.000000
G1 X64.912184 Y31.605132 F100.000000
G1 X64.908277 Y31.650886 F100.000000
G1 X64.918495 Y31.695655 F100.000000
G1 Y31.914095 F100.000000
G1 X64.908277 Y31.958864 F100.000000
G1 X64.912184 Y32.004618 F100.000000
G1 X64.876324 Y32.098858 F100.000000
G1 X64.853887 Y32.197161 F100.000000
G1 X64.825256 Y32.233063 F100.000000
G1 X64.808925 Y32.275981 F100.000000
G1 X64.752908 Y32.360006 F100.000000
G1 X64.776162 Y32.378550 F100.000000
G1 X64.902138 Y32.640142 F100.000000
G1 Y32.813170 F100.000000
G1 X64.912184 Y32.839572 F100.000000
G1 X64.908277 Y32.885326 F100.000000
G1 X64.918495 Y32.930095 F100.000000
G1 Y33.219655 F100.000000
G1 X64.908277 Y33.264424 F100.000000
G1 X64.912184 Y33.310178 F100.000000
G1 X64.876324 Y33.404418 F100.000000
G1 X64.853887 Y33.502721 F100.000000
G1 X64.825256 Y33.538623 F100.000000
G1 X64.808925 Y33.581541 F100.000000
G1 X64.712405 Y33.726321 F100.000000
G1 X64.672122 Y33.764485 F100.000000
G1 X64.712405 Y33.802649 F100.000000
G1 X64.808925 Y33.947429 F100.000000
G1 X64.825256 Y33.990347 F100.000000
G1 X64.853887 Y34.026249 F100.000000
G1 X64.876324 Y34.124552 F100.000000
G1 X64.912184 Y34.218792 F100.000000
G1 X64.908277 Y34.264546 F100.000000
G1 X64.918495 Y34.309315 F100.000000
G1 Y34.525215 F100.000000
G1 X64.908857 Y34.567442 F100.000000
G1 X64.912888 Y34.610567 F100.000000
G1 X64.876893 Y34.707486 F100.000000
G1 X64.853887 Y34.808281 F100.000000
G1 X64.826882 Y34.842144 F100.000000
G1 X64.811802 Y34.882747 F100.000000
G1 X64.715282 Y35.030067 F100.000000
G1 X64.672945 Y35.070825 F100.000000
G1 X64.712405 Y35.108209 F100.000000
G1 X64.808925 Y35.252989 F100.000000
G1 X64.825256 Y35.295907 F100.000000
G1 X64.853887 Y35.331809 F100.000000
G1 X64.876324 Y35.430112 F100.000000
G1 X64.912184 Y35.524352 F100.000000
G1 X64.908277 Y35.570106 F100.000000
G1 X64.918495 Y35.614875 F100.000000
G1 Y35.833315 F100.000000
G1 X64.908277 Y35.878084 F100.000000
G1 X64.912184 Y35.923838 F100.000000
G1 X64.876324 Y36.018078 F100.000000
G1 X64.853887 Y36.116381 F100.000000
G1 X64.825256 Y36.152283 F100.000000
G1 X64.808925 Y36.195201 F100.000000
G1 X64.807782 Y36.196915 F100.000000
G1 X64.944275 F100.000000
G1 X65.227341 Y36.261523 F100.000000
G1 X65.454342 Y36.442550 F100.000000
G1 X65.580318 Y36.704142 F100.000000
G1 Y36.994488 F100.000000
G1 X65.454342 Y37.256080 F100.000000
G1 X65.227341 Y37.437107 F100.000000
G1 X64.944275 Y37.501715 F100.000000
G1 X64.918495 F100.000000
G1 Y37.502095 F100.000000
G1 X64.908277 Y37.546864 F100.000000
G1 X64.912184 Y37.592618 F100.000000
G1 X64.896300 Y37.634361 F100.000000
G1 X64.902138 Y37.646482 F100.000000
G1 Y37.936828 F100.000000
G1 X64.776162 Y38.198420 F100.000000
G1 X64.721861 Y38.241723 F100.000000
G1 X64.811802 Y38.379003 F100.000000
G1 X64.826882 Y38.419606 F100.000000
G1 X64.853887 Y38.453469 F100.000000
G1 X64.876893 Y38.554264 F100.000000
G1 X64.912888 Y38.651183 F100.000000
G1 X64.908857 Y38.694308 F100.000000
G1 X64.918495 Y38.736535 F100.000000
G1 Y39.026095 F100.000000
G1 X64.908277 Y39.070864 F100.000000
G1 X64.912184 Y39.116618 F100.000000
G1 X64.876324 Y39.210858 F100.000000
G1 X64.853887 Y39.309161 F100.000000
G1 X64.825256 Y39.345063 F100.000000
G1 X64.808925 Y39.387981 F100.000000
G1 X64.736069 Y39.497265 F100.000000
G1 X64.808925 Y39.606549 F100.000000
G1 X64.825256 Y39.649467 F100.000000
G1 X64.853887 Y39.685369 F100.000000
G1 X64.876324 Y39.783672 F100.000000
G1 X64.912184 Y39.877912 F100.000000
G1 X64.908277 Y39.923666 F100.000000
G1 X64.918495 Y39.968435 F100.000000
G1 Y40.260535 F100.000000
G1 X64.908277 Y40.305304 F100.000000
G1 X64.912184 Y40.351058 F100.000000
G1 X64.907969 Y40.362136 F100.000000
G1 X65.030855 Y40.332111 F100.000000
G1 X65.314872 Y40.392398 F100.000000
G1 X65.544605 Y40.569946 F100.000000
G1 X65.674552 Y40.829588 F100.000000
G1 X65.678976 Y41.119900 F100.000000
G1 X65.557000 Y41.383381 F100.000000
G1 X65.332784 Y41.567846 F100.000000
G1 X62.719124 Y42.875946 F100.000000
G1 X62.437075 Y42.944859 F100.000000
G1 X62.153058 Y42.884572 F100.000000
G1 X61.923325 Y42.707024 F100.000000
G1 X61.793378 Y42.447382 F100.000000
G1 X61.788954 Y42.157070 F100.000000
G1 X61.910930 Y41.893589 F100.000000
G1 X62.135146 Y41.709124 F100.000000
G1 X63.194694 Y41.178835 F100.000000
G1 X63.182966 Y41.176158 F100.000000
G1 X63.065770 Y41.159628 F100.000000
G1 X62.872730 Y41.085968 F100.000000
G1 X62.799289 Y41.036909 F100.000000
G1 X62.718312 Y41.001653 F100.000000
G1 X62.621792 Y40.930533 F100.000000
G1 X62.548008 Y40.844928 F100.000000
G1 X62.465965 Y40.767201 F100.000000
G1 X62.369445 Y40.622421 F100.000000
G1 X62.353114 Y40.579503 F100.000000
G1 X62.324483 Y40.543601 F100.000000
G1 X62.302046 Y40.445298 F100.000000
G1 X62.266186 Y40.351058 F100.000000
G1 X62.270093 Y40.305304 F100.000000
G1 X62.259875 Y40.260535 F100.000000
G1 Y39.968435 F100.000000
G1 X62.270093 Y39.923666 F100.000000
G1 X62.266186 Y39.877912 F100.000000
G1 X62.302046 Y39.783672 F100.000000
G1 X62.324483 Y39.685369 F100.000000
G1 X62.353114 Y39.649467 F100.000000
G1 X62.369445 Y39.606549 F100.000000
G1 X62.442301 Y39.497265 F100.000000
G1 X62.369445 Y39.387981 F100.000000
G1 X62.353114 Y39.345063 F100.000000
G1 X62.324483 Y39.309161 F100.000000
G1 X62.302046 Y39.210858 F100.000000
G1 X62.266186 Y39.116618 F100.000000
G1 X62.270093 Y39.070864 F100.000000
G1 X62.259875 Y39.026095 F100.000000
G1 Y38.662875 F100.000000
G1 X62.270093 Y38.618106 F100.000000
G1 X62.266186 Y38.572352 F100.000000
G1 X62.276232 Y38.545950 F100.000000
G1 Y38.372922 F100.000000
G1 X62.381238 Y38.154875 F100.000000
G1 X62.276232 Y37.936828 F100.000000
G1 Y37.646482 F100.000000
G1 X62.402208 Y37.384890 F100.000000
G1 X62.572485 Y37.249099 F100.000000
G1 X62.534777 Y37.223910 F100.000000
G1 X62.506442 Y37.175889 F100.000000
G1 X62.465965 Y37.137541 F100.000000
G1 X62.369445 Y36.992761 F100.000000
G1 X62.266186 Y36.721398 F100.000000
G1 X62.290892 Y36.432106 F100.000000
G1 X62.402052 Y36.244112 F100.000000
G1 X62.369445 Y36.195201 F100.000000
G1 X62.353114 Y36.152283 F100.000000
G1 X62.324483 Y36.116381 F100.000000
G1 X62.302046 Y36.018078 F100.000000
G1 X62.266186 Y35.923838 F100.000000
G1 X62.270093 Y35.878084 F100.000000
G1 X62.259875 Y35.833315 F100.000000
G1 Y35.614875 F100.000000
G1 X62.270093 Y35.570106 F100.000000
G1 X62.266186 Y35.524352 F100.000000
G1 X62.302046 Y35.430112 F100.000000
G1 X62.324483 Y35.331809 F100.000000
G1 X62.353114 Y35.295907 F100.000000
G1 X62.369445 Y35.252989 F100.000000
G1 X62.465965 Y35.108209 F100.000000
G1 X62.467373 Y35.106875 F100.000000
G1 X62.465965 Y35.105541 F100.000000
G1 X62.369445 Y34.960761 F100.000000
G1 X62.353114 Y34.917843 F100.000000
G1 X62.324483 Y34.881941 F100.000000
G1 X62.302046 Y34.783638 F100.000000
G1 X62.266186 Y34.689398 F100.000000
G1 X62.270093 Y34.643644 F100.000000
G1 X62.259875 Y34.598875 F100.000000
G1 Y34.309315 F100.000000
G1 X62.270093 Y34.264546 F100.000000
G1 X62.266186 Y34.218792 F100.000000
G1 X62.302046 Y34.124552 F100.000000
G1 X62.311524 Y34.083025 F100.000000
G1 X62.275100 Y34.088129 F100.000000
G1 X61.998559 Y33.999668 F100.000000
G1 X61.787785 Y33.799981 F100.000000
G1 X61.691265 Y33.655201 F100.000000
G1 X61.674934 Y33.612283 F100.000000
G1 X61.646303 Y33.576381 F100.000000
G1 X61.623866 Y33.478078 F100.000000
G0 Z2.000000
G0 X63.942438 Y27.672851
G1 Z-0.040000 F60.000000
G1 X64.230288 Y27.634866 F100.000000
G1 X64.506113 Y27.725536 F100.000000
G1 X64.715282 Y27.926903 F100.000000
G1 X64.811802 Y28.074223 F100.000000
G1 X64.826882 Y28.114826 F100.000000
G1 X64.853887 Y28.148689 F100.000000
G1 X64.876893 Y28.249484 F100.000000
G1 X64.912888 Y28.346403 F100.000000
G1 X64.908857 Y28.389528 F100.000000
G1 X64.918495 Y28.431755 F100.000000
G1 Y28.647655 F100.000000
G1 X64.908277 Y28.692424 F100.000000
G1 X64.912184 Y28.738178 F100.000000
G1 X64.876324 Y28.832418 F100.000000
G1 X64.853887 Y28.930721 F100.000000
G1 X64.825256 Y28.966623 F100.000000
G1 X64.808925 Y29.009541 F100.000000
G1 X64.712405 Y29.154321 F100.000000
G1 X64.710997 Y29.155655 F100.000000
G1 X64.712405 Y29.156989 F100.000000
G1 X64.808925 Y29.301769 F100.000000
G1 X64.825256 Y29.344687 F100.000000
G1 X64.853887 Y29.380589 F100.000000
G1 X64.876324 Y29.478892 F100.000000
G1 X64.912184 Y29.573132 F100.000000
G1 X64.908277 Y29.618886 F100.000000
G1 X64.918495 Y29.663655 F100.000000
G1 Y29.955755 F100.000000
G1 X64.908277 Y30.000524 F100.000000
G1 X64.912184 Y30.046278 F100.000000
G1 X64.876324 Y30.140518 F100.000000
G1 X64.853887 Y30.238821 F100.000000
G1 X64.825256 Y30.274723 F100.000000
G1 X64.808925 Y30.317641 F100.000000
G1 X64.712405 Y30.462421 F100.000000
G1 X64.669214 Y30.503340 F100.000000
G1 X64.638391 Y30.554228 F100.000000
G1 X64.565116 Y30.601963 F100.000000
G1 X64.501631 Y30.662108 F100.000000
G1 X64.444964 Y30.680235 F100.000000
G1 X64.395113 Y30.712710 F100.000000
G1 X64.202073 Y30.783830 F100.000000
G1 X64.088340 Y30.798536 F100.000000
G1 X63.976535 Y30.824055 F100.000000
G1 X63.754623 Y30.824055 F100.000000
G1 X63.757567 Y30.838349 F100.000000
G1 X63.741358 Y30.902978 F100.000000
G1 Y30.952951 F100.000000
G1 X63.770344 Y30.972314 F100.000000
G1 X63.823451 Y30.989302 F100.000000
G1 X63.840733 Y31.005675 F100.000000
G1 X63.937553 Y30.941128 F100.000000
G0 Z2.000000
G0 X61.623866 Y33.478078
G1 Z-0.040000 F60.000000
G1 X61.588006 Y33.383838 F100.000000
G1 X61.591913 Y33.338084 F100.000000
G1 X61.581695 Y33.293315 F100.000000
G1 Y33.074875 F100.000000
G1 X61.591913 Y33.030106 F100.000000
G1 X61.588006 Y32.984352 F100.000000
G1 X61.623866 Y32.890112 F100.000000
G1 X61.646303 Y32.791809 F100.000000
G1 X61.674934 Y32.755907 F100.000000
G1 X61.691265 Y32.712989 F100.000000
G1 X61.787785 Y32.568209 F100.000000
G1 X61.865928 Y32.494177 F100.000000
G1 X61.934821 Y32.411469 F100.000000
G1 X62.031341 Y32.337809 F100.000000
G1 X62.119982 Y32.297428 F100.000000
G1 X62.201597 Y32.244260 F100.000000
G1 X62.309894 Y32.204361 F100.000000
G1 X62.301477 Y32.167486 F100.000000
G1 X62.265482 Y32.070567 F100.000000
G1 X62.269513 Y32.027442 F100.000000
G1 X62.259875 Y31.985215 F100.000000
G1 Y31.695655 F100.000000
G1 X62.270093 Y31.650886 F100.000000
G1 X62.266186 Y31.605132 F100.000000
G1 X62.302046 Y31.510892 F100.000000
G1 X62.324483 Y31.412589 F100.000000
G1 X62.353114 Y31.376687 F100.000000
G1 X62.369445 Y31.333769 F100.000000
G1 X62.425462 Y31.249744 F100.000000
G1 X62.402208 Y31.231200 F100.000000
G1 X62.373298 Y31.171168 F100.000000
G1 X62.330654 Y31.119973 F100.000000
G1 X62.325842 Y31.100787 F100.000000
G1 X62.314109 Y31.084863 F100.000000
G1 X62.302780 Y31.024735 F100.000000
G1 X62.276232 Y30.969608 F100.000000
G1 Y30.902978 F100.000000
G1 X62.260023 Y30.838349 F100.000000
G1 X62.264013 Y30.818976 F100.000000
G1 X62.260350 Y30.799538 F100.000000
G1 X62.276232 Y30.740449 F100.000000
G1 Y30.679262 F100.000000
G1 X62.305142 Y30.619231 F100.000000
G1 X62.318579 Y30.553970 F100.000000
G1 X62.330579 Y30.538246 F100.000000
G1 X62.335714 Y30.519144 F100.000000
G1 X62.375660 Y30.472797 F100.000000
G1 X62.402208 Y30.417670 F100.000000
G1 X62.424356 Y30.400008 F100.000000
G1 X62.369445 Y30.317641 F100.000000
G1 X62.353114 Y30.274723 F100.000000
G1 X62.324483 Y30.238821 F100.000000
G1 X62.302046 Y30.140518 F100.000000
G1 X62.266186 Y30.046278 F100.000000
G1 X62.270093 Y30.000524 F100.000000
G1 X62.259875 Y29.955755 F100.000000
G1 Y29.663655 F100.000000
G1 X62.270093 Y29.618886 F100.000000
G1 X62.266186 Y29.573132 F100.000000
G1 X62.302046 Y29.478892 F100.000000
G1 X62.324483 Y29.380589 F100.000000
G1 X62.353114 Y29.344687 F100.000000
G1 X62.369445 Y29.301769 F100.000000
G1 X62.442301 Y29.192485 F100.000000
G1 X62.369445 Y29.083201 F100.000000
G1 X62.353114 Y29.040283 F100.000000
G1 X62.324483 Y29.004381 F100.000000
G1 X62.302046 Y28.906078 F100.000000
G1 X62.266186 Y28.811838 F100.000000
G1 X62.270093 Y28.766084 F100.000000
G1 X62.259875 Y28.721315 F100.000000
G1 Y28.431755 F100.000000
G1 X62.269513 Y28.389528 F100.000000
G1 X62.265482 Y28.346403 F100.000000
G1 X62.301477 Y28.249484 F100.000000
G1 X62.324483 Y28.148689 F100.000000
G1 X62.351488 Y28.114826 F100.000000
G1 X62.366568 Y28.074223 F100.000000
G1 X62.463088 Y27.926903 F100.000000
G1 X62.507814 Y27.883844 F100.000000
G1 X62.539979 Y27.830742 F100.000000
G1 X62.611104 Y27.784408 F100.000000
G1 X62.672257 Y27.725536 F100.000000
G1 X62.731237 Y27.706148 F100.000000
G1 X62.783257 Y27.672260 F100.000000
G1 X62.976297 Y27.601140 F100.000000
G1 X63.090030 Y27.586434 F100.000000
G1 X63.201835 Y27.560915 F100.000000
G1 X63.298355 F100.000000
G1 X63.410160 Y27.586434 F100.000000
G1 X63.523893 Y27.601140 F100.000000
G1 X63.716933 Y27.672260 F100.000000
G1 X63.768953 Y27.706148 F100.000000
G1 X63.827933 Y27.725536 F100.000000
G1 X63.841739 Y27.738827 F100.000000
G1 X63.942438 Y27.672851 F100.000000
G0 Z2.000000
G0 X56.969040 Y33.366502
G1 Z-0.040000 F60.000000
G1 X56.902811 Y33.398396 F100.000000
G1 X56.845341 Y33.444227 F100.000000
G1 X56.773676 Y33.460584 F100.000000
G1 X56.707448 Y33.492478 F100.000000
G1 X56.633940 F100.000000
G1 X56.562275 Y33.508835 F100.000000
G1 X54.530275 F100.000000
G1 X54.247209 Y33.444227 F100.000000
G1 X54.020208 Y33.263200 F100.000000
G1 X53.894232 Y33.001608 F100.000000
G1 Y32.711262 F100.000000
G1 X54.020208 Y32.449670 F100.000000
G1 X54.247209 Y32.268643 F100.000000
G1 X54.530275 Y32.204035 F100.000000
G1 X54.853398 F100.000000
G1 X54.851926 Y32.186792 F100.000000
G1 X54.887786 Y32.092552 F100.000000
G1 X54.910223 Y31.994249 F100.000000
G1 X54.917731 Y31.984835 F100.000000
G1 X54.530275 Y31.984835 F100.000000
G1 X54.247209 Y31.920227 F100.000000
G1 X54.020208 Y31.739200 F100.000000
G1 X53.894232 Y31.477608 F100.000000
G1 Y31.187262 F100.000000
G1 X54.020208 Y30.925670 F100.000000
G1 X54.100970 Y30.861265 F100.000000
G1 X54.020208 Y30.796860 F100.000000
G1 X53.894232 Y30.535268 F100.000000
G1 Y30.244922 F100.000000
G1 X53.999238 Y30.026875 F100.000000
G1 X53.894232 Y29.808828 F100.000000
G1 Y29.518482 F100.000000
G1 X53.981502 Y29.337265 F100.000000
G1 X53.894232 Y29.156048 F100.000000
G1 Y28.865702 F100.000000
G1 X54.020208 Y28.604110 F100.000000
G1 X54.074418 Y28.560880 F100.000000
G1 X53.987445 Y28.430421 F100.000000
G1 X53.971114 Y28.387503 F100.000000
G1 X53.942483 Y28.351601 F100.000000
G1 X53.920046 Y28.253298 F100.000000
G1 X53.884186 Y28.159058 F100.000000
G1 X53.888093 Y28.113304 F100.000000
G1 X53.877875 Y28.068535 F100.000000
G1 Y27.921215 F100.000000
G1 X53.942483 Y27.638149 F100.000000
G1 X53.947662 Y27.631655 F100.000000
G1 X53.942483 Y27.625161 F100.000000
G1 X53.920046 Y27.526858 F100.000000
G1 X53.884186 Y27.432618 F100.000000
G1 X53.888093 Y27.386864 F100.000000
G1 X53.877875 Y27.342095 F100.000000
G1 Y27.052535 F100.000000
G1 X53.887513 Y27.010308 F100.000000
G1 X53.883482 Y26.967183 F100.000000
G1 X53.919477 Y26.870264 F100.000000
G1 X53.942483 Y26.769469 F100.000000
G1 X53.969488 Y26.735606 F100.000000
G1 X53.984568 Y26.695003 F100.000000
G1 X54.042811 Y26.606105 F100.000000
G1 X54.020208 Y26.588080 F100.000000
G1 X53.894232 Y26.326488 F100.000000
G1 Y26.036142 F100.000000
G1 X53.981502 Y25.854925 F100.000000
G1 X53.894232 Y25.673708 F100.000000
G1 Y25.383362 F100.000000
G1 X53.999238 Y25.165315 F100.000000
G1 X53.894232 Y24.947268 F100.000000
G1 Y24.656922 F100.000000
G1 X54.020208 Y24.395330 F100.000000
G1 X54.043462 Y24.376786 F100.000000
G1 X53.987445 Y24.292761 F100.000000
G1 X53.971114 Y24.249843 F100.000000
G1 X53.942483 Y24.213941 F100.000000
G1 X53.920046 Y24.115638 F100.000000
G0 Z2.000000
G0 X57.072342 Y30.796860
G1 Z-0.040000 F60.000000
G1 X57.023402 Y30.835888 F100.000000
G1 X56.986051 Y30.886119 F100.000000
G1 X56.961278 Y30.899098 F100.000000
G1 X56.942759 Y30.920055 F100.000000
G1 X56.843699 Y30.991175 F100.000000
G1 X56.735906 Y31.036530 F100.000000
G1 X56.632555 Y31.091255 F100.000000
G1 X56.603177 Y31.092376 F100.000000
G1 X56.576078 Y31.103778 F100.000000
G1 X56.527445 Y31.101319 F100.000000
G1 X56.530184 Y31.133398 F100.000000
G1 X56.514300 Y31.175141 F100.000000
G1 X56.520138 Y31.187262 F100.000000
G1 Y31.419143 F100.000000
G1 X56.599280 Y31.449342 F100.000000
G1 X56.677207 Y31.501398 F100.000000
G1 X56.762489 Y31.540249 F100.000000
G1 X56.859009 Y31.613909 F100.000000
G1 X56.925441 Y31.693661 F100.000000
G1 X57.001645 Y31.764135 F100.000000
G1 X57.100705 Y31.908915 F100.000000
G1 X57.118991 Y31.955281 F100.000000
G1 X57.150067 Y31.994249 F100.000000
G1 X57.171647 Y32.088797 F100.000000
G1 X57.207227 Y32.179014 F100.000000
G1 X57.203584 Y32.228723 F100.000000
G1 X57.214675 Y32.277315 F100.000000
G1 Y32.856435 F100.000000
G1 X57.198318 Y32.928100 F100.000000
G1 Y33.001608 F100.000000
G1 X57.166424 Y33.067836 F100.000000
G1 X57.150067 Y33.139501 F100.000000
G1 X57.104236 Y33.196971 F100.000000
G1 X57.072342 Y33.263200 F100.000000
G1 X57.014871 Y33.309031 F100.000000
G1 X56.969040 Y33.366502 F100.000000
G0 Z2.000000
G0 X57.072342 Y25.208860
G1 Z-0.040000 F60.000000
G1 X57.023402 Y25.247888 F100.000000
G1 X56.986051 Y25.298119 F100.000000
G1 X56.961278 Y25.311098 F100.000000
G1 X56.942759 Y25.332055 F100.000000
G1 X56.843699 Y25.403175 F100.000000
G1 X56.735906 Y25.448530 F100.000000
G1 X56.632555 Y25.503255 F100.000000
G1 X56.603177 Y25.504376 F100.000000
G1 X56.576078 Y25.515778 F100.000000
G1 X56.483234 Y25.511083 F100.000000
G1 X56.487304 Y25.528915 F100.000000
G1 X56.562275 F100.000000
G1 X56.845341 Y25.593523 F100.000000
G1 X57.072342 Y25.774550 F100.000000
G1 X57.198318 Y26.036142 F100.000000
G1 Y26.326488 F100.000000
G1 X57.072342 Y26.588080 F100.000000
G1 X56.845341 Y26.769107 F100.000000
G1 X56.562275 Y26.833715 F100.000000
G1 X56.486551 Y26.833715 F100.000000
G1 X56.494893 Y26.870264 F100.000000
G1 X56.530888 Y26.967183 F100.000000
G1 X56.526857 Y27.010308 F100.000000
G1 X56.536495 Y27.052535 F100.000000
G1 Y27.268435 F100.000000
G1 X56.526277 Y27.313204 F100.000000
G1 X56.530184 Y27.358958 F100.000000
G1 X56.494324 Y27.453198 F100.000000
G1 X56.471887 Y27.551501 F100.000000
G1 X56.443256 Y27.587403 F100.000000
G1 X56.439432 Y27.597452 F100.000000
G1 X56.467011 Y27.632035 F100.000000
G1 X56.562275 Y27.632035 F100.000000
G1 X56.845341 Y27.696643 F100.000000
G1 X57.072342 Y27.877670 F100.000000
G1 X57.198318 Y28.139262 F100.000000
G1 Y28.429608 F100.000000
G1 X57.072342 Y28.691200 F100.000000
G1 X56.845341 Y28.872227 F100.000000
G1 X56.562275 Y28.936835 F100.000000
G1 X56.464379 Y28.936835 F100.000000
G1 X56.471887 Y28.946249 F100.000000
G1 X56.494324 Y29.044552 F100.000000
G1 X56.530184 Y29.138792 F100.000000
G1 X56.526277 Y29.184546 F100.000000
G1 X56.536495 Y29.229315 F100.000000
G1 Y29.445215 F100.000000
G1 X56.526857 Y29.487442 F100.000000
G1 X56.530888 Y29.530567 F100.000000
G1 X56.520138 Y29.559511 F100.000000
G1 Y29.678103 F100.000000
G1 X56.586803 Y29.675848 F100.000000
G1 X56.603585 Y29.683242 F100.000000
G1 X56.621920 Y29.683633 F100.000000
G1 X56.735705 Y29.741450 F100.000000
G1 X56.852504 Y29.792909 F100.000000
G1 X56.951564 Y29.866569 F100.000000
G1 X56.969730 Y29.887832 F100.000000
G1 X56.994282 Y29.901223 F100.000000
G1 X57.027633 Y29.947676 F100.000000
G1 X57.072342 Y29.983330 F100.000000
G1 X57.099501 Y30.039728 F100.000000
G1 X57.140162 Y30.087320 F100.000000
G1 X57.147303 Y30.114360 F100.000000
G1 X57.163613 Y30.137078 F100.000000
G1 X57.173506 Y30.193400 F100.000000
G1 X57.198318 Y30.244922 F100.000000
G1 Y30.307519 F100.000000
G1 X57.214302 Y30.368040 F100.000000
G1 X57.209004 Y30.395500 F100.000000
G1 X57.213842 Y30.423045 F100.000000
G1 X57.198318 Y30.478083 F100.000000
G1 Y30.535268 F100.000000
G1 X57.171158 Y30.591665 F100.000000
G1 X57.159300 Y30.653128 F100.000000
G1 X57.142613 Y30.675570 F100.000000
G1 X57.135020 Y30.702487 F100.000000
G1 X57.097154 Y30.745338 F100.000000
G1 X57.072342 Y30.796860 F100.000000
G0 Z2.000000
G0 X53.987445 Y22.115981
G1 Z-0.040000 F60.000000
G1 X53.971114 Y22.073063 F100.000000
G1 X53.942483 Y22.037161 F100.000000
G1 X53.920046 Y21.938858 F100.000000
G1 X53.884186 Y21.844618 F100.000000
G1 X53.888093 Y21.798864 F100.000000
G1 X53.877875 Y21.754095 F100.000000
G1 Y21.464535 F100.000000
G1 X53.887513 Y21.422308 F100.000000
G1 X53.883482 Y21.379183 F100.000000
G1 X53.894232 Y21.350239 F100.000000
G1 Y21.172042 F100.000000
G1 X54.020208 Y20.910450 F100.000000
G1 X54.247209 Y20.729423 F100.000000
G1 X54.530275 Y20.664815 F100.000000
G1 X56.562275 F100.000000
G1 X56.845341 Y20.729423 F100.000000
G1 X57.072342 Y20.910450 F100.000000
G1 X57.198318 Y21.172042 F100.000000
G1 Y21.462388 F100.000000
G1 X57.072342 Y21.723980 F100.000000
G1 X56.845341 Y21.905007 F100.000000
G1 X56.562275 Y21.969615 F100.000000
G1 X56.487304 Y21.969615 F100.000000
G1 X56.471887 Y22.037161 F100.000000
G1 X56.443256 Y22.073063 F100.000000
G1 X56.426925 Y22.115981 F100.000000
G1 X56.425782 Y22.117695 F100.000000
G1 X56.562275 F100.000000
G1 X56.845341 Y22.182303 F100.000000
G1 X57.072342 Y22.363330 F100.000000
G1 X57.198318 Y22.624922 F100.000000
G1 Y22.915268 F100.000000
G1 X57.072342 Y23.176860 F100.000000
G1 X56.845341 Y23.357887 F100.000000
G1 X56.562275 Y23.422495 F100.000000
G1 X56.486551 F100.000000
G1 X56.494324 Y23.456552 F100.000000
G1 X56.530184 Y23.550792 F100.000000
G1 X56.526277 Y23.596546 F100.000000
G1 X56.536495 Y23.641315 F100.000000
G1 Y23.930875 F100.000000
G1 X56.526277 Y23.975644 F100.000000
G1 X56.530184 Y24.021398 F100.000000
G1 X56.503831 Y24.090654 F100.000000
G1 X56.586803 Y24.087848 F100.000000
G1 X56.603585 Y24.095242 F100.000000
G1 X56.621920 Y24.095633 F100.000000
G1 X56.735705 Y24.153450 F100.000000
G1 X56.852504 Y24.204909 F100.000000
G1 X56.951564 Y24.278569 F100.000000
G1 X56.969730 Y24.299832 F100.000000
G1 X56.994282 Y24.313223 F100.000000
G1 X57.027633 Y24.359676 F100.000000
G1 X57.072342 Y24.395330 F100.000000
G1 X57.099501 Y24.451728 F100.000000
G1 X57.140162 Y24.499320 F100.000000
G1 X57.147303 Y24.526360 F100.000000
G1 X57.163613 Y24.549078 F100.000000
G1 X57.173506 Y24.605400 F100.000000
G1 X57.198318 Y24.656922 F100.000000
G1 Y24.719519 F100.000000
G1 X57.214302 Y24.780040 F100.000000
G1 X57.209004 Y24.807500 F100.000000
G1 X57.213842 Y24.835045 F100.000000
G1 X57.198318 Y24.890083 F100.000000
G1 Y24.947268 F100.000000
G1 X57.171158 Y25.003665 F100.000000
G1 X57.159300 Y25.065128 F100.000000
G1 X57.142613 Y25.087570 F100.000000
G1 X57.135020 Y25.114487 F100.000000
G1 X57.097154 Y25.157338 F100.000000
G1 X57.072342 Y25.208860 F100.000000
G0 Z2.000000
G0 X53.920046 Y24.115638
G1 Z-0.040000 F60.000000
G1 X53.884186 Y24.021398 F100.000000
G1 X53.888093 Y23.975644 F100.000000
G1 X53.877875 Y23.930875 F100.000000
G1 Y23.641315 F100.000000
G1 X53.888093 Y23.596546 F100.000000
G1 X53.884186 Y23.550792 F100.000000
G1 X53.920046 Y23.456552 F100.000000
G1 X53.942483 Y23.358249 F100.000000
G1 X53.971114 Y23.322347 F100.000000
G1 X53.987445 Y23.279429 F100.000000
G1 X54.083965 Y23.134649 F100.000000
G1 X54.124248 Y23.096485 F100.000000
G1 X54.083965 Y23.058321 F100.000000
G1 X53.987445 Y22.913541 F100.000000
G1 X53.884186 Y22.642178 F100.000000
G1 X53.908892 Y22.352886 F100.000000
G1 X54.020052 Y22.164892 F100.000000
G1 X53.987445 Y22.115981 F100.000000
G0 Z2.000000
G0 X57.076931 Y18.309477
G1 Z-0.040000 F60.000000
G1 X57.073990 Y18.311878 F100.000000
G1 X57.072342 Y18.315300 F100.000000
G1 X56.961667 Y18.403560 F100.000000
G1 X56.852002 Y18.493072 F100.000000
G1 X56.613637 Y18.611219 F100.000000
G1 X56.557976 Y18.652964 F100.000000
G1 X56.523445 Y18.704761 F100.000000
G1 X56.507487 Y18.719880 F100.000000
G1 X56.536031 Y18.826272 F100.000000
G1 X56.482144 Y19.111573 F100.000000
G1 X56.406530 Y19.214095 F100.000000
G1 X56.482144 Y19.316617 F100.000000
G1 X56.536031 Y19.601918 F100.000000
G1 X56.460794 Y19.882346 F100.000000
G1 X56.271335 Y20.102359 F100.000000
G1 X56.005178 Y20.218380 F100.000000
G1 X55.715040 Y20.207431 F100.000000
G1 X54.361220 Y19.844211 F100.000000
G1 X54.254110 Y19.787558 F100.000000
G1 X54.143035 Y19.739139 F100.000000
G1 X54.126697 Y19.720166 F100.000000
G1 X54.104564 Y19.708459 F100.000000
G1 X54.032643 Y19.610944 F100.000000
G1 X53.953576 Y19.519126 F100.000000
G1 X53.947088 Y19.494943 F100.000000
G1 X53.932226 Y19.474793 F100.000000
G1 X53.909738 Y19.355729 F100.000000
G1 X53.878339 Y19.238698 F100.000000
G1 X53.882986 Y19.214095 F100.000000
G1 X53.878339 Y19.189492 F100.000000
G1 X53.909738 Y19.072461 F100.000000
G1 X53.932226 Y18.953397 F100.000000
G1 X53.947088 Y18.933247 F100.000000
G1 X53.953576 Y18.909064 F100.000000
G1 X54.032643 Y18.817246 F100.000000
G1 X54.062625 Y18.776594 F100.000000
G1 X53.942483 Y18.625941 F100.000000
G1 X53.877875 Y18.342875 F100.000000
G1 Y17.471655 F100.000000
G1 X53.942483 Y17.188589 F100.000000
G1 X53.975722 Y17.146909 F100.000000
G1 X53.948654 Y17.114413 F100.000000
G1 X53.945198 Y17.100633 F100.000000
G1 X53.936579 Y17.089340 F100.000000
G1 X53.923142 Y17.024079 F100.000000
G1 X53.894232 Y16.964048 F100.000000
G1 Y16.897418 F100.000000
G1 X53.878023 Y16.832789 F100.000000
G1 X53.880888 Y16.818875 F100.000000
G1 X53.878023 Y16.804961 F100.000000
G1 X53.894232 Y16.740332 F100.000000
G1 Y16.673702 F100.000000
G1 X53.923142 Y16.613671 F100.000000
G1 X53.936579 Y16.548410 F100.000000
G1 X53.945198 Y16.537117 F100.000000
G1 X53.948654 Y16.523337 F100.000000
G1 X53.991298 Y16.472142 F100.000000
G1 X54.020208 Y16.412110 F100.000000
G1 X54.072302 Y16.370567 F100.000000
G1 X54.104225 Y16.328736 F100.000000
G1 X54.083965 Y16.309541 F100.000000
G1 X53.987445 Y16.164761 F100.000000
G1 X53.971114 Y16.121843 F100.000000
G1 X53.942483 Y16.085941 F100.000000
G1 X53.920046 Y15.987638 F100.000000
G0 Z2.000000
G1 Z-0.040000 F60.000000
G1 X53.884186 Y15.893398 F100.000000
G1 X53.888093 Y15.847644 F100.000000
G1 X53.877875 Y15.802875 F100.000000
G1 Y15.658095 F100.000000
G1 X53.888093 Y15.613326 F100.000000
G1 X53.884186 Y15.567572 F100.000000
G1 X53.920046 Y15.473332 F100.000000
G1 X53.942483 Y15.375029 F100.000000
G1 X53.971114 Y15.339127 F100.000000
G1 X53.987445 Y15.296209 F100.000000
G1 X54.083965 Y15.151429 F100.000000
G1 X54.162108 Y15.077397 F100.000000
G1 X54.231001 Y14.994689 F100.000000
G1 X54.327521 Y14.921029 F100.000000
G1 X54.416162 Y14.880648 F100.000000
G1 X54.497777 Y14.827480 F100.000000
G1 X54.690817 Y14.756360 F100.000000
G1 X54.744505 Y14.749418 F100.000000
G1 X54.794089 Y14.727694 F100.000000
G1 X55.180169 Y14.654034 F100.000000
G1 X55.242059 Y14.656256 F100.000000
G1 X55.302435 Y14.642475 F100.000000
G1 X55.787575 F100.000000
G1 X55.847951 Y14.656256 F100.000000
G1 X55.909841 Y14.654034 F100.000000
G1 X56.295921 Y14.727694 F100.000000
G1 X56.345505 Y14.749418 F100.000000
G1 X56.399193 Y14.756360 F100.000000
G1 X56.592233 Y14.827480 F100.000000
G1 X56.673848 Y14.880648 F100.000000
G1 X56.762489 Y14.921029 F100.000000
G1 X56.859009 Y14.994689 F100.000000
G1 X56.925441 Y15.074441 F100.000000
G1 X57.001645 Y15.144915 F100.000000
G1 X57.100705 Y15.289695 F100.000000
G1 X57.118991 Y15.336061 F100.000000
G1 X57.150067 Y15.375029 F100.000000
G1 X57.171647 Y15.469577 F100.000000
G1 X57.207227 Y15.559794 F100.000000
G1 X57.203584 Y15.609503 F100.000000
G1 X57.214675 Y15.658095 F100.000000
G1 Y15.802875 F100.000000
G1 X57.203584 Y15.851467 F100.000000
G1 X57.207227 Y15.901176 F100.000000
G1 X57.171647 Y15.991393 F100.000000
G1 X57.150067 Y16.085941 F100.000000
G1 X57.118991 Y16.124909 F100.000000
G1 X57.100705 Y16.171275 F100.000000
G1 X57.001645 Y16.316055 F100.000000
G1 X56.925441 Y16.386529 F100.000000
G1 X56.859009 Y16.466281 F100.000000
G1 X56.762489 Y16.539941 F100.000000
G1 X56.673848 Y16.580322 F100.000000
G1 X56.592233 Y16.633490 F100.000000
G1 X56.399193 Y16.704610 F100.000000
G1 X56.345505 Y16.711552 F100.000000
G1 X56.295921 Y16.733276 F100.000000
G1 X55.909841 Y16.806936 F100.000000
G1 X55.847951 Y16.804714 F100.000000
G1 X55.787575 Y16.818495 F100.000000
G1 X55.372780 Y16.818495 F100.000000
G1 X55.372702 Y16.818875 F100.000000
G1 X55.375567 Y16.832789 F100.000000
G1 X55.359358 Y16.897418 F100.000000
G1 Y16.964048 F100.000000
G1 X55.330448 Y17.024079 F100.000000
G1 X55.317011 Y17.089340 F100.000000
G1 X55.308392 Y17.100633 F100.000000
G1 X55.304936 Y17.114413 F100.000000
G1 X55.262292 Y17.165608 F100.000000
G1 X55.233382 Y17.225640 F100.000000
G1 X55.195142 Y17.256135 F100.000000
G1 X56.562275 F100.000000
G1 X56.700284 Y17.287635 F100.000000
G1 X56.838643 Y17.317564 F100.000000
G1 X56.841638 Y17.319898 F100.000000
G1 X56.845341 Y17.320743 F100.000000
G1 X56.956016 Y17.409003 F100.000000
G1 X57.067686 Y17.496000 F100.000000
G1 X57.069373 Y17.499403 F100.000000
G1 X57.072342 Y17.501770 F100.000000
G1 X57.133762 Y17.629310 F100.000000
G1 X57.196627 Y17.756144 F100.000000
G1 X57.196670 Y17.759941 F100.000000
G1 X57.198318 Y17.763362 F100.000000
G1 Y17.904921 F100.000000
G1 X57.199927 Y18.046470 F100.000000
G1 X57.198318 Y18.049910 F100.000000
G1 Y18.053708 F100.000000
G1 X57.136898 Y18.181247 F100.000000
G1 X57.076931 Y18.309477 F100.000000
G0 Z2.000000
G0 X56.534715 Y46.280715
G1 Z-0.040000 F60.000000
G1 X58.931715 F100.000000
G1 Y47.688628 F100.000000
G1 X61.873816 Y50.630730 F100.000000
G1 X62.269465 Y50.759284 F100.000000
G1 X62.639822 Y51.092754 F100.000000
G1 X62.842525 Y51.548033 F100.000000
G1 Y52.046397 F100.000000
G1 X62.639822 Y52.501676 F100.000000
G1 X62.269465 Y52.835146 F100.000000
G1 X61.795492 Y52.989149 F100.000000
G1 X61.299858 Y52.937056 F100.000000
G1 X60.868262 Y52.687874 F100.000000
G1 X60.575331 Y52.284689 F100.000000
G1 X60.471715 Y51.797215 F100.000000
G1 X60.575212 Y51.310299 F100.000000
G1 X57.942628 Y48.677715 F100.000000
G1 X56.534715 Y48.677715 F100.000000
G1 Y46.280715 F100.000000
G0 Z2.000000
G0 X51.953825 Y53.816428
G1 Z-0.040000 F60.000000
G1 Y52.654239 F100.000000
G1 X51.685331 Y52.284689 F100.000000
G1 X51.581715 Y51.797215 F100.000000
G1 X51.685331 Y51.309741 F100.000000
G1 X51.978262 Y50.906556 F100.000000
G1 X52.409858 Y50.657374 F100.000000
G1 X52.905492 Y50.605281 F100.000000
G1 X53.379465 Y50.759284 F100.000000
G1 X53.749822 Y51.092754 F100.000000
G1 X53.952525 Y51.548033 F100.000000
G1 Y52.046397 F100.000000
G1 X53.749822 Y52.501676 F100.000000
G1 X53.379465 Y52.835146 F100.000000
G1 X53.352605 Y52.843874 F100.000000
G1 Y53.816428 F100.000000
G0 Z2.000000
G0 X56.754935 Y40.113215
G1 Z-0.040000 F60.000000
G1 Y44.685215 F100.000000
G1 X56.725080 Y44.816020 F100.000000
G1 X56.710057 Y44.949346 F100.000000
G1 X56.685859 Y44.987858 F100.000000
G1 X56.675738 Y45.032201 F100.000000
G1 X56.592085 Y45.137098 F100.000000
G1 X56.520702 Y45.250702 F100.000000
G1 X55.992935 Y45.778470 F100.000000
G1 Y46.621788 F100.000000
G1 X56.162822 Y46.774754 F100.000000
G1 X56.365525 Y47.230033 F100.000000
G1 Y47.728397 F100.000000
G1 X56.193595 Y48.114558 F100.000000
G1 Y54.126309 F100.000000
G0 Z2.000000
G0 X18.908935 Y8.571741
G1 Z-0.040000 F60.000000
G1 X19.246238 Y8.148776 F100.000000
G1 X19.371215 Y7.601215 F100.000000
G1 Y6.585215 F100.000000
G1 X19.246238 Y6.037654 F100.000000
G1 X18.896059 Y5.598544 F100.000000
G1 X18.390036 Y5.354856 F100.000000
G1 X17.828394 F100.000000
G1 X17.322371 Y5.598544 F100.000000
G1 X16.972192 Y6.037654 F100.000000
G1 X16.847215 Y6.585215 F100.000000
G1 Y7.601215 F100.000000
G1 X16.972192 Y8.148776 F100.000000
G1 X17.309495 Y8.571741 F100.000000
G0 Z2.000000
G0 X21.448935 Y8.571741
G1 Z-0.040000 F60.000000
G1 X21.786238 Y8.148776 F100.000000
G1 X21.911215 Y7.601215 F100.000000
G1 Y6.585215 F100.000000
G1 X21.786238 Y6.037654 F100.000000
G1 X21.436059 Y5.598544 F100.000000
G1 X20.930036 Y5.354856 F100.000000
G1 X20.368394 F100.000000
G1 X19.862371 Y5.598544 F100.000000
G1 X19.512192 Y6.037654 F100.000000
G1 X19.387215 Y6.585215 F100.000000
G1 Y7.601215 F100.000000
G1 X19.512192 Y8.148776 F100.000000
G1 X19.849495 Y8.571741 F100.000000
G0 Z2.000000
G0 X23.988935
G1 Z-0.040000 F60.000000
G1 X24.326238 Y8.148776 F100.000000
G1 X24.451215 Y7.601215 F100.000000
G1 Y6.585215 F100.000000
G1 X24.326238 Y6.037654 F100.000000
G1 X23.976059 Y5.598544 F100.000000
G1 X23.470036 Y5.354856 F100.000000
G1 X22.908394 F100.000000
G1 X22.402371 Y5.598544 F100.000000
G1 X22.052192 Y6.037654 F100.000000
G1 X21.927215 Y6.585215 F100.000000
G1 Y7.601215 F100.000000
G1 X22.052192 Y8.148776 F100.000000
G1 X22.389495 Y8.571741 F100.000000
G0 Z2.000000
G0 X31.608935
G1 Z-0.040000 F60.000000
G1 X31.946238 Y8.148776 F100.000000
G1 X32.071215 Y7.601215 F100.000000
G1 Y6.585215 F100.000000
G1 X31.946238 Y6.037654 F100.000000
G1 X31.596059 Y5.598544 F100.000000
G1 X31.090036 Y5.354856 F100.000000
G1 X30.528394 F100.000000
G1 X30.022371 Y5.598544 F100.000000
G1 X29.672192 Y6.037654 F100.000000
G1 X29.547215 Y6.585215 F100.000000
G1 Y7.601215 F100.000000
G1 X29.672192 Y8.148776 F100.000000
G1 X30.009495 Y8.571741 F100.000000
G0 Z2.000000
G0 X29.068935 Y8.571741
G1 Z-0.040000 F60.000000
G1 X29.406238 Y8.148776 F100.000000
G1 X29.531215 Y7.601215 F100.000000
G1 Y6.585215 F100.000000
G1 X29.406238 Y6.037654 F100.000000
G1 X29.056059 Y5.598544 F100.000000
G1 X28.550036 Y5.354856 F100.000000
G1 X27.988394 F100.000000
G1 X27.482371 Y5.598544 F100.000000
G1 X27.132192 Y6.037654 F100.000000
G1 X27.007215 Y6.585215 F100.000000
G1 Y7.601215 F100.000000
G1 X27.132192 Y8.148776 F100.000000
G1 X27.469495 Y8.571741 F100.000000
G0 Z2.000000
G0 X26.528935
G1 Z-0.040000 F60.000000
G1 X26.866238 Y8.148776 F100.000000
G1 X26.991215 Y7.601215 F100.000000
G1 Y6.585215 F100.000000
G1 X26.866238 Y6.037654 F100.000000
G1 X26.516059 Y5.598544 F100.000000
G1 X26.010036 Y5.354856 F100.000000
G1 X25.448394 F100.000000
G1 X24.942371 Y5.598544 F100.000000
G1 X24.592192 Y6.037654 F100.000000
G1 X24.467215 Y6.585215 F100.000000
G1 Y7.601215 F100.000000
G1 X24.592192 Y8.148776 F100.000000
G1 X24.929495 Y8.571741 F100.000000
G0 Z2.000000
G0 X36.688935
G1 Z-0.040000 F60.000000
G1 X37.026238 Y8.148776 F100.000000
G1 X37.151215 Y7.601215 F100.000000
G1 Y6.585215 F100.000000
G1 X37.026238 Y6.037654 F100.000000
G1 X36.676059 Y5.598544 F100.000000
G1 X36.170036 Y5.354856 F100.000000
G1 X35.608394 F100.000000
G1 X35.102371 Y5.598544 F100.000000
G1 X34.752192 Y6.037654 F100.000000
G1 X34.627215 Y6.585215 F100.000000
G1 Y7.601215 F100.000000
G1 X34.752192 Y8.148776 F100.000000
G1 X35.089495 Y8.571741 F100.000000
G0 Z2.000000
G0 X39.624632 Y6.293495
G1 Z-0.040000 F60.000000
G1 X39.566238 Y6.037654 F100.000000
G1 X39.216059 Y5.598544 F100.000000
G1 X38.710036 Y5.354856 F100.000000
G1 X38.148394 F100.000000
G1 X37.642371 Y5.598544 F100.000000
G1 X37.292192 Y6.037654 F100.000000
G1 X37.167215 Y6.585215 F100.000000
G1 Y7.601215 F100.000000
G1 X37.292192 Y8.148776 F100.000000
G1 X37.642371 Y8.587886 F100.000000
G1 X38.148394 Y8.831574 F100.000000
G1 X38.710036 F100.000000
G1 X39.216059 Y8.587886 F100.000000
G1 X39.566238 Y8.148776 F100.000000
G1 X39.624632 Y7.892935 F100.000000
G0 Z2.000000
G0 X39.773798
G1 Z-0.040000 F60.000000
G1 X39.832192 Y8.148776 F100.000000
G1 X40.169495 Y8.571741 F100.000000
G0 Z2.000000
G0 X41.768935 Y8.571741
G1 Z-0.040000 F60.000000
G1 X42.106238 Y8.148776 F100.000000
G1 X42.231215 Y7.601215 F100.000000
G1 Y6.585215 F100.000000
G1 X42.106238 Y6.037654 F100.000000
G1 X41.756059 Y5.598544 F100.000000
G1 X41.250036 Y5.354856 F100.000000
G1 X40.688394 F100.000000
G1 X40.182371 Y5.598544 F100.000000
G1 X39.832192 Y6.037654 F100.000000
G1 X39.773798 Y6.293495 F100.000000
G0 Z2.000000
G0 X44.787215 Y7.601215
G1 Z-0.040000 F60.000000
G1 X44.912192 Y8.148776 F100.000000
G1 X45.262371 Y8.587886 F100.000000
G1 X45.768394 Y8.831574 F100.000000
G1 X46.330036 F100.000000
G1 X46.836059 Y8.587886 F100.000000
G1 X47.186238 Y8.148776 F100.000000
G1 X47.311215 Y7.601215 F100.000000
G1 Y6.585215 F100.000000
G1 X47.186238 Y6.037654 F100.000000
G1 X46.836059 Y5.598544 F100.000000
G1 X46.330036 Y5.354856 F100.000000
G1 X45.768394 F100.000000
G1 X45.262371 Y5.598544 F100.000000
G1 X44.912192 Y6.037654 F100.000000
G1 X44.787215 Y6.585215 F100.000000
G1 Y7.601215 F100.000000
G0 Z2.000000
G0 X49.784632 Y6.293495
G1 Z-0.040000 F60.000000
G1 X49.726238 Y6.037654 F100.000000
G1 X49.376059 Y5.598544 F100.000000
G1 X48.870036 Y5.354856 F100.000000
G1 X48.308394 F100.000000
G1 X47.802371 Y5.598544 F100.000000
G1 X47.452192 Y6.037654 F100.000000
G1 X47.327215 Y6.585215 F100.000000
G1 Y7.601215 F100.000000
G1 X47.452192 Y8.148776 F100.000000
G1 X47.802371 Y8.587886 F100.000000
G1 X48.308394 Y8.831574 F100.000000
G1 X48.870036 F100.000000
G1 X49.376059 Y8.587886 F100.000000
G1 X49.726238 Y8.148776 F100.000000
G1 X49.784632 Y7.892935 F100.000000
G0 Z2.000000
G0 X16.847215 Y55.861215
G1 Z-0.040000 F60.000000
G1 X16.972192 Y56.408776 F100.000000
G1 X17.322371 Y56.847886 F100.000000
G1 X17.828394 Y57.091574 F100.000000
G1 X18.390036 F100.000000
G1 X18.896059 Y56.847886 F100.000000
G1 X19.246238 Y56.408776 F100.000000
G1 X19.371215 Y55.861215 F100.000000
G1 Y54.845215 F100.000000
G1 X19.246238 Y54.297654 F100.000000
G1 X18.896059 Y53.858544 F100.000000
G1 X18.390036 Y53.614856 F100.000000
G1 X17.828394 F100.000000
G1 X17.322371 Y53.858544 F100.000000
G1 X16.972192 Y54.297654 F100.000000
G1 X16.847215 Y54.845215 F100.000000
G1 Y55.861215 F100.000000
G0 Z2.000000
G0 X19.387215
G1 Z-0.040000 F60.000000
G1 X19.512192 Y56.408776 F100.000000
G1 X19.862371 Y56.847886 F100.000000
G1 X20.368394 Y57.091574 F100.000000
G1 X20.930036 F100.000000
G1 X21.436059 Y56.847886 F100.000000
G1 X21.786238 Y56.408776 F100.000000
G1 X21.911215 Y55.861215 F100.000000
G1 Y54.845215 F100.000000
G1 X21.786238 Y54.297654 F100.000000
G1 X21.436059 Y53.858544 F100.000000
G1 X20.930036 Y53.614856 F100.000000
G1 X20.368394 F100.000000
G1 X19.862371 Y53.858544 F100.000000
G1 X19.512192 Y54.297654 F100.000000
G1 X19.387215 Y54.845215 F100.000000
G1 Y55.861215 F100.000000
G0 Z2.000000
G0 X22.389495 Y53.874689
G1 Z-0.040000 F60.000000
G1 X22.052192 Y54.297654 F100.000000
G1 X21.927215 Y54.845215 F100.000000
G1 Y55.861215 F100.000000
G1 X22.052192 Y56.408776 F100.000000
G1 X22.402371 Y56.847886 F100.000000
G1 X22.908394 Y57.091574 F100.000000
G1 X23.470036 F100.000000
G1 X23.976059 Y56.847886 F100.000000
G1 X24.326238 Y56.408776 F100.000000
G1 X24.451215 Y55.861215 F100.000000
G1 Y54.845215 F100.000000
G1 X24.326238 Y54.297654 F100.000000
G1 X23.988935 Y53.874689 F100.000000
G0 Z2.000000
G0 X24.929495
G1 Z-0.040000 F60.000000
G1 X24.592192 Y54.297654 F100.000000
G1 X24.467215 Y54.845215 F100.000000
G1 Y55.861215 F100.000000
G1 X24.592192 Y56.408776 F100.000000
G1 X24.942371 Y56.847886 F100.000000
G1 X25.448394 Y57.091574 F100.000000
G1 X26.010036 F100.000000
G1 X26.516059 Y56.847886 F100.000000
G1 X26.866238 Y56.408776 F100.000000
G1 X26.991215 Y55.861215 F100.000000
G1 Y54.845215 F100.000000
G1 X26.866238 Y54.297654 F100.000000
G1 X26.528935 Y53.874689 F100.000000
G0 Z2.000000
G0 X27.469495
G1 Z-0.040000 F60.000000
G1 X27.132192 Y54.297654 F100.000000
G1 X27.007215 Y54.845215 F100.000000
G1 Y55.861215 F100.000000
G1 X27.132192 Y56.408776 F100.000000
G1 X27.482371 Y56.847886 F100.000000
G1 X27.988394 Y57.091574 F100.000000
G1 X28.550036 F100.000000
G1 X29.056059 Y56.847886 F100.000000
G1 X29.406238 Y56.408776 F100.000000
G1 X29.531215 Y55.861215 F100.000000
G1 Y54.845215 F100.000000
G1 X29.406238 Y54.297654 F100.000000
G1 X29.068935 Y53.874689 F100.000000
G0 Z2.000000
G0 X30.009495 Y53.874689
G1 Z-0.040000 F60.000000
G1 X29.672192 Y54.297654 F100.000000
G1 X29.547215 Y54.845215 F100.000000
G1 Y55.861215 F100.000000
G1 X29.672192 Y56.408776 F100.000000
G1 X30.022371 Y56.847886 F100.000000
G1 X30.528394 Y57.091574 F100.000000
G1 X31.090036 F100.000000
G1 X31.596059 Y56.847886 F100.000000
G1 X31.946238 Y56.408776 F100.000000
G1 X32.071215 Y55.861215 F100.000000
G1 Y54.845215 F100.000000
G1 X31.946238 Y54.297654 F100.000000
G1 X31.608935 Y53.874689 F100.000000
G0 Z2.000000
G0 X32.803495 Y53.742424
G1 Z-0.040000 F60.000000
G1 X32.562371 Y53.858544 F100.000000
G1 X32.212192 Y54.297654 F100.000000
G1 X32.087215 Y54.845215 F100.000000
G1 Y55.861215 F100.000000
G1 X32.212192 Y56.408776 F100.000000
G1 X32.562371 Y56.847886 F100.000000
G1 X33.068394 Y57.091574 F100.000000
G1 X33.630036 F100.000000
G1 X34.136059 Y56.847886 F100.000000
G1 X34.486238 Y56.408776 F100.000000
G1 X34.611215 Y55.861215 F100.000000
G1 Y54.845215 F100.000000
G1 X34.486238 Y54.297654 F100.000000
G1 X34.402935 Y54.193195 F100.000000
G0 Z2.000000
G0 X35.089495 Y53.874689
G1 Z-0.040000 F60.000000
G1 X34.752192 Y54.297654 F100.000000
G1 X34.627215 Y54.845215 F100.000000
G1 Y55.861215 F100.000000
G1 X34.752192 Y56.408776 F100.000000
G1 X35.102371 Y56.847886 F100.000000
G1 X35.608394 Y57.091574 F100.000000
G1 X36.170036 F100.000000
G1 X36.676059 Y56.847886 F100.000000
G1 X37.026238 Y56.408776 F100.000000
G1 X37.151215 Y55.861215 F100.000000
G1 Y54.845215 F100.000000
G1 X37.026238 Y54.297654 F100.000000
G1 X36.688935 Y53.874689 F100.000000
G0 Z2.000000
G0 X39.153495 Y53.874689
G1 Z-0.040000 F60.000000
G1 X38.816192 Y54.297654 F100.000000
G1 X38.691215 Y54.845215 F100.000000
G1 Y55.861215 F100.000000
G1 X38.816192 Y56.408776 F100.000000
G1 X39.166371 Y56.847886 F100.000000
G1 X39.672394 Y57.091574 F100.000000
G1 X40.234036 F100.000000
G1 X40.740059 Y56.847886 F100.000000
G1 X41.090238 Y56.408776 F100.000000
G1 X41.215215 Y55.861215 F100.000000
G1 Y54.845215 F100.000000
G1 X41.090238 Y54.297654 F100.000000
G1 X40.752935 Y53.874689 F100.000000
G0 Z2.000000
G0 X41.693495
G1 Z-0.040000 F60.000000
G1 X41.356192 Y54.297654 F100.000000
G1 X41.231215 Y54.845215 F100.000000
G1 Y55.861215 F100.000000
G1 X41.356192 Y56.408776 F100.000000
G1 X41.706371 Y56.847886 F100.000000
G1 X42.212394 Y57.091574 F100.000000
G1 X42.774036 F100.000000
G1 X43.280059 Y56.847886 F100.000000
G1 X43.630238 Y56.408776 F100.000000
G1 X43.755215 Y55.861215 F100.000000
G1 Y54.845215 F100.000000
G1 X43.630238 Y54.297654 F100.000000
G1 X43.292935 Y53.874689 F100.000000
G0 Z2.000000
G0 X44.233495 Y53.874689
G1 Z-0.040000 F60.000000
G1 X43.896192 Y54.297654 F100.000000
G1 X43.771215 Y54.845215 F100.000000
G1 Y55.861215 F100.000000
G1 X43.896192 Y56.408776 F100.000000
G1 X44.246371 Y56.847886 F100.000000
G1 X44.752394 Y57.091574 F100.000000
G1 X45.314036 F100.000000
G1 X45.820059 Y56.847886 F100.000000
G1 X46.170238 Y56.408776 F100.000000
G1 X46.295215 Y55.861215 F100.000000
G1 Y54.845215 F100.000000
G1 X46.170238 Y54.297654 F100.000000
G1 X45.832935 Y53.874689 F100.000000
G0 Z2.000000
G0 X47.027495 Y53.742424
G1 Z-0.040000 F60.000000
G1 X46.786371 Y53.858544 F100.000000
G1 X46.436192 Y54.297654 F100.000000
G1 X46.311215 Y54.845215 F100.000000
G1 Y55.861215 F100.000000
G1 X46.436192 Y56.408776 F100.000000
G1 X46.786371 Y56.847886 F100.000000
G1 X47.292394 Y57.091574 F100.000000
G1 X47.854036 F100.000000
G1 X48.360059 Y56.847886 F100.000000
G1 X48.710238 Y56.408776 F100.000000
G1 X48.835215 Y55.861215 F100.000000
G1 Y54.845215 F100.000000
G1 X48.710238 Y54.297654 F100.000000
G1 X48.626935 Y54.193195 F100.000000
G0 Z2.000000
G0 X49.313495 Y53.874689
G1 Z-0.040000 F60.000000
G1 X48.976192 Y54.297654 F100.000000
G1 X48.851215 Y54.845215 F100.000000
G1 Y55.861215 F100.000000
G1 X48.976192 Y56.408776 F100.000000
G1 X49.326371 Y56.847886 F100.000000
G1 X49.832394 Y57.091574 F100.000000
G1 X50.394036 F100.000000
G1 X50.900059 Y56.847886 F100.000000
G1 X51.250238 Y56.408776 F100.000000
G1 X51.375215 Y55.861215 F100.000000
G1 Y54.845215 F100.000000
G1 X51.250238 Y54.297654 F100.000000
G1 X50.912935 Y53.874689 F100.000000
G0 Z2.000000
G0 X51.953825 Y53.816428
G1 Z-0.040000 F60.000000
G1 X51.866371 Y53.858544 F100.000000
G1 X51.516192 Y54.297654 F100.000000
G1 X51.391215 Y54.845215 F100.000000
G1 Y55.861215 F100.000000
G1 X51.516192 Y56.408776 F100.000000
G1 X51.866371 Y56.847886 F100.000000
G1 X52.372394 Y57.091574 F100.000000
G1 X52.934036 F100.000000
G1 X53.440059 Y56.847886 F100.000000
G1 X53.790238 Y56.408776 F100.000000
G1 X53.915215 Y55.861215 F100.000000
G1 Y54.845215 F100.000000
G1 X53.790238 Y54.297654 F100.000000
G1 X53.440059 Y53.858544 F100.000000
G1 X53.352605 Y53.816428 F100.000000
G0 Z2.000000
G0 X54.192835 Y54.126309
G1 Z-0.040000 F60.000000
G1 X54.056192 Y54.297654 F100.000000
G1 X53.931215 Y54.845215 F100.000000
G1 Y55.861215 F100.000000
G1 X54.056192 Y56.408776 F100.000000
G1 X54.406371 Y56.847886 F100.000000
G1 X54.912394 Y57.091574 F100.000000
G1 X55.474036 F100.000000
G1 X55.980059 Y56.847886 F100.000000
G1 X56.330238 Y56.408776 F100.000000
G1 X56.455215 Y55.861215 F100.000000
G1 Y54.845215 F100.000000
G1 X56.330238 Y54.297654 F100.000000
G1 X56.193595 Y54.126309 F100.000000
G0 Z2.000000
G0 X56.471215 Y55.861215
G1 Z-0.040000 F60.000000
G1 X56.596192 Y56.408776 F100.000000
G1 X56.946371 Y56.847886 F100.000000
G1 X57.452394 Y57.091574 F100.000000
G1 X58.014036 F100.000000
G1 X58.520059 Y56.847886 F100.000000
G1 X58.870238 Y56.408776 F100.000000
G1 X58.995215 Y55.861215 F100.000000
G1 Y54.845215 F100.000000
G1 X58.870238 Y54.297654 F100.000000
G1 X58.520059 Y53.858544 F100.000000
G1 X58.014036 Y53.614856 F100.000000
G1 X57.452394 F100.000000
G1 X56.946371 Y53.858544 F100.000000
G1 X56.596192 Y54.297654 F100.000000
G1 X56.471215 Y54.845215 F100.000000
G1 Y55.861215 F100.000000
G0 Z2.000000
G0 X44.308935 Y8.571741
G1 Z-0.040000 F60.000000
G1 X44.646238 Y8.148776 F100.000000
G1 X44.771215 Y7.601215 F100.000000
G1 Y6.585215 F100.000000
G1 X44.646238 Y6.037654 F100.000000
G1 X44.296059 Y5.598544 F100.000000
G1 X43.790036 Y5.354856 F100.000000
G1 X43.228394 F100.000000
G1 X42.722371 Y5.598544 F100.000000
G1 X42.372192 Y6.037654 F100.000000
G1 X42.247215 Y6.585215 F100.000000
G1 Y7.601215 F100.000000
G1 X42.372192 Y8.148776 F100.000000
G1 X42.709495 Y8.571741 F100.000000
G0 Z2.000000
G0 X63.900715 Y55.353215
G1 Z-0.040000 F60.000000
G1 X63.951245 Y54.856310 F100.000000
G1 X64.100768 Y54.379748 F100.000000
G1 X64.343160 Y53.943039 F100.000000
G1 X64.668500 Y53.564064 F100.000000
G1 X65.063467 Y53.258337 F100.000000
G1 X65.511892 Y53.038374 F100.000000
G1 X65.995416 Y52.913181 F100.000000
G1 X66.494242 Y52.887883 F100.000000
G1 X66.987951 Y52.963517 F100.000000
G1 X67.456328 Y53.136984 F100.000000
G1 X67.880199 Y53.401185 F100.000000
G1 X68.242209 Y53.745302 F100.000000
G1 X68.527540 Y54.155247 F100.000000
G1 X68.724508 Y54.614237 F100.000000
G1 X68.825050 Y55.103481 F100.000000
G1 Y55.602949 F100.000000
G1 X68.724508 Y56.092193 F100.000000
G1 X68.527540 Y56.551183 F100.000000
G1 X68.242209 Y56.961128 F100.000000
G1 X67.880199 Y57.305245 F100.000000
G1 X67.456328 Y57.569446 F100.000000
G1 X66.987951 Y57.742913 F100.000000
G1 X66.494242 Y57.818547 F100.000000
G1 X65.995416 Y57.793249 F100.000000
G1 X65.511892 Y57.668056 F100.000000
G1 X65.063467 Y57.448093 F100.000000
G1 X64.668500 Y57.142366 F100.000000
G1 X64.343160 Y56.763391 F100.000000
G1 X64.100768 Y56.326682 F100.000000
G1 X63.951245 Y55.850120 F100.000000
G1 X63.900715 Y55.353215 F100.000000
G0 Z2.000000
G0 X65.170715 Y7.093215
G1 Z-0.040000 F60.000000
G1 X65.221245 Y6.596310 F100.000000
G1 X65.370768 Y6.119748 F100.000000
G1 X65.613160 Y5.683039 F100.000000
G1 X65.938500 Y5.304064 F100.000000
G1 X66.333467 Y4.998337 F100.000000
G1 X66.781892 Y4.778374 F100.000000
G1 X67.265416 Y4.653181 F100.000000
G1 X67.764242 Y4.627883 F100.000000
G1 X68.257951 Y4.703517 F100.000000
G1 X68.726328 Y4.876984 F100.000000
G1 X69.150199 Y5.141185 F100.000000
G1 X69.512209 Y5.485302 F100.000000
G1 X69.797540 Y5.895247 F100.000000
G1 X69.994508 Y6.354237 F100.000000
G1 X70.095050 Y6.843481 F100.000000
G1 Y7.342949 F100.000000
G1 X69.994508 Y7.832193 F100.000000
G1 X69.797540 Y8.291183 F100.000000
G1 X69.512209 Y8.701128 F100.000000
G1 X69.150199 Y9.045245 F100.000000
G1 X68.726328 Y9.309446 F100.000000
G1 X68.257951 Y9.482913 F100.000000
G1 X67.764242 Y9.558547 F100.000000
G1 X67.265416 Y9.533249 F100.000000
G1 X66.781892 Y9.408056 F100.000000
G1 X66.333467 Y9.188093 F100.000000
G1 X65.938500 Y8.882366 F100.000000
G1 X65.613160 Y8.503391 F100.000000
G1 X65.370768 Y8.066682 F100.000000
G1 X65.221245 Y7.590120 F100.000000
G1 X65.170715 Y7.093215 F100.000000
G0 Z2.000000
G0 X24.634331 Y49.998689
G1 Z-0.040000 F60.000000
G1 X24.530715 Y49.511215 F100.000000
G1 X24.542552 Y49.455527 F100.000000
G1 X22.335466 Y47.248441 F100.000000
G1 X22.173215 Y47.280715 F100.000000
G1 X21.665968 Y47.179817 F100.000000
G1 X21.235945 Y46.892485 F100.000000
G1 X20.948613 Y46.462462 F100.000000
G1 X20.847715 Y45.955215 F100.000000
G1 X20.948613 Y45.447968 F100.000000
G1 X21.235945 Y45.017945 F100.000000
G1 X21.665968 Y44.730613 F100.000000
G1 X22.173215 Y44.629715 F100.000000
G1 X22.680462 Y44.730613 F100.000000
G1 X23.110485 Y45.017945 F100.000000
G1 X23.397817 Y45.447968 F100.000000
G1 X23.498715 Y45.955215 F100.000000
G1 X23.466441 Y46.117466 F100.000000
G1 X25.685968 Y48.336993 F100.000000
G1 X25.854492 Y48.319281 F100.000000
G1 X26.328465 Y48.473284 F100.000000
G1 X26.698822 Y48.806754 F100.000000
G1 X26.901525 Y49.262033 F100.000000
G1 Y49.760397 F100.000000
G1 X26.698822 Y50.215676 F100.000000
G1 X26.328465 Y50.549146 F100.000000
G1 X25.854492 Y50.703149 F100.000000
G1 X25.358858 Y50.651056 F100.000000
G1 X24.927262 Y50.401874 F100.000000
G1 X24.634331 Y49.998689 F100.000000
G0 Z2.000000
G0 X20.940935 Y36.803215
G1 Z-0.040000 F60.000000
G1 Y37.866566 F100.000000
G1 X20.948613 Y37.827968 F100.000000
G1 X21.235945 Y37.397945 F100.000000
G1 X21.373495 Y37.306037 F100.000000
G1 Y36.803215 F100.000000
G1 X20.940935 F100.000000
G0 Z2.000000
G0 X25.786702 Y36.106702
G1 Z-0.040000 F60.000000
G1 X25.673098 Y36.178085 F100.000000
G1 X25.568201 Y36.261738 F100.000000
G1 X25.523858 Y36.271859 F100.000000
G1 X25.485346 Y36.296057 F100.000000
G1 X25.352020 Y36.311080 F100.000000
G1 X25.221215 Y36.340935 F100.000000
G1 X23.435215 F100.000000
G1 Y36.803215 F100.000000
G1 X22.972935 F100.000000
G1 Y37.306037 F100.000000
G1 X23.110485 Y37.397945 F100.000000
G1 X23.397817 Y37.827968 F100.000000
G1 X23.498715 Y38.335215 F100.000000
G1 X23.466441 Y38.497466 F100.000000
G1 X25.278702 Y40.309728 F100.000000
G1 X25.350085 Y40.423332 F100.000000
G1 X25.433738 Y40.528229 F100.000000
G1 X25.443859 Y40.572572 F100.000000
G1 X25.468057 Y40.611084 F100.000000
G1 X25.483080 Y40.744410 F100.000000
G0 Z2.000000
G0 X33.037728 Y44.119728
G1 Z-0.040000 F60.000000
G1 X33.565495 Y43.591960 F100.000000
G1 Y42.613864 F100.000000
G1 X33.557817 Y42.652462 F100.000000
G1 X33.270485 Y43.082485 F100.000000
G1 X32.840462 Y43.369817 F100.000000
G1 X32.724527 Y43.392878 F100.000000
G1 X30.965525 Y45.151880 F100.000000
G1 Y45.442397 F100.000000
G1 X30.762822 Y45.897676 F100.000000
G1 X30.392465 Y46.231146 F100.000000
G1 X29.918492 Y46.385149 F100.000000
G1 X29.422858 Y46.333056 F100.000000
G1 X28.991262 Y46.083874 F100.000000
G1 X28.698331 Y45.680689 F100.000000
G1 X28.594715 Y45.193215 F100.000000
G1 X28.698331 Y44.705741 F100.000000
G1 X28.991262 Y44.302556 F100.000000
G1 X29.422858 Y44.053374 F100.000000
G1 X29.846621 Y44.008835 F100.000000
G1 X31.146416 Y42.709039 F100.000000
G1 X31.108613 Y42.652462 F100.000000
G1 X31.007715 Y42.145215 F100.000000
G1 X31.108613 Y41.637968 F100.000000
G1 X31.395945 Y41.207945 F100.000000
G1 X31.825968 Y40.920613 F100.000000
G1 X32.333215 Y40.819715 F100.000000
G1 X32.840462 Y40.920613 F100.000000
G1 X33.270485 Y41.207945 F100.000000
G1 X33.557817 Y41.637968 F100.000000
G1 X33.565495 Y41.676566 F100.000000
G1 Y39.351215 F100.000000
G1 X33.595350 Y39.220410 F100.000000
G1 X33.610373 Y39.087084 F100.000000
G1 X33.634571 Y39.048572 F100.000000
G1 X33.644692 Y39.004229 F100.000000
G1 X33.728345 Y38.899332 F100.000000
G1 X33.799728 Y38.785728 F100.000000
G1 X34.849989 Y37.735466 F100.000000
G1 X34.817715 Y37.573215 F100.000000
G1 X34.918613 Y37.065968 F100.000000
G1 X35.205945 Y36.635945 F100.000000
G1 X35.635968 Y36.348613 F100.000000
G1 X36.143215 Y36.247715 F100.000000
G1 X36.650462 Y36.348613 F100.000000
G1 X37.080485 Y36.635945 F100.000000
G1 X37.367817 Y37.065968 F100.000000
G1 X37.468715 Y37.573215 F100.000000
G1 X37.367817 Y38.080462 F100.000000
G1 X37.080485 Y38.510485 F100.000000
G1 X36.650462 Y38.797817 F100.000000
G1 X36.143215 Y38.898715 F100.000000
G1 X35.980964 Y38.866441 F100.000000
G1 X35.164935 Y39.682470 F100.000000
G1 Y39.960520 F100.000000
G1 X36.085728 Y39.039728 F100.000000
G1 X36.199332 Y38.968345 F100.000000
G1 X36.304229 Y38.884692 F100.000000
G1 X36.348572 Y38.874571 F100.000000
G1 X36.387084 Y38.850373 F100.000000
G1 X36.520410 Y38.835350 F100.000000
G1 X36.651215 Y38.805495 F100.000000
G1 X38.097960 F100.000000
G1 X38.899495 Y38.003960 F100.000000
G1 Y21.902470 F100.000000
G1 X35.323728 Y18.326702 F100.000000
G1 X35.252345 Y18.213098 F100.000000
G1 X35.168692 Y18.108201 F100.000000
G1 X35.158571 Y18.063858 F100.000000
G1 X35.134373 Y18.025346 F100.000000
G1 X35.119350 Y17.892020 F100.000000
G1 X35.089495 Y17.761215 F100.000000
G1 Y8.571741 F100.000000
G0 Z2.000000
G0 X52.692856 Y7.892935
G1 Z-0.040000 F60.000000
G1 Y8.390036 F100.000000
G1 X52.936544 Y8.896059 F100.000000
G1 X53.375654 Y9.246238 F100.000000
G1 X53.923215 Y9.371215 F100.000000
G1 X55.447215 F100.000000
G1 X55.994776 Y9.246238 F100.000000
G1 X56.417741 Y8.908935 F100.000000
G0 Z2.000000
G0 X55.388264 Y6.847215
G1 Z-0.040000 F60.000000
G1 X54.554190 F100.000000
G0 Z2.000000
G0 X56.417741 Y7.309495
G1 Z-0.040000 F60.000000
G1 X56.344218 Y7.250863 F100.000000
G0 Z2.000000
G0 X59.302689 Y8.908935
G1 Z-0.040000 F60.000000
G1 X59.725654 Y9.246238 F100.000000
G1 X60.273215 Y9.371215 F100.000000
G1 X61.797215 F100.000000
G1 X62.344776 Y9.246238 F100.000000
G1 X62.783886 Y8.896059 F100.000000
G1 X63.027574 Y8.390036 F100.000000
G1 Y7.828394 F100.000000
G1 X62.783886 Y7.322371 F100.000000
G1 X62.344776 Y6.972192 F100.000000
G1 X61.797215 Y6.847215 F100.000000
G1 X60.726182 F100.000000
G0 Z2.000000
G0 X59.407477 Y7.225929
G1 Z-0.040000 F60.000000
G1 X59.302689 Y7.309495 F100.000000
G0 Z2.000000
G0 X56.417741 Y11.754495
G1 Z-0.040000 F60.000000
G1 X55.994776 Y11.417192 F100.000000
G1 X55.447215 Y11.292215 F100.000000
G1 X53.923215 F100.000000
G1 X53.375654 Y11.417192 F100.000000
G1 X52.936544 Y11.767371 F100.000000
G1 X52.692856 Y12.273394 F100.000000
G1 Y12.835036 F100.000000
G1 X52.881563 Y13.226892 F100.000000
G0 Z2.000000
G0 X54.554190 Y13.816215
G1 Z-0.040000 F60.000000
G1 X55.447215 F100.000000
G1 X55.994776 Y13.691238 F100.000000
G1 X56.417741 Y13.353935 F100.000000
G0 Z2.000000
G0 X59.302689
G1 Z-0.040000 F60.000000
G1 X59.725654 Y13.691238 F100.000000
G1 X60.273215 Y13.816215 F100.000000
G1 X61.797215 F100.000000
G1 X62.344776 Y13.691238 F100.000000
G1 X62.783886 Y13.341059 F100.000000
G1 X63.027574 Y12.835036 F100.000000
G1 Y12.273394 F100.000000
G1 X62.783886 Y11.767371 F100.000000
G1 X62.344776 Y11.417192 F100.000000
G1 X61.797215 Y11.292215 F100.000000
G1 X60.273215 F100.000000
G1 X59.725654 Y11.417192 F100.000000
G1 X59.302689 Y11.754495 F100.000000
G0 Z2.000000
G0 X52.107495 Y37.589824
G1 Z-0.040000 F60.000000
G1 X51.597654 Y37.706192 F100.000000
G1 X51.158544 Y38.056371 F100.000000
G1 X50.914856 Y38.562394 F100.000000
G1 Y39.124036 F100.000000
G1 X51.103563 Y39.515892 F100.000000
G0 Z2.000000
G0 X52.776190 Y40.105215
G1 Z-0.040000 F60.000000
G1 X53.669215 F100.000000
G1 X54.216776 Y39.980238 F100.000000
G1 X54.480750 Y39.769725 F100.000000
G0 Z2.000000
G0 X54.639741 Y38.043495
G1 Z-0.040000 F60.000000
G1 X54.216776 Y37.706192 F100.000000
G1 X53.706935 Y37.589824 F100.000000
G0 Z2.000000
G0 X57.524689 Y39.642935
G1 Z-0.040000 F60.000000
G1 X57.947654 Y39.980238 F100.000000
G1 X58.495215 Y40.105215 F100.000000
G1 X60.019215 F100.000000
G1 X60.566776 Y39.980238 F100.000000
G1 X61.005886 Y39.630059 F100.000000
G1 X61.249574 Y39.124036 F100.000000
G1 Y38.562394 F100.000000
G1 X61.005886 Y38.056371 F100.000000
G1 X60.566776 Y37.706192 F100.000000
G1 X60.019215 Y37.581215 F100.000000
G1 X58.495215 F100.000000
G1 X57.947654 Y37.706192 F100.000000
G1 X57.524689 Y38.043495 F100.000000
G0 Z2.000000
G0 X53.706935 Y44.541606
G1 Z-0.040000 F60.000000
G1 X54.216776 Y44.425238 F100.000000
G1 X54.655886 Y44.075059 F100.000000
G1 X54.899574 Y43.569036 F100.000000
G1 Y43.007394 F100.000000
G1 X54.655886 Y42.501371 F100.000000
G1 X54.216776 Y42.151192 F100.000000
G1 X53.669215 Y42.026215 F100.000000
G1 X52.145215 F100.000000
G1 X51.597654 Y42.151192 F100.000000
G1 X51.158544 Y42.501371 F100.000000
G1 X50.914856 Y43.007394 F100.000000
G1 Y43.569036 F100.000000
G1 X51.158544 Y44.075059 F100.000000
G1 X51.597654 Y44.425238 F100.000000
G1 X52.107495 Y44.541606 F100.000000
G0 Z2.000000
G0 X58.495215 Y42.026215
G1 Z-0.040000 F60.000000
G1 X57.947654 Y42.151192 F100.000000
G1 X57.508544 Y42.501371 F100.000000
G1 X57.264856 Y43.007394 F100.000000
G1 Y43.569036 F100.000000
G1 X57.508544 Y44.075059 F100.000000
G1 X57.947654 Y44.425238 F100.000000
G1 X58.495215 Y44.550215 F100.000000
G1 X60.019215 F100.000000
G1 X60.566776 Y44.425238 F100.000000
G1 X61.005886 Y44.075059 F100.000000
G1 X61.249574 Y43.569036 F100.000000
G1 Y43.007394 F100.000000
G1 X61.005886 Y42.501371 F100.000000
G1 X60.566776 Y42.151192 F100.000000
G1 X60.019215 Y42.026215 F100.000000
G1 X58.495215 F100.000000
G0 Z2.000000
G0 X41.768935 Y8.571741
G1 Z-0.040000 F60.000000
G1 Y10.149215 F100.000000
G1 X42.231215 F100.000000
G1 Y12.673215 F100.000000
G1 X41.768935 F100.000000
G1 Y13.010207 F100.000000
G1 X41.990194 Y13.209430 F100.000000
G1 X42.203637 Y13.688830 F100.000000
G1 Y14.213600 F100.000000
G1 X41.990194 Y14.693000 F100.000000
G1 X41.768935 Y14.892223 F100.000000
G1 Y15.475215 F100.000000
G1 Y15.475215 F100.000000
G1 Y15.475215 F100.000000
G1 Y15.550207 F100.000000
G1 X41.990194 Y15.749430 F100.000000
G1 X42.203637 Y16.228830 F100.000000
G1 Y16.753600 F100.000000
G1 X41.990194 Y17.233000 F100.000000
G1 X41.768935 Y17.432223 F100.000000
G1 Y18.090207 F100.000000
G1 X41.990194 Y18.289430 F100.000000
G1 X42.203637 Y18.768830 F100.000000
G1 Y19.293600 F100.000000
G1 X41.990194 Y19.773000 F100.000000
G1 X41.770126 Y19.971151 F100.000000
G1 X42.296702 Y20.497728 F100.000000
G1 X42.368085 Y20.611332 F100.000000
G1 X42.451738 Y20.716229 F100.000000
G1 X42.461859 Y20.760572 F100.000000
G1 X42.486057 Y20.799084 F100.000000
G1 X42.501080 Y20.932410 F100.000000
G1 X42.530935 Y21.063215 F100.000000
G1 Y26.065960 F100.000000
G1 X46.360702 Y29.895728 F100.000000
G1 X46.432085 Y30.009332 F100.000000
G1 X46.515738 Y30.114229 F100.000000
G1 X46.525859 Y30.158572 F100.000000
G1 X46.550057 Y30.197084 F100.000000
G1 X46.565080 Y30.330410 F100.000000
G1 X46.594935 Y30.461215 F100.000000
G1 Y37.827215 F100.000000
G1 Y40.837495 F100.000000
G1 X49.097215 F100.000000
G1 X49.228020 Y40.867350 F100.000000
G1 X49.361346 Y40.882373 F100.000000
G1 X49.399858 Y40.906571 F100.000000
G1 X49.444201 Y40.916692 F100.000000
G1 X49.549098 Y41.000345 F100.000000
G1 X49.592094 Y41.027361 F100.000000
G1 X51.103563 Y39.515892 F100.000000
G0 Z2.000000
G0 X40.403728 Y20.866702
G1 Z-0.040000 F60.000000
G1 X40.332345 Y20.753098 F100.000000
G1 X40.248692 Y20.648201 F100.000000
G1 X40.238571 Y20.603858 F100.000000
G1 X40.214373 Y20.565346 F100.000000
G1 X40.199350 Y20.432020 F100.000000
G1 X40.169495 Y20.301215 F100.000000
G1 Y19.994885 F100.000000
G1 X40.124772 Y19.969064 F100.000000
G1 X39.816321 Y19.544517 F100.000000
G1 X39.707215 Y19.031215 F100.000000
G1 X39.816321 Y18.517913 F100.000000
G1 X40.124772 Y18.093366 F100.000000
G1 X40.169495 Y18.067545 F100.000000
G1 Y17.454885 F100.000000
G1 X40.124772 Y17.429064 F100.000000
G1 X39.816321 Y17.004517 F100.000000
G1 X39.707215 Y16.491215 F100.000000
G1 X39.753187 Y16.274935 F100.000000
G1 X39.164654 Y16.274935 F100.000000
G1 X39.069891 Y16.439069 F100.000000
G1 X38.670960 Y16.773811 F100.000000
G1 X38.181599 Y16.951924 F100.000000
G1 X37.660831 F100.000000
G1 X37.171470 Y16.773811 F100.000000
G1 X36.772539 Y16.439069 F100.000000
G1 X36.688935 Y16.294262 F100.000000
G1 Y17.429960 F100.000000
G1 X40.264702 Y21.005728 F100.000000
G1 X40.336085 Y21.119332 F100.000000
G1 X40.419738 Y21.224229 F100.000000
G1 X40.429859 Y21.268572 F100.000000
G1 X40.454057 Y21.307084 F100.000000
G1 X40.469080 Y21.440410 F100.000000
G1 X40.498935 Y21.571215 F100.000000
G0 Z2.000000
G0 X38.369851 Y42.436935
G1 Z-0.040000 F60.000000
G1 X38.044215 Y42.730139 F100.000000
G1 X37.545130 Y42.892302 F100.000000
G1 X37.023236 Y42.837448 F100.000000
G1 X36.568772 Y42.575064 F100.000000
G1 X36.434935 Y42.390853 F100.000000
G1 Y43.083960 F100.000000
G1 X36.582446 Y43.231471 F100.000000
G1 X37.023236 Y42.976982 F100.000000
G1 X37.545130 Y42.922128 F100.000000
G1 X38.044215 Y43.084291 F100.000000
G1 X38.369851 Y43.377495 F100.000000
G1 X39.008416 Y43.377495 F100.000000
G1 X39.108772 Y43.239366 F100.000000
G1 X39.563236 Y42.976982 F100.000000
G1 X40.085130 Y42.922128 F100.000000
G1 X40.584215 Y43.084291 F100.000000
G1 X40.909851 Y43.377495 F100.000000
G1 X41.548416 F100.000000
G1 X41.648772 Y43.239366 F100.000000
G1 X42.103236 Y42.976982 F100.000000
G1 X42.625130 Y42.922128 F100.000000
G1 X43.124215 Y43.084291 F100.000000
G1 X43.449851 Y43.377495 F100.000000
G1 X43.771215 F100.000000
G1 Y42.915215 F100.000000
G1 X46.295215 F100.000000
G1 Y45.439215 F100.000000
G1 X43.771215 F100.000000
G1 Y44.976935 F100.000000
G1 X43.449851 F100.000000
G1 X43.124215 Y45.270139 F100.000000
G1 X42.625130 Y45.432302 F100.000000
G1 X42.103236 Y45.377448 F100.000000
G1 X41.648772 Y45.115064 F100.000000
G1 X41.548416 Y44.976935 F100.000000
G1 X40.909851 F100.000000
G1 X40.584215 Y45.270139 F100.000000
G1 X40.085130 Y45.432302 F100.000000
G1 X39.563236 Y45.377448 F100.000000
G1 X39.108772 Y45.115064 F100.000000
G1 X39.008416 Y44.976935 F100.000000
G1 X38.369851 F100.000000
G1 X38.044215 Y45.270139 F100.000000
G1 X37.545130 Y45.432302 F100.000000
G1 X37.023236 Y45.377448 F100.000000
G1 X36.568772 Y45.115064 F100.000000
G1 X36.468416 Y44.976935 F100.000000
G1 X36.397215 F100.000000
G1 X36.266410 Y44.947080 F100.000000
G1 X36.133084 Y44.932057 F100.000000
G1 X36.094572 Y44.907859 F100.000000
G1 X36.050229 Y44.897738 F100.000000
G1 X35.945332 Y44.814085 F100.000000
G1 X35.831728 Y44.742702 F100.000000
G1 X35.136560 Y44.047535 F100.000000
G1 X35.135080 Y44.054020 F100.000000
G1 X35.120057 Y44.187346 F100.000000
G1 X35.095859 Y44.225858 F100.000000
G0 Z2.000000
G0 X35.089495 Y53.874689
G1 Z-0.040000 F60.000000
G1 Y48.241215 F100.000000
G1 X35.119350 Y48.110410 F100.000000
G1 X35.134373 Y47.977084 F100.000000
G1 X35.158571 Y47.938572 F100.000000
G1 X35.168692 Y47.894229 F100.000000
G1 X35.252345 Y47.789332 F100.000000
G1 X35.323728 Y47.675728 F100.000000
G1 X36.151215 Y46.848240 F100.000000
G1 Y45.455215 F100.000000
G1 X38.675215 F100.000000
G1 Y47.979215 F100.000000
G1 X37.282190 F100.000000
G1 X36.688935 Y48.572470 F100.000000
G1 Y53.874689 F100.000000
G0 Z2.000000
G0 X39.153495 Y53.874689
G1 Z-0.040000 F60.000000
G1 Y47.680885 F100.000000
G1 X39.108772 Y47.655064 F100.000000
G1 X38.800321 Y47.230517 F100.000000
G1 X38.691215 Y46.717215 F100.000000
G1 X38.800321 Y46.203913 F100.000000
G1 X39.108772 Y45.779366 F100.000000
G1 X39.563236 Y45.516982 F100.000000
G1 X40.085130 Y45.462128 F100.000000
G1 X40.584215 Y45.624291 F100.000000
G1 X40.974194 Y45.975430 F100.000000
G1 X41.187637 Y46.454830 F100.000000
G1 Y46.979600 F100.000000
G1 X40.974194 Y47.459000 F100.000000
G1 X40.752935 Y47.658223 F100.000000
G1 Y53.874689 F100.000000
G0 Z2.000000
G0 X41.693495
G1 Z-0.040000 F60.000000
G1 Y53.059215 F100.000000
G1 X41.231215 F100.000000
G1 Y50.535215 F100.000000
G1 X41.693495 F100.000000
G1 Y47.680885 F100.000000
G1 X41.648772 Y47.655064 F100.000000
G1 X41.340321 Y47.230517 F100.000000
G1 X41.231215 Y46.717215 F100.000000
G1 X41.340321 Y46.203913 F100.000000
G1 X41.648772 Y45.779366 F100.000000
G1 X42.103236 Y45.516982 F100.000000
G1 X42.625130 Y45.462128 F100.000000
G1 X43.124215 Y45.624291 F100.000000
G1 X43.514194 Y45.975430 F100.000000
G1 X43.727637 Y46.454830 F100.000000
G1 Y46.979600 F100.000000
G1 X43.514194 Y47.459000 F100.000000
G1 X43.292935 Y47.658223 F100.000000
G1 Y50.535215 F100.000000
G1 X43.755215 F100.000000
G1 Y53.059215 F100.000000
G1 X43.292935 F100.000000
G1 Y53.874689 F100.000000
G0 Z2.000000
G0 X44.233495 Y53.874689
G1 Z-0.040000 F60.000000
G1 Y52.760885 F100.000000
G1 X44.188772 Y52.735064 F100.000000
G1 X43.880321 Y52.310517 F100.000000
G1 X43.771215 Y51.797215 F100.000000
G1 X43.880321 Y51.283913 F100.000000
G1 X44.188772 Y50.859366 F100.000000
G1 X44.233495 Y50.833545 F100.000000
G1 Y47.680885 F100.000000
G1 X44.188772 Y47.655064 F100.000000
G1 X43.880321 Y47.230517 F100.000000
G1 X43.771215 Y46.717215 F100.000000
G1 X43.880321 Y46.203913 F100.000000
G1 X44.188772 Y45.779366 F100.000000
G1 X44.643236 Y45.516982 F100.000000
G1 X45.165130 Y45.462128 F100.000000
G1 X45.664215 Y45.624291 F100.000000
G1 X46.054194 Y45.975430 F100.000000
G1 X46.267637 Y46.454830 F100.000000
G1 Y46.979600 F100.000000
G1 X46.054194 Y47.459000 F100.000000
G1 X45.832935 Y47.658223 F100.000000
G1 Y50.856207 F100.000000
G1 X46.054194 Y51.055430 F100.000000
G1 X46.267637 Y51.534830 F100.000000
G1 Y52.059600 F100.000000
G1 X46.054194 Y52.539000 F100.000000
G1 X45.832935 Y52.738223 F100.000000
G1 Y53.874689 F100.000000
G0 Z2.000000
G0 X52.776190 Y40.105215
G1 Z-0.040000 F60.000000
G1 X50.404935 Y42.476470 F100.000000
G1 Y45.268207 F100.000000
G1 X50.626194 Y45.467430 F100.000000
G1 X50.839637 Y45.946830 F100.000000
G1 Y46.471600 F100.000000
G1 X50.626194 Y46.951000 F100.000000
G1 X50.236215 Y47.302139 F100.000000
G1 X49.737130 Y47.464302 F100.000000
G1 X49.215236 Y47.409448 F100.000000
G1 X48.760772 Y47.147064 F100.000000
G1 X48.452321 Y46.722517 F100.000000
G1 X48.343215 Y46.209215 F100.000000
G1 X48.452321 Y45.695913 F100.000000
G1 X48.760772 Y45.271366 F100.000000
G1 X48.805495 Y45.245545 F100.000000
G1 Y42.476470 F100.000000
G1 X48.765960 Y42.436935 F100.000000
G1 X46.295215 F100.000000
G1 Y42.899215 F100.000000
G1 X43.771215 F100.000000
G1 Y42.436935 F100.000000
G1 X43.449851 F100.000000
G1 X43.124215 Y42.730139 F100.000000
G1 X42.625130 Y42.892302 F100.000000
G1 X42.103236 Y42.837448 F100.000000
G1 X41.648772 Y42.575064 F100.000000
G1 X41.548416 Y42.436935 F100.000000
G1 X40.909851 Y42.436935 F100.000000
G1 X40.584215 Y42.730139 F100.000000
G1 X40.085130 Y42.892302 F100.000000
G1 X39.563236 Y42.837448 F100.000000
G1 X39.108772 Y42.575064 F100.000000
G1 X39.008416 Y42.436935 F100.000000
G1 X38.369851 Y42.436935 F100.000000
G0 Z2.000000
G0 X36.850960 Y40.536445
G1 Z-0.040000 F60.000000
G1 X37.023236 Y40.436982 F100.000000
G1 X37.328139 Y40.404935 F100.000000
G1 X36.982470 F100.000000
G1 X36.850960 Y40.536445 F100.000000
G0 Z2.000000
G0 X42.788692 Y21.664201
G1 Z-0.040000 F60.000000
G1 X42.778571 Y21.619858 F100.000000
G1 X42.754373 Y21.581346 F100.000000
G1 X42.739350 Y21.448020 F100.000000
G1 X42.709495 Y21.317215 F100.000000
G1 Y19.994885 F100.000000
G1 X42.664772 Y19.969064 F100.000000
G1 X42.356321 Y19.544517 F100.000000
G1 X42.247215 Y19.031215 F100.000000
G1 X42.356321 Y18.517913 F100.000000
G1 X42.664772 Y18.093366 F100.000000
G1 X42.709495 Y18.067545 F100.000000
G1 Y17.454885 F100.000000
G1 X42.664772 Y17.429064 F100.000000
G1 X42.356321 Y17.004517 F100.000000
G1 X42.247215 Y16.491215 F100.000000
G1 X42.356321 Y15.977913 F100.000000
G1 X42.664772 Y15.553366 F100.000000
G1 X42.709495 Y15.527545 F100.000000
G1 Y14.914885 F100.000000
G1 X42.664772 Y14.889064 F100.000000
G1 X42.356321 Y14.464517 F100.000000
G1 X42.247215 Y13.951215 F100.000000
G1 X42.356321 Y13.437913 F100.000000
G1 X42.664772 Y13.013366 F100.000000
G1 X42.709495 Y12.987545 F100.000000
G1 Y12.673215 F100.000000
G1 X42.247215 F100.000000
G1 Y10.149215 F100.000000
G1 X42.709495 F100.000000
G1 Y8.571741 F100.000000
G0 Z2.000000
G0 X47.027495 Y53.742424
G1 Z-0.040000 F60.000000
G1 Y50.527215 F100.000000
G1 X47.057350 Y50.396410 F100.000000
G1 X47.072373 Y50.263084 F100.000000
G1 X47.096571 Y50.224572 F100.000000
G1 X47.106692 Y50.180229 F100.000000
G1 X47.190345 Y50.075332 F100.000000
G1 X47.261728 Y49.961728 F100.000000
G1 X48.343215 Y48.880240 F100.000000
G1 Y47.487215 F100.000000
G1 X50.867215 F100.000000
G1 Y49.658240 F100.000000
G1 X52.107495 Y48.417960 F100.000000
G1 Y44.541606 F100.000000
G0 Z2.000000
G0 X49.313495 Y53.874689
G1 Z-0.040000 F60.000000
G1 Y51.543215 F100.000000
G1 X49.343350 Y51.412410 F100.000000
G1 X49.358373 Y51.279084 F100.000000
G1 X49.382571 Y51.240572 F100.000000
G1 X49.392692 Y51.196229 F100.000000
G1 X49.476345 Y51.091332 F100.000000
G1 X49.547728 Y50.977728 F100.000000
G1 X50.514240 Y50.011215 F100.000000
G1 X49.474190 F100.000000
G1 X48.626935 Y50.858470 F100.000000
G1 Y54.193195 F100.000000
G0 Z2.000000
G0 X24.929495 Y53.874689
G1 Z-0.040000 F60.000000
G1 Y53.249715 F100.000000
G1 X24.530715 F100.000000
G1 Y50.852715 F100.000000
G1 X26.927715 F100.000000
G1 Y53.249715 F100.000000
G1 X26.528935 F100.000000
G1 Y53.874689 F100.000000
G0 Z2.000000
G0 X30.009495 Y53.874689
G1 Z-0.040000 F60.000000
G1 Y49.080470 F100.000000
G1 X29.860740 Y48.931715 F100.000000
G1 X28.594715 F100.000000
G1 Y46.534715 F100.000000
G1 X30.991715 F100.000000
G1 Y47.800740 F100.000000
G1 X31.374702 Y48.183728 F100.000000
G1 X31.446085 Y48.297332 F100.000000
G1 X31.529738 Y48.402229 F100.000000
G1 X31.539859 Y48.446572 F100.000000
G1 X31.564057 Y48.485084 F100.000000
G1 X31.579080 Y48.618410 F100.000000
G1 X31.608935 Y48.749215 F100.000000
G1 Y53.874689 F100.000000
G0 Z2.000000
G0 X37.914057 Y31.487346
G1 Z-0.040000 F60.000000
G1 X37.889859 Y31.525858 F100.000000
G1 X37.879738 Y31.570201 F100.000000
G1 X37.796085 Y31.675098 F100.000000
G1 X37.724702 Y31.788702 F100.000000
G1 X33.087215 Y36.426190 F100.000000
G1 Y38.581215 F100.000000
G1 X29.547215 F100.000000
G1 Y35.041215 F100.000000
G1 X32.210240 F100.000000
G1 X36.359495 Y30.891960 F100.000000
G1 Y30.244935 F100.000000
G1 X32.245087 Y30.244935 F100.000000
G1 X32.476318 Y30.393538 F100.000000
G1 X32.806234 Y30.774281 F100.000000
G1 X33.015518 Y31.232548 F100.000000
G1 X33.087215 Y31.731215 F100.000000
G1 X33.015518 Y32.229882 F100.000000
G1 X32.806234 Y32.688149 F100.000000
G1 X32.476318 Y33.068892 F100.000000
G1 X32.052500 Y33.341264 F100.000000
G1 X31.569112 Y33.483199 F100.000000
G1 X31.065318 F100.000000
G1 X30.581930 Y33.341264 F100.000000
G1 X30.158112 Y33.068892 F100.000000
G1 X29.828196 Y32.688149 F100.000000
G1 X29.756399 Y32.530935 F100.000000
G1 X29.362470 F100.000000
G1 X25.786702 Y36.106702 F100.000000
G0 Z2.000000
G0 X21.448935 Y8.571741
G1 Z-0.040000 F60.000000
G1 Y13.365960 F100.000000
G1 X31.698215 Y23.615240 F100.000000
G1 X33.291728 Y22.021728 F100.000000
G1 X33.405332 Y21.950345 F100.000000
G1 X33.510229 Y21.866692 F100.000000
G1 X33.554572 Y21.856571 F100.000000
G1 X33.593084 Y21.832373 F100.000000
G1 X33.726410 Y21.817350 F100.000000
G1 X33.857215 Y21.787495 F100.000000
G1 X36.130037 F100.000000
G1 X36.221945 Y21.649945 F100.000000
G1 X36.651968 Y21.362613 F100.000000
G1 X37.159215 Y21.261715 F100.000000
G1 X37.666462 Y21.362613 F100.000000
G1 X38.096485 Y21.649945 F100.000000
G1 X38.383817 Y22.079968 F100.000000
G1 X38.484715 Y22.587215 F100.000000
G1 X38.383817 Y23.094462 F100.000000
G1 X38.096485 Y23.524485 F100.000000
G1 X37.666462 Y23.811817 F100.000000
G1 X37.159215 Y23.912715 F100.000000
G1 X36.651968 Y23.811817 F100.000000
G1 X36.221945 Y23.524485 F100.000000
G1 X36.130037 Y23.386935 F100.000000
G1 X34.188470 Y23.386935 F100.000000
G1 X32.345767 Y25.229638 F100.000000
G1 X32.476318 Y25.313538 F100.000000
G1 X32.806234 Y25.694281 F100.000000
G1 X33.015518 Y26.152548 F100.000000
G1 X33.087215 Y26.651215 F100.000000
G1 X33.015518 Y27.149882 F100.000000
G1 X32.806234 Y27.608149 F100.000000
G1 X32.476318 Y27.988892 F100.000000
G1 X32.052500 Y28.261264 F100.000000
G1 X31.569112 Y28.403199 F100.000000
G1 X31.065318 F100.000000
G1 X30.581930 Y28.261264 F100.000000
G1 X30.158112 Y27.988892 F100.000000
G1 X29.828196 Y27.608149 F100.000000
G1 X29.618912 Y27.149882 F100.000000
G1 X29.547215 Y26.651215 F100.000000
G1 X29.618912 Y26.152548 F100.000000
G1 X29.828196 Y25.694281 F100.000000
G1 X30.158112 Y25.313538 F100.000000
G1 X30.517495 Y25.082577 F100.000000
G1 Y24.696470 F100.000000
G1 X20.083728 Y14.262702 F100.000000
G1 X20.012345 Y14.149098 F100.000000
G1 X19.928692 Y14.044201 F100.000000
G1 X19.924935 Y14.027739 F100.000000
G1 Y15.143960 F100.000000
G1 X29.088702 Y24.307728 F100.000000
G1 X29.160085 Y24.421332 F100.000000
G1 X29.243738 Y24.526229 F100.000000
G1 X29.253859 Y24.570572 F100.000000
G1 X29.278057 Y24.609084 F100.000000
G1 X29.293080 Y24.742410 F100.000000
G1 X29.322935 Y24.873215 F100.000000
G1 Y28.097960 F100.000000
G1 X29.870470 Y28.645495 F100.000000
G1 X36.359495 Y28.645495 F100.000000
G0 Z2.000000
G1 Z-0.040000 F60.000000
G1 Y26.664393 F100.000000
G1 X36.221945 Y26.572485 F100.000000
G1 X35.934613 Y26.142462 F100.000000
G1 X35.833715 Y25.635215 F100.000000
G1 X35.934613 Y25.127968 F100.000000
G1 X36.221945 Y24.697945 F100.000000
G1 X36.651968 Y24.410613 F100.000000
G1 X37.159215 Y24.309715 F100.000000
G1 X37.666462 Y24.410613 F100.000000
G1 X38.096485 Y24.697945 F100.000000
G1 X38.383817 Y25.127968 F100.000000
G1 X38.484715 Y25.635215 F100.000000
G1 X38.383817 Y26.142462 F100.000000
G1 X38.096485 Y26.572485 F100.000000
G1 X37.958935 Y26.664393 F100.000000
G1 Y29.191215 F100.000000
G1 Y29.191215 F100.000000
G1 Y29.191215 F100.000000
G1 Y29.445215 F100.000000
G1 Y29.445215 F100.000000
G1 Y31.223215 F100.000000
G1 X37.929080 Y31.354020 F100.000000
G1 X37.914057 Y31.487346 F100.000000
G0 Z2.000000
G0 X44.308935 Y8.571741
G1 Z-0.040000 F60.000000
G1 Y10.149215 F100.000000
G1 X44.771215 F100.000000
G1 Y12.673215 F100.000000
G1 X44.308935 F100.000000
G1 Y13.010207 F100.000000
G1 X44.530194 Y13.209430 F100.000000
G1 X44.743637 Y13.688830 F100.000000
G1 Y13.861261 F100.000000
G1 X44.748303 Y13.856448 F100.000000
G1 X44.823438 Y13.828833 F100.000000
G1 X44.891874 Y13.787307 F100.000000
G1 X45.892634 Y13.454567 F100.000000
G1 X46.169531 Y13.427739 F100.000000
G1 X46.430647 Y13.523708 F100.000000
G1 X46.624265 Y13.723467 F100.000000
G1 X46.712036 Y13.987451 F100.000000
G1 X46.676577 Y14.263376 F100.000000
G1 X46.600424 Y14.380475 F100.000000
G1 X46.676577 Y14.497574 F100.000000
G1 X46.712036 Y14.773499 F100.000000
G1 X46.676547 Y14.880239 F100.000000
G1 X46.714950 Y15.048495 F100.000000
G1 Y15.523475 F100.000000
G1 X46.706276 Y15.561477 F100.000000
G1 X46.710216 Y15.600256 F100.000000
G1 X46.675638 Y15.695713 F100.000000
G1 X46.653046 Y15.794694 F100.000000
G1 X46.628743 Y15.825169 F100.000000
G1 X46.615467 Y15.861817 F100.000000
G1 X46.542896 Y15.932818 F100.000000
G1 X46.479595 Y16.012194 F100.000000
G1 X46.444476 Y16.029106 F100.000000
G1 X46.416614 Y16.056366 F100.000000
G1 X46.377112 Y16.069705 F100.000000
G1 X46.460518 Y16.242898 F100.000000
G1 Y16.521092 F100.000000
G1 X46.339814 Y16.771735 F100.000000
G1 X46.122314 Y16.945186 F100.000000
G1 X46.049830 Y16.961730 F100.000000
G1 X46.033286 Y17.034214 F100.000000
G1 X45.859835 Y17.251714 F100.000000
G1 X45.609192 Y17.372418 F100.000000
G1 X45.330998 F100.000000
G1 X45.080355 Y17.251714 F100.000000
G1 X44.906904 Y17.034214 F100.000000
G1 X44.890360 Y16.961730 F100.000000
G1 X44.817876 Y16.945186 F100.000000
G1 X44.700141 Y16.851295 F100.000000
G1 X44.530194 Y17.233000 F100.000000
G1 X44.308935 Y17.432223 F100.000000
G1 Y18.090207 F100.000000
G1 X44.530194 Y18.289430 F100.000000
G1 X44.743637 Y18.768830 F100.000000
G1 Y19.293600 F100.000000
G1 X44.530194 Y19.773000 F100.000000
G1 X44.308935 Y19.972223 F100.000000
G1 Y20.985960 F100.000000
G1 X44.616964 Y21.293989 F100.000000
G1 X44.779215 Y21.261715 F100.000000
G1 X45.286462 Y21.362613 F100.000000
G1 X45.716485 Y21.649945 F100.000000
G1 X46.003817 Y22.079968 F100.000000
G1 X46.104715 Y22.587215 F100.000000
G1 X46.003817 Y23.094462 F100.000000
G1 X45.716485 Y23.524485 F100.000000
G1 X45.578935 Y23.616393 F100.000000
G1 Y24.606037 F100.000000
G1 X45.716485 Y24.697945 F100.000000
G1 X45.808393 Y24.835495 F100.000000
G1 X48.817638 Y24.835495 F100.000000
G1 X49.109470 Y24.590619 F100.000000
G1 X49.598831 Y24.412506 F100.000000
G1 X50.119599 F100.000000
G1 X50.608960 Y24.590619 F100.000000
G1 X51.007891 Y24.925361 F100.000000
G1 X51.268275 Y25.376359 F100.000000
G1 X51.358705 Y25.889215 F100.000000
G1 X51.268275 Y26.402071 F100.000000
G1 X51.007891 Y26.853069 F100.000000
G1 X50.803747 Y27.024365 F100.000000
G1 X51.002647 Y27.097468 F100.000000
G1 X51.196265 Y27.297227 F100.000000
G1 X51.284036 Y27.561211 F100.000000
G1 X51.248577 Y27.837136 F100.000000
G1 X51.172424 Y27.954235 F100.000000
G1 X51.248577 Y28.071334 F100.000000
G1 X51.284036 Y28.347259 F100.000000
G1 X51.248547 Y28.453999 F100.000000
G1 X51.286950 Y28.622255 F100.000000
G1 Y29.097235 F100.000000
G1 X51.278276 Y29.135237 F100.000000
G1 X51.282216 Y29.174016 F100.000000
G1 X51.247638 Y29.269473 F100.000000
G1 X51.225046 Y29.368454 F100.000000
G1 X51.200743 Y29.398929 F100.000000
G1 X51.187467 Y29.435577 F100.000000
G1 X51.114896 Y29.506578 F100.000000
G1 X51.051595 Y29.585954 F100.000000
G1 X51.016476 Y29.602866 F100.000000
G1 X50.988614 Y29.630126 F100.000000
G1 X50.892424 Y29.662607 F100.000000
G1 X50.800952 Y29.706658 F100.000000
G1 X50.761973 F100.000000
G1 X50.725042 Y29.719128 F100.000000
G1 X50.250062 Y29.767388 F100.000000
G1 X50.191816 Y29.760179 F100.000000
G1 X50.133694 Y29.768324 F100.000000
G1 X50.055476 Y29.743304 F100.000000
G1 X49.973975 Y29.733217 F100.000000
G1 X49.956086 Y29.721702 F100.000000
G1 X49.827603 Y29.766660 F100.000000
G1 X49.551159 Y29.735512 F100.000000
G1 X49.315606 Y29.587504 F100.000000
G1 X49.267346 Y29.539244 F100.000000
G1 X49.215717 Y29.457077 F100.000000
G1 X49.153291 Y29.382781 F100.000000
G1 X49.105031 Y29.288801 F100.000000
G1 X49.103006 Y29.280872 F100.000000
G1 X49.097904 Y29.274474 F100.000000
G1 X49.068688 Y29.146470 F100.000000
G1 X49.036205 Y29.019256 F100.000000
G1 X49.037821 Y29.011234 F100.000000
G1 X49.036000 Y29.003255 F100.000000
G1 Y28.764495 F100.000000
G1 X49.037057 Y28.759862 F100.000000
