(Generated by ./pygerber2gcode_cui_MOD.py )
( 2013-05-30 00:31:03 )
(Initialize)

(Start form here)
G0 Z2.000000
G0 X49.926715 Y25.889215
G17
G0 Z-0.283333 F30.000000
G1 X49.926715 Y25.889215 F100.000000
G1 X49.859215 Y25.821715 F100.000000
G1 X49.791715 Y25.889215 F100.000000
G1 X49.859215 Y25.956715 F100.000000
G1 X49.926715 Y25.889215 F100.000000
G0 Z-0.566667 F30.000000
G1 X49.859215 Y25.821715 F100.000000
G1 X49.791715 Y25.889215 F100.000000
G1 X49.859215 Y25.956715 F100.000000
G1 X49.926715 Y25.889215 F100.000000
G0 Z-0.850000 F30.000000
G1 X49.859215 Y25.821715 F100.000000
G1 X49.791715 Y25.889215 F100.000000
G1 X49.859215 Y25.956715 F100.000000
G1 X49.926715 Y25.889215 F100.000000
G0 Z-1.133333 F30.000000
G1 X49.859215 Y25.821715 F100.000000
G1 X49.791715 Y25.889215 F100.000000
G1 X49.859215 Y25.956715 F100.000000
G1 X49.926715 Y25.889215 F100.000000
G0 Z-1.416667 F30.000000
G1 X49.859215 Y25.821715 F100.000000
G1 X49.791715 Y25.889215 F100.000000
G1 X49.859215 Y25.956715 F100.000000
G1 X49.926715 Y25.889215 F100.000000
G0 Z-1.700000 F30.000000
G1 X49.859215 Y25.821715 F100.000000
G1 X49.791715 Y25.889215 F100.000000
G1 X49.859215 Y25.956715 F100.000000
G1 X49.926715 Y25.889215 F100.000000
G0 Z2.000000
G0 X37.988715 Y15.475215
G17
G0 Z-0.283333 F30.000000
G1 X37.988715 Y15.475215 F100.000000
G1 X37.921215 Y15.407715 F100.000000
G1 X37.853715 Y15.475215 F100.000000
G1 X37.921215 Y15.542715 F100.000000
G1 X37.988715 Y15.475215 F100.000000
G0 Z-0.566667 F30.000000
G1 X37.921215 Y15.407715 F100.000000
G1 X37.853715 Y15.475215 F100.000000
G1 X37.921215 Y15.542715 F100.000000
G1 X37.988715 Y15.475215 F100.000000
G0 Z-0.850000 F30.000000
G1 X37.921215 Y15.407715 F100.000000
G1 X37.853715 Y15.475215 F100.000000
G1 X37.921215 Y15.542715 F100.000000
G1 X37.988715 Y15.475215 F100.000000
G0 Z-1.133333 F30.000000
G1 X37.921215 Y15.407715 F100.000000
G1 X37.853715 Y15.475215 F100.000000
G1 X37.921215 Y15.542715 F100.000000
G1 X37.988715 Y15.475215 F100.000000
G0 Z-1.416667 F30.000000
G1 X37.921215 Y15.407715 F100.000000
G1 X37.853715 Y15.475215 F100.000000
G1 X37.921215 Y15.542715 F100.000000
G1 X37.988715 Y15.475215 F100.000000
G0 Z-1.700000 F30.000000
G1 X37.921215 Y15.407715 F100.000000
G1 X37.853715 Y15.475215 F100.000000
G1 X37.921215 Y15.542715 F100.000000
G1 X37.988715 Y15.475215 F100.000000
G0 Z2.000000
G0 X16.144715 Y22.333215
G17
G0 Z-0.283333 F30.000000
G1 X16.144715 Y22.333215 F100.000000
G1 X16.077215 Y22.265715 F100.000000
G1 X16.009715 Y22.333215 F100.000000
G1 X16.077215 Y22.400715 F100.000000
G1 X16.144715 Y22.333215 F100.000000
G0 Z-0.566667 F30.000000
G1 X16.077215 Y22.265715 F100.000000
G1 X16.009715 Y22.333215 F100.000000
G1 X16.077215 Y22.400715 F100.000000
G1 X16.144715 Y22.333215 F100.000000
G0 Z-0.850000 F30.000000
G1 X16.077215 Y22.265715 F100.000000
G1 X16.009715 Y22.333215 F100.000000
G1 X16.077215 Y22.400715 F100.000000
G1 X16.144715 Y22.333215 F100.000000
G0 Z-1.133333 F30.000000
G1 X16.077215 Y22.265715 F100.000000
G1 X16.009715 Y22.333215 F100.000000
G1 X16.077215 Y22.400715 F100.000000
G1 X16.144715 Y22.333215 F100.000000
G0 Z-1.416667 F30.000000
G1 X16.077215 Y22.265715 F100.000000
G1 X16.009715 Y22.333215 F100.000000
G1 X16.077215 Y22.400715 F100.000000
G1 X16.144715 Y22.333215 F100.000000
G0 Z-1.700000 F30.000000
G1 X16.077215 Y22.265715 F100.000000
G1 X16.009715 Y22.333215 F100.000000
G1 X16.077215 Y22.400715 F100.000000
G1 X16.144715 Y22.333215 F100.000000
G0 Z2.000000
G0 X16.144715 Y19.031215
G17
G0 Z-0.283333 F30.000000
G1 Y19.031215 F100.000000
G1 X16.077215 Y18.963715 F100.000000
G1 X16.009715 Y19.031215 F100.000000
G1 X16.077215 Y19.098715 F100.000000
G1 X16.144715 Y19.031215 F100.000000
G0 Z-0.566667 F30.000000
G1 X16.077215 Y18.963715 F100.000000
G1 X16.009715 Y19.031215 F100.000000
G1 X16.077215 Y19.098715 F100.000000
G1 X16.144715 Y19.031215 F100.000000
G0 Z-0.850000 F30.000000
G1 X16.077215 Y18.963715 F100.000000
G1 X16.009715 Y19.031215 F100.000000
G1 X16.077215 Y19.098715 F100.000000
G1 X16.144715 Y19.031215 F100.000000
G0 Z-1.133333 F30.000000
G1 X16.077215 Y18.963715 F100.000000
G1 X16.009715 Y19.031215 F100.000000
G1 X16.077215 Y19.098715 F100.000000
G1 X16.144715 Y19.031215 F100.000000
G0 Z-1.416667 F30.000000
G1 X16.077215 Y18.963715 F100.000000
G1 X16.009715 Y19.031215 F100.000000
G1 X16.077215 Y19.098715 F100.000000
G1 X16.144715 Y19.031215 F100.000000
G0 Z-1.700000 F30.000000
G1 X16.077215 Y18.963715 F100.000000
G1 X16.009715 Y19.031215 F100.000000
G1 X16.077215 Y19.098715 F100.000000
G1 X16.144715 Y19.031215 F100.000000
G0 Z2.000000
G0 X61.826615 Y51.797215
G17
G0 Z-0.283333 F30.000000
G1 X61.826615 Y51.797215 F100.000000
G1 X61.670215 Y51.640815 F100.000000
G1 X61.513815 Y51.797215 F100.000000
G1 X61.670215 Y51.953615 F100.000000
G1 X61.826615 Y51.797215 F100.000000
G0 Z-0.566667 F30.000000
G1 X61.670215 Y51.640815 F100.000000
G1 X61.513815 Y51.797215 F100.000000
G1 X61.670215 Y51.953615 F100.000000
G1 X61.826615 Y51.797215 F100.000000
G0 Z-0.850000 F30.000000
G1 X61.670215 Y51.640815 F100.000000
G1 X61.513815 Y51.797215 F100.000000
G1 X61.670215 Y51.953615 F100.000000
G1 X61.826615 Y51.797215 F100.000000
G0 Z-1.133333 F30.000000
G1 X61.670215 Y51.640815 F100.000000
G1 X61.513815 Y51.797215 F100.000000
G1 X61.670215 Y51.953615 F100.000000
G1 X61.826615 Y51.797215 F100.000000
G0 Z-1.416667 F30.000000
G1 X61.670215 Y51.640815 F100.000000
G1 X61.513815 Y51.797215 F100.000000
G1 X61.670215 Y51.953615 F100.000000
G1 X61.826615 Y51.797215 F100.000000
G0 Z-1.700000 F30.000000
G1 X61.670215 Y51.640815 F100.000000
G1 X61.513815 Y51.797215 F100.000000
G1 X61.670215 Y51.953615 F100.000000
G1 X61.826615 Y51.797215 F100.000000
G0 Z2.000000
G0 X57.889615 Y55.353215
G17
G0 Z-0.283333 F30.000000
G1 X57.889615 Y55.353215 F100.000000
G1 X57.733215 Y55.196815 F100.000000
G1 X57.576815 Y55.353215 F100.000000
G1 X57.733215 Y55.509615 F100.000000
G1 X57.889615 Y55.353215 F100.000000
G0 Z-0.566667 F30.000000
G1 X57.733215 Y55.196815 F100.000000
G1 X57.576815 Y55.353215 F100.000000
G1 X57.733215 Y55.509615 F100.000000
G1 X57.889615 Y55.353215 F100.000000
G0 Z-0.850000 F30.000000
G1 X57.733215 Y55.196815 F100.000000
G1 X57.576815 Y55.353215 F100.000000
G1 X57.733215 Y55.509615 F100.000000
G1 X57.889615 Y55.353215 F100.000000
G0 Z-1.133333 F30.000000
G1 X57.733215 Y55.196815 F100.000000
G1 X57.576815 Y55.353215 F100.000000
G1 X57.733215 Y55.509615 F100.000000
G1 X57.889615 Y55.353215 F100.000000
G0 Z-1.416667 F30.000000
G1 X57.733215 Y55.196815 F100.000000
G1 X57.576815 Y55.353215 F100.000000
G1 X57.733215 Y55.509615 F100.000000
G1 X57.889615 Y55.353215 F100.000000
G0 Z-1.700000 F30.000000
G1 X57.733215 Y55.196815 F100.000000
G1 X57.576815 Y55.353215 F100.000000
G1 X57.733215 Y55.509615 F100.000000
G1 X57.889615 Y55.353215 F100.000000
G0 Z2.000000
G0 X57.889615 Y47.479215
G17
G0 Z-0.283333 F30.000000
G1 Y47.479215 F100.000000
G1 X57.733215 Y47.322815 F100.000000
G1 X57.576815 Y47.479215 F100.000000
G1 X57.733215 Y47.635615 F100.000000
G1 X57.889615 Y47.479215 F100.000000
G0 Z-0.566667 F30.000000
G1 X57.733215 Y47.322815 F100.000000
G1 X57.576815 Y47.479215 F100.000000
G1 X57.733215 Y47.635615 F100.000000
G1 X57.889615 Y47.479215 F100.000000
G0 Z-0.850000 F30.000000
G1 X57.733215 Y47.322815 F100.000000
G1 X57.576815 Y47.479215 F100.000000
G1 X57.733215 Y47.635615 F100.000000
G1 X57.889615 Y47.479215 F100.000000
G0 Z-1.133333 F30.000000
G1 X57.733215 Y47.322815 F100.000000
G1 X57.576815 Y47.479215 F100.000000
G1 X57.733215 Y47.635615 F100.000000
G1 X57.889615 Y47.479215 F100.000000
G0 Z-1.416667 F30.000000
G1 X57.733215 Y47.322815 F100.000000
G1 X57.576815 Y47.479215 F100.000000
G1 X57.733215 Y47.635615 F100.000000
G1 X57.889615 Y47.479215 F100.000000
G0 Z-1.700000 F30.000000
G1 X57.733215 Y47.322815 F100.000000
G1 X57.576815 Y47.479215 F100.000000
G1 X57.733215 Y47.635615 F100.000000
G1 X57.889615 Y47.479215 F100.000000
G0 Z2.000000
G0 X55.349615 Y55.353215
G17
G0 Z-0.283333 F30.000000
G1 X55.349615 Y55.353215 F100.000000
G1 X55.193215 Y55.196815 F100.000000
G1 X55.036815 Y55.353215 F100.000000
G1 X55.193215 Y55.509615 F100.000000
G1 X55.349615 Y55.353215 F100.000000
G0 Z-0.566667 F30.000000
G1 X55.193215 Y55.196815 F100.000000
G1 X55.036815 Y55.353215 F100.000000
G1 X55.193215 Y55.509615 F100.000000
G1 X55.349615 Y55.353215 F100.000000
G0 Z-0.850000 F30.000000
G1 X55.193215 Y55.196815 F100.000000
G1 X55.036815 Y55.353215 F100.000000
G1 X55.193215 Y55.509615 F100.000000
G1 X55.349615 Y55.353215 F100.000000
G0 Z-1.133333 F30.000000
G1 X55.193215 Y55.196815 F100.000000
G1 X55.036815 Y55.353215 F100.000000
G1 X55.193215 Y55.509615 F100.000000
G1 X55.349615 Y55.353215 F100.000000
G0 Z-1.416667 F30.000000
G1 X55.193215 Y55.196815 F100.000000
G1 X55.036815 Y55.353215 F100.000000
G1 X55.193215 Y55.509615 F100.000000
G1 X55.349615 Y55.353215 F100.000000
G0 Z-1.700000 F30.000000
G1 X55.193215 Y55.196815 F100.000000
G1 X55.036815 Y55.353215 F100.000000
G1 X55.193215 Y55.509615 F100.000000
G1 X55.349615 Y55.353215 F100.000000
G0 Z2.000000
G0 X55.349615 Y47.479215
G17
G0 Z-0.283333 F30.000000
G1 Y47.479215 F100.000000
G1 X55.193215 Y47.322815 F100.000000
G1 X55.036815 Y47.479215 F100.000000
G1 X55.193215 Y47.635615 F100.000000
G1 X55.349615 Y47.479215 F100.000000
G0 Z-0.566667 F30.000000
G1 X55.193215 Y47.322815 F100.000000
G1 X55.036815 Y47.479215 F100.000000
G1 X55.193215 Y47.635615 F100.000000
G1 X55.349615 Y47.479215 F100.000000
G0 Z-0.850000 F30.000000
G1 X55.193215 Y47.322815 F100.000000
G1 X55.036815 Y47.479215 F100.000000
G1 X55.193215 Y47.635615 F100.000000
G1 X55.349615 Y47.479215 F100.000000
G0 Z-1.133333 F30.000000
G1 X55.193215 Y47.322815 F100.000000
G1 X55.036815 Y47.479215 F100.000000
G1 X55.193215 Y47.635615 F100.000000
G1 X55.349615 Y47.479215 F100.000000
G0 Z-1.416667 F30.000000
G1 X55.193215 Y47.322815 F100.000000
G1 X55.036815 Y47.479215 F100.000000
G1 X55.193215 Y47.635615 F100.000000
G1 X55.349615 Y47.479215 F100.000000
G0 Z-1.700000 F30.000000
G1 X55.193215 Y47.322815 F100.000000
G1 X55.036815 Y47.479215 F100.000000
G1 X55.193215 Y47.635615 F100.000000
G1 X55.349615 Y47.479215 F100.000000
G0 Z2.000000
G0 X52.936615 Y51.797215
G17
G0 Z-0.283333 F30.000000
G1 X52.936615 Y51.797215 F100.000000
G1 X52.780215 Y51.640815 F100.000000
G1 X52.623815 Y51.797215 F100.000000
G1 X52.780215 Y51.953615 F100.000000
G1 X52.936615 Y51.797215 F100.000000
G0 Z-0.566667 F30.000000
G1 X52.780215 Y51.640815 F100.000000
G1 X52.623815 Y51.797215 F100.000000
G1 X52.780215 Y51.953615 F100.000000
G1 X52.936615 Y51.797215 F100.000000
G0 Z-0.850000 F30.000000
G1 X52.780215 Y51.640815 F100.000000
G1 X52.623815 Y51.797215 F100.000000
G1 X52.780215 Y51.953615 F100.000000
G1 X52.936615 Y51.797215 F100.000000
G0 Z-1.133333 F30.000000
G1 X52.780215 Y51.640815 F100.000000
G1 X52.623815 Y51.797215 F100.000000
G1 X52.780215 Y51.953615 F100.000000
G1 X52.936615 Y51.797215 F100.000000
G0 Z-1.416667 F30.000000
G1 X52.780215 Y51.640815 F100.000000
G1 X52.623815 Y51.797215 F100.000000
G1 X52.780215 Y51.953615 F100.000000
G1 X52.936615 Y51.797215 F100.000000
G0 Z-1.700000 F30.000000
G1 X52.780215 Y51.640815 F100.000000
G1 X52.623815 Y51.797215 F100.000000
G1 X52.780215 Y51.953615 F100.000000
G1 X52.936615 Y51.797215 F100.000000
G0 Z2.000000
G0 X52.809615 Y55.353215
G17
G0 Z-0.283333 F30.000000
G1 X52.809615 Y55.353215 F100.000000
G1 X52.653215 Y55.196815 F100.000000
G1 X52.496815 Y55.353215 F100.000000
G1 X52.653215 Y55.509615 F100.000000
G1 X52.809615 Y55.353215 F100.000000
G0 Z-0.566667 F30.000000
G1 X52.653215 Y55.196815 F100.000000
G1 X52.496815 Y55.353215 F100.000000
G1 X52.653215 Y55.509615 F100.000000
G1 X52.809615 Y55.353215 F100.000000
G0 Z-0.850000 F30.000000
G1 X52.653215 Y55.196815 F100.000000
G1 X52.496815 Y55.353215 F100.000000
G1 X52.653215 Y55.509615 F100.000000
G1 X52.809615 Y55.353215 F100.000000
G0 Z-1.133333 F30.000000
G1 X52.653215 Y55.196815 F100.000000
G1 X52.496815 Y55.353215 F100.000000
G1 X52.653215 Y55.509615 F100.000000
G1 X52.809615 Y55.353215 F100.000000
G0 Z-1.416667 F30.000000
G1 X52.653215 Y55.196815 F100.000000
G1 X52.496815 Y55.353215 F100.000000
G1 X52.653215 Y55.509615 F100.000000
G1 X52.809615 Y55.353215 F100.000000
G0 Z-1.700000 F30.000000
G1 X52.653215 Y55.196815 F100.000000
G1 X52.496815 Y55.353215 F100.000000
G1 X52.653215 Y55.509615 F100.000000
G1 X52.809615 Y55.353215 F100.000000
G0 Z2.000000
G0 X50.269615 Y55.353215
G17
G0 Z-0.283333 F30.000000
G1 X50.269615 F100.000000
G1 X50.113215 Y55.196815 F100.000000
G1 X49.956815 Y55.353215 F100.000000
G1 X50.113215 Y55.509615 F100.000000
G1 X50.269615 Y55.353215 F100.000000
G0 Z-0.566667 F30.000000
G1 X50.113215 Y55.196815 F100.000000
G1 X49.956815 Y55.353215 F100.000000
G1 X50.113215 Y55.509615 F100.000000
G1 X50.269615 Y55.353215 F100.000000
G0 Z-0.850000 F30.000000
G1 X50.113215 Y55.196815 F100.000000
G1 X49.956815 Y55.353215 F100.000000
G1 X50.113215 Y55.509615 F100.000000
G1 X50.269615 Y55.353215 F100.000000
G0 Z-1.133333 F30.000000
G1 X50.113215 Y55.196815 F100.000000
G1 X49.956815 Y55.353215 F100.000000
G1 X50.113215 Y55.509615 F100.000000
G1 X50.269615 Y55.353215 F100.000000
G0 Z-1.416667 F30.000000
G1 X50.113215 Y55.196815 F100.000000
G1 X49.956815 Y55.353215 F100.000000
G1 X50.113215 Y55.509615 F100.000000
G1 X50.269615 Y55.353215 F100.000000
G0 Z-1.700000 F30.000000
G1 X50.113215 Y55.196815 F100.000000
G1 X49.956815 Y55.353215 F100.000000
G1 X50.113215 Y55.509615 F100.000000
G1 X50.269615 Y55.353215 F100.000000
G0 Z2.000000
G0 X48.745615 Y7.093215
G17
G0 Z-0.283333 F30.000000
G1 X48.745615 Y7.093215 F100.000000
G1 X48.589215 Y6.936815 F100.000000
G1 X48.432815 Y7.093215 F100.000000
G1 X48.589215 Y7.249615 F100.000000
G1 X48.745615 Y7.093215 F100.000000
G0 Z-0.566667 F30.000000
G1 X48.589215 Y6.936815 F100.000000
G1 X48.432815 Y7.093215 F100.000000
G1 X48.589215 Y7.249615 F100.000000
G1 X48.745615 Y7.093215 F100.000000
G0 Z-0.850000 F30.000000
G1 X48.589215 Y6.936815 F100.000000
G1 X48.432815 Y7.093215 F100.000000
G1 X48.589215 Y7.249615 F100.000000
G1 X48.745615 Y7.093215 F100.000000
G0 Z-1.133333 F30.000000
G1 X48.589215 Y6.936815 F100.000000
G1 X48.432815 Y7.093215 F100.000000
G1 X48.589215 Y7.249615 F100.000000
G1 X48.745615 Y7.093215 F100.000000
G0 Z-1.416667 F30.000000
G1 X48.589215 Y6.936815 F100.000000
G1 X48.432815 Y7.093215 F100.000000
G1 X48.589215 Y7.249615 F100.000000
G1 X48.745615 Y7.093215 F100.000000
G0 Z-1.700000 F30.000000
G1 X48.589215 Y6.936815 F100.000000
G1 X48.432815 Y7.093215 F100.000000
G1 X48.589215 Y7.249615 F100.000000
G1 X48.745615 Y7.093215 F100.000000
G0 Z2.000000
G0 X47.729615 Y55.353215
G17
G0 Z-0.283333 F30.000000
G1 X47.729615 Y55.353215 F100.000000
G1 X47.573215 Y55.196815 F100.000000
G1 X47.416815 Y55.353215 F100.000000
G1 X47.573215 Y55.509615 F100.000000
G1 X47.729615 Y55.353215 F100.000000
G0 Z-0.566667 F30.000000
G1 X47.573215 Y55.196815 F100.000000
G1 X47.416815 Y55.353215 F100.000000
G1 X47.573215 Y55.509615 F100.000000
G1 X47.729615 Y55.353215 F100.000000
G0 Z-0.850000 F30.000000
G1 X47.573215 Y55.196815 F100.000000
G1 X47.416815 Y55.353215 F100.000000
G1 X47.573215 Y55.509615 F100.000000
G1 X47.729615 Y55.353215 F100.000000
G0 Z-1.133333 F30.000000
G1 X47.573215 Y55.196815 F100.000000
G1 X47.416815 Y55.353215 F100.000000
G1 X47.573215 Y55.509615 F100.000000
G1 X47.729615 Y55.353215 F100.000000
G0 Z-1.416667 F30.000000
G1 X47.573215 Y55.196815 F100.000000
G1 X47.416815 Y55.353215 F100.000000
G1 X47.573215 Y55.509615 F100.000000
G1 X47.729615 Y55.353215 F100.000000
G0 Z-1.700000 F30.000000
G1 X47.573215 Y55.196815 F100.000000
G1 X47.416815 Y55.353215 F100.000000
G1 X47.573215 Y55.509615 F100.000000
G1 X47.729615 Y55.353215 F100.000000
G0 Z2.000000
G0 X46.205615 Y7.093215
G17
G0 Z-0.283333 F30.000000
G1 X46.205615 Y7.093215 F100.000000
G1 X46.049215 Y6.936815 F100.000000
G1 X45.892815 Y7.093215 F100.000000
G1 X46.049215 Y7.249615 F100.000000
G1 X46.205615 Y7.093215 F100.000000
G0 Z-0.566667 F30.000000
G1 X46.049215 Y6.936815 F100.000000
G1 X45.892815 Y7.093215 F100.000000
G1 X46.049215 Y7.249615 F100.000000
G1 X46.205615 Y7.093215 F100.000000
G0 Z-0.850000 F30.000000
G1 X46.049215 Y6.936815 F100.000000
G1 X45.892815 Y7.093215 F100.000000
G1 X46.049215 Y7.249615 F100.000000
G1 X46.205615 Y7.093215 F100.000000
G0 Z-1.133333 F30.000000
G1 X46.049215 Y6.936815 F100.000000
G1 X45.892815 Y7.093215 F100.000000
G1 X46.049215 Y7.249615 F100.000000
G1 X46.205615 Y7.093215 F100.000000
G0 Z-1.416667 F30.000000
G1 X46.049215 Y6.936815 F100.000000
G1 X45.892815 Y7.093215 F100.000000
G1 X46.049215 Y7.249615 F100.000000
G1 X46.205615 Y7.093215 F100.000000
G0 Z-1.700000 F30.000000
G1 X46.049215 Y6.936815 F100.000000
G1 X45.892815 Y7.093215 F100.000000
G1 X46.049215 Y7.249615 F100.000000
G1 X46.205615 Y7.093215 F100.000000
G0 Z2.000000
G0 X45.189615 Y55.353215
G17
G0 Z-0.283333 F30.000000
G1 X45.189615 Y55.353215 F100.000000
G1 X45.033215 Y55.196815 F100.000000
G1 X44.876815 Y55.353215 F100.000000
G1 X45.033215 Y55.509615 F100.000000
G1 X45.189615 Y55.353215 F100.000000
G0 Z-0.566667 F30.000000
G1 X45.033215 Y55.196815 F100.000000
G1 X44.876815 Y55.353215 F100.000000
G1 X45.033215 Y55.509615 F100.000000
G1 X45.189615 Y55.353215 F100.000000
G0 Z-0.850000 F30.000000
G1 X45.033215 Y55.196815 F100.000000
G1 X44.876815 Y55.353215 F100.000000
G1 X45.033215 Y55.509615 F100.000000
G1 X45.189615 Y55.353215 F100.000000
G0 Z-1.133333 F30.000000
G1 X45.033215 Y55.196815 F100.000000
G1 X44.876815 Y55.353215 F100.000000
G1 X45.033215 Y55.509615 F100.000000
G1 X45.189615 Y55.353215 F100.000000
G0 Z-1.416667 F30.000000
G1 X45.033215 Y55.196815 F100.000000
G1 X44.876815 Y55.353215 F100.000000
G1 X45.033215 Y55.509615 F100.000000
G1 X45.189615 Y55.353215 F100.000000
G0 Z-1.700000 F30.000000
G1 X45.033215 Y55.196815 F100.000000
G1 X44.876815 Y55.353215 F100.000000
G1 X45.033215 Y55.509615 F100.000000
G1 X45.189615 Y55.353215 F100.000000
G0 Z2.000000
G0 X44.935615 Y25.635215
G17
G0 Z-0.283333 F30.000000
G1 X44.935615 Y25.635215 F100.000000
G1 X44.779215 Y25.478815 F100.000000
G1 X44.622815 Y25.635215 F100.000000
G1 X44.779215 Y25.791615 F100.000000
G1 X44.935615 Y25.635215 F100.000000
G0 Z-0.566667 F30.000000
G1 X44.779215 Y25.478815 F100.000000
G1 X44.622815 Y25.635215 F100.000000
G1 X44.779215 Y25.791615 F100.000000
G1 X44.935615 Y25.635215 F100.000000
G0 Z-0.850000 F30.000000
G1 X44.779215 Y25.478815 F100.000000
G1 X44.622815 Y25.635215 F100.000000
G1 X44.779215 Y25.791615 F100.000000
G1 X44.935615 Y25.635215 F100.000000
G0 Z-1.133333 F30.000000
G1 X44.779215 Y25.478815 F100.000000
G1 X44.622815 Y25.635215 F100.000000
G1 X44.779215 Y25.791615 F100.000000
G1 X44.935615 Y25.635215 F100.000000
G0 Z-1.416667 F30.000000
G1 X44.779215 Y25.478815 F100.000000
G1 X44.622815 Y25.635215 F100.000000
G1 X44.779215 Y25.791615 F100.000000
G1 X44.935615 Y25.635215 F100.000000
G0 Z-1.700000 F30.000000
G1 X44.779215 Y25.478815 F100.000000
G1 X44.622815 Y25.635215 F100.000000
G1 X44.779215 Y25.791615 F100.000000
G1 X44.935615 Y25.635215 F100.000000
G0 Z2.000000
G0 X44.935615 Y22.587215
G17
G0 Z-0.283333 F30.000000
G1 Y22.587215 F100.000000
G1 X44.779215 Y22.430815 F100.000000
G1 X44.622815 Y22.587215 F100.000000
G1 X44.779215 Y22.743615 F100.000000
G1 X44.935615 Y22.587215 F100.000000
G0 Z-0.566667 F30.000000
G1 X44.779215 Y22.430815 F100.000000
G1 X44.622815 Y22.587215 F100.000000
G1 X44.779215 Y22.743615 F100.000000
G1 X44.935615 Y22.587215 F100.000000
G0 Z-0.850000 F30.000000
G1 X44.779215 Y22.430815 F100.000000
G1 X44.622815 Y22.587215 F100.000000
G1 X44.779215 Y22.743615 F100.000000
G1 X44.935615 Y22.587215 F100.000000
G0 Z-1.133333 F30.000000
G1 X44.779215 Y22.430815 F100.000000
G1 X44.622815 Y22.587215 F100.000000
G1 X44.779215 Y22.743615 F100.000000
G1 X44.935615 Y22.587215 F100.000000
G0 Z-1.416667 F30.000000
G1 X44.779215 Y22.430815 F100.000000
G1 X44.622815 Y22.587215 F100.000000
G1 X44.779215 Y22.743615 F100.000000
G1 X44.935615 Y22.587215 F100.000000
G0 Z-1.700000 F30.000000
G1 X44.779215 Y22.430815 F100.000000
G1 X44.622815 Y22.587215 F100.000000
G1 X44.779215 Y22.743615 F100.000000
G1 X44.935615 Y22.587215 F100.000000
G0 Z2.000000
G0 X43.919615 Y37.573215
G17
G0 Z-0.283333 F30.000000
G1 X43.919615 Y37.573215 F100.000000
G1 X43.763215 Y37.416815 F100.000000
G1 X43.606815 Y37.573215 F100.000000
G1 X43.763215 Y37.729615 F100.000000
G1 X43.919615 Y37.573215 F100.000000
G0 Z-0.566667 F30.000000
G1 X43.763215 Y37.416815 F100.000000
G1 X43.606815 Y37.573215 F100.000000
G1 X43.763215 Y37.729615 F100.000000
G1 X43.919615 Y37.573215 F100.000000
G0 Z-0.850000 F30.000000
G1 X43.763215 Y37.416815 F100.000000
G1 X43.606815 Y37.573215 F100.000000
G1 X43.763215 Y37.729615 F100.000000
G1 X43.919615 Y37.573215 F100.000000
G0 Z-1.133333 F30.000000
G1 X43.763215 Y37.416815 F100.000000
G1 X43.606815 Y37.573215 F100.000000
G1 X43.763215 Y37.729615 F100.000000
G1 X43.919615 Y37.573215 F100.000000
G0 Z-1.416667 F30.000000
G1 X43.763215 Y37.416815 F100.000000
G1 X43.606815 Y37.573215 F100.000000
G1 X43.763215 Y37.729615 F100.000000
G1 X43.919615 Y37.573215 F100.000000
G0 Z-1.700000 F30.000000
G1 X43.763215 Y37.416815 F100.000000
G1 X43.606815 Y37.573215 F100.000000
G1 X43.763215 Y37.729615 F100.000000
G1 X43.919615 Y37.573215 F100.000000
G0 Z2.000000
G0 X43.665615 Y7.093215
G17
G0 Z-0.283333 F30.000000
G1 X43.665615 Y7.093215 F100.000000
G1 X43.509215 Y6.936815 F100.000000
G1 X43.352815 Y7.093215 F100.000000
G1 X43.509215 Y7.249615 F100.000000
G1 X43.665615 Y7.093215 F100.000000
G0 Z-0.566667 F30.000000
G1 X43.509215 Y6.936815 F100.000000
G1 X43.352815 Y7.093215 F100.000000
G1 X43.509215 Y7.249615 F100.000000
G1 X43.665615 Y7.093215 F100.000000
G0 Z-0.850000 F30.000000
G1 X43.509215 Y6.936815 F100.000000
G1 X43.352815 Y7.093215 F100.000000
G1 X43.509215 Y7.249615 F100.000000
G1 X43.665615 Y7.093215 F100.000000
G0 Z-1.133333 F30.000000
G1 X43.509215 Y6.936815 F100.000000
G1 X43.352815 Y7.093215 F100.000000
G1 X43.509215 Y7.249615 F100.000000
G1 X43.665615 Y7.093215 F100.000000
G0 Z-1.416667 F30.000000
G1 X43.509215 Y6.936815 F100.000000
G1 X43.352815 Y7.093215 F100.000000
G1 X43.509215 Y7.249615 F100.000000
G1 X43.665615 Y7.093215 F100.000000
G0 Z-1.700000 F30.000000
G1 X43.509215 Y6.936815 F100.000000
G1 X43.352815 Y7.093215 F100.000000
G1 X43.509215 Y7.249615 F100.000000
G1 X43.665615 Y7.093215 F100.000000
G0 Z2.000000
G0 X42.649615 Y55.353215
G17
G0 Z-0.283333 F30.000000
G1 X42.649615 Y55.353215 F100.000000
G1 X42.493215 Y55.196815 F100.000000
G1 X42.336815 Y55.353215 F100.000000
G1 X42.493215 Y55.509615 F100.000000
G1 X42.649615 Y55.353215 F100.000000
G0 Z-0.566667 F30.000000
G1 X42.493215 Y55.196815 F100.000000
G1 X42.336815 Y55.353215 F100.000000
G1 X42.493215 Y55.509615 F100.000000
G1 X42.649615 Y55.353215 F100.000000
G0 Z-0.850000 F30.000000
G1 X42.493215 Y55.196815 F100.000000
G1 X42.336815 Y55.353215 F100.000000
G1 X42.493215 Y55.509615 F100.000000
G1 X42.649615 Y55.353215 F100.000000
G0 Z-1.133333 F30.000000
G1 X42.493215 Y55.196815 F100.000000
G1 X42.336815 Y55.353215 F100.000000
G1 X42.493215 Y55.509615 F100.000000
G1 X42.649615 Y55.353215 F100.000000
G0 Z-1.416667 F30.000000
G1 X42.493215 Y55.196815 F100.000000
G1 X42.336815 Y55.353215 F100.000000
G1 X42.493215 Y55.509615 F100.000000
G1 X42.649615 Y55.353215 F100.000000
G0 Z-1.700000 F30.000000
G1 X42.493215 Y55.196815 F100.000000
G1 X42.336815 Y55.353215 F100.000000
G1 X42.493215 Y55.509615 F100.000000
G1 X42.649615 Y55.353215 F100.000000
G0 Z2.000000
G0 X41.125615 Y7.093215
G17
G0 Z-0.283333 F30.000000
G1 X41.125615 Y7.093215 F100.000000
G1 X40.969215 Y6.936815 F100.000000
G1 X40.812815 Y7.093215 F100.000000
G1 X40.969215 Y7.249615 F100.000000
G1 X41.125615 Y7.093215 F100.000000
G0 Z-0.566667 F30.000000
G1 X40.969215 Y6.936815 F100.000000
G1 X40.812815 Y7.093215 F100.000000
G1 X40.969215 Y7.249615 F100.000000
G1 X41.125615 Y7.093215 F100.000000
G0 Z-0.850000 F30.000000
G1 X40.969215 Y6.936815 F100.000000
G1 X40.812815 Y7.093215 F100.000000
G1 X40.969215 Y7.249615 F100.000000
G1 X41.125615 Y7.093215 F100.000000
G0 Z-1.133333 F30.000000
G1 X40.969215 Y6.936815 F100.000000
G1 X40.812815 Y7.093215 F100.000000
G1 X40.969215 Y7.249615 F100.000000
G1 X41.125615 Y7.093215 F100.000000
G0 Z-1.416667 F30.000000
G1 X40.969215 Y6.936815 F100.000000
G1 X40.812815 Y7.093215 F100.000000
G1 X40.969215 Y7.249615 F100.000000
G1 X41.125615 Y7.093215 F100.000000
G0 Z-1.700000 F30.000000
G1 X40.969215 Y6.936815 F100.000000
G1 X40.812815 Y7.093215 F100.000000
G1 X40.969215 Y7.249615 F100.000000
G1 X41.125615 Y7.093215 F100.000000
G0 Z2.000000
G0 X40.109615 Y55.353215
G17
G0 Z-0.283333 F30.000000
G1 X40.109615 Y55.353215 F100.000000
G1 X39.953215 Y55.196815 F100.000000
G1 X39.796815 Y55.353215 F100.000000
G1 X39.953215 Y55.509615 F100.000000
G1 X40.109615 Y55.353215 F100.000000
G0 Z-0.566667 F30.000000
G1 X39.953215 Y55.196815 F100.000000
G1 X39.796815 Y55.353215 F100.000000
G1 X39.953215 Y55.509615 F100.000000
G1 X40.109615 Y55.353215 F100.000000
G0 Z-0.850000 F30.000000
G1 X39.953215 Y55.196815 F100.000000
G1 X39.796815 Y55.353215 F100.000000
G1 X39.953215 Y55.509615 F100.000000
G1 X40.109615 Y55.353215 F100.000000
G0 Z-1.133333 F30.000000
G1 X39.953215 Y55.196815 F100.000000
G1 X39.796815 Y55.353215 F100.000000
G1 X39.953215 Y55.509615 F100.000000
G1 X40.109615 Y55.353215 F100.000000
G0 Z-1.416667 F30.000000
G1 X39.953215 Y55.196815 F100.000000
G1 X39.796815 Y55.353215 F100.000000
G1 X39.953215 Y55.509615 F100.000000
G1 X40.109615 Y55.353215 F100.000000
G0 Z-1.700000 F30.000000
G1 X39.953215 Y55.196815 F100.000000
G1 X39.796815 Y55.353215 F100.000000
G1 X39.953215 Y55.509615 F100.000000
G1 X40.109615 Y55.353215 F100.000000
G0 Z2.000000
G0 X38.585615 Y7.093215
G17
G0 Z-0.283333 F30.000000
G1 X38.585615 Y7.093215 F100.000000
G1 X38.429215 Y6.936815 F100.000000
G1 X38.272815 Y7.093215 F100.000000
G1 X38.429215 Y7.249615 F100.000000
G1 X38.585615 Y7.093215 F100.000000
G0 Z-0.566667 F30.000000
G1 X38.429215 Y6.936815 F100.000000
G1 X38.272815 Y7.093215 F100.000000
G1 X38.429215 Y7.249615 F100.000000
G1 X38.585615 Y7.093215 F100.000000
G0 Z-0.850000 F30.000000
G1 X38.429215 Y6.936815 F100.000000
G1 X38.272815 Y7.093215 F100.000000
G1 X38.429215 Y7.249615 F100.000000
G1 X38.585615 Y7.093215 F100.000000
G0 Z-1.133333 F30.000000
G1 X38.429215 Y6.936815 F100.000000
G1 X38.272815 Y7.093215 F100.000000
G1 X38.429215 Y7.249615 F100.000000
G1 X38.585615 Y7.093215 F100.000000
G0 Z-1.416667 F30.000000
G1 X38.429215 Y6.936815 F100.000000
G1 X38.272815 Y7.093215 F100.000000
G1 X38.429215 Y7.249615 F100.000000
G1 X38.585615 Y7.093215 F100.000000
G0 Z-1.700000 F30.000000
G1 X38.429215 Y6.936815 F100.000000
G1 X38.272815 Y7.093215 F100.000000
G1 X38.429215 Y7.249615 F100.000000
G1 X38.585615 Y7.093215 F100.000000
G0 Z2.000000
G0 X37.315615 Y25.635215
G17
G0 Z-0.283333 F30.000000
G1 X37.315615 Y25.635215 F100.000000
G1 X37.159215 Y25.478815 F100.000000
G1 X37.002815 Y25.635215 F100.000000
G1 X37.159215 Y25.791615 F100.000000
G1 X37.315615 Y25.635215 F100.000000
G0 Z-0.566667 F30.000000
G1 X37.159215 Y25.478815 F100.000000
G1 X37.002815 Y25.635215 F100.000000
G1 X37.159215 Y25.791615 F100.000000
G1 X37.315615 Y25.635215 F100.000000
G0 Z-0.850000 F30.000000
G1 X37.159215 Y25.478815 F100.000000
G1 X37.002815 Y25.635215 F100.000000
G1 X37.159215 Y25.791615 F100.000000
G1 X37.315615 Y25.635215 F100.000000
G0 Z-1.133333 F30.000000
G1 X37.159215 Y25.478815 F100.000000
G1 X37.002815 Y25.635215 F100.000000
G1 X37.159215 Y25.791615 F100.000000
G1 X37.315615 Y25.635215 F100.000000
G0 Z-1.416667 F30.000000
G1 X37.159215 Y25.478815 F100.000000
G1 X37.002815 Y25.635215 F100.000000
G1 X37.159215 Y25.791615 F100.000000
G1 X37.315615 Y25.635215 F100.000000
G0 Z-1.700000 F30.000000
G1 X37.159215 Y25.478815 F100.000000
G1 X37.002815 Y25.635215 F100.000000
G1 X37.159215 Y25.791615 F100.000000
G1 X37.315615 Y25.635215 F100.000000
G0 Z2.000000
G0 X37.315615 Y22.587215
G17
G0 Z-0.283333 F30.000000
G1 Y22.587215 F100.000000
G1 X37.159215 Y22.430815 F100.000000
G1 X37.002815 Y22.587215 F100.000000
G1 X37.159215 Y22.743615 F100.000000
G1 X37.315615 Y22.587215 F100.000000
G0 Z-0.566667 F30.000000
G1 X37.159215 Y22.430815 F100.000000
G1 X37.002815 Y22.587215 F100.000000
G1 X37.159215 Y22.743615 F100.000000
G1 X37.315615 Y22.587215 F100.000000
G0 Z-0.850000 F30.000000
G1 X37.159215 Y22.430815 F100.000000
G1 X37.002815 Y22.587215 F100.000000
G1 X37.159215 Y22.743615 F100.000000
G1 X37.315615 Y22.587215 F100.000000
G0 Z-1.133333 F30.000000
G1 X37.159215 Y22.430815 F100.000000
G1 X37.002815 Y22.587215 F100.000000
G1 X37.159215 Y22.743615 F100.000000
G1 X37.315615 Y22.587215 F100.000000
G0 Z-1.416667 F30.000000
G1 X37.159215 Y22.430815 F100.000000
G1 X37.002815 Y22.587215 F100.000000
G1 X37.159215 Y22.743615 F100.000000
G1 X37.315615 Y22.587215 F100.000000
G0 Z-1.700000 F30.000000
G1 X37.159215 Y22.430815 F100.000000
G1 X37.002815 Y22.587215 F100.000000
G1 X37.159215 Y22.743615 F100.000000
G1 X37.315615 Y22.587215 F100.000000
G0 Z2.000000
G0 X36.299615 Y37.573215
G17
G0 Z-0.283333 F30.000000
G1 X36.299615 Y37.573215 F100.000000
G1 X36.143215 Y37.416815 F100.000000
G1 X35.986815 Y37.573215 F100.000000
G1 X36.143215 Y37.729615 F100.000000
G1 X36.299615 Y37.573215 F100.000000
G0 Z-0.566667 F30.000000
G1 X36.143215 Y37.416815 F100.000000
G1 X35.986815 Y37.573215 F100.000000
G1 X36.143215 Y37.729615 F100.000000
G1 X36.299615 Y37.573215 F100.000000
G0 Z-0.850000 F30.000000
G1 X36.143215 Y37.416815 F100.000000
G1 X35.986815 Y37.573215 F100.000000
G1 X36.143215 Y37.729615 F100.000000
G1 X36.299615 Y37.573215 F100.000000
G0 Z-1.133333 F30.000000
G1 X36.143215 Y37.416815 F100.000000
G1 X35.986815 Y37.573215 F100.000000
G1 X36.143215 Y37.729615 F100.000000
G1 X36.299615 Y37.573215 F100.000000
G0 Z-1.416667 F30.000000
G1 X36.143215 Y37.416815 F100.000000
G1 X35.986815 Y37.573215 F100.000000
G1 X36.143215 Y37.729615 F100.000000
G1 X36.299615 Y37.573215 F100.000000
G0 Z-1.700000 F30.000000
G1 X36.143215 Y37.416815 F100.000000
G1 X35.986815 Y37.573215 F100.000000
G1 X36.143215 Y37.729615 F100.000000
G1 X36.299615 Y37.573215 F100.000000
G0 Z2.000000
G0 X36.045615 Y55.353215
G17
G0 Z-0.283333 F30.000000
G1 X36.045615 Y55.353215 F100.000000
G1 X35.889215 Y55.196815 F100.000000
G1 X35.732815 Y55.353215 F100.000000
G1 X35.889215 Y55.509615 F100.000000
G1 X36.045615 Y55.353215 F100.000000
G0 Z-0.566667 F30.000000
G1 X35.889215 Y55.196815 F100.000000
G1 X35.732815 Y55.353215 F100.000000
G1 X35.889215 Y55.509615 F100.000000
G1 X36.045615 Y55.353215 F100.000000
G0 Z-0.850000 F30.000000
G1 X35.889215 Y55.196815 F100.000000
G1 X35.732815 Y55.353215 F100.000000
G1 X35.889215 Y55.509615 F100.000000
G1 X36.045615 Y55.353215 F100.000000
G0 Z-1.133333 F30.000000
G1 X35.889215 Y55.196815 F100.000000
G1 X35.732815 Y55.353215 F100.000000
G1 X35.889215 Y55.509615 F100.000000
G1 X36.045615 Y55.353215 F100.000000
G0 Z-1.416667 F30.000000
G1 X35.889215 Y55.196815 F100.000000
G1 X35.732815 Y55.353215 F100.000000
G1 X35.889215 Y55.509615 F100.000000
G1 X36.045615 Y55.353215 F100.000000
G0 Z-1.700000 F30.000000
G1 X35.889215 Y55.196815 F100.000000
G1 X35.732815 Y55.353215 F100.000000
G1 X35.889215 Y55.509615 F100.000000
G1 X36.045615 Y55.353215 F100.000000
G0 Z2.000000
G0 X36.045615 Y7.093215
G17
G0 Z-0.283333 F30.000000
G1 Y7.093215 F100.000000
G1 X35.889215 Y6.936815 F100.000000
G1 X35.732815 Y7.093215 F100.000000
G1 X35.889215 Y7.249615 F100.000000
G1 X36.045615 Y7.093215 F100.000000
G0 Z-0.566667 F30.000000
G1 X35.889215 Y6.936815 F100.000000
G1 X35.732815 Y7.093215 F100.000000
G1 X35.889215 Y7.249615 F100.000000
G1 X36.045615 Y7.093215 F100.000000
G0 Z-0.850000 F30.000000
G1 X35.889215 Y6.936815 F100.000000
G1 X35.732815 Y7.093215 F100.000000
G1 X35.889215 Y7.249615 F100.000000
G1 X36.045615 Y7.093215 F100.000000
G0 Z-1.133333 F30.000000
G1 X35.889215 Y6.936815 F100.000000
G1 X35.732815 Y7.093215 F100.000000
G1 X35.889215 Y7.249615 F100.000000
G1 X36.045615 Y7.093215 F100.000000
G0 Z-1.416667 F30.000000
G1 X35.889215 Y6.936815 F100.000000
G1 X35.732815 Y7.093215 F100.000000
G1 X35.889215 Y7.249615 F100.000000
G1 X36.045615 Y7.093215 F100.000000
G0 Z-1.700000 F30.000000
G1 X35.889215 Y6.936815 F100.000000
G1 X35.732815 Y7.093215 F100.000000
G1 X35.889215 Y7.249615 F100.000000
G1 X36.045615 Y7.093215 F100.000000
G0 Z2.000000
G0 X33.759615 Y52.051215
G17
G0 Z-0.283333 F30.000000
G1 X33.759615 Y52.051215 F100.000000
G1 X33.603215 Y51.894815 F100.000000
G1 X33.446815 Y52.051215 F100.000000
G1 X33.603215 Y52.207615 F100.000000
G1 X33.759615 Y52.051215 F100.000000
G0 Z-0.566667 F30.000000
G1 X33.603215 Y51.894815 F100.000000
G1 X33.446815 Y52.051215 F100.000000
G1 X33.603215 Y52.207615 F100.000000
G1 X33.759615 Y52.051215 F100.000000
G0 Z-0.850000 F30.000000
G1 X33.603215 Y51.894815 F100.000000
G1 X33.446815 Y52.051215 F100.000000
G1 X33.603215 Y52.207615 F100.000000
G1 X33.759615 Y52.051215 F100.000000
G0 Z-1.133333 F30.000000
G1 X33.603215 Y51.894815 F100.000000
G1 X33.446815 Y52.051215 F100.000000
G1 X33.603215 Y52.207615 F100.000000
G1 X33.759615 Y52.051215 F100.000000
G0 Z-1.416667 F30.000000
G1 X33.603215 Y51.894815 F100.000000
G1 X33.446815 Y52.051215 F100.000000
G1 X33.603215 Y52.207615 F100.000000
G1 X33.759615 Y52.051215 F100.000000
G0 Z-1.700000 F30.000000
G1 X33.603215 Y51.894815 F100.000000
G1 X33.446815 Y52.051215 F100.000000
G1 X33.603215 Y52.207615 F100.000000
G1 X33.759615 Y52.051215 F100.000000
G0 Z2.000000
G0 X33.759615 Y49.511215
G17
G0 Z-0.283333 F30.000000
G1 Y49.511215 F100.000000
G1 X33.603215 Y49.354815 F100.000000
G1 X33.446815 Y49.511215 F100.000000
G1 X33.603215 Y49.667615 F100.000000
G1 X33.759615 Y49.511215 F100.000000
G0 Z-0.566667 F30.000000
G1 X33.603215 Y49.354815 F100.000000
G1 X33.446815 Y49.511215 F100.000000
G1 X33.603215 Y49.667615 F100.000000
G1 X33.759615 Y49.511215 F100.000000
G0 Z-0.850000 F30.000000
G1 X33.603215 Y49.354815 F100.000000
G1 X33.446815 Y49.511215 F100.000000
G1 X33.603215 Y49.667615 F100.000000
G1 X33.759615 Y49.511215 F100.000000
G0 Z-1.133333 F30.000000
G1 X33.603215 Y49.354815 F100.000000
G1 X33.446815 Y49.511215 F100.000000
G1 X33.603215 Y49.667615 F100.000000
G1 X33.759615 Y49.511215 F100.000000
G0 Z-1.416667 F30.000000
G1 X33.603215 Y49.354815 F100.000000
G1 X33.446815 Y49.511215 F100.000000
G1 X33.603215 Y49.667615 F100.000000
G1 X33.759615 Y49.511215 F100.000000
G0 Z-1.700000 F30.000000
G1 X33.603215 Y49.354815 F100.000000
G1 X33.446815 Y49.511215 F100.000000
G1 X33.603215 Y49.667615 F100.000000
G1 X33.759615 Y49.511215 F100.000000
G0 Z2.000000
G0 X33.505615 Y55.353215
G17
G0 Z-0.283333 F30.000000
G1 X33.505615 Y55.353215 F100.000000
G1 X33.349215 Y55.196815 F100.000000
G1 X33.192815 Y55.353215 F100.000000
G1 X33.349215 Y55.509615 F100.000000
G1 X33.505615 Y55.353215 F100.000000
G0 Z-0.566667 F30.000000
G1 X33.349215 Y55.196815 F100.000000
G1 X33.192815 Y55.353215 F100.000000
G1 X33.349215 Y55.509615 F100.000000
G1 X33.505615 Y55.353215 F100.000000
G0 Z-0.850000 F30.000000
G1 X33.349215 Y55.196815 F100.000000
G1 X33.192815 Y55.353215 F100.000000
G1 X33.349215 Y55.509615 F100.000000
G1 X33.505615 Y55.353215 F100.000000
G0 Z-1.133333 F30.000000
G1 X33.349215 Y55.196815 F100.000000
G1 X33.192815 Y55.353215 F100.000000
G1 X33.349215 Y55.509615 F100.000000
G1 X33.505615 Y55.353215 F100.000000
G0 Z-1.416667 F30.000000
G1 X33.349215 Y55.196815 F100.000000
G1 X33.192815 Y55.353215 F100.000000
G1 X33.349215 Y55.509615 F100.000000
G1 X33.505615 Y55.353215 F100.000000
G0 Z-1.700000 F30.000000
G1 X33.349215 Y55.196815 F100.000000
G1 X33.192815 Y55.353215 F100.000000
G1 X33.349215 Y55.509615 F100.000000
G1 X33.505615 Y55.353215 F100.000000
G0 Z2.000000
G0 X32.489615 Y42.145215
G17
G0 Z-0.283333 F30.000000
G1 X32.489615 Y42.145215 F100.000000
G1 X32.333215 Y41.988815 F100.000000
G1 X32.176815 Y42.145215 F100.000000
G1 X32.333215 Y42.301615 F100.000000
G1 X32.489615 Y42.145215 F100.000000
G0 Z-0.566667 F30.000000
G1 X32.333215 Y41.988815 F100.000000
G1 X32.176815 Y42.145215 F100.000000
G1 X32.333215 Y42.301615 F100.000000
G1 X32.489615 Y42.145215 F100.000000
G0 Z-0.850000 F30.000000
G1 X32.333215 Y41.988815 F100.000000
G1 X32.176815 Y42.145215 F100.000000
G1 X32.333215 Y42.301615 F100.000000
G1 X32.489615 Y42.145215 F100.000000
G0 Z-1.133333 F30.000000
G1 X32.333215 Y41.988815 F100.000000
G1 X32.176815 Y42.145215 F100.000000
G1 X32.333215 Y42.301615 F100.000000
G1 X32.489615 Y42.145215 F100.000000
G0 Z-1.416667 F30.000000
G1 X32.333215 Y41.988815 F100.000000
G1 X32.176815 Y42.145215 F100.000000
G1 X32.333215 Y42.301615 F100.000000
G1 X32.489615 Y42.145215 F100.000000
G0 Z-1.700000 F30.000000
G1 X32.333215 Y41.988815 F100.000000
G1 X32.176815 Y42.145215 F100.000000
G1 X32.333215 Y42.301615 F100.000000
G1 X32.489615 Y42.145215 F100.000000
G0 Z2.000000
G0 X30.965615 Y55.353215
G17
G0 Z-0.283333 F30.000000
G1 X30.965615 Y55.353215 F100.000000
G1 X30.809215 Y55.196815 F100.000000
G1 X30.652815 Y55.353215 F100.000000
G1 X30.809215 Y55.509615 F100.000000
G1 X30.965615 Y55.353215 F100.000000
G0 Z-0.566667 F30.000000
G1 X30.809215 Y55.196815 F100.000000
G1 X30.652815 Y55.353215 F100.000000
G1 X30.809215 Y55.509615 F100.000000
G1 X30.965615 Y55.353215 F100.000000
G0 Z-0.850000 F30.000000
G1 X30.809215 Y55.196815 F100.000000
G1 X30.652815 Y55.353215 F100.000000
G1 X30.809215 Y55.509615 F100.000000
G1 X30.965615 Y55.353215 F100.000000
G0 Z-1.133333 F30.000000
G1 X30.809215 Y55.196815 F100.000000
G1 X30.652815 Y55.353215 F100.000000
G1 X30.809215 Y55.509615 F100.000000
G1 X30.965615 Y55.353215 F100.000000
G0 Z-1.416667 F30.000000
G1 X30.809215 Y55.196815 F100.000000
G1 X30.652815 Y55.353215 F100.000000
G1 X30.809215 Y55.509615 F100.000000
G1 X30.965615 Y55.353215 F100.000000
G0 Z-1.700000 F30.000000
G1 X30.809215 Y55.196815 F100.000000
G1 X30.652815 Y55.353215 F100.000000
G1 X30.809215 Y55.509615 F100.000000
G1 X30.965615 Y55.353215 F100.000000
G0 Z2.000000
G0 X30.965615 Y7.093215
G17
G0 Z-0.283333 F30.000000
G1 Y7.093215 F100.000000
G1 X30.809215 Y6.936815 F100.000000
G1 X30.652815 Y7.093215 F100.000000
G1 X30.809215 Y7.249615 F100.000000
G1 X30.965615 Y7.093215 F100.000000
G0 Z-0.566667 F30.000000
G1 X30.809215 Y6.936815 F100.000000
G1 X30.652815 Y7.093215 F100.000000
G1 X30.809215 Y7.249615 F100.000000
G1 X30.965615 Y7.093215 F100.000000
G0 Z-0.850000 F30.000000
G1 X30.809215 Y6.936815 F100.000000
G1 X30.652815 Y7.093215 F100.000000
G1 X30.809215 Y7.249615 F100.000000
G1 X30.965615 Y7.093215 F100.000000
G0 Z-1.133333 F30.000000
G1 X30.809215 Y6.936815 F100.000000
G1 X30.652815 Y7.093215 F100.000000
G1 X30.809215 Y7.249615 F100.000000
G1 X30.965615 Y7.093215 F100.000000
G0 Z-1.416667 F30.000000
G1 X30.809215 Y6.936815 F100.000000
G1 X30.652815 Y7.093215 F100.000000
G1 X30.809215 Y7.249615 F100.000000
G1 X30.965615 Y7.093215 F100.000000
G0 Z-1.700000 F30.000000
G1 X30.809215 Y6.936815 F100.000000
G1 X30.652815 Y7.093215 F100.000000
G1 X30.809215 Y7.249615 F100.000000
G1 X30.965615 Y7.093215 F100.000000
G0 Z2.000000
G0 X29.949615 Y47.733215
G17
G0 Z-0.283333 F30.000000
G1 X29.949615 Y47.733215 F100.000000
G1 X29.793215 Y47.576815 F100.000000
G1 X29.636815 Y47.733215 F100.000000
G1 X29.793215 Y47.889615 F100.000000
G1 X29.949615 Y47.733215 F100.000000
G0 Z-0.566667 F30.000000
G1 X29.793215 Y47.576815 F100.000000
G1 X29.636815 Y47.733215 F100.000000
G1 X29.793215 Y47.889615 F100.000000
G1 X29.949615 Y47.733215 F100.000000
G0 Z-0.850000 F30.000000
G1 X29.793215 Y47.576815 F100.000000
G1 X29.636815 Y47.733215 F100.000000
G1 X29.793215 Y47.889615 F100.000000
G1 X29.949615 Y47.733215 F100.000000
G0 Z-1.133333 F30.000000
G1 X29.793215 Y47.576815 F100.000000
G1 X29.636815 Y47.733215 F100.000000
G1 X29.793215 Y47.889615 F100.000000
G1 X29.949615 Y47.733215 F100.000000
G0 Z-1.416667 F30.000000
G1 X29.793215 Y47.576815 F100.000000
G1 X29.636815 Y47.733215 F100.000000
G1 X29.793215 Y47.889615 F100.000000
G1 X29.949615 Y47.733215 F100.000000
G0 Z-1.700000 F30.000000
G1 X29.793215 Y47.576815 F100.000000
G1 X29.636815 Y47.733215 F100.000000
G1 X29.793215 Y47.889615 F100.000000
G1 X29.949615 Y47.733215 F100.000000
G0 Z2.000000
G0 X29.949615 Y45.193215
G17
G0 Z-0.283333 F30.000000
G1 Y45.193215 F100.000000
G1 X29.793215 Y45.036815 F100.000000
G1 X29.636815 Y45.193215 F100.000000
G1 X29.793215 Y45.349615 F100.000000
G1 X29.949615 Y45.193215 F100.000000
G0 Z-0.566667 F30.000000
G1 X29.793215 Y45.036815 F100.000000
G1 X29.636815 Y45.193215 F100.000000
G1 X29.793215 Y45.349615 F100.000000
G1 X29.949615 Y45.193215 F100.000000
G0 Z-0.850000 F30.000000
G1 X29.793215 Y45.036815 F100.000000
G1 X29.636815 Y45.193215 F100.000000
G1 X29.793215 Y45.349615 F100.000000
G1 X29.949615 Y45.193215 F100.000000
G0 Z-1.133333 F30.000000
G1 X29.793215 Y45.036815 F100.000000
G1 X29.636815 Y45.193215 F100.000000
G1 X29.793215 Y45.349615 F100.000000
G1 X29.949615 Y45.193215 F100.000000
G0 Z-1.416667 F30.000000
G1 X29.793215 Y45.036815 F100.000000
G1 X29.636815 Y45.193215 F100.000000
G1 X29.793215 Y45.349615 F100.000000
G1 X29.949615 Y45.193215 F100.000000
G0 Z-1.700000 F30.000000
G1 X29.793215 Y45.036815 F100.000000
G1 X29.636815 Y45.193215 F100.000000
G1 X29.793215 Y45.349615 F100.000000
G1 X29.949615 Y45.193215 F100.000000
G0 Z2.000000
G0 X28.425615 Y55.353215
G17
G0 Z-0.283333 F30.000000
G1 X28.425615 Y55.353215 F100.000000
G1 X28.269215 Y55.196815 F100.000000
G1 X28.112815 Y55.353215 F100.000000
G1 X28.269215 Y55.509615 F100.000000
G1 X28.425615 Y55.353215 F100.000000
G0 Z-0.566667 F30.000000
G1 X28.269215 Y55.196815 F100.000000
G1 X28.112815 Y55.353215 F100.000000
G1 X28.269215 Y55.509615 F100.000000
G1 X28.425615 Y55.353215 F100.000000
G0 Z-0.850000 F30.000000
G1 X28.269215 Y55.196815 F100.000000
G1 X28.112815 Y55.353215 F100.000000
G1 X28.269215 Y55.509615 F100.000000
G1 X28.425615 Y55.353215 F100.000000
G0 Z-1.133333 F30.000000
G1 X28.269215 Y55.196815 F100.000000
G1 X28.112815 Y55.353215 F100.000000
G1 X28.269215 Y55.509615 F100.000000
G1 X28.425615 Y55.353215 F100.000000
G0 Z-1.416667 F30.000000
G1 X28.269215 Y55.196815 F100.000000
G1 X28.112815 Y55.353215 F100.000000
G1 X28.269215 Y55.509615 F100.000000
G1 X28.425615 Y55.353215 F100.000000
G0 Z-1.700000 F30.000000
G1 X28.269215 Y55.196815 F100.000000
G1 X28.112815 Y55.353215 F100.000000
G1 X28.269215 Y55.509615 F100.000000
G1 X28.425615 Y55.353215 F100.000000
G0 Z2.000000
G0 X28.425615 Y7.093215
G17
G0 Z-0.283333 F30.000000
G1 Y7.093215 F100.000000
G1 X28.269215 Y6.936815 F100.000000
G1 X28.112815 Y7.093215 F100.000000
G1 X28.269215 Y7.249615 F100.000000
G1 X28.425615 Y7.093215 F100.000000
G0 Z-0.566667 F30.000000
G1 X28.269215 Y6.936815 F100.000000
G1 X28.112815 Y7.093215 F100.000000
G1 X28.269215 Y7.249615 F100.000000
G1 X28.425615 Y7.093215 F100.000000
G0 Z-0.850000 F30.000000
G1 X28.269215 Y6.936815 F100.000000
G1 X28.112815 Y7.093215 F100.000000
G1 X28.269215 Y7.249615 F100.000000
G1 X28.425615 Y7.093215 F100.000000
G0 Z-1.133333 F30.000000
G1 X28.269215 Y6.936815 F100.000000
G1 X28.112815 Y7.093215 F100.000000
G1 X28.269215 Y7.249615 F100.000000
G1 X28.425615 Y7.093215 F100.000000
G0 Z-1.416667 F30.000000
G1 X28.269215 Y6.936815 F100.000000
G1 X28.112815 Y7.093215 F100.000000
G1 X28.269215 Y7.249615 F100.000000
G1 X28.425615 Y7.093215 F100.000000
G0 Z-1.700000 F30.000000
G1 X28.269215 Y6.936815 F100.000000
G1 X28.112815 Y7.093215 F100.000000
G1 X28.269215 Y7.249615 F100.000000
G1 X28.425615 Y7.093215 F100.000000
G0 Z2.000000
G0 X25.885615 Y55.353215
G17
G0 Z-0.283333 F30.000000
G1 X25.885615 Y55.353215 F100.000000
G1 X25.729215 Y55.196815 F100.000000
G1 X25.572815 Y55.353215 F100.000000
G1 X25.729215 Y55.509615 F100.000000
G1 X25.885615 Y55.353215 F100.000000
G0 Z-0.566667 F30.000000
G1 X25.729215 Y55.196815 F100.000000
G1 X25.572815 Y55.353215 F100.000000
G1 X25.729215 Y55.509615 F100.000000
G1 X25.885615 Y55.353215 F100.000000
G0 Z-0.850000 F30.000000
G1 X25.729215 Y55.196815 F100.000000
G1 X25.572815 Y55.353215 F100.000000
G1 X25.729215 Y55.509615 F100.000000
G1 X25.885615 Y55.353215 F100.000000
G0 Z-1.133333 F30.000000
G1 X25.729215 Y55.196815 F100.000000
G1 X25.572815 Y55.353215 F100.000000
G1 X25.729215 Y55.509615 F100.000000
G1 X25.885615 Y55.353215 F100.000000
G0 Z-1.416667 F30.000000
G1 X25.729215 Y55.196815 F100.000000
G1 X25.572815 Y55.353215 F100.000000
G1 X25.729215 Y55.509615 F100.000000
G1 X25.885615 Y55.353215 F100.000000
G0 Z-1.700000 F30.000000
G1 X25.729215 Y55.196815 F100.000000
G1 X25.572815 Y55.353215 F100.000000
G1 X25.729215 Y55.509615 F100.000000
G1 X25.885615 Y55.353215 F100.000000
G0 Z2.000000
G0 X25.885615 Y52.051215
G17
G0 Z-0.283333 F30.000000
G1 Y52.051215 F100.000000
G1 X25.729215 Y51.894815 F100.000000
G1 X25.572815 Y52.051215 F100.000000
G1 X25.729215 Y52.207615 F100.000000
G1 X25.885615 Y52.051215 F100.000000
G0 Z-0.566667 F30.000000
G1 X25.729215 Y51.894815 F100.000000
G1 X25.572815 Y52.051215 F100.000000
G1 X25.729215 Y52.207615 F100.000000
G1 X25.885615 Y52.051215 F100.000000
G0 Z-0.850000 F30.000000
G1 X25.729215 Y51.894815 F100.000000
G1 X25.572815 Y52.051215 F100.000000
G1 X25.729215 Y52.207615 F100.000000
G1 X25.885615 Y52.051215 F100.000000
G0 Z-1.133333 F30.000000
G1 X25.729215 Y51.894815 F100.000000
G1 X25.572815 Y52.051215 F100.000000
G1 X25.729215 Y52.207615 F100.000000
G1 X25.885615 Y52.051215 F100.000000
G0 Z-1.416667 F30.000000
G1 X25.729215 Y51.894815 F100.000000
G1 X25.572815 Y52.051215 F100.000000
G1 X25.729215 Y52.207615 F100.000000
G1 X25.885615 Y52.051215 F100.000000
G0 Z-1.700000 F30.000000
G1 X25.729215 Y51.894815 F100.000000
G1 X25.572815 Y52.051215 F100.000000
G1 X25.729215 Y52.207615 F100.000000
G1 X25.885615 Y52.051215 F100.000000
G0 Z2.000000
G0 X25.885615 Y49.511215
G17
G0 Z-0.283333 F30.000000
G1 Y49.511215 F100.000000
G1 X25.729215 Y49.354815 F100.000000
G1 X25.572815 Y49.511215 F100.000000
G1 X25.729215 Y49.667615 F100.000000
G1 X25.885615 Y49.511215 F100.000000
G0 Z-0.566667 F30.000000
G1 X25.729215 Y49.354815 F100.000000
G1 X25.572815 Y49.511215 F100.000000
G1 X25.729215 Y49.667615 F100.000000
G1 X25.885615 Y49.511215 F100.000000
G0 Z-0.850000 F30.000000
G1 X25.729215 Y49.354815 F100.000000
G1 X25.572815 Y49.511215 F100.000000
G1 X25.729215 Y49.667615 F100.000000
G1 X25.885615 Y49.511215 F100.000000
G0 Z-1.133333 F30.000000
G1 X25.729215 Y49.354815 F100.000000
G1 X25.572815 Y49.511215 F100.000000
G1 X25.729215 Y49.667615 F100.000000
G1 X25.885615 Y49.511215 F100.000000
G0 Z-1.416667 F30.000000
G1 X25.729215 Y49.354815 F100.000000
G1 X25.572815 Y49.511215 F100.000000
G1 X25.729215 Y49.667615 F100.000000
G1 X25.885615 Y49.511215 F100.000000
G0 Z-1.700000 F30.000000
G1 X25.729215 Y49.354815 F100.000000
G1 X25.572815 Y49.511215 F100.000000
G1 X25.729215 Y49.667615 F100.000000
G1 X25.885615 Y49.511215 F100.000000
G0 Z2.000000
G0 X25.885615 Y7.093215
G17
G0 Z-0.283333 F30.000000
G1 Y7.093215 F100.000000
G1 X25.729215 Y6.936815 F100.000000
G1 X25.572815 Y7.093215 F100.000000
G1 X25.729215 Y7.249615 F100.000000
G1 X25.885615 Y7.093215 F100.000000
G0 Z-0.566667 F30.000000
G1 X25.729215 Y6.936815 F100.000000
G1 X25.572815 Y7.093215 F100.000000
G1 X25.729215 Y7.249615 F100.000000
G1 X25.885615 Y7.093215 F100.000000
G0 Z-0.850000 F30.000000
G1 X25.729215 Y6.936815 F100.000000
G1 X25.572815 Y7.093215 F100.000000
G1 X25.729215 Y7.249615 F100.000000
G1 X25.885615 Y7.093215 F100.000000
G0 Z-1.133333 F30.000000
G1 X25.729215 Y6.936815 F100.000000
G1 X25.572815 Y7.093215 F100.000000
G1 X25.729215 Y7.249615 F100.000000
G1 X25.885615 Y7.093215 F100.000000
G0 Z-1.416667 F30.000000
G1 X25.729215 Y6.936815 F100.000000
G1 X25.572815 Y7.093215 F100.000000
G1 X25.729215 Y7.249615 F100.000000
G1 X25.885615 Y7.093215 F100.000000
G0 Z-1.700000 F30.000000
G1 X25.729215 Y6.936815 F100.000000
G1 X25.572815 Y7.093215 F100.000000
G1 X25.729215 Y7.249615 F100.000000
G1 X25.885615 Y7.093215 F100.000000
G0 Z2.000000
G0 X24.869615 Y42.145215
G17
G0 Z-0.283333 F30.000000
G1 X24.869615 Y42.145215 F100.000000
G1 X24.713215 Y41.988815 F100.000000
G1 X24.556815 Y42.145215 F100.000000
G1 X24.713215 Y42.301615 F100.000000
G1 X24.869615 Y42.145215 F100.000000
G0 Z-0.566667 F30.000000
G1 X24.713215 Y41.988815 F100.000000
G1 X24.556815 Y42.145215 F100.000000
G1 X24.713215 Y42.301615 F100.000000
G1 X24.869615 Y42.145215 F100.000000
G0 Z-0.850000 F30.000000
G1 X24.713215 Y41.988815 F100.000000
G1 X24.556815 Y42.145215 F100.000000
G1 X24.713215 Y42.301615 F100.000000
G1 X24.869615 Y42.145215 F100.000000
G0 Z-1.133333 F30.000000
G1 X24.713215 Y41.988815 F100.000000
G1 X24.556815 Y42.145215 F100.000000
G1 X24.713215 Y42.301615 F100.000000
G1 X24.869615 Y42.145215 F100.000000
G0 Z-1.416667 F30.000000
G1 X24.713215 Y41.988815 F100.000000
G1 X24.556815 Y42.145215 F100.000000
G1 X24.713215 Y42.301615 F100.000000
G1 X24.869615 Y42.145215 F100.000000
G0 Z-1.700000 F30.000000
G1 X24.713215 Y41.988815 F100.000000
G1 X24.556815 Y42.145215 F100.000000
G1 X24.713215 Y42.301615 F100.000000
G1 X24.869615 Y42.145215 F100.000000
G0 Z2.000000
G0 X23.345615 Y55.353215
G17
G0 Z-0.283333 F30.000000
G1 X23.345615 Y55.353215 F100.000000
G1 X23.189215 Y55.196815 F100.000000
G1 X23.032815 Y55.353215 F100.000000
G1 X23.189215 Y55.509615 F100.000000
G1 X23.345615 Y55.353215 F100.000000
G0 Z-0.566667 F30.000000
G1 X23.189215 Y55.196815 F100.000000
G1 X23.032815 Y55.353215 F100.000000
G1 X23.189215 Y55.509615 F100.000000
G1 X23.345615 Y55.353215 F100.000000
G0 Z-0.850000 F30.000000
G1 X23.189215 Y55.196815 F100.000000
G1 X23.032815 Y55.353215 F100.000000
G1 X23.189215 Y55.509615 F100.000000
G1 X23.345615 Y55.353215 F100.000000
G0 Z-1.133333 F30.000000
G1 X23.189215 Y55.196815 F100.000000
G1 X23.032815 Y55.353215 F100.000000
G1 X23.189215 Y55.509615 F100.000000
G1 X23.345615 Y55.353215 F100.000000
G0 Z-1.416667 F30.000000
G1 X23.189215 Y55.196815 F100.000000
G1 X23.032815 Y55.353215 F100.000000
G1 X23.189215 Y55.509615 F100.000000
G1 X23.345615 Y55.353215 F100.000000
G0 Z-1.700000 F30.000000
G1 X23.189215 Y55.196815 F100.000000
G1 X23.032815 Y55.353215 F100.000000
G1 X23.189215 Y55.509615 F100.000000
G1 X23.345615 Y55.353215 F100.000000
G0 Z2.000000
G0 X23.345615 Y7.093215
G17
G0 Z-0.283333 F30.000000
G1 Y7.093215 F100.000000
G1 X23.189215 Y6.936815 F100.000000
G1 X23.032815 Y7.093215 F100.000000
G1 X23.189215 Y7.249615 F100.000000
G1 X23.345615 Y7.093215 F100.000000
G0 Z-0.566667 F30.000000
G1 X23.189215 Y6.936815 F100.000000
G1 X23.032815 Y7.093215 F100.000000
G1 X23.189215 Y7.249615 F100.000000
G1 X23.345615 Y7.093215 F100.000000
G0 Z-0.850000 F30.000000
G1 X23.189215 Y6.936815 F100.000000
G1 X23.032815 Y7.093215 F100.000000
G1 X23.189215 Y7.249615 F100.000000
G1 X23.345615 Y7.093215 F100.000000
G0 Z-1.133333 F30.000000
G1 X23.189215 Y6.936815 F100.000000
G1 X23.032815 Y7.093215 F100.000000
G1 X23.189215 Y7.249615 F100.000000
G1 X23.345615 Y7.093215 F100.000000
G0 Z-1.416667 F30.000000
G1 X23.189215 Y6.936815 F100.000000
G1 X23.032815 Y7.093215 F100.000000
G1 X23.189215 Y7.249615 F100.000000
G1 X23.345615 Y7.093215 F100.000000
G0 Z-1.700000 F30.000000
G1 X23.189215 Y6.936815 F100.000000
G1 X23.032815 Y7.093215 F100.000000
G1 X23.189215 Y7.249615 F100.000000
G1 X23.345615 Y7.093215 F100.000000
G0 Z2.000000
G0 X22.329615 Y45.955215
G17
G0 Z-0.283333 F30.000000
G1 X22.329615 Y45.955215 F100.000000
G1 X22.173215 Y45.798815 F100.000000
G1 X22.016815 Y45.955215 F100.000000
G1 X22.173215 Y46.111615 F100.000000
G1 X22.329615 Y45.955215 F100.000000
G0 Z-0.566667 F30.000000
G1 X22.173215 Y45.798815 F100.000000
G1 X22.016815 Y45.955215 F100.000000
G1 X22.173215 Y46.111615 F100.000000
G1 X22.329615 Y45.955215 F100.000000
G0 Z-0.850000 F30.000000
G1 X22.173215 Y45.798815 F100.000000
G1 X22.016815 Y45.955215 F100.000000
G1 X22.173215 Y46.111615 F100.000000
G1 X22.329615 Y45.955215 F100.000000
G0 Z-1.133333 F30.000000
G1 X22.173215 Y45.798815 F100.000000
G1 X22.016815 Y45.955215 F100.000000
G1 X22.173215 Y46.111615 F100.000000
G1 X22.329615 Y45.955215 F100.000000
G0 Z-1.416667 F30.000000
G1 X22.173215 Y45.798815 F100.000000
G1 X22.016815 Y45.955215 F100.000000
G1 X22.173215 Y46.111615 F100.000000
G1 X22.329615 Y45.955215 F100.000000
G0 Z-1.700000 F30.000000
G1 X22.173215 Y45.798815 F100.000000
G1 X22.016815 Y45.955215 F100.000000
G1 X22.173215 Y46.111615 F100.000000
G1 X22.329615 Y45.955215 F100.000000
G0 Z2.000000
G0 X22.329615 Y38.335215
G17
G0 Z-0.283333 F30.000000
G1 Y38.335215 F100.000000
G1 X22.173215 Y38.178815 F100.000000
G1 X22.016815 Y38.335215 F100.000000
G1 X22.173215 Y38.491615 F100.000000
G1 X22.329615 Y38.335215 F100.000000
G0 Z-0.566667 F30.000000
G1 X22.173215 Y38.178815 F100.000000
G1 X22.016815 Y38.335215 F100.000000
G1 X22.173215 Y38.491615 F100.000000
G1 X22.329615 Y38.335215 F100.000000
G0 Z-0.850000 F30.000000
G1 X22.173215 Y38.178815 F100.000000
G1 X22.016815 Y38.335215 F100.000000
G1 X22.173215 Y38.491615 F100.000000
G1 X22.329615 Y38.335215 F100.000000
G0 Z-1.133333 F30.000000
G1 X22.173215 Y38.178815 F100.000000
G1 X22.016815 Y38.335215 F100.000000
G1 X22.173215 Y38.491615 F100.000000
G1 X22.329615 Y38.335215 F100.000000
G0 Z-1.416667 F30.000000
G1 X22.173215 Y38.178815 F100.000000
G1 X22.016815 Y38.335215 F100.000000
G1 X22.173215 Y38.491615 F100.000000
G1 X22.329615 Y38.335215 F100.000000
G0 Z-1.700000 F30.000000
G1 X22.173215 Y38.178815 F100.000000
G1 X22.016815 Y38.335215 F100.000000
G1 X22.173215 Y38.491615 F100.000000
G1 X22.329615 Y38.335215 F100.000000
G0 Z2.000000
G0 X20.805615 Y55.353215
G17
G0 Z-0.283333 F30.000000
G1 X20.805615 Y55.353215 F100.000000
G1 X20.649215 Y55.196815 F100.000000
G1 X20.492815 Y55.353215 F100.000000
G1 X20.649215 Y55.509615 F100.000000
G1 X20.805615 Y55.353215 F100.000000
G0 Z-0.566667 F30.000000
G1 X20.649215 Y55.196815 F100.000000
G1 X20.492815 Y55.353215 F100.000000
G1 X20.649215 Y55.509615 F100.000000
G1 X20.805615 Y55.353215 F100.000000
G0 Z-0.850000 F30.000000
G1 X20.649215 Y55.196815 F100.000000
G1 X20.492815 Y55.353215 F100.000000
G1 X20.649215 Y55.509615 F100.000000
G1 X20.805615 Y55.353215 F100.000000
G0 Z-1.133333 F30.000000
G1 X20.649215 Y55.196815 F100.000000
G1 X20.492815 Y55.353215 F100.000000
G1 X20.649215 Y55.509615 F100.000000
G1 X20.805615 Y55.353215 F100.000000
G0 Z-1.416667 F30.000000
G1 X20.649215 Y55.196815 F100.000000
G1 X20.492815 Y55.353215 F100.000000
G1 X20.649215 Y55.509615 F100.000000
G1 X20.805615 Y55.353215 F100.000000
G0 Z-1.700000 F30.000000
G1 X20.649215 Y55.196815 F100.000000
G1 X20.492815 Y55.353215 F100.000000
G1 X20.649215 Y55.509615 F100.000000
G1 X20.805615 Y55.353215 F100.000000
G0 Z2.000000
G0 X20.805615 Y7.093215
G17
G0 Z-0.283333 F30.000000
G1 Y7.093215 F100.000000
G1 X20.649215 Y6.936815 F100.000000
G1 X20.492815 Y7.093215 F100.000000
G1 X20.649215 Y7.249615 F100.000000
G1 X20.805615 Y7.093215 F100.000000
G0 Z-0.566667 F30.000000
G1 X20.649215 Y6.936815 F100.000000
G1 X20.492815 Y7.093215 F100.000000
G1 X20.649215 Y7.249615 F100.000000
G1 X20.805615 Y7.093215 F100.000000
G0 Z-0.850000 F30.000000
G1 X20.649215 Y6.936815 F100.000000
G1 X20.492815 Y7.093215 F100.000000
G1 X20.649215 Y7.249615 F100.000000
G1 X20.805615 Y7.093215 F100.000000
G0 Z-1.133333 F30.000000
G1 X20.649215 Y6.936815 F100.000000
G1 X20.492815 Y7.093215 F100.000000
G1 X20.649215 Y7.249615 F100.000000
G1 X20.805615 Y7.093215 F100.000000
G0 Z-1.416667 F30.000000
G1 X20.649215 Y6.936815 F100.000000
G1 X20.492815 Y7.093215 F100.000000
G1 X20.649215 Y7.249615 F100.000000
G1 X20.805615 Y7.093215 F100.000000
G0 Z-1.700000 F30.000000
G1 X20.649215 Y6.936815 F100.000000
G1 X20.492815 Y7.093215 F100.000000
G1 X20.649215 Y7.249615 F100.000000
G1 X20.805615 Y7.093215 F100.000000
G0 Z2.000000
G0 X18.265615 Y55.353215
G17
G0 Z-0.283333 F30.000000
G1 X18.265615 Y55.353215 F100.000000
G1 X18.109215 Y55.196815 F100.000000
G1 X17.952815 Y55.353215 F100.000000
G1 X18.109215 Y55.509615 F100.000000
G1 X18.265615 Y55.353215 F100.000000
G0 Z-0.566667 F30.000000
G1 X18.109215 Y55.196815 F100.000000
G1 X17.952815 Y55.353215 F100.000000
G1 X18.109215 Y55.509615 F100.000000
G1 X18.265615 Y55.353215 F100.000000
G0 Z-0.850000 F30.000000
G1 X18.109215 Y55.196815 F100.000000
G1 X17.952815 Y55.353215 F100.000000
G1 X18.109215 Y55.509615 F100.000000
G1 X18.265615 Y55.353215 F100.000000
G0 Z-1.133333 F30.000000
G1 X18.109215 Y55.196815 F100.000000
G1 X17.952815 Y55.353215 F100.000000
G1 X18.109215 Y55.509615 F100.000000
G1 X18.265615 Y55.353215 F100.000000
G0 Z-1.416667 F30.000000
G1 X18.109215 Y55.196815 F100.000000
G1 X17.952815 Y55.353215 F100.000000
G1 X18.109215 Y55.509615 F100.000000
G1 X18.265615 Y55.353215 F100.000000
G0 Z-1.700000 F30.000000
G1 X18.109215 Y55.196815 F100.000000
G1 X17.952815 Y55.353215 F100.000000
G1 X18.109215 Y55.509615 F100.000000
G1 X18.265615 Y55.353215 F100.000000
G0 Z2.000000
G0 X18.265615 Y7.093215
G17
G0 Z-0.283333 F30.000000
G1 Y7.093215 F100.000000
G1 X18.109215 Y6.936815 F100.000000
G1 X17.952815 Y7.093215 F100.000000
G1 X18.109215 Y7.249615 F100.000000
G1 X18.265615 Y7.093215 F100.000000
G0 Z-0.566667 F30.000000
G1 X18.109215 Y6.936815 F100.000000
G1 X17.952815 Y7.093215 F100.000000
G1 X18.109215 Y7.249615 F100.000000
G1 X18.265615 Y7.093215 F100.000000
G0 Z-0.850000 F30.000000
G1 X18.109215 Y6.936815 F100.000000
G1 X17.952815 Y7.093215 F100.000000
G1 X18.109215 Y7.249615 F100.000000
G1 X18.265615 Y7.093215 F100.000000
G0 Z-1.133333 F30.000000
G1 X18.109215 Y6.936815 F100.000000
G1 X17.952815 Y7.093215 F100.000000
G1 X18.109215 Y7.249615 F100.000000
G1 X18.265615 Y7.093215 F100.000000
G0 Z-1.416667 F30.000000
G1 X18.109215 Y6.936815 F100.000000
G1 X17.952815 Y7.093215 F100.000000
G1 X18.109215 Y7.249615 F100.000000
G1 X18.265615 Y7.093215 F100.000000
G0 Z-1.700000 F30.000000
G1 X18.109215 Y6.936815 F100.000000
G1 X17.952815 Y7.093215 F100.000000
G1 X18.109215 Y7.249615 F100.000000
G1 X18.265615 Y7.093215 F100.000000
G0 Z2.000000
G0 X61.293215 Y12.554215
G17
G0 Z-0.283333 F30.000000
G1 X61.293215 Y12.554215 F100.000000
G1 X61.035215 Y12.296215 F100.000000
G1 X60.777215 Y12.554215 F100.000000
G1 X61.035215 Y12.812215 F100.000000
G1 X61.293215 Y12.554215 F100.000000
G0 Z-0.566667 F30.000000
G1 X61.035215 Y12.296215 F100.000000
G1 X60.777215 Y12.554215 F100.000000
G1 X61.035215 Y12.812215 F100.000000
G1 X61.293215 Y12.554215 F100.000000
G0 Z-0.850000 F30.000000
G1 X61.035215 Y12.296215 F100.000000
G1 X60.777215 Y12.554215 F100.000000
G1 X61.035215 Y12.812215 F100.000000
G1 X61.293215 Y12.554215 F100.000000
G0 Z-1.133333 F30.000000
G1 X61.035215 Y12.296215 F100.000000
G1 X60.777215 Y12.554215 F100.000000
G1 X61.035215 Y12.812215 F100.000000
G1 X61.293215 Y12.554215 F100.000000
G0 Z-1.416667 F30.000000
G1 X61.035215 Y12.296215 F100.000000
G1 X60.777215 Y12.554215 F100.000000
G1 X61.035215 Y12.812215 F100.000000
G1 X61.293215 Y12.554215 F100.000000
G0 Z-1.700000 F30.000000
G1 X61.035215 Y12.296215 F100.000000
G1 X60.777215 Y12.554215 F100.000000
G1 X61.035215 Y12.812215 F100.000000
G1 X61.293215 Y12.554215 F100.000000
G0 Z2.000000
G0 X61.293215 Y8.109215
G17
G0 Z-0.283333 F30.000000
G1 Y8.109215 F100.000000
G1 X61.035215 Y7.851215 F100.000000
G1 X60.777215 Y8.109215 F100.000000
G1 X61.035215 Y8.367215 F100.000000
G1 X61.293215 Y8.109215 F100.000000
G0 Z-0.566667 F30.000000
G1 X61.035215 Y7.851215 F100.000000
G1 X60.777215 Y8.109215 F100.000000
G1 X61.035215 Y8.367215 F100.000000
G1 X61.293215 Y8.109215 F100.000000
G0 Z-0.850000 F30.000000
G1 X61.035215 Y7.851215 F100.000000
G1 X60.777215 Y8.109215 F100.000000
G1 X61.035215 Y8.367215 F100.000000
G1 X61.293215 Y8.109215 F100.000000
G0 Z-1.133333 F30.000000
G1 X61.035215 Y7.851215 F100.000000
G1 X60.777215 Y8.109215 F100.000000
G1 X61.035215 Y8.367215 F100.000000
G1 X61.293215 Y8.109215 F100.000000
G0 Z-1.416667 F30.000000
G1 X61.035215 Y7.851215 F100.000000
G1 X60.777215 Y8.109215 F100.000000
G1 X61.035215 Y8.367215 F100.000000
G1 X61.293215 Y8.109215 F100.000000
G0 Z-1.700000 F30.000000
G1 X61.035215 Y7.851215 F100.000000
G1 X60.777215 Y8.109215 F100.000000
G1 X61.035215 Y8.367215 F100.000000
G1 X61.293215 Y8.109215 F100.000000
G0 Z2.000000
G0 X59.515215 Y43.288215
G17
G0 Z-0.283333 F30.000000
G1 X59.515215 Y43.288215 F100.000000
G1 X59.257215 Y43.030215 F100.000000
G1 X58.999215 Y43.288215 F100.000000
G1 X59.257215 Y43.546215 F100.000000
G1 X59.515215 Y43.288215 F100.000000
G0 Z-0.566667 F30.000000
G1 X59.257215 Y43.030215 F100.000000
G1 X58.999215 Y43.288215 F100.000000
G1 X59.257215 Y43.546215 F100.000000
G1 X59.515215 Y43.288215 F100.000000
G0 Z-0.850000 F30.000000
G1 X59.257215 Y43.030215 F100.000000
G1 X58.999215 Y43.288215 F100.000000
G1 X59.257215 Y43.546215 F100.000000
G1 X59.515215 Y43.288215 F100.000000
G0 Z-1.133333 F30.000000
G1 X59.257215 Y43.030215 F100.000000
G1 X58.999215 Y43.288215 F100.000000
G1 X59.257215 Y43.546215 F100.000000
G1 X59.515215 Y43.288215 F100.000000
G0 Z-1.416667 F30.000000
G1 X59.257215 Y43.030215 F100.000000
G1 X58.999215 Y43.288215 F100.000000
G1 X59.257215 Y43.546215 F100.000000
G1 X59.515215 Y43.288215 F100.000000
G0 Z-1.700000 F30.000000
G1 X59.257215 Y43.030215 F100.000000
G1 X58.999215 Y43.288215 F100.000000
G1 X59.257215 Y43.546215 F100.000000
G1 X59.515215 Y43.288215 F100.000000
G0 Z2.000000
G0 X59.515215 Y38.843215
G17
G0 Z-0.283333 F30.000000
G1 Y38.843215 F100.000000
G1 X59.257215 Y38.585215 F100.000000
G1 X58.999215 Y38.843215 F100.000000
G1 X59.257215 Y39.101215 F100.000000
G1 X59.515215 Y38.843215 F100.000000
G0 Z-0.566667 F30.000000
G1 X59.257215 Y38.585215 F100.000000
G1 X58.999215 Y38.843215 F100.000000
G1 X59.257215 Y39.101215 F100.000000
G1 X59.515215 Y38.843215 F100.000000
G0 Z-0.850000 F30.000000
G1 X59.257215 Y38.585215 F100.000000
G1 X58.999215 Y38.843215 F100.000000
G1 X59.257215 Y39.101215 F100.000000
G1 X59.515215 Y38.843215 F100.000000
G0 Z-1.133333 F30.000000
G1 X59.257215 Y38.585215 F100.000000
G1 X58.999215 Y38.843215 F100.000000
G1 X59.257215 Y39.101215 F100.000000
G1 X59.515215 Y38.843215 F100.000000
G0 Z-1.416667 F30.000000
G1 X59.257215 Y38.585215 F100.000000
G1 X58.999215 Y38.843215 F100.000000
G1 X59.257215 Y39.101215 F100.000000
G1 X59.515215 Y38.843215 F100.000000
G0 Z-1.700000 F30.000000
G1 X59.257215 Y38.585215 F100.000000
G1 X58.999215 Y38.843215 F100.000000
G1 X59.257215 Y39.101215 F100.000000
G1 X59.515215 Y38.843215 F100.000000
G0 Z2.000000
G0 X54.943215 Y12.554215
G17
G0 Z-0.283333 F30.000000
G1 X54.943215 Y12.554215 F100.000000
G1 X54.685215 Y12.296215 F100.000000
G1 X54.427215 Y12.554215 F100.000000
G1 X54.685215 Y12.812215 F100.000000
G1 X54.943215 Y12.554215 F100.000000
G0 Z-0.566667 F30.000000
G1 X54.685215 Y12.296215 F100.000000
G1 X54.427215 Y12.554215 F100.000000
G1 X54.685215 Y12.812215 F100.000000
G1 X54.943215 Y12.554215 F100.000000
G0 Z-0.850000 F30.000000
G1 X54.685215 Y12.296215 F100.000000
G1 X54.427215 Y12.554215 F100.000000
G1 X54.685215 Y12.812215 F100.000000
G1 X54.943215 Y12.554215 F100.000000
G0 Z-1.133333 F30.000000
G1 X54.685215 Y12.296215 F100.000000
G1 X54.427215 Y12.554215 F100.000000
G1 X54.685215 Y12.812215 F100.000000
G1 X54.943215 Y12.554215 F100.000000
G0 Z-1.416667 F30.000000
G1 X54.685215 Y12.296215 F100.000000
G1 X54.427215 Y12.554215 F100.000000
G1 X54.685215 Y12.812215 F100.000000
G1 X54.943215 Y12.554215 F100.000000
G0 Z-1.700000 F30.000000
G1 X54.685215 Y12.296215 F100.000000
G1 X54.427215 Y12.554215 F100.000000
G1 X54.685215 Y12.812215 F100.000000
G1 X54.943215 Y12.554215 F100.000000
G0 Z2.000000
G0 X54.943215 Y8.109215
G17
G0 Z-0.283333 F30.000000
G1 Y8.109215 F100.000000
G1 X54.685215 Y7.851215 F100.000000
G1 X54.427215 Y8.109215 F100.000000
G1 X54.685215 Y8.367215 F100.000000
G1 X54.943215 Y8.109215 F100.000000
G0 Z-0.566667 F30.000000
G1 X54.685215 Y7.851215 F100.000000
G1 X54.427215 Y8.109215 F100.000000
G1 X54.685215 Y8.367215 F100.000000
G1 X54.943215 Y8.109215 F100.000000
G0 Z-0.850000 F30.000000
G1 X54.685215 Y7.851215 F100.000000
G1 X54.427215 Y8.109215 F100.000000
G1 X54.685215 Y8.367215 F100.000000
G1 X54.943215 Y8.109215 F100.000000
G0 Z-1.133333 F30.000000
G1 X54.685215 Y7.851215 F100.000000
G1 X54.427215 Y8.109215 F100.000000
G1 X54.685215 Y8.367215 F100.000000
G1 X54.943215 Y8.109215 F100.000000
G0 Z-1.416667 F30.000000
G1 X54.685215 Y7.851215 F100.000000
G1 X54.427215 Y8.109215 F100.000000
G1 X54.685215 Y8.367215 F100.000000
G1 X54.943215 Y8.109215 F100.000000
G0 Z-1.700000 F30.000000
G1 X54.685215 Y7.851215 F100.000000
G1 X54.427215 Y8.109215 F100.000000
G1 X54.685215 Y8.367215 F100.000000
G1 X54.943215 Y8.109215 F100.000000
G0 Z2.000000
G0 X53.165215 Y43.288215
G17
G0 Z-0.283333 F30.000000
G1 X53.165215 Y43.288215 F100.000000
G1 X52.907215 Y43.030215 F100.000000
G1 X52.649215 Y43.288215 F100.000000
G1 X52.907215 Y43.546215 F100.000000
G1 X53.165215 Y43.288215 F100.000000
G0 Z-0.566667 F30.000000
G1 X52.907215 Y43.030215 F100.000000
G1 X52.649215 Y43.288215 F100.000000
G1 X52.907215 Y43.546215 F100.000000
G1 X53.165215 Y43.288215 F100.000000
G0 Z-0.850000 F30.000000
G1 X52.907215 Y43.030215 F100.000000
G1 X52.649215 Y43.288215 F100.000000
G1 X52.907215 Y43.546215 F100.000000
G1 X53.165215 Y43.288215 F100.000000
G0 Z-1.133333 F30.000000
G1 X52.907215 Y43.030215 F100.000000
G1 X52.649215 Y43.288215 F100.000000
G1 X52.907215 Y43.546215 F100.000000
G1 X53.165215 Y43.288215 F100.000000
G0 Z-1.416667 F30.000000
G1 X52.907215 Y43.030215 F100.000000
G1 X52.649215 Y43.288215 F100.000000
G1 X52.907215 Y43.546215 F100.000000
G1 X53.165215 Y43.288215 F100.000000
G0 Z-1.700000 F30.000000
G1 X52.907215 Y43.030215 F100.000000
G1 X52.649215 Y43.288215 F100.000000
G1 X52.907215 Y43.546215 F100.000000
G1 X53.165215 Y43.288215 F100.000000
G0 Z2.000000
G0 X53.165215 Y38.843215
G17
G0 Z-0.283333 F30.000000
G1 Y38.843215 F100.000000
G1 X52.907215 Y38.585215 F100.000000
G1 X52.649215 Y38.843215 F100.000000
G1 X52.907215 Y39.101215 F100.000000
G1 X53.165215 Y38.843215 F100.000000
G0 Z-0.566667 F30.000000
G1 X52.907215 Y38.585215 F100.000000
G1 X52.649215 Y38.843215 F100.000000
G1 X52.907215 Y39.101215 F100.000000
G1 X53.165215 Y38.843215 F100.000000
G0 Z-0.850000 F30.000000
G1 X52.907215 Y38.585215 F100.000000
G1 X52.649215 Y38.843215 F100.000000
G1 X52.907215 Y39.101215 F100.000000
G1 X53.165215 Y38.843215 F100.000000
G0 Z-1.133333 F30.000000
G1 X52.907215 Y38.585215 F100.000000
G1 X52.649215 Y38.843215 F100.000000
G1 X52.907215 Y39.101215 F100.000000
G1 X53.165215 Y38.843215 F100.000000
G0 Z-1.416667 F30.000000
G1 X52.907215 Y38.585215 F100.000000
G1 X52.649215 Y38.843215 F100.000000
G1 X52.907215 Y39.101215 F100.000000
G1 X53.165215 Y38.843215 F100.000000
G0 Z-1.700000 F30.000000
G1 X52.907215 Y38.585215 F100.000000
G1 X52.649215 Y38.843215 F100.000000
G1 X52.907215 Y39.101215 F100.000000
G1 X53.165215 Y38.843215 F100.000000
G0 Z2.000000
G0 X49.863215 Y48.749215
G17
G0 Z-0.283333 F30.000000
G1 X49.863215 Y48.749215 F100.000000
G1 X49.605215 Y48.491215 F100.000000
G1 X49.347215 Y48.749215 F100.000000
G1 X49.605215 Y49.007215 F100.000000
G1 X49.863215 Y48.749215 F100.000000
G0 Z-0.566667 F30.000000
G1 X49.605215 Y48.491215 F100.000000
G1 X49.347215 Y48.749215 F100.000000
G1 X49.605215 Y49.007215 F100.000000
G1 X49.863215 Y48.749215 F100.000000
G0 Z-0.850000 F30.000000
G1 X49.605215 Y48.491215 F100.000000
G1 X49.347215 Y48.749215 F100.000000
G1 X49.605215 Y49.007215 F100.000000
G1 X49.863215 Y48.749215 F100.000000
G0 Z-1.133333 F30.000000
G1 X49.605215 Y48.491215 F100.000000
G1 X49.347215 Y48.749215 F100.000000
G1 X49.605215 Y49.007215 F100.000000
G1 X49.863215 Y48.749215 F100.000000
G0 Z-1.416667 F30.000000
G1 X49.605215 Y48.491215 F100.000000
G1 X49.347215 Y48.749215 F100.000000
G1 X49.605215 Y49.007215 F100.000000
G1 X49.863215 Y48.749215 F100.000000
G0 Z-1.700000 F30.000000
G1 X49.605215 Y48.491215 F100.000000
G1 X49.347215 Y48.749215 F100.000000
G1 X49.605215 Y49.007215 F100.000000
G1 X49.863215 Y48.749215 F100.000000
G0 Z2.000000
G0 X49.863215 Y46.209215
G17
G0 Z-0.283333 F30.000000
G1 Y46.209215 F100.000000
G1 X49.605215 Y45.951215 F100.000000
G1 X49.347215 Y46.209215 F100.000000
G1 X49.605215 Y46.467215 F100.000000
G1 X49.863215 Y46.209215 F100.000000
G0 Z-0.566667 F30.000000
G1 X49.605215 Y45.951215 F100.000000
G1 X49.347215 Y46.209215 F100.000000
G1 X49.605215 Y46.467215 F100.000000
G1 X49.863215 Y46.209215 F100.000000
G0 Z-0.850000 F30.000000
G1 X49.605215 Y45.951215 F100.000000
G1 X49.347215 Y46.209215 F100.000000
G1 X49.605215 Y46.467215 F100.000000
G1 X49.863215 Y46.209215 F100.000000
G0 Z-1.133333 F30.000000
G1 X49.605215 Y45.951215 F100.000000
G1 X49.347215 Y46.209215 F100.000000
G1 X49.605215 Y46.467215 F100.000000
G1 X49.863215 Y46.209215 F100.000000
G0 Z-1.416667 F30.000000
G1 X49.605215 Y45.951215 F100.000000
G1 X49.347215 Y46.209215 F100.000000
G1 X49.605215 Y46.467215 F100.000000
G1 X49.863215 Y46.209215 F100.000000
G0 Z-1.700000 F30.000000
G1 X49.605215 Y45.951215 F100.000000
G1 X49.347215 Y46.209215 F100.000000
G1 X49.605215 Y46.467215 F100.000000
G1 X49.863215 Y46.209215 F100.000000
G0 Z2.000000
G0 X45.291215 Y51.797215
G17
G0 Z-0.283333 F30.000000
G1 X45.291215 Y51.797215 F100.000000
G1 X45.033215 Y51.539215 F100.000000
G1 X44.775215 Y51.797215 F100.000000
G1 X45.033215 Y52.055215 F100.000000
G1 X45.291215 Y51.797215 F100.000000
G0 Z-0.566667 F30.000000
G1 X45.033215 Y51.539215 F100.000000
G1 X44.775215 Y51.797215 F100.000000
G1 X45.033215 Y52.055215 F100.000000
G1 X45.291215 Y51.797215 F100.000000
G0 Z-0.850000 F30.000000
G1 X45.033215 Y51.539215 F100.000000
G1 X44.775215 Y51.797215 F100.000000
G1 X45.033215 Y52.055215 F100.000000
G1 X45.291215 Y51.797215 F100.000000
G0 Z-1.133333 F30.000000
G1 X45.033215 Y51.539215 F100.000000
G1 X44.775215 Y51.797215 F100.000000
G1 X45.033215 Y52.055215 F100.000000
G1 X45.291215 Y51.797215 F100.000000
G0 Z-1.416667 F30.000000
G1 X45.033215 Y51.539215 F100.000000
G1 X44.775215 Y51.797215 F100.000000
G1 X45.033215 Y52.055215 F100.000000
G1 X45.291215 Y51.797215 F100.000000
G0 Z-1.700000 F30.000000
G1 X45.033215 Y51.539215 F100.000000
G1 X44.775215 Y51.797215 F100.000000
G1 X45.033215 Y52.055215 F100.000000
G1 X45.291215 Y51.797215 F100.000000
G0 Z2.000000
G0 X45.291215 Y46.717215
G17
G0 Z-0.283333 F30.000000
G1 Y46.717215 F100.000000
G1 X45.033215 Y46.459215 F100.000000
G1 X44.775215 Y46.717215 F100.000000
G1 X45.033215 Y46.975215 F100.000000
G1 X45.291215 Y46.717215 F100.000000
G0 Z-0.566667 F30.000000
G1 X45.033215 Y46.459215 F100.000000
G1 X44.775215 Y46.717215 F100.000000
G1 X45.033215 Y46.975215 F100.000000
G1 X45.291215 Y46.717215 F100.000000
G0 Z-0.850000 F30.000000
G1 X45.033215 Y46.459215 F100.000000
G1 X44.775215 Y46.717215 F100.000000
G1 X45.033215 Y46.975215 F100.000000
G1 X45.291215 Y46.717215 F100.000000
G0 Z-1.133333 F30.000000
G1 X45.033215 Y46.459215 F100.000000
G1 X44.775215 Y46.717215 F100.000000
G1 X45.033215 Y46.975215 F100.000000
G1 X45.291215 Y46.717215 F100.000000
G0 Z-1.416667 F30.000000
G1 X45.033215 Y46.459215 F100.000000
G1 X44.775215 Y46.717215 F100.000000
G1 X45.033215 Y46.975215 F100.000000
G1 X45.291215 Y46.717215 F100.000000
G0 Z-1.700000 F30.000000
G1 X45.033215 Y46.459215 F100.000000
G1 X44.775215 Y46.717215 F100.000000
G1 X45.033215 Y46.975215 F100.000000
G1 X45.291215 Y46.717215 F100.000000
G0 Z2.000000
G0 X45.291215 Y44.177215
G17
G0 Z-0.283333 F30.000000
G1 Y44.177215 F100.000000
G1 X45.033215 Y43.919215 F100.000000
G1 X44.775215 Y44.177215 F100.000000
G1 X45.033215 Y44.435215 F100.000000
G1 X45.291215 Y44.177215 F100.000000
G0 Z-0.566667 F30.000000
G1 X45.033215 Y43.919215 F100.000000
G1 X44.775215 Y44.177215 F100.000000
G1 X45.033215 Y44.435215 F100.000000
G1 X45.291215 Y44.177215 F100.000000
G0 Z-0.850000 F30.000000
G1 X45.033215 Y43.919215 F100.000000
G1 X44.775215 Y44.177215 F100.000000
G1 X45.033215 Y44.435215 F100.000000
G1 X45.291215 Y44.177215 F100.000000
G0 Z-1.133333 F30.000000
G1 X45.033215 Y43.919215 F100.000000
G1 X44.775215 Y44.177215 F100.000000
G1 X45.033215 Y44.435215 F100.000000
G1 X45.291215 Y44.177215 F100.000000
G0 Z-1.416667 F30.000000
G1 X45.033215 Y43.919215 F100.000000
G1 X44.775215 Y44.177215 F100.000000
G1 X45.033215 Y44.435215 F100.000000
G1 X45.291215 Y44.177215 F100.000000
G0 Z-1.700000 F30.000000
G1 X45.033215 Y43.919215 F100.000000
G1 X44.775215 Y44.177215 F100.000000
G1 X45.033215 Y44.435215 F100.000000
G1 X45.291215 Y44.177215 F100.000000
G0 Z2.000000
G0 X45.291215 Y41.637215
G17
G0 Z-0.283333 F30.000000
G1 Y41.637215 F100.000000
G1 X45.033215 Y41.379215 F100.000000
G1 X44.775215 Y41.637215 F100.000000
G1 X45.033215 Y41.895215 F100.000000
G1 X45.291215 Y41.637215 F100.000000
G0 Z-0.566667 F30.000000
G1 X45.033215 Y41.379215 F100.000000
G1 X44.775215 Y41.637215 F100.000000
G1 X45.033215 Y41.895215 F100.000000
G1 X45.291215 Y41.637215 F100.000000
G0 Z-0.850000 F30.000000
G1 X45.033215 Y41.379215 F100.000000
G1 X44.775215 Y41.637215 F100.000000
G1 X45.033215 Y41.895215 F100.000000
G1 X45.291215 Y41.637215 F100.000000
G0 Z-1.133333 F30.000000
G1 X45.033215 Y41.379215 F100.000000
G1 X44.775215 Y41.637215 F100.000000
G1 X45.033215 Y41.895215 F100.000000
G1 X45.291215 Y41.637215 F100.000000
G0 Z-1.416667 F30.000000
G1 X45.033215 Y41.379215 F100.000000
G1 X44.775215 Y41.637215 F100.000000
G1 X45.033215 Y41.895215 F100.000000
G1 X45.291215 Y41.637215 F100.000000
G0 Z-1.700000 F30.000000
G1 X45.033215 Y41.379215 F100.000000
G1 X44.775215 Y41.637215 F100.000000
G1 X45.033215 Y41.895215 F100.000000
G1 X45.291215 Y41.637215 F100.000000
G0 Z2.000000
G0 X43.767215 Y19.031215
G17
G0 Z-0.283333 F30.000000
G1 X43.767215 Y19.031215 F100.000000
G1 X43.509215 Y18.773215 F100.000000
G1 X43.251215 Y19.031215 F100.000000
G1 X43.509215 Y19.289215 F100.000000
G1 X43.767215 Y19.031215 F100.000000
G0 Z-0.566667 F30.000000
G1 X43.509215 Y18.773215 F100.000000
G1 X43.251215 Y19.031215 F100.000000
G1 X43.509215 Y19.289215 F100.000000
G1 X43.767215 Y19.031215 F100.000000
G0 Z-0.850000 F30.000000
G1 X43.509215 Y18.773215 F100.000000
G1 X43.251215 Y19.031215 F100.000000
G1 X43.509215 Y19.289215 F100.000000
G1 X43.767215 Y19.031215 F100.000000
G0 Z-1.133333 F30.000000
G1 X43.509215 Y18.773215 F100.000000
G1 X43.251215 Y19.031215 F100.000000
G1 X43.509215 Y19.289215 F100.000000
G1 X43.767215 Y19.031215 F100.000000
G0 Z-1.416667 F30.000000
G1 X43.509215 Y18.773215 F100.000000
G1 X43.251215 Y19.031215 F100.000000
G1 X43.509215 Y19.289215 F100.000000
G1 X43.767215 Y19.031215 F100.000000
G0 Z-1.700000 F30.000000
G1 X43.509215 Y18.773215 F100.000000
G1 X43.251215 Y19.031215 F100.000000
G1 X43.509215 Y19.289215 F100.000000
G1 X43.767215 Y19.031215 F100.000000
G0 Z2.000000
G0 X43.767215 Y16.491215
G17
G0 Z-0.283333 F30.000000
G1 Y16.491215 F100.000000
G1 X43.509215 Y16.233215 F100.000000
G1 X43.251215 Y16.491215 F100.000000
G1 X43.509215 Y16.749215 F100.000000
G1 X43.767215 Y16.491215 F100.000000
G0 Z-0.566667 F30.000000
G1 X43.509215 Y16.233215 F100.000000
G1 X43.251215 Y16.491215 F100.000000
G1 X43.509215 Y16.749215 F100.000000
G1 X43.767215 Y16.491215 F100.000000
G0 Z-0.850000 F30.000000
G1 X43.509215 Y16.233215 F100.000000
G1 X43.251215 Y16.491215 F100.000000
G1 X43.509215 Y16.749215 F100.000000
G1 X43.767215 Y16.491215 F100.000000
G0 Z-1.133333 F30.000000
G1 X43.509215 Y16.233215 F100.000000
G1 X43.251215 Y16.491215 F100.000000
G1 X43.509215 Y16.749215 F100.000000
G1 X43.767215 Y16.491215 F100.000000
G0 Z-1.416667 F30.000000
G1 X43.509215 Y16.233215 F100.000000
G1 X43.251215 Y16.491215 F100.000000
G1 X43.509215 Y16.749215 F100.000000
G1 X43.767215 Y16.491215 F100.000000
G0 Z-1.700000 F30.000000
G1 X43.509215 Y16.233215 F100.000000
G1 X43.251215 Y16.491215 F100.000000
G1 X43.509215 Y16.749215 F100.000000
G1 X43.767215 Y16.491215 F100.000000
G0 Z2.000000
G0 X43.767215 Y13.951215
G17
G0 Z-0.283333 F30.000000
G1 Y13.951215 F100.000000
G1 X43.509215 Y13.693215 F100.000000
G1 X43.251215 Y13.951215 F100.000000
G1 X43.509215 Y14.209215 F100.000000
G1 X43.767215 Y13.951215 F100.000000
G0 Z-0.566667 F30.000000
G1 X43.509215 Y13.693215 F100.000000
G1 X43.251215 Y13.951215 F100.000000
G1 X43.509215 Y14.209215 F100.000000
G1 X43.767215 Y13.951215 F100.000000
G0 Z-0.850000 F30.000000
G1 X43.509215 Y13.693215 F100.000000
G1 X43.251215 Y13.951215 F100.000000
G1 X43.509215 Y14.209215 F100.000000
G1 X43.767215 Y13.951215 F100.000000
G0 Z-1.133333 F30.000000
G1 X43.509215 Y13.693215 F100.000000
G1 X43.251215 Y13.951215 F100.000000
G1 X43.509215 Y14.209215 F100.000000
G1 X43.767215 Y13.951215 F100.000000
G0 Z-1.416667 F30.000000
G1 X43.509215 Y13.693215 F100.000000
G1 X43.251215 Y13.951215 F100.000000
G1 X43.509215 Y14.209215 F100.000000
G1 X43.767215 Y13.951215 F100.000000
G0 Z-1.700000 F30.000000
G1 X43.509215 Y13.693215 F100.000000
G1 X43.251215 Y13.951215 F100.000000
G1 X43.509215 Y14.209215 F100.000000
G1 X43.767215 Y13.951215 F100.000000
G0 Z2.000000
G0 X43.767215 Y11.411215
G17
G0 Z-0.283333 F30.000000
G1 Y11.411215 F100.000000
G1 X43.509215 Y11.153215 F100.000000
G1 X43.251215 Y11.411215 F100.000000
G1 X43.509215 Y11.669215 F100.000000
G1 X43.767215 Y11.411215 F100.000000
G0 Z-0.566667 F30.000000
G1 X43.509215 Y11.153215 F100.000000
G1 X43.251215 Y11.411215 F100.000000
G1 X43.509215 Y11.669215 F100.000000
G1 X43.767215 Y11.411215 F100.000000
G0 Z-0.850000 F30.000000
G1 X43.509215 Y11.153215 F100.000000
G1 X43.251215 Y11.411215 F100.000000
G1 X43.509215 Y11.669215 F100.000000
G1 X43.767215 Y11.411215 F100.000000
G0 Z-1.133333 F30.000000
G1 X43.509215 Y11.153215 F100.000000
G1 X43.251215 Y11.411215 F100.000000
G1 X43.509215 Y11.669215 F100.000000
G1 X43.767215 Y11.411215 F100.000000
G0 Z-1.416667 F30.000000
G1 X43.509215 Y11.153215 F100.000000
G1 X43.251215 Y11.411215 F100.000000
G1 X43.509215 Y11.669215 F100.000000
G1 X43.767215 Y11.411215 F100.000000
G0 Z-1.700000 F30.000000
G1 X43.509215 Y11.153215 F100.000000
G1 X43.251215 Y11.411215 F100.000000
G1 X43.509215 Y11.669215 F100.000000
G1 X43.767215 Y11.411215 F100.000000
G0 Z2.000000
G0 X42.751215 Y51.797215
G17
G0 Z-0.283333 F30.000000
G1 X42.751215 Y51.797215 F100.000000
G1 X42.493215 Y51.539215 F100.000000
G1 X42.235215 Y51.797215 F100.000000
G1 X42.493215 Y52.055215 F100.000000
G1 X42.751215 Y51.797215 F100.000000
G0 Z-0.566667 F30.000000
G1 X42.493215 Y51.539215 F100.000000
G1 X42.235215 Y51.797215 F100.000000
G1 X42.493215 Y52.055215 F100.000000
G1 X42.751215 Y51.797215 F100.000000
G0 Z-0.850000 F30.000000
G1 X42.493215 Y51.539215 F100.000000
G1 X42.235215 Y51.797215 F100.000000
G1 X42.493215 Y52.055215 F100.000000
G1 X42.751215 Y51.797215 F100.000000
G0 Z-1.133333 F30.000000
G1 X42.493215 Y51.539215 F100.000000
G1 X42.235215 Y51.797215 F100.000000
G1 X42.493215 Y52.055215 F100.000000
G1 X42.751215 Y51.797215 F100.000000
G0 Z-1.416667 F30.000000
G1 X42.493215 Y51.539215 F100.000000
G1 X42.235215 Y51.797215 F100.000000
G1 X42.493215 Y52.055215 F100.000000
G1 X42.751215 Y51.797215 F100.000000
G0 Z-1.700000 F30.000000
G1 X42.493215 Y51.539215 F100.000000
G1 X42.235215 Y51.797215 F100.000000
G1 X42.493215 Y52.055215 F100.000000
G1 X42.751215 Y51.797215 F100.000000
G0 Z2.000000
G0 X42.751215 Y46.717215
G17
G0 Z-0.283333 F30.000000
G1 Y46.717215 F100.000000
G1 X42.493215 Y46.459215 F100.000000
G1 X42.235215 Y46.717215 F100.000000
G1 X42.493215 Y46.975215 F100.000000
G1 X42.751215 Y46.717215 F100.000000
G0 Z-0.566667 F30.000000
G1 X42.493215 Y46.459215 F100.000000
G1 X42.235215 Y46.717215 F100.000000
G1 X42.493215 Y46.975215 F100.000000
G1 X42.751215 Y46.717215 F100.000000
G0 Z-0.850000 F30.000000
G1 X42.493215 Y46.459215 F100.000000
G1 X42.235215 Y46.717215 F100.000000
G1 X42.493215 Y46.975215 F100.000000
G1 X42.751215 Y46.717215 F100.000000
G0 Z-1.133333 F30.000000
G1 X42.493215 Y46.459215 F100.000000
G1 X42.235215 Y46.717215 F100.000000
G1 X42.493215 Y46.975215 F100.000000
G1 X42.751215 Y46.717215 F100.000000
G0 Z-1.416667 F30.000000
G1 X42.493215 Y46.459215 F100.000000
G1 X42.235215 Y46.717215 F100.000000
G1 X42.493215 Y46.975215 F100.000000
G1 X42.751215 Y46.717215 F100.000000
G0 Z-1.700000 F30.000000
G1 X42.493215 Y46.459215 F100.000000
G1 X42.235215 Y46.717215 F100.000000
G1 X42.493215 Y46.975215 F100.000000
G1 X42.751215 Y46.717215 F100.000000
G0 Z2.000000
G0 X42.751215 Y44.177215
G17
G0 Z-0.283333 F30.000000
G1 Y44.177215 F100.000000
G1 X42.493215 Y43.919215 F100.000000
G1 X42.235215 Y44.177215 F100.000000
G1 X42.493215 Y44.435215 F100.000000
G1 X42.751215 Y44.177215 F100.000000
G0 Z-0.566667 F30.000000
G1 X42.493215 Y43.919215 F100.000000
G1 X42.235215 Y44.177215 F100.000000
G1 X42.493215 Y44.435215 F100.000000
G1 X42.751215 Y44.177215 F100.000000
G0 Z-0.850000 F30.000000
G1 X42.493215 Y43.919215 F100.000000
G1 X42.235215 Y44.177215 F100.000000
G1 X42.493215 Y44.435215 F100.000000
G1 X42.751215 Y44.177215 F100.000000
G0 Z-1.133333 F30.000000
G1 X42.493215 Y43.919215 F100.000000
G1 X42.235215 Y44.177215 F100.000000
G1 X42.493215 Y44.435215 F100.000000
G1 X42.751215 Y44.177215 F100.000000
G0 Z-1.416667 F30.000000
G1 X42.493215 Y43.919215 F100.000000
G1 X42.235215 Y44.177215 F100.000000
G1 X42.493215 Y44.435215 F100.000000
G1 X42.751215 Y44.177215 F100.000000
G0 Z-1.700000 F30.000000
G1 X42.493215 Y43.919215 F100.000000
G1 X42.235215 Y44.177215 F100.000000
G1 X42.493215 Y44.435215 F100.000000
G1 X42.751215 Y44.177215 F100.000000
G0 Z2.000000
G0 X42.751215 Y41.637215
G17
G0 Z-0.283333 F30.000000
G1 Y41.637215 F100.000000
G1 X42.493215 Y41.379215 F100.000000
G1 X42.235215 Y41.637215 F100.000000
G1 X42.493215 Y41.895215 F100.000000
G1 X42.751215 Y41.637215 F100.000000
G0 Z-0.566667 F30.000000
G1 X42.493215 Y41.379215 F100.000000
G1 X42.235215 Y41.637215 F100.000000
G1 X42.493215 Y41.895215 F100.000000
G1 X42.751215 Y41.637215 F100.000000
G0 Z-0.850000 F30.000000
G1 X42.493215 Y41.379215 F100.000000
G1 X42.235215 Y41.637215 F100.000000
G1 X42.493215 Y41.895215 F100.000000
G1 X42.751215 Y41.637215 F100.000000
G0 Z-1.133333 F30.000000
G1 X42.493215 Y41.379215 F100.000000
G1 X42.235215 Y41.637215 F100.000000
G1 X42.493215 Y41.895215 F100.000000
G1 X42.751215 Y41.637215 F100.000000
G0 Z-1.416667 F30.000000
G1 X42.493215 Y41.379215 F100.000000
G1 X42.235215 Y41.637215 F100.000000
G1 X42.493215 Y41.895215 F100.000000
G1 X42.751215 Y41.637215 F100.000000
G0 Z-1.700000 F30.000000
G1 X42.493215 Y41.379215 F100.000000
G1 X42.235215 Y41.637215 F100.000000
G1 X42.493215 Y41.895215 F100.000000
G1 X42.751215 Y41.637215 F100.000000
G0 Z2.000000
G0 X41.227215 Y19.031215
G17
G0 Z-0.283333 F30.000000
G1 X41.227215 Y19.031215 F100.000000
G1 X40.969215 Y18.773215 F100.000000
G1 X40.711215 Y19.031215 F100.000000
G1 X40.969215 Y19.289215 F100.000000
G1 X41.227215 Y19.031215 F100.000000
G0 Z-0.566667 F30.000000
G1 X40.969215 Y18.773215 F100.000000
G1 X40.711215 Y19.031215 F100.000000
G1 X40.969215 Y19.289215 F100.000000
G1 X41.227215 Y19.031215 F100.000000
G0 Z-0.850000 F30.000000
G1 X40.969215 Y18.773215 F100.000000
G1 X40.711215 Y19.031215 F100.000000
G1 X40.969215 Y19.289215 F100.000000
G1 X41.227215 Y19.031215 F100.000000
G0 Z-1.133333 F30.000000
G1 X40.969215 Y18.773215 F100.000000
G1 X40.711215 Y19.031215 F100.000000
G1 X40.969215 Y19.289215 F100.000000
G1 X41.227215 Y19.031215 F100.000000
G0 Z-1.416667 F30.000000
G1 X40.969215 Y18.773215 F100.000000
G1 X40.711215 Y19.031215 F100.000000
G1 X40.969215 Y19.289215 F100.000000
G1 X41.227215 Y19.031215 F100.000000
G0 Z-1.700000 F30.000000
G1 X40.969215 Y18.773215 F100.000000
G1 X40.711215 Y19.031215 F100.000000
G1 X40.969215 Y19.289215 F100.000000
G1 X41.227215 Y19.031215 F100.000000
G0 Z2.000000
G0 X41.227215 Y16.491215
G17
G0 Z-0.283333 F30.000000
G1 Y16.491215 F100.000000
G1 X40.969215 Y16.233215 F100.000000
G1 X40.711215 Y16.491215 F100.000000
G1 X40.969215 Y16.749215 F100.000000
G1 X41.227215 Y16.491215 F100.000000
G0 Z-0.566667 F30.000000
G1 X40.969215 Y16.233215 F100.000000
G1 X40.711215 Y16.491215 F100.000000
G1 X40.969215 Y16.749215 F100.000000
G1 X41.227215 Y16.491215 F100.000000
G0 Z-0.850000 F30.000000
G1 X40.969215 Y16.233215 F100.000000
G1 X40.711215 Y16.491215 F100.000000
G1 X40.969215 Y16.749215 F100.000000
G1 X41.227215 Y16.491215 F100.000000
G0 Z-1.133333 F30.000000
G1 X40.969215 Y16.233215 F100.000000
G1 X40.711215 Y16.491215 F100.000000
G1 X40.969215 Y16.749215 F100.000000
G1 X41.227215 Y16.491215 F100.000000
G0 Z-1.416667 F30.000000
G1 X40.969215 Y16.233215 F100.000000
G1 X40.711215 Y16.491215 F100.000000
G1 X40.969215 Y16.749215 F100.000000
G1 X41.227215 Y16.491215 F100.000000
G0 Z-1.700000 F30.000000
G1 X40.969215 Y16.233215 F100.000000
G1 X40.711215 Y16.491215 F100.000000
G1 X40.969215 Y16.749215 F100.000000
G1 X41.227215 Y16.491215 F100.000000
G0 Z2.000000
G0 X41.227215 Y13.951215
G17
G0 Z-0.283333 F30.000000
G1 Y13.951215 F100.000000
G1 X40.969215 Y13.693215 F100.000000
G1 X40.711215 Y13.951215 F100.000000
G1 X40.969215 Y14.209215 F100.000000
G1 X41.227215 Y13.951215 F100.000000
G0 Z-0.566667 F30.000000
G1 X40.969215 Y13.693215 F100.000000
G1 X40.711215 Y13.951215 F100.000000
G1 X40.969215 Y14.209215 F100.000000
G1 X41.227215 Y13.951215 F100.000000
G0 Z-0.850000 F30.000000
G1 X40.969215 Y13.693215 F100.000000
G1 X40.711215 Y13.951215 F100.000000
G1 X40.969215 Y14.209215 F100.000000
G1 X41.227215 Y13.951215 F100.000000
G0 Z-1.133333 F30.000000
G1 X40.969215 Y13.693215 F100.000000
G1 X40.711215 Y13.951215 F100.000000
G1 X40.969215 Y14.209215 F100.000000
G1 X41.227215 Y13.951215 F100.000000
G0 Z-1.416667 F30.000000
G1 X40.969215 Y13.693215 F100.000000
G1 X40.711215 Y13.951215 F100.000000
G1 X40.969215 Y14.209215 F100.000000
G1 X41.227215 Y13.951215 F100.000000
G0 Z-1.700000 F30.000000
G1 X40.969215 Y13.693215 F100.000000
G1 X40.711215 Y13.951215 F100.000000
G1 X40.969215 Y14.209215 F100.000000
G1 X41.227215 Y13.951215 F100.000000
G0 Z2.000000
G0 X41.227215 Y11.411215
G17
G0 Z-0.283333 F30.000000
G1 Y11.411215 F100.000000
G1 X40.969215 Y11.153215 F100.000000
G1 X40.711215 Y11.411215 F100.000000
G1 X40.969215 Y11.669215 F100.000000
G1 X41.227215 Y11.411215 F100.000000
G0 Z-0.566667 F30.000000
G1 X40.969215 Y11.153215 F100.000000
G1 X40.711215 Y11.411215 F100.000000
G1 X40.969215 Y11.669215 F100.000000
G1 X41.227215 Y11.411215 F100.000000
G0 Z-0.850000 F30.000000
G1 X40.969215 Y11.153215 F100.000000
G1 X40.711215 Y11.411215 F100.000000
G1 X40.969215 Y11.669215 F100.000000
G1 X41.227215 Y11.411215 F100.000000
G0 Z-1.133333 F30.000000
G1 X40.969215 Y11.153215 F100.000000
G1 X40.711215 Y11.411215 F100.000000
G1 X40.969215 Y11.669215 F100.000000
G1 X41.227215 Y11.411215 F100.000000
G0 Z-1.416667 F30.000000
G1 X40.969215 Y11.153215 F100.000000
G1 X40.711215 Y11.411215 F100.000000
G1 X40.969215 Y11.669215 F100.000000
G1 X41.227215 Y11.411215 F100.000000
G0 Z-1.700000 F30.000000
G1 X40.969215 Y11.153215 F100.000000
G1 X40.711215 Y11.411215 F100.000000
G1 X40.969215 Y11.669215 F100.000000
G1 X41.227215 Y11.411215 F100.000000
G0 Z2.000000
G0 X40.211215 Y46.717215
G17
G0 Z-0.283333 F30.000000
G1 X40.211215 Y46.717215 F100.000000
G1 X39.953215 Y46.459215 F100.000000
G1 X39.695215 Y46.717215 F100.000000
G1 X39.953215 Y46.975215 F100.000000
G1 X40.211215 Y46.717215 F100.000000
G0 Z-0.566667 F30.000000
G1 X39.953215 Y46.459215 F100.000000
G1 X39.695215 Y46.717215 F100.000000
G1 X39.953215 Y46.975215 F100.000000
G1 X40.211215 Y46.717215 F100.000000
G0 Z-0.850000 F30.000000
G1 X39.953215 Y46.459215 F100.000000
G1 X39.695215 Y46.717215 F100.000000
G1 X39.953215 Y46.975215 F100.000000
G1 X40.211215 Y46.717215 F100.000000
G0 Z-1.133333 F30.000000
G1 X39.953215 Y46.459215 F100.000000
G1 X39.695215 Y46.717215 F100.000000
G1 X39.953215 Y46.975215 F100.000000
G1 X40.211215 Y46.717215 F100.000000
G0 Z-1.416667 F30.000000
G1 X39.953215 Y46.459215 F100.000000
G1 X39.695215 Y46.717215 F100.000000
G1 X39.953215 Y46.975215 F100.000000
G1 X40.211215 Y46.717215 F100.000000
G0 Z-1.700000 F30.000000
G1 X39.953215 Y46.459215 F100.000000
G1 X39.695215 Y46.717215 F100.000000
G1 X39.953215 Y46.975215 F100.000000
G1 X40.211215 Y46.717215 F100.000000
G0 Z2.000000
G0 X40.211215 Y44.177215
G17
G0 Z-0.283333 F30.000000
G1 Y44.177215 F100.000000
G1 X39.953215 Y43.919215 F100.000000
G1 X39.695215 Y44.177215 F100.000000
G1 X39.953215 Y44.435215 F100.000000
G1 X40.211215 Y44.177215 F100.000000
G0 Z-0.566667 F30.000000
G1 X39.953215 Y43.919215 F100.000000
G1 X39.695215 Y44.177215 F100.000000
G1 X39.953215 Y44.435215 F100.000000
G1 X40.211215 Y44.177215 F100.000000
G0 Z-0.850000 F30.000000
G1 X39.953215 Y43.919215 F100.000000
G1 X39.695215 Y44.177215 F100.000000
G1 X39.953215 Y44.435215 F100.000000
G1 X40.211215 Y44.177215 F100.000000
G0 Z-1.133333 F30.000000
G1 X39.953215 Y43.919215 F100.000000
G1 X39.695215 Y44.177215 F100.000000
G1 X39.953215 Y44.435215 F100.000000
G1 X40.211215 Y44.177215 F100.000000
G0 Z-1.416667 F30.000000
G1 X39.953215 Y43.919215 F100.000000
G1 X39.695215 Y44.177215 F100.000000
G1 X39.953215 Y44.435215 F100.000000
G1 X40.211215 Y44.177215 F100.000000
G0 Z-1.700000 F30.000000
G1 X39.953215 Y43.919215 F100.000000
G1 X39.695215 Y44.177215 F100.000000
G1 X39.953215 Y44.435215 F100.000000
G1 X40.211215 Y44.177215 F100.000000
G0 Z2.000000
G0 X40.211215 Y41.637215
G17
G0 Z-0.283333 F30.000000
G1 Y41.637215 F100.000000
G1 X39.953215 Y41.379215 F100.000000
G1 X39.695215 Y41.637215 F100.000000
G1 X39.953215 Y41.895215 F100.000000
G1 X40.211215 Y41.637215 F100.000000
G0 Z-0.566667 F30.000000
G1 X39.953215 Y41.379215 F100.000000
G1 X39.695215 Y41.637215 F100.000000
G1 X39.953215 Y41.895215 F100.000000
G1 X40.211215 Y41.637215 F100.000000
G0 Z-0.850000 F30.000000
G1 X39.953215 Y41.379215 F100.000000
G1 X39.695215 Y41.637215 F100.000000
G1 X39.953215 Y41.895215 F100.000000
G1 X40.211215 Y41.637215 F100.000000
G0 Z-1.133333 F30.000000
G1 X39.953215 Y41.379215 F100.000000
G1 X39.695215 Y41.637215 F100.000000
G1 X39.953215 Y41.895215 F100.000000
G1 X40.211215 Y41.637215 F100.000000
G0 Z-1.416667 F30.000000
G1 X39.953215 Y41.379215 F100.000000
G1 X39.695215 Y41.637215 F100.000000
G1 X39.953215 Y41.895215 F100.000000
G1 X40.211215 Y41.637215 F100.000000
G0 Z-1.700000 F30.000000
G1 X39.953215 Y41.379215 F100.000000
G1 X39.695215 Y41.637215 F100.000000
G1 X39.953215 Y41.895215 F100.000000
G1 X40.211215 Y41.637215 F100.000000
G0 Z2.000000
G0 X37.671215 Y46.717215
G17
G0 Z-0.283333 F30.000000
G1 X37.671215 Y46.717215 F100.000000
G1 X37.413215 Y46.459215 F100.000000
G1 X37.155215 Y46.717215 F100.000000
G1 X37.413215 Y46.975215 F100.000000
G1 X37.671215 Y46.717215 F100.000000
G0 Z-0.566667 F30.000000
G1 X37.413215 Y46.459215 F100.000000
G1 X37.155215 Y46.717215 F100.000000
G1 X37.413215 Y46.975215 F100.000000
G1 X37.671215 Y46.717215 F100.000000
G0 Z-0.850000 F30.000000
G1 X37.413215 Y46.459215 F100.000000
G1 X37.155215 Y46.717215 F100.000000
G1 X37.413215 Y46.975215 F100.000000
G1 X37.671215 Y46.717215 F100.000000
G0 Z-1.133333 F30.000000
G1 X37.413215 Y46.459215 F100.000000
G1 X37.155215 Y46.717215 F100.000000
G1 X37.413215 Y46.975215 F100.000000
G1 X37.671215 Y46.717215 F100.000000
G0 Z-1.416667 F30.000000
G1 X37.413215 Y46.459215 F100.000000
G1 X37.155215 Y46.717215 F100.000000
G1 X37.413215 Y46.975215 F100.000000
G1 X37.671215 Y46.717215 F100.000000
G0 Z-1.700000 F30.000000
G1 X37.413215 Y46.459215 F100.000000
G1 X37.155215 Y46.717215 F100.000000
G1 X37.413215 Y46.975215 F100.000000
G1 X37.671215 Y46.717215 F100.000000
G0 Z2.000000
G0 X37.671215 Y44.177215
G17
G0 Z-0.283333 F30.000000
G1 Y44.177215 F100.000000
G1 X37.413215 Y43.919215 F100.000000
G1 X37.155215 Y44.177215 F100.000000
G1 X37.413215 Y44.435215 F100.000000
G1 X37.671215 Y44.177215 F100.000000
G0 Z-0.566667 F30.000000
G1 X37.413215 Y43.919215 F100.000000
G1 X37.155215 Y44.177215 F100.000000
G1 X37.413215 Y44.435215 F100.000000
G1 X37.671215 Y44.177215 F100.000000
G0 Z-0.850000 F30.000000
G1 X37.413215 Y43.919215 F100.000000
G1 X37.155215 Y44.177215 F100.000000
G1 X37.413215 Y44.435215 F100.000000
G1 X37.671215 Y44.177215 F100.000000
G0 Z-1.133333 F30.000000
G1 X37.413215 Y43.919215 F100.000000
G1 X37.155215 Y44.177215 F100.000000
G1 X37.413215 Y44.435215 F100.000000
G1 X37.671215 Y44.177215 F100.000000
G0 Z-1.416667 F30.000000
G1 X37.413215 Y43.919215 F100.000000
G1 X37.155215 Y44.177215 F100.000000
G1 X37.413215 Y44.435215 F100.000000
G1 X37.671215 Y44.177215 F100.000000
G0 Z-1.700000 F30.000000
G1 X37.413215 Y43.919215 F100.000000
G1 X37.155215 Y44.177215 F100.000000
G1 X37.413215 Y44.435215 F100.000000
G1 X37.671215 Y44.177215 F100.000000
G0 Z2.000000
G0 X37.671215 Y41.637215
G17
G0 Z-0.283333 F30.000000
G1 Y41.637215 F100.000000
G1 X37.413215 Y41.379215 F100.000000
G1 X37.155215 Y41.637215 F100.000000
G1 X37.413215 Y41.895215 F100.000000
G1 X37.671215 Y41.637215 F100.000000
G0 Z-0.566667 F30.000000
G1 X37.413215 Y41.379215 F100.000000
G1 X37.155215 Y41.637215 F100.000000
G1 X37.413215 Y41.895215 F100.000000
G1 X37.671215 Y41.637215 F100.000000
G0 Z-0.850000 F30.000000
G1 X37.413215 Y41.379215 F100.000000
G1 X37.155215 Y41.637215 F100.000000
G1 X37.413215 Y41.895215 F100.000000
G1 X37.671215 Y41.637215 F100.000000
G0 Z-1.133333 F30.000000
G1 X37.413215 Y41.379215 F100.000000
G1 X37.155215 Y41.637215 F100.000000
G1 X37.413215 Y41.895215 F100.000000
G1 X37.671215 Y41.637215 F100.000000
G0 Z-1.416667 F30.000000
G1 X37.413215 Y41.379215 F100.000000
G1 X37.155215 Y41.637215 F100.000000
G1 X37.413215 Y41.895215 F100.000000
G1 X37.671215 Y41.637215 F100.000000
G0 Z-1.700000 F30.000000
G1 X37.413215 Y41.379215 F100.000000
G1 X37.155215 Y41.637215 F100.000000
G1 X37.413215 Y41.895215 F100.000000
G1 X37.671215 Y41.637215 F100.000000
G0 Z2.000000
G0 X31.067215 Y10.649215
G17
G0 Z-0.283333 F30.000000
G1 X31.067215 Y10.649215 F100.000000
G1 X30.809215 Y10.391215 F100.000000
G1 X30.551215 Y10.649215 F100.000000
G1 X30.809215 Y10.907215 F100.000000
G1 X31.067215 Y10.649215 F100.000000
G0 Z-0.566667 F30.000000
G1 X30.809215 Y10.391215 F100.000000
G1 X30.551215 Y10.649215 F100.000000
G1 X30.809215 Y10.907215 F100.000000
G1 X31.067215 Y10.649215 F100.000000
G0 Z-0.850000 F30.000000
G1 X30.809215 Y10.391215 F100.000000
G1 X30.551215 Y10.649215 F100.000000
G1 X30.809215 Y10.907215 F100.000000
G1 X31.067215 Y10.649215 F100.000000
G0 Z-1.133333 F30.000000
G1 X30.809215 Y10.391215 F100.000000
G1 X30.551215 Y10.649215 F100.000000
G1 X30.809215 Y10.907215 F100.000000
G1 X31.067215 Y10.649215 F100.000000
G0 Z-1.416667 F30.000000
G1 X30.809215 Y10.391215 F100.000000
G1 X30.551215 Y10.649215 F100.000000
G1 X30.809215 Y10.907215 F100.000000
G1 X31.067215 Y10.649215 F100.000000
G0 Z-1.700000 F30.000000
G1 X30.809215 Y10.391215 F100.000000
G1 X30.551215 Y10.649215 F100.000000
G1 X30.809215 Y10.907215 F100.000000
G1 X31.067215 Y10.649215 F100.000000
G0 Z2.000000
G0 X28.527215 Y10.649215
G17
G0 Z-0.283333 F30.000000
G1 X28.527215 F100.000000
G1 X28.269215 Y10.391215 F100.000000
G1 X28.011215 Y10.649215 F100.000000
G1 X28.269215 Y10.907215 F100.000000
G1 X28.527215 Y10.649215 F100.000000
G0 Z-0.566667 F30.000000
G1 X28.269215 Y10.391215 F100.000000
G1 X28.011215 Y10.649215 F100.000000
G1 X28.269215 Y10.907215 F100.000000
G1 X28.527215 Y10.649215 F100.000000
G0 Z-0.850000 F30.000000
G1 X28.269215 Y10.391215 F100.000000
G1 X28.011215 Y10.649215 F100.000000
G1 X28.269215 Y10.907215 F100.000000
G1 X28.527215 Y10.649215 F100.000000
G0 Z-1.133333 F30.000000
G1 X28.269215 Y10.391215 F100.000000
G1 X28.011215 Y10.649215 F100.000000
G1 X28.269215 Y10.907215 F100.000000
G1 X28.527215 Y10.649215 F100.000000
G0 Z-1.416667 F30.000000
G1 X28.269215 Y10.391215 F100.000000
G1 X28.011215 Y10.649215 F100.000000
G1 X28.269215 Y10.907215 F100.000000
G1 X28.527215 Y10.649215 F100.000000
G0 Z-1.700000 F30.000000
G1 X28.269215 Y10.391215 F100.000000
G1 X28.011215 Y10.649215 F100.000000
G1 X28.269215 Y10.907215 F100.000000
G1 X28.527215 Y10.649215 F100.000000
G0 Z2.000000
G0 X25.987215 Y10.649215
G17
G0 Z-0.283333 F30.000000
G1 X25.987215 F100.000000
G1 X25.729215 Y10.391215 F100.000000
G1 X25.471215 Y10.649215 F100.000000
G1 X25.729215 Y10.907215 F100.000000
G1 X25.987215 Y10.649215 F100.000000
G0 Z-0.566667 F30.000000
G1 X25.729215 Y10.391215 F100.000000
G1 X25.471215 Y10.649215 F100.000000
G1 X25.729215 Y10.907215 F100.000000
G1 X25.987215 Y10.649215 F100.000000
G0 Z-0.850000 F30.000000
G1 X25.729215 Y10.391215 F100.000000
G1 X25.471215 Y10.649215 F100.000000
G1 X25.729215 Y10.907215 F100.000000
G1 X25.987215 Y10.649215 F100.000000
G0 Z-1.133333 F30.000000
G1 X25.729215 Y10.391215 F100.000000
G1 X25.471215 Y10.649215 F100.000000
G1 X25.729215 Y10.907215 F100.000000
G1 X25.987215 Y10.649215 F100.000000
G0 Z-1.416667 F30.000000
G1 X25.729215 Y10.391215 F100.000000
G1 X25.471215 Y10.649215 F100.000000
G1 X25.729215 Y10.907215 F100.000000
G1 X25.987215 Y10.649215 F100.000000
G0 Z-1.700000 F30.000000
G1 X25.729215 Y10.391215 F100.000000
G1 X25.471215 Y10.649215 F100.000000
G1 X25.729215 Y10.907215 F100.000000
G1 X25.987215 Y10.649215 F100.000000
G0 Z2.000000
G0 X23.447215 Y10.649215
G17
G0 Z-0.283333 F30.000000
G1 X23.447215 F100.000000
G1 X23.189215 Y10.391215 F100.000000
G1 X22.931215 Y10.649215 F100.000000
G1 X23.189215 Y10.907215 F100.000000
G1 X23.447215 Y10.649215 F100.000000
G0 Z-0.566667 F30.000000
G1 X23.189215 Y10.391215 F100.000000
G1 X22.931215 Y10.649215 F100.000000
G1 X23.189215 Y10.907215 F100.000000
G1 X23.447215 Y10.649215 F100.000000
G0 Z-0.850000 F30.000000
G1 X23.189215 Y10.391215 F100.000000
G1 X22.931215 Y10.649215 F100.000000
G1 X23.189215 Y10.907215 F100.000000
G1 X23.447215 Y10.649215 F100.000000
G0 Z-1.133333 F30.000000
G1 X23.189215 Y10.391215 F100.000000
G1 X22.931215 Y10.649215 F100.000000
G1 X23.189215 Y10.907215 F100.000000
G1 X23.447215 Y10.649215 F100.000000
G0 Z-1.416667 F30.000000
G1 X23.189215 Y10.391215 F100.000000
G1 X22.931215 Y10.649215 F100.000000
G1 X23.189215 Y10.907215 F100.000000
G1 X23.447215 Y10.649215 F100.000000
G0 Z-1.700000 F30.000000
G1 X23.189215 Y10.391215 F100.000000
G1 X22.931215 Y10.649215 F100.000000
G1 X23.189215 Y10.907215 F100.000000
G1 X23.447215 Y10.649215 F100.000000
G0 Z2.000000
G0 X22.431215 Y35.541215
G17
G0 Z-0.283333 F30.000000
G1 X22.431215 Y35.541215 F100.000000
G1 X22.173215 Y35.283215 F100.000000
G1 X21.915215 Y35.541215 F100.000000
G1 X22.173215 Y35.799215 F100.000000
G1 X22.431215 Y35.541215 F100.000000
G0 Z-0.566667 F30.000000
G1 X22.173215 Y35.283215 F100.000000
G1 X21.915215 Y35.541215 F100.000000
G1 X22.173215 Y35.799215 F100.000000
G1 X22.431215 Y35.541215 F100.000000
G0 Z-0.850000 F30.000000
G1 X22.173215 Y35.283215 F100.000000
G1 X21.915215 Y35.541215 F100.000000
G1 X22.173215 Y35.799215 F100.000000
G1 X22.431215 Y35.541215 F100.000000
G0 Z-1.133333 F30.000000
G1 X22.173215 Y35.283215 F100.000000
G1 X21.915215 Y35.541215 F100.000000
G1 X22.173215 Y35.799215 F100.000000
G1 X22.431215 Y35.541215 F100.000000
G0 Z-1.416667 F30.000000
G1 X22.173215 Y35.283215 F100.000000
G1 X21.915215 Y35.541215 F100.000000
G1 X22.173215 Y35.799215 F100.000000
G1 X22.431215 Y35.541215 F100.000000
G0 Z-1.700000 F30.000000
G1 X22.173215 Y35.283215 F100.000000
G1 X21.915215 Y35.541215 F100.000000
G1 X22.173215 Y35.799215 F100.000000
G1 X22.431215 Y35.541215 F100.000000
G0 Z2.000000
G0 X22.431215 Y33.001215
G17
G0 Z-0.283333 F30.000000
G1 Y33.001215 F100.000000
G1 X22.173215 Y32.743215 F100.000000
G1 X21.915215 Y33.001215 F100.000000
G1 X22.173215 Y33.259215 F100.000000
G1 X22.431215 Y33.001215 F100.000000
G0 Z-0.566667 F30.000000
G1 X22.173215 Y32.743215 F100.000000
G1 X21.915215 Y33.001215 F100.000000
G1 X22.173215 Y33.259215 F100.000000
G1 X22.431215 Y33.001215 F100.000000
G0 Z-0.850000 F30.000000
G1 X22.173215 Y32.743215 F100.000000
G1 X21.915215 Y33.001215 F100.000000
G1 X22.173215 Y33.259215 F100.000000
G1 X22.431215 Y33.001215 F100.000000
G0 Z-1.133333 F30.000000
G1 X22.173215 Y32.743215 F100.000000
G1 X21.915215 Y33.001215 F100.000000
G1 X22.173215 Y33.259215 F100.000000
G1 X22.431215 Y33.001215 F100.000000
G0 Z-1.416667 F30.000000
G1 X22.173215 Y32.743215 F100.000000
G1 X21.915215 Y33.001215 F100.000000
G1 X22.173215 Y33.259215 F100.000000
G1 X22.431215 Y33.001215 F100.000000
G0 Z-1.700000 F30.000000
G1 X22.173215 Y32.743215 F100.000000
G1 X21.915215 Y33.001215 F100.000000
G1 X22.173215 Y33.259215 F100.000000
G1 X22.431215 Y33.001215 F100.000000
G0 Z2.000000
G0 X22.431215 Y30.461215
G17
G0 Z-0.283333 F30.000000
G1 Y30.461215 F100.000000
G1 X22.173215 Y30.203215 F100.000000
G1 X21.915215 Y30.461215 F100.000000
G1 X22.173215 Y30.719215 F100.000000
