(Generated by ./pygerber2gcode_cui_MOD.py )
( 2013-05-29 17:29:04 )
(Initialize)

(Start form here)
G0 Z2.000000
G0 X39.926715 Y25.889215
G17
G0 Z-0.283333 F30.000000
G1 X39.926715 Y25.889215 F100.000000
G1 X39.906945 Y25.841485 F100.000000
G1 X39.859215 Y25.821715 F100.000000
G1 X39.811485 Y25.841485 F100.000000
G1 X39.791715 Y25.889215 F100.000000
G1 X39.811485 Y25.936945 F100.000000
G1 X39.859215 Y25.956715 F100.000000
G1 X39.906945 Y25.936945 F100.000000
G1 X39.926715 Y25.889215 F100.000000
G0 Z-0.566667 F30.000000
G1 X39.906945 Y25.841485 F100.000000
G1 X39.859215 Y25.821715 F100.000000
G1 X39.811485 Y25.841485 F100.000000
G1 X39.791715 Y25.889215 F100.000000
G1 X39.811485 Y25.936945 F100.000000
G1 X39.859215 Y25.956715 F100.000000
G1 X39.906945 Y25.936945 F100.000000
G1 X39.926715 Y25.889215 F100.000000
G0 Z-0.850000 F30.000000
G1 X39.906945 Y25.841485 F100.000000
G1 X39.859215 Y25.821715 F100.000000
G1 X39.811485 Y25.841485 F100.000000
G1 X39.791715 Y25.889215 F100.000000
G1 X39.811485 Y25.936945 F100.000000
G1 X39.859215 Y25.956715 F100.000000
G1 X39.906945 Y25.936945 F100.000000
G1 X39.926715 Y25.889215 F100.000000
G0 Z-1.133333 F30.000000
G1 X39.906945 Y25.841485 F100.000000
G1 X39.859215 Y25.821715 F100.000000
G1 X39.811485 Y25.841485 F100.000000
G1 X39.791715 Y25.889215 F100.000000
G1 X39.811485 Y25.936945 F100.000000
G1 X39.859215 Y25.956715 F100.000000
G1 X39.906945 Y25.936945 F100.000000
G1 X39.926715 Y25.889215 F100.000000
G0 Z-1.416667 F30.000000
G1 X39.906945 Y25.841485 F100.000000
G1 X39.859215 Y25.821715 F100.000000
G1 X39.811485 Y25.841485 F100.000000
G1 X39.791715 Y25.889215 F100.000000
G1 X39.811485 Y25.936945 F100.000000
G1 X39.859215 Y25.956715 F100.000000
G1 X39.906945 Y25.936945 F100.000000
G1 X39.926715 Y25.889215 F100.000000
G0 Z-1.700000 F30.000000
G1 X39.906945 Y25.841485 F100.000000
G1 X39.859215 Y25.821715 F100.000000
G1 X39.811485 Y25.841485 F100.000000
G1 X39.791715 Y25.889215 F100.000000
G1 X39.811485 Y25.936945 F100.000000
G1 X39.859215 Y25.956715 F100.000000
G1 X39.906945 Y25.936945 F100.000000
G1 X39.926715 Y25.889215 F100.000000
G0 Z2.000000
G0 X27.988715 Y15.475215
G17
G0 Z-0.283333 F30.000000
G1 X27.988715 Y15.475215 F100.000000
G1 X27.968945 Y15.427485 F100.000000
G1 X27.921215 Y15.407715 F100.000000
G1 X27.873485 Y15.427485 F100.000000
G1 X27.853715 Y15.475215 F100.000000
G1 X27.873485 Y15.522945 F100.000000
G1 X27.921215 Y15.542715 F100.000000
G1 X27.968945 Y15.522945 F100.000000
G1 X27.988715 Y15.475215 F100.000000
G0 Z-0.566667 F30.000000
G1 X27.968945 Y15.427485 F100.000000
G1 X27.921215 Y15.407715 F100.000000
G1 X27.873485 Y15.427485 F100.000000
G1 X27.853715 Y15.475215 F100.000000
G1 X27.873485 Y15.522945 F100.000000
G1 X27.921215 Y15.542715 F100.000000
G1 X27.968945 Y15.522945 F100.000000
G1 X27.988715 Y15.475215 F100.000000
G0 Z-0.850000 F30.000000
G1 X27.968945 Y15.427485 F100.000000
G1 X27.921215 Y15.407715 F100.000000
G1 X27.873485 Y15.427485 F100.000000
G1 X27.853715 Y15.475215 F100.000000
G1 X27.873485 Y15.522945 F100.000000
G1 X27.921215 Y15.542715 F100.000000
G1 X27.968945 Y15.522945 F100.000000
G1 X27.988715 Y15.475215 F100.000000
G0 Z-1.133333 F30.000000
G1 X27.968945 Y15.427485 F100.000000
G1 X27.921215 Y15.407715 F100.000000
G1 X27.873485 Y15.427485 F100.000000
G1 X27.853715 Y15.475215 F100.000000
G1 X27.873485 Y15.522945 F100.000000
G1 X27.921215 Y15.542715 F100.000000
G1 X27.968945 Y15.522945 F100.000000
G1 X27.988715 Y15.475215 F100.000000
G0 Z-1.416667 F30.000000
G1 X27.968945 Y15.427485 F100.000000
G1 X27.921215 Y15.407715 F100.000000
G1 X27.873485 Y15.427485 F100.000000
G1 X27.853715 Y15.475215 F100.000000
G1 X27.873485 Y15.522945 F100.000000
G1 X27.921215 Y15.542715 F100.000000
G1 X27.968945 Y15.522945 F100.000000
G1 X27.988715 Y15.475215 F100.000000
G0 Z-1.700000 F30.000000
G1 X27.968945 Y15.427485 F100.000000
G1 X27.921215 Y15.407715 F100.000000
G1 X27.873485 Y15.427485 F100.000000
G1 X27.853715 Y15.475215 F100.000000
G1 X27.873485 Y15.522945 F100.000000
G1 X27.921215 Y15.542715 F100.000000
G1 X27.968945 Y15.522945 F100.000000
G1 X27.988715 Y15.475215 F100.000000
G0 Z2.000000
G0 X6.144715 Y22.333215
G17
G0 Z-0.283333 F30.000000
G1 X6.144715 Y22.333215 F100.000000
G1 X6.124945 Y22.285485 F100.000000
G1 X6.077215 Y22.265715 F100.000000
G1 X6.029485 Y22.285485 F100.000000
G1 X6.009715 Y22.333215 F100.000000
G1 X6.029485 Y22.380945 F100.000000
G1 X6.077215 Y22.400715 F100.000000
G1 X6.124945 Y22.380945 F100.000000
G1 X6.144715 Y22.333215 F100.000000
G0 Z-0.566667 F30.000000
G1 X6.124945 Y22.285485 F100.000000
G1 X6.077215 Y22.265715 F100.000000
G1 X6.029485 Y22.285485 F100.000000
G1 X6.009715 Y22.333215 F100.000000
G1 X6.029485 Y22.380945 F100.000000
G1 X6.077215 Y22.400715 F100.000000
G1 X6.124945 Y22.380945 F100.000000
G1 X6.144715 Y22.333215 F100.000000
G0 Z-0.850000 F30.000000
G1 X6.124945 Y22.285485 F100.000000
G1 X6.077215 Y22.265715 F100.000000
G1 X6.029485 Y22.285485 F100.000000
G1 X6.009715 Y22.333215 F100.000000
G1 X6.029485 Y22.380945 F100.000000
G1 X6.077215 Y22.400715 F100.000000
G1 X6.124945 Y22.380945 F100.000000
G1 X6.144715 Y22.333215 F100.000000
G0 Z-1.133333 F30.000000
G1 X6.124945 Y22.285485 F100.000000
G1 X6.077215 Y22.265715 F100.000000
G1 X6.029485 Y22.285485 F100.000000
G1 X6.009715 Y22.333215 F100.000000
G1 X6.029485 Y22.380945 F100.000000
G1 X6.077215 Y22.400715 F100.000000
G1 X6.124945 Y22.380945 F100.000000
G1 X6.144715 Y22.333215 F100.000000
G0 Z-1.416667 F30.000000
G1 X6.124945 Y22.285485 F100.000000
G1 X6.077215 Y22.265715 F100.000000
G1 X6.029485 Y22.285485 F100.000000
G1 X6.009715 Y22.333215 F100.000000
G1 X6.029485 Y22.380945 F100.000000
G1 X6.077215 Y22.400715 F100.000000
G1 X6.124945 Y22.380945 F100.000000
G1 X6.144715 Y22.333215 F100.000000
G0 Z-1.700000 F30.000000
G1 X6.124945 Y22.285485 F100.000000
G1 X6.077215 Y22.265715 F100.000000
G1 X6.029485 Y22.285485 F100.000000
G1 X6.009715 Y22.333215 F100.000000
G1 X6.029485 Y22.380945 F100.000000
G1 X6.077215 Y22.400715 F100.000000
G1 X6.124945 Y22.380945 F100.000000
G1 X6.144715 Y22.333215 F100.000000
G0 Z2.000000
G0 X6.144715 Y19.031215
G17
G0 Z-0.283333 F30.000000
G1 Y19.031215 F100.000000
G1 X6.124945 Y18.983485 F100.000000
G1 X6.077215 Y18.963715 F100.000000
G1 X6.029485 Y18.983485 F100.000000
G1 X6.009715 Y19.031215 F100.000000
G1 X6.029485 Y19.078945 F100.000000
G1 X6.077215 Y19.098715 F100.000000
G1 X6.124945 Y19.078945 F100.000000
G1 X6.144715 Y19.031215 F100.000000
G0 Z-0.566667 F30.000000
G1 X6.124945 Y18.983485 F100.000000
G1 X6.077215 Y18.963715 F100.000000
G1 X6.029485 Y18.983485 F100.000000
G1 X6.009715 Y19.031215 F100.000000
G1 X6.029485 Y19.078945 F100.000000
G1 X6.077215 Y19.098715 F100.000000
G1 X6.124945 Y19.078945 F100.000000
G1 X6.144715 Y19.031215 F100.000000
G0 Z-0.850000 F30.000000
G1 X6.124945 Y18.983485 F100.000000
G1 X6.077215 Y18.963715 F100.000000
G1 X6.029485 Y18.983485 F100.000000
G1 X6.009715 Y19.031215 F100.000000
G1 X6.029485 Y19.078945 F100.000000
G1 X6.077215 Y19.098715 F100.000000
G1 X6.124945 Y19.078945 F100.000000
G1 X6.144715 Y19.031215 F100.000000
G0 Z-1.133333 F30.000000
G1 X6.124945 Y18.983485 F100.000000
G1 X6.077215 Y18.963715 F100.000000
G1 X6.029485 Y18.983485 F100.000000
G1 X6.009715 Y19.031215 F100.000000
G1 X6.029485 Y19.078945 F100.000000
G1 X6.077215 Y19.098715 F100.000000
G1 X6.124945 Y19.078945 F100.000000
G1 X6.144715 Y19.031215 F100.000000
G0 Z-1.416667 F30.000000
G1 X6.124945 Y18.983485 F100.000000
G1 X6.077215 Y18.963715 F100.000000
G1 X6.029485 Y18.983485 F100.000000
G1 X6.009715 Y19.031215 F100.000000
G1 X6.029485 Y19.078945 F100.000000
G1 X6.077215 Y19.098715 F100.000000
G1 X6.124945 Y19.078945 F100.000000
G1 X6.144715 Y19.031215 F100.000000
G0 Z-1.700000 F30.000000
G1 X6.124945 Y18.983485 F100.000000
G1 X6.077215 Y18.963715 F100.000000
G1 X6.029485 Y18.983485 F100.000000
G1 X6.009715 Y19.031215 F100.000000
G1 X6.029485 Y19.078945 F100.000000
G1 X6.077215 Y19.098715 F100.000000
G1 X6.124945 Y19.078945 F100.000000
G1 X6.144715 Y19.031215 F100.000000
G0 Z2.000000
G0 X51.826615 Y51.797215
G17
G0 Z-0.283333 F30.000000
G1 X51.826615 Y51.797215 F100.000000
G1 X51.818141 Y51.746432 F100.000000
G1 X51.793637 Y51.701152 F100.000000
G1 X51.755758 Y51.666282 F100.000000
G1 X51.708609 Y51.645601 F100.000000
G1 X51.657300 Y51.641349 F100.000000
G1 X51.607390 Y51.653988 F100.000000
G1 X51.564288 Y51.682148 F100.000000
G1 X51.532665 Y51.722777 F100.000000
G1 X51.515948 Y51.771472 F100.000000
G1 Y51.822958 F100.000000
G1 X51.532665 Y51.871653 F100.000000
G1 X51.564288 Y51.912282 F100.000000
G1 X51.607390 Y51.940442 F100.000000
G1 X51.657300 Y51.953081 F100.000000
G1 X51.708609 Y51.948829 F100.000000
G1 X51.755758 Y51.928148 F100.000000
G1 X51.793637 Y51.893278 F100.000000
G1 X51.818141 Y51.847998 F100.000000
G1 X51.826615 Y51.797215 F100.000000
G0 Z-0.566667 F30.000000
G1 X51.818141 Y51.746432 F100.000000
G1 X51.793637 Y51.701152 F100.000000
G1 X51.755758 Y51.666282 F100.000000
G1 X51.708609 Y51.645601 F100.000000
G1 X51.657300 Y51.641349 F100.000000
G1 X51.607390 Y51.653988 F100.000000
G1 X51.564288 Y51.682148 F100.000000
G1 X51.532665 Y51.722777 F100.000000
G1 X51.515948 Y51.771472 F100.000000
G1 Y51.822958 F100.000000
G1 X51.532665 Y51.871653 F100.000000
G1 X51.564288 Y51.912282 F100.000000
G1 X51.607390 Y51.940442 F100.000000
G1 X51.657300 Y51.953081 F100.000000
G1 X51.708609 Y51.948829 F100.000000
G1 X51.755758 Y51.928148 F100.000000
G1 X51.793637 Y51.893278 F100.000000
G1 X51.818141 Y51.847998 F100.000000
G1 X51.826615 Y51.797215 F100.000000
G0 Z-0.850000 F30.000000
G1 X51.818141 Y51.746432 F100.000000
G1 X51.793637 Y51.701152 F100.000000
G1 X51.755758 Y51.666282 F100.000000
G1 X51.708609 Y51.645601 F100.000000
G1 X51.657300 Y51.641349 F100.000000
G1 X51.607390 Y51.653988 F100.000000
G1 X51.564288 Y51.682148 F100.000000
G1 X51.532665 Y51.722777 F100.000000
G1 X51.515948 Y51.771472 F100.000000
G1 Y51.822958 F100.000000
G1 X51.532665 Y51.871653 F100.000000
G1 X51.564288 Y51.912282 F100.000000
G1 X51.607390 Y51.940442 F100.000000
G1 X51.657300 Y51.953081 F100.000000
G1 X51.708609 Y51.948829 F100.000000
G1 X51.755758 Y51.928148 F100.000000
G1 X51.793637 Y51.893278 F100.000000
G1 X51.818141 Y51.847998 F100.000000
G1 X51.826615 Y51.797215 F100.000000
G0 Z-1.133333 F30.000000
G1 X51.818141 Y51.746432 F100.000000
G1 X51.793637 Y51.701152 F100.000000
G1 X51.755758 Y51.666282 F100.000000
G1 X51.708609 Y51.645601 F100.000000
G1 X51.657300 Y51.641349 F100.000000
G1 X51.607390 Y51.653988 F100.000000
G1 X51.564288 Y51.682148 F100.000000
G1 X51.532665 Y51.722777 F100.000000
G1 X51.515948 Y51.771472 F100.000000
G1 Y51.822958 F100.000000
G1 X51.532665 Y51.871653 F100.000000
G1 X51.564288 Y51.912282 F100.000000
G1 X51.607390 Y51.940442 F100.000000
G1 X51.657300 Y51.953081 F100.000000
G1 X51.708609 Y51.948829 F100.000000
G1 X51.755758 Y51.928148 F100.000000
G1 X51.793637 Y51.893278 F100.000000
G1 X51.818141 Y51.847998 F100.000000
G1 X51.826615 Y51.797215 F100.000000
G0 Z-1.416667 F30.000000
G1 X51.818141 Y51.746432 F100.000000
G1 X51.793637 Y51.701152 F100.000000
G1 X51.755758 Y51.666282 F100.000000
G1 X51.708609 Y51.645601 F100.000000
G1 X51.657300 Y51.641349 F100.000000
G1 X51.607390 Y51.653988 F100.000000
G1 X51.564288 Y51.682148 F100.000000
G1 X51.532665 Y51.722777 F100.000000
G1 X51.515948 Y51.771472 F100.000000
G1 Y51.822958 F100.000000
G1 X51.532665 Y51.871653 F100.000000
G1 X51.564288 Y51.912282 F100.000000
G1 X51.607390 Y51.940442 F100.000000
G1 X51.657300 Y51.953081 F100.000000
G1 X51.708609 Y51.948829 F100.000000
G1 X51.755758 Y51.928148 F100.000000
G1 X51.793637 Y51.893278 F100.000000
G1 X51.818141 Y51.847998 F100.000000
G1 X51.826615 Y51.797215 F100.000000
G0 Z-1.700000 F30.000000
G1 X51.818141 Y51.746432 F100.000000
G1 X51.793637 Y51.701152 F100.000000
G1 X51.755758 Y51.666282 F100.000000
G1 X51.708609 Y51.645601 F100.000000
G1 X51.657300 Y51.641349 F100.000000
G1 X51.607390 Y51.653988 F100.000000
G1 X51.564288 Y51.682148 F100.000000
G1 X51.532665 Y51.722777 F100.000000
G1 X51.515948 Y51.771472 F100.000000
G1 Y51.822958 F100.000000
G1 X51.532665 Y51.871653 F100.000000
G1 X51.564288 Y51.912282 F100.000000
G1 X51.607390 Y51.940442 F100.000000
G1 X51.657300 Y51.953081 F100.000000
G1 X51.708609 Y51.948829 F100.000000
G1 X51.755758 Y51.928148 F100.000000
G1 X51.793637 Y51.893278 F100.000000
G1 X51.818141 Y51.847998 F100.000000
G1 X51.826615 Y51.797215 F100.000000
G0 Z2.000000
G0 X47.889615 Y55.353215
G17
G0 Z-0.283333 F30.000000
G1 X47.889615 Y55.353215 F100.000000
G1 X47.881141 Y55.302432 F100.000000
G1 X47.856637 Y55.257152 F100.000000
G1 X47.818758 Y55.222282 F100.000000
G1 X47.771609 Y55.201601 F100.000000
G1 X47.720300 Y55.197349 F100.000000
G1 X47.670390 Y55.209988 F100.000000
G1 X47.627288 Y55.238148 F100.000000
G1 X47.595665 Y55.278777 F100.000000
G1 X47.578948 Y55.327472 F100.000000
G1 Y55.378958 F100.000000
G1 X47.595665 Y55.427653 F100.000000
G1 X47.627288 Y55.468282 F100.000000
G1 X47.670390 Y55.496442 F100.000000
G1 X47.720300 Y55.509081 F100.000000
G1 X47.771609 Y55.504829 F100.000000
G1 X47.818758 Y55.484148 F100.000000
G1 X47.856637 Y55.449278 F100.000000
G1 X47.881141 Y55.403998 F100.000000
G1 X47.889615 Y55.353215 F100.000000
G0 Z-0.566667 F30.000000
G1 X47.881141 Y55.302432 F100.000000
G1 X47.856637 Y55.257152 F100.000000
G1 X47.818758 Y55.222282 F100.000000
G1 X47.771609 Y55.201601 F100.000000
G1 X47.720300 Y55.197349 F100.000000
G1 X47.670390 Y55.209988 F100.000000
G1 X47.627288 Y55.238148 F100.000000
G1 X47.595665 Y55.278777 F100.000000
G1 X47.578948 Y55.327472 F100.000000
G1 Y55.378958 F100.000000
G1 X47.595665 Y55.427653 F100.000000
G1 X47.627288 Y55.468282 F100.000000
G1 X47.670390 Y55.496442 F100.000000
G1 X47.720300 Y55.509081 F100.000000
G1 X47.771609 Y55.504829 F100.000000
G1 X47.818758 Y55.484148 F100.000000
G1 X47.856637 Y55.449278 F100.000000
G1 X47.881141 Y55.403998 F100.000000
G1 X47.889615 Y55.353215 F100.000000
G0 Z-0.850000 F30.000000
G1 X47.881141 Y55.302432 F100.000000
G1 X47.856637 Y55.257152 F100.000000
G1 X47.818758 Y55.222282 F100.000000
G1 X47.771609 Y55.201601 F100.000000
G1 X47.720300 Y55.197349 F100.000000
G1 X47.670390 Y55.209988 F100.000000
G1 X47.627288 Y55.238148 F100.000000
G1 X47.595665 Y55.278777 F100.000000
G1 X47.578948 Y55.327472 F100.000000
G1 Y55.378958 F100.000000
G1 X47.595665 Y55.427653 F100.000000
G1 X47.627288 Y55.468282 F100.000000
G1 X47.670390 Y55.496442 F100.000000
G1 X47.720300 Y55.509081 F100.000000
G1 X47.771609 Y55.504829 F100.000000
G1 X47.818758 Y55.484148 F100.000000
G1 X47.856637 Y55.449278 F100.000000
G1 X47.881141 Y55.403998 F100.000000
G1 X47.889615 Y55.353215 F100.000000
G0 Z-1.133333 F30.000000
G1 X47.881141 Y55.302432 F100.000000
G1 X47.856637 Y55.257152 F100.000000
G1 X47.818758 Y55.222282 F100.000000
G1 X47.771609 Y55.201601 F100.000000
G1 X47.720300 Y55.197349 F100.000000
G1 X47.670390 Y55.209988 F100.000000
G1 X47.627288 Y55.238148 F100.000000
G1 X47.595665 Y55.278777 F100.000000
G1 X47.578948 Y55.327472 F100.000000
G1 Y55.378958 F100.000000
G1 X47.595665 Y55.427653 F100.000000
G1 X47.627288 Y55.468282 F100.000000
G1 X47.670390 Y55.496442 F100.000000
G1 X47.720300 Y55.509081 F100.000000
G1 X47.771609 Y55.504829 F100.000000
G1 X47.818758 Y55.484148 F100.000000
G1 X47.856637 Y55.449278 F100.000000
G1 X47.881141 Y55.403998 F100.000000
G1 X47.889615 Y55.353215 F100.000000
G0 Z-1.416667 F30.000000
G1 X47.881141 Y55.302432 F100.000000
G1 X47.856637 Y55.257152 F100.000000
G1 X47.818758 Y55.222282 F100.000000
G1 X47.771609 Y55.201601 F100.000000
G1 X47.720300 Y55.197349 F100.000000
G1 X47.670390 Y55.209988 F100.000000
G1 X47.627288 Y55.238148 F100.000000
G1 X47.595665 Y55.278777 F100.000000
G1 X47.578948 Y55.327472 F100.000000
G1 Y55.378958 F100.000000
G1 X47.595665 Y55.427653 F100.000000
G1 X47.627288 Y55.468282 F100.000000
G1 X47.670390 Y55.496442 F100.000000
G1 X47.720300 Y55.509081 F100.000000
G1 X47.771609 Y55.504829 F100.000000
G1 X47.818758 Y55.484148 F100.000000
G1 X47.856637 Y55.449278 F100.000000
G1 X47.881141 Y55.403998 F100.000000
G1 X47.889615 Y55.353215 F100.000000
G0 Z-1.700000 F30.000000
G1 X47.881141 Y55.302432 F100.000000
G1 X47.856637 Y55.257152 F100.000000
G1 X47.818758 Y55.222282 F100.000000
G1 X47.771609 Y55.201601 F100.000000
G1 X47.720300 Y55.197349 F100.000000
G1 X47.670390 Y55.209988 F100.000000
G1 X47.627288 Y55.238148 F100.000000
G1 X47.595665 Y55.278777 F100.000000
G1 X47.578948 Y55.327472 F100.000000
G1 Y55.378958 F100.000000
G1 X47.595665 Y55.427653 F100.000000
G1 X47.627288 Y55.468282 F100.000000
G1 X47.670390 Y55.496442 F100.000000
G1 X47.720300 Y55.509081 F100.000000
G1 X47.771609 Y55.504829 F100.000000
G1 X47.818758 Y55.484148 F100.000000
G1 X47.856637 Y55.449278 F100.000000
G1 X47.881141 Y55.403998 F100.000000
G1 X47.889615 Y55.353215 F100.000000
G0 Z2.000000
G0 X47.889615 Y47.479215
G17
G0 Z-0.283333 F30.000000
G1 Y47.479215 F100.000000
G1 X47.881141 Y47.428432 F100.000000
G1 X47.856637 Y47.383152 F100.000000
G1 X47.818758 Y47.348282 F100.000000
G1 X47.771609 Y47.327601 F100.000000
G1 X47.720300 Y47.323349 F100.000000
G1 X47.670390 Y47.335988 F100.000000
G1 X47.627288 Y47.364148 F100.000000
G1 X47.595665 Y47.404777 F100.000000
G1 X47.578948 Y47.453472 F100.000000
G1 Y47.504958 F100.000000
G1 X47.595665 Y47.553653 F100.000000
G1 X47.627288 Y47.594282 F100.000000
G1 X47.670390 Y47.622442 F100.000000
G1 X47.720300 Y47.635081 F100.000000
G1 X47.771609 Y47.630829 F100.000000
G1 X47.818758 Y47.610148 F100.000000
G1 X47.856637 Y47.575278 F100.000000
G1 X47.881141 Y47.529998 F100.000000
G1 X47.889615 Y47.479215 F100.000000
G0 Z-0.566667 F30.000000
G1 X47.881141 Y47.428432 F100.000000
G1 X47.856637 Y47.383152 F100.000000
G1 X47.818758 Y47.348282 F100.000000
G1 X47.771609 Y47.327601 F100.000000
G1 X47.720300 Y47.323349 F100.000000
G1 X47.670390 Y47.335988 F100.000000
G1 X47.627288 Y47.364148 F100.000000
G1 X47.595665 Y47.404777 F100.000000
G1 X47.578948 Y47.453472 F100.000000
G1 Y47.504958 F100.000000
G1 X47.595665 Y47.553653 F100.000000
G1 X47.627288 Y47.594282 F100.000000
G1 X47.670390 Y47.622442 F100.000000
G1 X47.720300 Y47.635081 F100.000000
G1 X47.771609 Y47.630829 F100.000000
G1 X47.818758 Y47.610148 F100.000000
G1 X47.856637 Y47.575278 F100.000000
G1 X47.881141 Y47.529998 F100.000000
G1 X47.889615 Y47.479215 F100.000000
G0 Z-0.850000 F30.000000
G1 X47.881141 Y47.428432 F100.000000
G1 X47.856637 Y47.383152 F100.000000
G1 X47.818758 Y47.348282 F100.000000
G1 X47.771609 Y47.327601 F100.000000
G1 X47.720300 Y47.323349 F100.000000
G1 X47.670390 Y47.335988 F100.000000
G1 X47.627288 Y47.364148 F100.000000
G1 X47.595665 Y47.404777 F100.000000
G1 X47.578948 Y47.453472 F100.000000
G1 Y47.504958 F100.000000
G1 X47.595665 Y47.553653 F100.000000
G1 X47.627288 Y47.594282 F100.000000
G1 X47.670390 Y47.622442 F100.000000
G1 X47.720300 Y47.635081 F100.000000
G1 X47.771609 Y47.630829 F100.000000
G1 X47.818758 Y47.610148 F100.000000
G1 X47.856637 Y47.575278 F100.000000
G1 X47.881141 Y47.529998 F100.000000
G1 X47.889615 Y47.479215 F100.000000
G0 Z-1.133333 F30.000000
G1 X47.881141 Y47.428432 F100.000000
G1 X47.856637 Y47.383152 F100.000000
G1 X47.818758 Y47.348282 F100.000000
G1 X47.771609 Y47.327601 F100.000000
G1 X47.720300 Y47.323349 F100.000000
G1 X47.670390 Y47.335988 F100.000000
G1 X47.627288 Y47.364148 F100.000000
G1 X47.595665 Y47.404777 F100.000000
G1 X47.578948 Y47.453472 F100.000000
G1 Y47.504958 F100.000000
G1 X47.595665 Y47.553653 F100.000000
G1 X47.627288 Y47.594282 F100.000000
G1 X47.670390 Y47.622442 F100.000000
G1 X47.720300 Y47.635081 F100.000000
G1 X47.771609 Y47.630829 F100.000000
G1 X47.818758 Y47.610148 F100.000000
G1 X47.856637 Y47.575278 F100.000000
G1 X47.881141 Y47.529998 F100.000000
G1 X47.889615 Y47.479215 F100.000000
G0 Z-1.416667 F30.000000
G1 X47.881141 Y47.428432 F100.000000
G1 X47.856637 Y47.383152 F100.000000
G1 X47.818758 Y47.348282 F100.000000
G1 X47.771609 Y47.327601 F100.000000
G1 X47.720300 Y47.323349 F100.000000
G1 X47.670390 Y47.335988 F100.000000
G1 X47.627288 Y47.364148 F100.000000
G1 X47.595665 Y47.404777 F100.000000
G1 X47.578948 Y47.453472 F100.000000
G1 Y47.504958 F100.000000
G1 X47.595665 Y47.553653 F100.000000
G1 X47.627288 Y47.594282 F100.000000
G1 X47.670390 Y47.622442 F100.000000
G1 X47.720300 Y47.635081 F100.000000
G1 X47.771609 Y47.630829 F100.000000
G1 X47.818758 Y47.610148 F100.000000
G1 X47.856637 Y47.575278 F100.000000
G1 X47.881141 Y47.529998 F100.000000
G1 X47.889615 Y47.479215 F100.000000
G0 Z-1.700000 F30.000000
G1 X47.881141 Y47.428432 F100.000000
G1 X47.856637 Y47.383152 F100.000000
G1 X47.818758 Y47.348282 F100.000000
G1 X47.771609 Y47.327601 F100.000000
G1 X47.720300 Y47.323349 F100.000000
G1 X47.670390 Y47.335988 F100.000000
G1 X47.627288 Y47.364148 F100.000000
G1 X47.595665 Y47.404777 F100.000000
G1 X47.578948 Y47.453472 F100.000000
G1 Y47.504958 F100.000000
G1 X47.595665 Y47.553653 F100.000000
G1 X47.627288 Y47.594282 F100.000000
G1 X47.670390 Y47.622442 F100.000000
G1 X47.720300 Y47.635081 F100.000000
G1 X47.771609 Y47.630829 F100.000000
G1 X47.818758 Y47.610148 F100.000000
G1 X47.856637 Y47.575278 F100.000000
G1 X47.881141 Y47.529998 F100.000000
G1 X47.889615 Y47.479215 F100.000000
G0 Z2.000000
G0 X45.349615 Y55.353215
G17
G0 Z-0.283333 F30.000000
G1 X45.349615 Y55.353215 F100.000000
G1 X45.341141 Y55.302432 F100.000000
G1 X45.316637 Y55.257152 F100.000000
G1 X45.278758 Y55.222282 F100.000000
G1 X45.231609 Y55.201601 F100.000000
G1 X45.180300 Y55.197349 F100.000000
G1 X45.130390 Y55.209988 F100.000000
G1 X45.087288 Y55.238148 F100.000000
G1 X45.055665 Y55.278777 F100.000000
G1 X45.038948 Y55.327472 F100.000000
G1 Y55.378958 F100.000000
G1 X45.055665 Y55.427653 F100.000000
G1 X45.087288 Y55.468282 F100.000000
G1 X45.130390 Y55.496442 F100.000000
G1 X45.180300 Y55.509081 F100.000000
G1 X45.231609 Y55.504829 F100.000000
G1 X45.278758 Y55.484148 F100.000000
G1 X45.316637 Y55.449278 F100.000000
G1 X45.341141 Y55.403998 F100.000000
G1 X45.349615 Y55.353215 F100.000000
G0 Z-0.566667 F30.000000
G1 X45.341141 Y55.302432 F100.000000
G1 X45.316637 Y55.257152 F100.000000
G1 X45.278758 Y55.222282 F100.000000
G1 X45.231609 Y55.201601 F100.000000
G1 X45.180300 Y55.197349 F100.000000
G1 X45.130390 Y55.209988 F100.000000
G1 X45.087288 Y55.238148 F100.000000
G1 X45.055665 Y55.278777 F100.000000
G1 X45.038948 Y55.327472 F100.000000
G1 Y55.378958 F100.000000
G1 X45.055665 Y55.427653 F100.000000
G1 X45.087288 Y55.468282 F100.000000
G1 X45.130390 Y55.496442 F100.000000
G1 X45.180300 Y55.509081 F100.000000
G1 X45.231609 Y55.504829 F100.000000
G1 X45.278758 Y55.484148 F100.000000
G1 X45.316637 Y55.449278 F100.000000
G1 X45.341141 Y55.403998 F100.000000
G1 X45.349615 Y55.353215 F100.000000
G0 Z-0.850000 F30.000000
G1 X45.341141 Y55.302432 F100.000000
G1 X45.316637 Y55.257152 F100.000000
G1 X45.278758 Y55.222282 F100.000000
G1 X45.231609 Y55.201601 F100.000000
G1 X45.180300 Y55.197349 F100.000000
G1 X45.130390 Y55.209988 F100.000000
G1 X45.087288 Y55.238148 F100.000000
G1 X45.055665 Y55.278777 F100.000000
G1 X45.038948 Y55.327472 F100.000000
G1 Y55.378958 F100.000000
G1 X45.055665 Y55.427653 F100.000000
G1 X45.087288 Y55.468282 F100.000000
G1 X45.130390 Y55.496442 F100.000000
G1 X45.180300 Y55.509081 F100.000000
G1 X45.231609 Y55.504829 F100.000000
G1 X45.278758 Y55.484148 F100.000000
G1 X45.316637 Y55.449278 F100.000000
G1 X45.341141 Y55.403998 F100.000000
G1 X45.349615 Y55.353215 F100.000000
G0 Z-1.133333 F30.000000
G1 X45.341141 Y55.302432 F100.000000
G1 X45.316637 Y55.257152 F100.000000
G1 X45.278758 Y55.222282 F100.000000
G1 X45.231609 Y55.201601 F100.000000
G1 X45.180300 Y55.197349 F100.000000
G1 X45.130390 Y55.209988 F100.000000
G1 X45.087288 Y55.238148 F100.000000
G1 X45.055665 Y55.278777 F100.000000
G1 X45.038948 Y55.327472 F100.000000
G1 Y55.378958 F100.000000
G1 X45.055665 Y55.427653 F100.000000
G1 X45.087288 Y55.468282 F100.000000
G1 X45.130390 Y55.496442 F100.000000
G1 X45.180300 Y55.509081 F100.000000
G1 X45.231609 Y55.504829 F100.000000
G1 X45.278758 Y55.484148 F100.000000
G1 X45.316637 Y55.449278 F100.000000
G1 X45.341141 Y55.403998 F100.000000
G1 X45.349615 Y55.353215 F100.000000
G0 Z-1.416667 F30.000000
G1 X45.341141 Y55.302432 F100.000000
G1 X45.316637 Y55.257152 F100.000000
G1 X45.278758 Y55.222282 F100.000000
G1 X45.231609 Y55.201601 F100.000000
G1 X45.180300 Y55.197349 F100.000000
G1 X45.130390 Y55.209988 F100.000000
G1 X45.087288 Y55.238148 F100.000000
G1 X45.055665 Y55.278777 F100.000000
G1 X45.038948 Y55.327472 F100.000000
G1 Y55.378958 F100.000000
G1 X45.055665 Y55.427653 F100.000000
G1 X45.087288 Y55.468282 F100.000000
G1 X45.130390 Y55.496442 F100.000000
G1 X45.180300 Y55.509081 F100.000000
G1 X45.231609 Y55.504829 F100.000000
G1 X45.278758 Y55.484148 F100.000000
G1 X45.316637 Y55.449278 F100.000000
G1 X45.341141 Y55.403998 F100.000000
G1 X45.349615 Y55.353215 F100.000000
G0 Z-1.700000 F30.000000
G1 X45.341141 Y55.302432 F100.000000
G1 X45.316637 Y55.257152 F100.000000
G1 X45.278758 Y55.222282 F100.000000
G1 X45.231609 Y55.201601 F100.000000
G1 X45.180300 Y55.197349 F100.000000
G1 X45.130390 Y55.209988 F100.000000
G1 X45.087288 Y55.238148 F100.000000
G1 X45.055665 Y55.278777 F100.000000
G1 X45.038948 Y55.327472 F100.000000
G1 Y55.378958 F100.000000
G1 X45.055665 Y55.427653 F100.000000
G1 X45.087288 Y55.468282 F100.000000
G1 X45.130390 Y55.496442 F100.000000
G1 X45.180300 Y55.509081 F100.000000
G1 X45.231609 Y55.504829 F100.000000
G1 X45.278758 Y55.484148 F100.000000
G1 X45.316637 Y55.449278 F100.000000
G1 X45.341141 Y55.403998 F100.000000
G1 X45.349615 Y55.353215 F100.000000
G0 Z2.000000
G0 X45.349615 Y47.479215
G17
G0 Z-0.283333 F30.000000
G1 Y47.479215 F100.000000
G1 X45.341141 Y47.428432 F100.000000
G1 X45.316637 Y47.383152 F100.000000
G1 X45.278758 Y47.348282 F100.000000
G1 X45.231609 Y47.327601 F100.000000
G1 X45.180300 Y47.323349 F100.000000
G1 X45.130390 Y47.335988 F100.000000
G1 X45.087288 Y47.364148 F100.000000
G1 X45.055665 Y47.404777 F100.000000
G1 X45.038948 Y47.453472 F100.000000
G1 Y47.504958 F100.000000
G1 X45.055665 Y47.553653 F100.000000
G1 X45.087288 Y47.594282 F100.000000
G1 X45.130390 Y47.622442 F100.000000
G1 X45.180300 Y47.635081 F100.000000
G1 X45.231609 Y47.630829 F100.000000
G1 X45.278758 Y47.610148 F100.000000
G1 X45.316637 Y47.575278 F100.000000
G1 X45.341141 Y47.529998 F100.000000
G1 X45.349615 Y47.479215 F100.000000
G0 Z-0.566667 F30.000000
G1 X45.341141 Y47.428432 F100.000000
G1 X45.316637 Y47.383152 F100.000000
G1 X45.278758 Y47.348282 F100.000000
G1 X45.231609 Y47.327601 F100.000000
G1 X45.180300 Y47.323349 F100.000000
G1 X45.130390 Y47.335988 F100.000000
G1 X45.087288 Y47.364148 F100.000000
G1 X45.055665 Y47.404777 F100.000000
G1 X45.038948 Y47.453472 F100.000000
G1 Y47.504958 F100.000000
G1 X45.055665 Y47.553653 F100.000000
G1 X45.087288 Y47.594282 F100.000000
G1 X45.130390 Y47.622442 F100.000000
G1 X45.180300 Y47.635081 F100.000000
G1 X45.231609 Y47.630829 F100.000000
G1 X45.278758 Y47.610148 F100.000000
G1 X45.316637 Y47.575278 F100.000000
G1 X45.341141 Y47.529998 F100.000000
G1 X45.349615 Y47.479215 F100.000000
G0 Z-0.850000 F30.000000
G1 X45.341141 Y47.428432 F100.000000
G1 X45.316637 Y47.383152 F100.000000
G1 X45.278758 Y47.348282 F100.000000
G1 X45.231609 Y47.327601 F100.000000
G1 X45.180300 Y47.323349 F100.000000
G1 X45.130390 Y47.335988 F100.000000
G1 X45.087288 Y47.364148 F100.000000
G1 X45.055665 Y47.404777 F100.000000
G1 X45.038948 Y47.453472 F100.000000
G1 Y47.504958 F100.000000
G1 X45.055665 Y47.553653 F100.000000
G1 X45.087288 Y47.594282 F100.000000
G1 X45.130390 Y47.622442 F100.000000
G1 X45.180300 Y47.635081 F100.000000
G1 X45.231609 Y47.630829 F100.000000
G1 X45.278758 Y47.610148 F100.000000
G1 X45.316637 Y47.575278 F100.000000
G1 X45.341141 Y47.529998 F100.000000
G1 X45.349615 Y47.479215 F100.000000
G0 Z-1.133333 F30.000000
G1 X45.341141 Y47.428432 F100.000000
G1 X45.316637 Y47.383152 F100.000000
G1 X45.278758 Y47.348282 F100.000000
G1 X45.231609 Y47.327601 F100.000000
G1 X45.180300 Y47.323349 F100.000000
G1 X45.130390 Y47.335988 F100.000000
G1 X45.087288 Y47.364148 F100.000000
G1 X45.055665 Y47.404777 F100.000000
G1 X45.038948 Y47.453472 F100.000000
G1 Y47.504958 F100.000000
G1 X45.055665 Y47.553653 F100.000000
G1 X45.087288 Y47.594282 F100.000000
G1 X45.130390 Y47.622442 F100.000000
G1 X45.180300 Y47.635081 F100.000000
G1 X45.231609 Y47.630829 F100.000000
G1 X45.278758 Y47.610148 F100.000000
G1 X45.316637 Y47.575278 F100.000000
G1 X45.341141 Y47.529998 F100.000000
G1 X45.349615 Y47.479215 F100.000000
G0 Z-1.416667 F30.000000
G1 X45.341141 Y47.428432 F100.000000
G1 X45.316637 Y47.383152 F100.000000
G1 X45.278758 Y47.348282 F100.000000
G1 X45.231609 Y47.327601 F100.000000
G1 X45.180300 Y47.323349 F100.000000
G1 X45.130390 Y47.335988 F100.000000
G1 X45.087288 Y47.364148 F100.000000
G1 X45.055665 Y47.404777 F100.000000
G1 X45.038948 Y47.453472 F100.000000
G1 Y47.504958 F100.000000
G1 X45.055665 Y47.553653 F100.000000
G1 X45.087288 Y47.594282 F100.000000
G1 X45.130390 Y47.622442 F100.000000
G1 X45.180300 Y47.635081 F100.000000
G1 X45.231609 Y47.630829 F100.000000
G1 X45.278758 Y47.610148 F100.000000
G1 X45.316637 Y47.575278 F100.000000
G1 X45.341141 Y47.529998 F100.000000
G1 X45.349615 Y47.479215 F100.000000
G0 Z-1.700000 F30.000000
G1 X45.341141 Y47.428432 F100.000000
G1 X45.316637 Y47.383152 F100.000000
G1 X45.278758 Y47.348282 F100.000000
G1 X45.231609 Y47.327601 F100.000000
G1 X45.180300 Y47.323349 F100.000000
G1 X45.130390 Y47.335988 F100.000000
G1 X45.087288 Y47.364148 F100.000000
G1 X45.055665 Y47.404777 F100.000000
G1 X45.038948 Y47.453472 F100.000000
G1 Y47.504958 F100.000000
G1 X45.055665 Y47.553653 F100.000000
G1 X45.087288 Y47.594282 F100.000000
G1 X45.130390 Y47.622442 F100.000000
G1 X45.180300 Y47.635081 F100.000000
G1 X45.231609 Y47.630829 F100.000000
G1 X45.278758 Y47.610148 F100.000000
G1 X45.316637 Y47.575278 F100.000000
G1 X45.341141 Y47.529998 F100.000000
G1 X45.349615 Y47.479215 F100.000000
G0 Z2.000000
G0 X42.936615 Y51.797215
G17
G0 Z-0.283333 F30.000000
G1 X42.936615 Y51.797215 F100.000000
G1 X42.928141 Y51.746432 F100.000000
G1 X42.903637 Y51.701152 F100.000000
G1 X42.865758 Y51.666282 F100.000000
G1 X42.818609 Y51.645601 F100.000000
G1 X42.767300 Y51.641349 F100.000000
G1 X42.717390 Y51.653988 F100.000000
G1 X42.674288 Y51.682148 F100.000000
G1 X42.642665 Y51.722777 F100.000000
G1 X42.625948 Y51.771472 F100.000000
G1 Y51.822958 F100.000000
G1 X42.642665 Y51.871653 F100.000000
G1 X42.674288 Y51.912282 F100.000000
G1 X42.717390 Y51.940442 F100.000000
G1 X42.767300 Y51.953081 F100.000000
G1 X42.818609 Y51.948829 F100.000000
G1 X42.865758 Y51.928148 F100.000000
G1 X42.903637 Y51.893278 F100.000000
G1 X42.928141 Y51.847998 F100.000000
G1 X42.936615 Y51.797215 F100.000000
G0 Z-0.566667 F30.000000
G1 X42.928141 Y51.746432 F100.000000
G1 X42.903637 Y51.701152 F100.000000
G1 X42.865758 Y51.666282 F100.000000
G1 X42.818609 Y51.645601 F100.000000
G1 X42.767300 Y51.641349 F100.000000
G1 X42.717390 Y51.653988 F100.000000
G1 X42.674288 Y51.682148 F100.000000
G1 X42.642665 Y51.722777 F100.000000
G1 X42.625948 Y51.771472 F100.000000
G1 Y51.822958 F100.000000
G1 X42.642665 Y51.871653 F100.000000
G1 X42.674288 Y51.912282 F100.000000
G1 X42.717390 Y51.940442 F100.000000
G1 X42.767300 Y51.953081 F100.000000
G1 X42.818609 Y51.948829 F100.000000
G1 X42.865758 Y51.928148 F100.000000
G1 X42.903637 Y51.893278 F100.000000
G1 X42.928141 Y51.847998 F100.000000
G1 X42.936615 Y51.797215 F100.000000
G0 Z-0.850000 F30.000000
G1 X42.928141 Y51.746432 F100.000000
G1 X42.903637 Y51.701152 F100.000000
G1 X42.865758 Y51.666282 F100.000000
G1 X42.818609 Y51.645601 F100.000000
G1 X42.767300 Y51.641349 F100.000000
G1 X42.717390 Y51.653988 F100.000000
G1 X42.674288 Y51.682148 F100.000000
G1 X42.642665 Y51.722777 F100.000000
G1 X42.625948 Y51.771472 F100.000000
G1 Y51.822958 F100.000000
G1 X42.642665 Y51.871653 F100.000000
G1 X42.674288 Y51.912282 F100.000000
G1 X42.717390 Y51.940442 F100.000000
G1 X42.767300 Y51.953081 F100.000000
G1 X42.818609 Y51.948829 F100.000000
G1 X42.865758 Y51.928148 F100.000000
G1 X42.903637 Y51.893278 F100.000000
G1 X42.928141 Y51.847998 F100.000000
G1 X42.936615 Y51.797215 F100.000000
G0 Z-1.133333 F30.000000
G1 X42.928141 Y51.746432 F100.000000
G1 X42.903637 Y51.701152 F100.000000
G1 X42.865758 Y51.666282 F100.000000
G1 X42.818609 Y51.645601 F100.000000
G1 X42.767300 Y51.641349 F100.000000
G1 X42.717390 Y51.653988 F100.000000
G1 X42.674288 Y51.682148 F100.000000
G1 X42.642665 Y51.722777 F100.000000
G1 X42.625948 Y51.771472 F100.000000
G1 Y51.822958 F100.000000
G1 X42.642665 Y51.871653 F100.000000
G1 X42.674288 Y51.912282 F100.000000
G1 X42.717390 Y51.940442 F100.000000
G1 X42.767300 Y51.953081 F100.000000
G1 X42.818609 Y51.948829 F100.000000
G1 X42.865758 Y51.928148 F100.000000
G1 X42.903637 Y51.893278 F100.000000
G1 X42.928141 Y51.847998 F100.000000
G1 X42.936615 Y51.797215 F100.000000
G0 Z-1.416667 F30.000000
G1 X42.928141 Y51.746432 F100.000000
G1 X42.903637 Y51.701152 F100.000000
G1 X42.865758 Y51.666282 F100.000000
G1 X42.818609 Y51.645601 F100.000000
G1 X42.767300 Y51.641349 F100.000000
G1 X42.717390 Y51.653988 F100.000000
G1 X42.674288 Y51.682148 F100.000000
G1 X42.642665 Y51.722777 F100.000000
G1 X42.625948 Y51.771472 F100.000000
G1 Y51.822958 F100.000000
G1 X42.642665 Y51.871653 F100.000000
G1 X42.674288 Y51.912282 F100.000000
G1 X42.717390 Y51.940442 F100.000000
G1 X42.767300 Y51.953081 F100.000000
G1 X42.818609 Y51.948829 F100.000000
G1 X42.865758 Y51.928148 F100.000000
G1 X42.903637 Y51.893278 F100.000000
G1 X42.928141 Y51.847998 F100.000000
G1 X42.936615 Y51.797215 F100.000000
G0 Z-1.700000 F30.000000
G1 X42.928141 Y51.746432 F100.000000
G1 X42.903637 Y51.701152 F100.000000
G1 X42.865758 Y51.666282 F100.000000
G1 X42.818609 Y51.645601 F100.000000
G1 X42.767300 Y51.641349 F100.000000
G1 X42.717390 Y51.653988 F100.000000
G1 X42.674288 Y51.682148 F100.000000
G1 X42.642665 Y51.722777 F100.000000
G1 X42.625948 Y51.771472 F100.000000
G1 Y51.822958 F100.000000
G1 X42.642665 Y51.871653 F100.000000
G1 X42.674288 Y51.912282 F100.000000
G1 X42.717390 Y51.940442 F100.000000
G1 X42.767300 Y51.953081 F100.000000
G1 X42.818609 Y51.948829 F100.000000
G1 X42.865758 Y51.928148 F100.000000
G1 X42.903637 Y51.893278 F100.000000
G1 X42.928141 Y51.847998 F100.000000
G1 X42.936615 Y51.797215 F100.000000
G0 Z2.000000
G0 X42.809615 Y55.353215
G17
G0 Z-0.283333 F30.000000
G1 X42.809615 Y55.353215 F100.000000
G1 X42.801141 Y55.302432 F100.000000
G1 X42.776637 Y55.257152 F100.000000
G1 X42.738758 Y55.222282 F100.000000
G1 X42.691609 Y55.201601 F100.000000
G1 X42.640300 Y55.197349 F100.000000
G1 X42.590390 Y55.209988 F100.000000
G1 X42.547288 Y55.238148 F100.000000
G1 X42.515665 Y55.278777 F100.000000
G1 X42.498948 Y55.327472 F100.000000
G1 Y55.378958 F100.000000
G1 X42.515665 Y55.427653 F100.000000
G1 X42.547288 Y55.468282 F100.000000
G1 X42.590390 Y55.496442 F100.000000
G1 X42.640300 Y55.509081 F100.000000
G1 X42.691609 Y55.504829 F100.000000
G1 X42.738758 Y55.484148 F100.000000
G1 X42.776637 Y55.449278 F100.000000
G1 X42.801141 Y55.403998 F100.000000
G1 X42.809615 Y55.353215 F100.000000
G0 Z-0.566667 F30.000000
G1 X42.801141 Y55.302432 F100.000000
G1 X42.776637 Y55.257152 F100.000000
G1 X42.738758 Y55.222282 F100.000000
G1 X42.691609 Y55.201601 F100.000000
G1 X42.640300 Y55.197349 F100.000000
G1 X42.590390 Y55.209988 F100.000000
G1 X42.547288 Y55.238148 F100.000000
G1 X42.515665 Y55.278777 F100.000000
G1 X42.498948 Y55.327472 F100.000000
G1 Y55.378958 F100.000000
G1 X42.515665 Y55.427653 F100.000000
G1 X42.547288 Y55.468282 F100.000000
G1 X42.590390 Y55.496442 F100.000000
G1 X42.640300 Y55.509081 F100.000000
G1 X42.691609 Y55.504829 F100.000000
G1 X42.738758 Y55.484148 F100.000000
G1 X42.776637 Y55.449278 F100.000000
G1 X42.801141 Y55.403998 F100.000000
G1 X42.809615 Y55.353215 F100.000000
G0 Z-0.850000 F30.000000
G1 X42.801141 Y55.302432 F100.000000
G1 X42.776637 Y55.257152 F100.000000
G1 X42.738758 Y55.222282 F100.000000
G1 X42.691609 Y55.201601 F100.000000
G1 X42.640300 Y55.197349 F100.000000
G1 X42.590390 Y55.209988 F100.000000
G1 X42.547288 Y55.238148 F100.000000
G1 X42.515665 Y55.278777 F100.000000
G1 X42.498948 Y55.327472 F100.000000
G1 Y55.378958 F100.000000
G1 X42.515665 Y55.427653 F100.000000
G1 X42.547288 Y55.468282 F100.000000
G1 X42.590390 Y55.496442 F100.000000
G1 X42.640300 Y55.509081 F100.000000
G1 X42.691609 Y55.504829 F100.000000
G1 X42.738758 Y55.484148 F100.000000
G1 X42.776637 Y55.449278 F100.000000
G1 X42.801141 Y55.403998 F100.000000
G1 X42.809615 Y55.353215 F100.000000
G0 Z-1.133333 F30.000000
G1 X42.801141 Y55.302432 F100.000000
G1 X42.776637 Y55.257152 F100.000000
G1 X42.738758 Y55.222282 F100.000000
G1 X42.691609 Y55.201601 F100.000000
G1 X42.640300 Y55.197349 F100.000000
G1 X42.590390 Y55.209988 F100.000000
G1 X42.547288 Y55.238148 F100.000000
G1 X42.515665 Y55.278777 F100.000000
G1 X42.498948 Y55.327472 F100.000000
G1 Y55.378958 F100.000000
G1 X42.515665 Y55.427653 F100.000000
G1 X42.547288 Y55.468282 F100.000000
G1 X42.590390 Y55.496442 F100.000000
G1 X42.640300 Y55.509081 F100.000000
G1 X42.691609 Y55.504829 F100.000000
G1 X42.738758 Y55.484148 F100.000000
G1 X42.776637 Y55.449278 F100.000000
G1 X42.801141 Y55.403998 F100.000000
G1 X42.809615 Y55.353215 F100.000000
G0 Z-1.416667 F30.000000
G1 X42.801141 Y55.302432 F100.000000
G1 X42.776637 Y55.257152 F100.000000
G1 X42.738758 Y55.222282 F100.000000
G1 X42.691609 Y55.201601 F100.000000
G1 X42.640300 Y55.197349 F100.000000
G1 X42.590390 Y55.209988 F100.000000
G1 X42.547288 Y55.238148 F100.000000
G1 X42.515665 Y55.278777 F100.000000
G1 X42.498948 Y55.327472 F100.000000
G1 Y55.378958 F100.000000
G1 X42.515665 Y55.427653 F100.000000
G1 X42.547288 Y55.468282 F100.000000
G1 X42.590390 Y55.496442 F100.000000
G1 X42.640300 Y55.509081 F100.000000
G1 X42.691609 Y55.504829 F100.000000
G1 X42.738758 Y55.484148 F100.000000
G1 X42.776637 Y55.449278 F100.000000
G1 X42.801141 Y55.403998 F100.000000
G1 X42.809615 Y55.353215 F100.000000
G0 Z-1.700000 F30.000000
G1 X42.801141 Y55.302432 F100.000000
G1 X42.776637 Y55.257152 F100.000000
G1 X42.738758 Y55.222282 F100.000000
G1 X42.691609 Y55.201601 F100.000000
G1 X42.640300 Y55.197349 F100.000000
G1 X42.590390 Y55.209988 F100.000000
G1 X42.547288 Y55.238148 F100.000000
G1 X42.515665 Y55.278777 F100.000000
G1 X42.498948 Y55.327472 F100.000000
G1 Y55.378958 F100.000000
G1 X42.515665 Y55.427653 F100.000000
G1 X42.547288 Y55.468282 F100.000000
G1 X42.590390 Y55.496442 F100.000000
G1 X42.640300 Y55.509081 F100.000000
G1 X42.691609 Y55.504829 F100.000000
G1 X42.738758 Y55.484148 F100.000000
G1 X42.776637 Y55.449278 F100.000000
G1 X42.801141 Y55.403998 F100.000000
G1 X42.809615 Y55.353215 F100.000000
G0 Z2.000000
G0 X40.269615 Y55.353215
G17
G0 Z-0.283333 F30.000000
G1 X40.269615 F100.000000
G1 X40.261141 Y55.302432 F100.000000
G1 X40.236637 Y55.257152 F100.000000
G1 X40.198758 Y55.222282 F100.000000
G1 X40.151609 Y55.201601 F100.000000
G1 X40.100300 Y55.197349 F100.000000
G1 X40.050390 Y55.209988 F100.000000
G1 X40.007288 Y55.238148 F100.000000
G1 X39.975665 Y55.278777 F100.000000
G1 X39.958948 Y55.327472 F100.000000
G1 Y55.378958 F100.000000
G1 X39.975665 Y55.427653 F100.000000
G1 X40.007288 Y55.468282 F100.000000
G1 X40.050390 Y55.496442 F100.000000
G1 X40.100300 Y55.509081 F100.000000
G1 X40.151609 Y55.504829 F100.000000
G1 X40.198758 Y55.484148 F100.000000
G1 X40.236637 Y55.449278 F100.000000
G1 X40.261141 Y55.403998 F100.000000
G1 X40.269615 Y55.353215 F100.000000
G0 Z-0.566667 F30.000000
G1 X40.261141 Y55.302432 F100.000000
G1 X40.236637 Y55.257152 F100.000000
G1 X40.198758 Y55.222282 F100.000000
G1 X40.151609 Y55.201601 F100.000000
G1 X40.100300 Y55.197349 F100.000000
G1 X40.050390 Y55.209988 F100.000000
G1 X40.007288 Y55.238148 F100.000000
G1 X39.975665 Y55.278777 F100.000000
G1 X39.958948 Y55.327472 F100.000000
G1 Y55.378958 F100.000000
G1 X39.975665 Y55.427653 F100.000000
G1 X40.007288 Y55.468282 F100.000000
G1 X40.050390 Y55.496442 F100.000000
G1 X40.100300 Y55.509081 F100.000000
G1 X40.151609 Y55.504829 F100.000000
G1 X40.198758 Y55.484148 F100.000000
G1 X40.236637 Y55.449278 F100.000000
G1 X40.261141 Y55.403998 F100.000000
G1 X40.269615 Y55.353215 F100.000000
G0 Z-0.850000 F30.000000
G1 X40.261141 Y55.302432 F100.000000
G1 X40.236637 Y55.257152 F100.000000
G1 X40.198758 Y55.222282 F100.000000
G1 X40.151609 Y55.201601 F100.000000
G1 X40.100300 Y55.197349 F100.000000
G1 X40.050390 Y55.209988 F100.000000
G1 X40.007288 Y55.238148 F100.000000
G1 X39.975665 Y55.278777 F100.000000
G1 X39.958948 Y55.327472 F100.000000
G1 Y55.378958 F100.000000
G1 X39.975665 Y55.427653 F100.000000
G1 X40.007288 Y55.468282 F100.000000
G1 X40.050390 Y55.496442 F100.000000
G1 X40.100300 Y55.509081 F100.000000
G1 X40.151609 Y55.504829 F100.000000
G1 X40.198758 Y55.484148 F100.000000
G1 X40.236637 Y55.449278 F100.000000
G1 X40.261141 Y55.403998 F100.000000
G1 X40.269615 Y55.353215 F100.000000
G0 Z-1.133333 F30.000000
G1 X40.261141 Y55.302432 F100.000000
G1 X40.236637 Y55.257152 F100.000000
G1 X40.198758 Y55.222282 F100.000000
G1 X40.151609 Y55.201601 F100.000000
G1 X40.100300 Y55.197349 F100.000000
G1 X40.050390 Y55.209988 F100.000000
G1 X40.007288 Y55.238148 F100.000000
G1 X39.975665 Y55.278777 F100.000000
G1 X39.958948 Y55.327472 F100.000000
G1 Y55.378958 F100.000000
G1 X39.975665 Y55.427653 F100.000000
G1 X40.007288 Y55.468282 F100.000000
G1 X40.050390 Y55.496442 F100.000000
G1 X40.100300 Y55.509081 F100.000000
G1 X40.151609 Y55.504829 F100.000000
G1 X40.198758 Y55.484148 F100.000000
G1 X40.236637 Y55.449278 F100.000000
G1 X40.261141 Y55.403998 F100.000000
G1 X40.269615 Y55.353215 F100.000000
G0 Z-1.416667 F30.000000
G1 X40.261141 Y55.302432 F100.000000
G1 X40.236637 Y55.257152 F100.000000
G1 X40.198758 Y55.222282 F100.000000
G1 X40.151609 Y55.201601 F100.000000
G1 X40.100300 Y55.197349 F100.000000
G1 X40.050390 Y55.209988 F100.000000
G1 X40.007288 Y55.238148 F100.000000
G1 X39.975665 Y55.278777 F100.000000
G1 X39.958948 Y55.327472 F100.000000
G1 Y55.378958 F100.000000
G1 X39.975665 Y55.427653 F100.000000
G1 X40.007288 Y55.468282 F100.000000
G1 X40.050390 Y55.496442 F100.000000
G1 X40.100300 Y55.509081 F100.000000
G1 X40.151609 Y55.504829 F100.000000
G1 X40.198758 Y55.484148 F100.000000
G1 X40.236637 Y55.449278 F100.000000
G1 X40.261141 Y55.403998 F100.000000
G1 X40.269615 Y55.353215 F100.000000
G0 Z-1.700000 F30.000000
G1 X40.261141 Y55.302432 F100.000000
G1 X40.236637 Y55.257152 F100.000000
G1 X40.198758 Y55.222282 F100.000000
G1 X40.151609 Y55.201601 F100.000000
G1 X40.100300 Y55.197349 F100.000000
G1 X40.050390 Y55.209988 F100.000000
G1 X40.007288 Y55.238148 F100.000000
G1 X39.975665 Y55.278777 F100.000000
G1 X39.958948 Y55.327472 F100.000000
G1 Y55.378958 F100.000000
G1 X39.975665 Y55.427653 F100.000000
G1 X40.007288 Y55.468282 F100.000000
G1 X40.050390 Y55.496442 F100.000000
G1 X40.100300 Y55.509081 F100.000000
G1 X40.151609 Y55.504829 F100.000000
G1 X40.198758 Y55.484148 F100.000000
G1 X40.236637 Y55.449278 F100.000000
G1 X40.261141 Y55.403998 F100.000000
G1 X40.269615 Y55.353215 F100.000000
G0 Z2.000000
G0 X38.745615 Y7.093215
G17
G0 Z-0.283333 F30.000000
G1 X38.745615 Y7.093215 F100.000000
G1 X38.737141 Y7.042432 F100.000000
G1 X38.712637 Y6.997152 F100.000000
G1 X38.674758 Y6.962282 F100.000000
G1 X38.627609 Y6.941601 F100.000000
G1 X38.576300 Y6.937349 F100.000000
G1 X38.526390 Y6.949988 F100.000000
G1 X38.483288 Y6.978148 F100.000000
G1 X38.451665 Y7.018777 F100.000000
G1 X38.434948 Y7.067472 F100.000000
G1 Y7.118958 F100.000000
G1 X38.451665 Y7.167653 F100.000000
G1 X38.483288 Y7.208282 F100.000000
G1 X38.526390 Y7.236442 F100.000000
G1 X38.576300 Y7.249081 F100.000000
G1 X38.627609 Y7.244829 F100.000000
G1 X38.674758 Y7.224148 F100.000000
G1 X38.712637 Y7.189278 F100.000000
G1 X38.737141 Y7.143998 F100.000000
G1 X38.745615 Y7.093215 F100.000000
G0 Z-0.566667 F30.000000
G1 X38.737141 Y7.042432 F100.000000
G1 X38.712637 Y6.997152 F100.000000
G1 X38.674758 Y6.962282 F100.000000
G1 X38.627609 Y6.941601 F100.000000
G1 X38.576300 Y6.937349 F100.000000
G1 X38.526390 Y6.949988 F100.000000
G1 X38.483288 Y6.978148 F100.000000
G1 X38.451665 Y7.018777 F100.000000
G1 X38.434948 Y7.067472 F100.000000
G1 Y7.118958 F100.000000
G1 X38.451665 Y7.167653 F100.000000
G1 X38.483288 Y7.208282 F100.000000
G1 X38.526390 Y7.236442 F100.000000
G1 X38.576300 Y7.249081 F100.000000
G1 X38.627609 Y7.244829 F100.000000
G1 X38.674758 Y7.224148 F100.000000
G1 X38.712637 Y7.189278 F100.000000
G1 X38.737141 Y7.143998 F100.000000
G1 X38.745615 Y7.093215 F100.000000
G0 Z-0.850000 F30.000000
G1 X38.737141 Y7.042432 F100.000000
G1 X38.712637 Y6.997152 F100.000000
G1 X38.674758 Y6.962282 F100.000000
G1 X38.627609 Y6.941601 F100.000000
G1 X38.576300 Y6.937349 F100.000000
G1 X38.526390 Y6.949988 F100.000000
G1 X38.483288 Y6.978148 F100.000000
G1 X38.451665 Y7.018777 F100.000000
G1 X38.434948 Y7.067472 F100.000000
G1 Y7.118958 F100.000000
G1 X38.451665 Y7.167653 F100.000000
G1 X38.483288 Y7.208282 F100.000000
G1 X38.526390 Y7.236442 F100.000000
G1 X38.576300 Y7.249081 F100.000000
G1 X38.627609 Y7.244829 F100.000000
G1 X38.674758 Y7.224148 F100.000000
G1 X38.712637 Y7.189278 F100.000000
G1 X38.737141 Y7.143998 F100.000000
G1 X38.745615 Y7.093215 F100.000000
G0 Z-1.133333 F30.000000
G1 X38.737141 Y7.042432 F100.000000
G1 X38.712637 Y6.997152 F100.000000
G1 X38.674758 Y6.962282 F100.000000
G1 X38.627609 Y6.941601 F100.000000
G1 X38.576300 Y6.937349 F100.000000
G1 X38.526390 Y6.949988 F100.000000
G1 X38.483288 Y6.978148 F100.000000
G1 X38.451665 Y7.018777 F100.000000
G1 X38.434948 Y7.067472 F100.000000
G1 Y7.118958 F100.000000
G1 X38.451665 Y7.167653 F100.000000
G1 X38.483288 Y7.208282 F100.000000
G1 X38.526390 Y7.236442 F100.000000
G1 X38.576300 Y7.249081 F100.000000
G1 X38.627609 Y7.244829 F100.000000
G1 X38.674758 Y7.224148 F100.000000
G1 X38.712637 Y7.189278 F100.000000
G1 X38.737141 Y7.143998 F100.000000
G1 X38.745615 Y7.093215 F100.000000
G0 Z-1.416667 F30.000000
G1 X38.737141 Y7.042432 F100.000000
G1 X38.712637 Y6.997152 F100.000000
G1 X38.674758 Y6.962282 F100.000000
G1 X38.627609 Y6.941601 F100.000000
G1 X38.576300 Y6.937349 F100.000000
G1 X38.526390 Y6.949988 F100.000000
G1 X38.483288 Y6.978148 F100.000000
G1 X38.451665 Y7.018777 F100.000000
G1 X38.434948 Y7.067472 F100.000000
G1 Y7.118958 F100.000000
G1 X38.451665 Y7.167653 F100.000000
G1 X38.483288 Y7.208282 F100.000000
G1 X38.526390 Y7.236442 F100.000000
G1 X38.576300 Y7.249081 F100.000000
G1 X38.627609 Y7.244829 F100.000000
G1 X38.674758 Y7.224148 F100.000000
G1 X38.712637 Y7.189278 F100.000000
G1 X38.737141 Y7.143998 F100.000000
G1 X38.745615 Y7.093215 F100.000000
G0 Z-1.700000 F30.000000
G1 X38.737141 Y7.042432 F100.000000
G1 X38.712637 Y6.997152 F100.000000
G1 X38.674758 Y6.962282 F100.000000
G1 X38.627609 Y6.941601 F100.000000
G1 X38.576300 Y6.937349 F100.000000
G1 X38.526390 Y6.949988 F100.000000
G1 X38.483288 Y6.978148 F100.000000
G1 X38.451665 Y7.018777 F100.000000
G1 X38.434948 Y7.067472 F100.000000
G1 Y7.118958 F100.000000
G1 X38.451665 Y7.167653 F100.000000
G1 X38.483288 Y7.208282 F100.000000
G1 X38.526390 Y7.236442 F100.000000
G1 X38.576300 Y7.249081 F100.000000
G1 X38.627609 Y7.244829 F100.000000
G1 X38.674758 Y7.224148 F100.000000
G1 X38.712637 Y7.189278 F100.000000
G1 X38.737141 Y7.143998 F100.000000
G1 X38.745615 Y7.093215 F100.000000
G0 Z2.000000
G0 X37.729615 Y55.353215
G17
G0 Z-0.283333 F30.000000
G1 X37.729615 Y55.353215 F100.000000
G1 X37.721141 Y55.302432 F100.000000
G1 X37.696637 Y55.257152 F100.000000
G1 X37.658758 Y55.222282 F100.000000
G1 X37.611609 Y55.201601 F100.000000
G1 X37.560300 Y55.197349 F100.000000
G1 X37.510390 Y55.209988 F100.000000
G1 X37.467288 Y55.238148 F100.000000
G1 X37.435665 Y55.278777 F100.000000
G1 X37.418948 Y55.327472 F100.000000
G1 Y55.378958 F100.000000
G1 X37.435665 Y55.427653 F100.000000
G1 X37.467288 Y55.468282 F100.000000
G1 X37.510390 Y55.496442 F100.000000
G1 X37.560300 Y55.509081 F100.000000
G1 X37.611609 Y55.504829 F100.000000
G1 X37.658758 Y55.484148 F100.000000
G1 X37.696637 Y55.449278 F100.000000
G1 X37.721141 Y55.403998 F100.000000
G1 X37.729615 Y55.353215 F100.000000
G0 Z-0.566667 F30.000000
G1 X37.721141 Y55.302432 F100.000000
G1 X37.696637 Y55.257152 F100.000000
G1 X37.658758 Y55.222282 F100.000000
G1 X37.611609 Y55.201601 F100.000000
G1 X37.560300 Y55.197349 F100.000000
G1 X37.510390 Y55.209988 F100.000000
G1 X37.467288 Y55.238148 F100.000000
G1 X37.435665 Y55.278777 F100.000000
G1 X37.418948 Y55.327472 F100.000000
G1 Y55.378958 F100.000000
G1 X37.435665 Y55.427653 F100.000000
G1 X37.467288 Y55.468282 F100.000000
G1 X37.510390 Y55.496442 F100.000000
G1 X37.560300 Y55.509081 F100.000000
G1 X37.611609 Y55.504829 F100.000000
G1 X37.658758 Y55.484148 F100.000000
G1 X37.696637 Y55.449278 F100.000000
G1 X37.721141 Y55.403998 F100.000000
G1 X37.729615 Y55.353215 F100.000000
G0 Z-0.850000 F30.000000
G1 X37.721141 Y55.302432 F100.000000
G1 X37.696637 Y55.257152 F100.000000
G1 X37.658758 Y55.222282 F100.000000
G1 X37.611609 Y55.201601 F100.000000
G1 X37.560300 Y55.197349 F100.000000
G1 X37.510390 Y55.209988 F100.000000
G1 X37.467288 Y55.238148 F100.000000
G1 X37.435665 Y55.278777 F100.000000
G1 X37.418948 Y55.327472 F100.000000
G1 Y55.378958 F100.000000
G1 X37.435665 Y55.427653 F100.000000
G1 X37.467288 Y55.468282 F100.000000
G1 X37.510390 Y55.496442 F100.000000
G1 X37.560300 Y55.509081 F100.000000
G1 X37.611609 Y55.504829 F100.000000
G1 X37.658758 Y55.484148 F100.000000
G1 X37.696637 Y55.449278 F100.000000
G1 X37.721141 Y55.403998 F100.000000
G1 X37.729615 Y55.353215 F100.000000
G0 Z-1.133333 F30.000000
G1 X37.721141 Y55.302432 F100.000000
G1 X37.696637 Y55.257152 F100.000000
G1 X37.658758 Y55.222282 F100.000000
G1 X37.611609 Y55.201601 F100.000000
G1 X37.560300 Y55.197349 F100.000000
G1 X37.510390 Y55.209988 F100.000000
G1 X37.467288 Y55.238148 F100.000000
G1 X37.435665 Y55.278777 F100.000000
G1 X37.418948 Y55.327472 F100.000000
G1 Y55.378958 F100.000000
G1 X37.435665 Y55.427653 F100.000000
G1 X37.467288 Y55.468282 F100.000000
G1 X37.510390 Y55.496442 F100.000000
G1 X37.560300 Y55.509081 F100.000000
G1 X37.611609 Y55.504829 F100.000000
G1 X37.658758 Y55.484148 F100.000000
G1 X37.696637 Y55.449278 F100.000000
G1 X37.721141 Y55.403998 F100.000000
G1 X37.729615 Y55.353215 F100.000000
G0 Z-1.416667 F30.000000
G1 X37.721141 Y55.302432 F100.000000
G1 X37.696637 Y55.257152 F100.000000
G1 X37.658758 Y55.222282 F100.000000
G1 X37.611609 Y55.201601 F100.000000
G1 X37.560300 Y55.197349 F100.000000
G1 X37.510390 Y55.209988 F100.000000
G1 X37.467288 Y55.238148 F100.000000
G1 X37.435665 Y55.278777 F100.000000
G1 X37.418948 Y55.327472 F100.000000
G1 Y55.378958 F100.000000
G1 X37.435665 Y55.427653 F100.000000
G1 X37.467288 Y55.468282 F100.000000
G1 X37.510390 Y55.496442 F100.000000
G1 X37.560300 Y55.509081 F100.000000
G1 X37.611609 Y55.504829 F100.000000
G1 X37.658758 Y55.484148 F100.000000
G1 X37.696637 Y55.449278 F100.000000
G1 X37.721141 Y55.403998 F100.000000
G1 X37.729615 Y55.353215 F100.000000
G0 Z-1.700000 F30.000000
G1 X37.721141 Y55.302432 F100.000000
G1 X37.696637 Y55.257152 F100.000000
G1 X37.658758 Y55.222282 F100.000000
G1 X37.611609 Y55.201601 F100.000000
G1 X37.560300 Y55.197349 F100.000000
G1 X37.510390 Y55.209988 F100.000000
G1 X37.467288 Y55.238148 F100.000000
G1 X37.435665 Y55.278777 F100.000000
G1 X37.418948 Y55.327472 F100.000000
G1 Y55.378958 F100.000000
G1 X37.435665 Y55.427653 F100.000000
G1 X37.467288 Y55.468282 F100.000000
G1 X37.510390 Y55.496442 F100.000000
G1 X37.560300 Y55.509081 F100.000000
G1 X37.611609 Y55.504829 F100.000000
G1 X37.658758 Y55.484148 F100.000000
G1 X37.696637 Y55.449278 F100.000000
G1 X37.721141 Y55.403998 F100.000000
G1 X37.729615 Y55.353215 F100.000000
G0 Z2.000000
G0 X36.205615 Y7.093215
G17
G0 Z-0.283333 F30.000000
G1 X36.205615 Y7.093215 F100.000000
G1 X36.197141 Y7.042432 F100.000000
G1 X36.172637 Y6.997152 F100.000000
G1 X36.134758 Y6.962282 F100.000000
G1 X36.087609 Y6.941601 F100.000000
G1 X36.036300 Y6.937349 F100.000000
G1 X35.986390 Y6.949988 F100.000000
G1 X35.943288 Y6.978148 F100.000000
G1 X35.911665 Y7.018777 F100.000000
G1 X35.894948 Y7.067472 F100.000000
G1 Y7.118958 F100.000000
G1 X35.911665 Y7.167653 F100.000000
G1 X35.943288 Y7.208282 F100.000000
G1 X35.986390 Y7.236442 F100.000000
G1 X36.036300 Y7.249081 F100.000000
G1 X36.087609 Y7.244829 F100.000000
G1 X36.134758 Y7.224148 F100.000000
G1 X36.172637 Y7.189278 F100.000000
G1 X36.197141 Y7.143998 F100.000000
G1 X36.205615 Y7.093215 F100.000000
G0 Z-0.566667 F30.000000
G1 X36.197141 Y7.042432 F100.000000
G1 X36.172637 Y6.997152 F100.000000
G1 X36.134758 Y6.962282 F100.000000
G1 X36.087609 Y6.941601 F100.000000
G1 X36.036300 Y6.937349 F100.000000
G1 X35.986390 Y6.949988 F100.000000
G1 X35.943288 Y6.978148 F100.000000
G1 X35.911665 Y7.018777 F100.000000
G1 X35.894948 Y7.067472 F100.000000
G1 Y7.118958 F100.000000
G1 X35.911665 Y7.167653 F100.000000
G1 X35.943288 Y7.208282 F100.000000
G1 X35.986390 Y7.236442 F100.000000
G1 X36.036300 Y7.249081 F100.000000
G1 X36.087609 Y7.244829 F100.000000
G1 X36.134758 Y7.224148 F100.000000
G1 X36.172637 Y7.189278 F100.000000
G1 X36.197141 Y7.143998 F100.000000
G1 X36.205615 Y7.093215 F100.000000
G0 Z-0.850000 F30.000000
G1 X36.197141 Y7.042432 F100.000000
G1 X36.172637 Y6.997152 F100.000000
G1 X36.134758 Y6.962282 F100.000000
G1 X36.087609 Y6.941601 F100.000000
G1 X36.036300 Y6.937349 F100.000000
G1 X35.986390 Y6.949988 F100.000000
G1 X35.943288 Y6.978148 F100.000000
G1 X35.911665 Y7.018777 F100.000000
G1 X35.894948 Y7.067472 F100.000000
G1 Y7.118958 F100.000000
G1 X35.911665 Y7.167653 F100.000000
G1 X35.943288 Y7.208282 F100.000000
G1 X35.986390 Y7.236442 F100.000000
G1 X36.036300 Y7.249081 F100.000000
G1 X36.087609 Y7.244829 F100.000000
G1 X36.134758 Y7.224148 F100.000000
G1 X36.172637 Y7.189278 F100.000000
G1 X36.197141 Y7.143998 F100.000000
G1 X36.205615 Y7.093215 F100.000000
G0 Z-1.133333 F30.000000
G1 X36.197141 Y7.042432 F100.000000
G1 X36.172637 Y6.997152 F100.000000
G1 X36.134758 Y6.962282 F100.000000
G1 X36.087609 Y6.941601 F100.000000
G1 X36.036300 Y6.937349 F100.000000
G1 X35.986390 Y6.949988 F100.000000
G1 X35.943288 Y6.978148 F100.000000
G1 X35.911665 Y7.018777 F100.000000
G1 X35.894948 Y7.067472 F100.000000
G1 Y7.118958 F100.000000
G1 X35.911665 Y7.167653 F100.000000
G1 X35.943288 Y7.208282 F100.000000
G1 X35.986390 Y7.236442 F100.000000
G1 X36.036300 Y7.249081 F100.000000
G1 X36.087609 Y7.244829 F100.000000
G1 X36.134758 Y7.224148 F100.000000
G1 X36.172637 Y7.189278 F100.000000
G1 X36.197141 Y7.143998 F100.000000
G1 X36.205615 Y7.093215 F100.000000
G0 Z-1.416667 F30.000000
G1 X36.197141 Y7.042432 F100.000000
G1 X36.172637 Y6.997152 F100.000000
G1 X36.134758 Y6.962282 F100.000000
G1 X36.087609 Y6.941601 F100.000000
G1 X36.036300 Y6.937349 F100.000000
G1 X35.986390 Y6.949988 F100.000000
G1 X35.943288 Y6.978148 F100.000000
G1 X35.911665 Y7.018777 F100.000000
G1 X35.894948 Y7.067472 F100.000000
G1 Y7.118958 F100.000000
G1 X35.911665 Y7.167653 F100.000000
G1 X35.943288 Y7.208282 F100.000000
G1 X35.986390 Y7.236442 F100.000000
G1 X36.036300 Y7.249081 F100.000000
G1 X36.087609 Y7.244829 F100.000000
G1 X36.134758 Y7.224148 F100.000000
G1 X36.172637 Y7.189278 F100.000000
G1 X36.197141 Y7.143998 F100.000000
G1 X36.205615 Y7.093215 F100.000000
G0 Z-1.700000 F30.000000
G1 X36.197141 Y7.042432 F100.000000
G1 X36.172637 Y6.997152 F100.000000
G1 X36.134758 Y6.962282 F100.000000
G1 X36.087609 Y6.941601 F100.000000
G1 X36.036300 Y6.937349 F100.000000
G1 X35.986390 Y6.949988 F100.000000
G1 X35.943288 Y6.978148 F100.000000
G1 X35.911665 Y7.018777 F100.000000
G1 X35.894948 Y7.067472 F100.000000
G1 Y7.118958 F100.000000
G1 X35.911665 Y7.167653 F100.000000
G1 X35.943288 Y7.208282 F100.000000
G1 X35.986390 Y7.236442 F100.000000
G1 X36.036300 Y7.249081 F100.000000
G1 X36.087609 Y7.244829 F100.000000
G1 X36.134758 Y7.224148 F100.000000
G1 X36.172637 Y7.189278 F100.000000
G1 X36.197141 Y7.143998 F100.000000
G1 X36.205615 Y7.093215 F100.000000
G0 Z2.000000
G0 X35.189615 Y55.353215
G17
G0 Z-0.283333 F30.000000
G1 X35.189615 Y55.353215 F100.000000
G1 X35.181141 Y55.302432 F100.000000
G1 X35.156637 Y55.257152 F100.000000
G1 X35.118758 Y55.222282 F100.000000
G1 X35.071609 Y55.201601 F100.000000
G1 X35.020300 Y55.197349 F100.000000
G1 X34.970390 Y55.209988 F100.000000
G1 X34.927288 Y55.238148 F100.000000
G1 X34.895665 Y55.278777 F100.000000
G1 X34.878948 Y55.327472 F100.000000
G1 Y55.378958 F100.000000
G1 X34.895665 Y55.427653 F100.000000
G1 X34.927288 Y55.468282 F100.000000
G1 X34.970390 Y55.496442 F100.000000
G1 X35.020300 Y55.509081 F100.000000
G1 X35.071609 Y55.504829 F100.000000
G1 X35.118758 Y55.484148 F100.000000
G1 X35.156637 Y55.449278 F100.000000
G1 X35.181141 Y55.403998 F100.000000
G1 X35.189615 Y55.353215 F100.000000
G0 Z-0.566667 F30.000000
G1 X35.181141 Y55.302432 F100.000000
G1 X35.156637 Y55.257152 F100.000000
G1 X35.118758 Y55.222282 F100.000000
G1 X35.071609 Y55.201601 F100.000000
G1 X35.020300 Y55.197349 F100.000000
G1 X34.970390 Y55.209988 F100.000000
G1 X34.927288 Y55.238148 F100.000000
G1 X34.895665 Y55.278777 F100.000000
G1 X34.878948 Y55.327472 F100.000000
G1 Y55.378958 F100.000000
G1 X34.895665 Y55.427653 F100.000000
G1 X34.927288 Y55.468282 F100.000000
G1 X34.970390 Y55.496442 F100.000000
G1 X35.020300 Y55.509081 F100.000000
G1 X35.071609 Y55.504829 F100.000000
G1 X35.118758 Y55.484148 F100.000000
G1 X35.156637 Y55.449278 F100.000000
G1 X35.181141 Y55.403998 F100.000000
G1 X35.189615 Y55.353215 F100.000000
G0 Z-0.850000 F30.000000
G1 X35.181141 Y55.302432 F100.000000
G1 X35.156637 Y55.257152 F100.000000
G1 X35.118758 Y55.222282 F100.000000
G1 X35.071609 Y55.201601 F100.000000
G1 X35.020300 Y55.197349 F100.000000
G1 X34.970390 Y55.209988 F100.000000
G1 X34.927288 Y55.238148 F100.000000
G1 X34.895665 Y55.278777 F100.000000
G1 X34.878948 Y55.327472 F100.000000
G1 Y55.378958 F100.000000
G1 X34.895665 Y55.427653 F100.000000
G1 X34.927288 Y55.468282 F100.000000
G1 X34.970390 Y55.496442 F100.000000
G1 X35.020300 Y55.509081 F100.000000
G1 X35.071609 Y55.504829 F100.000000
G1 X35.118758 Y55.484148 F100.000000
G1 X35.156637 Y55.449278 F100.000000
G1 X35.181141 Y55.403998 F100.000000
G1 X35.189615 Y55.353215 F100.000000
G0 Z-1.133333 F30.000000
G1 X35.181141 Y55.302432 F100.000000
G1 X35.156637 Y55.257152 F100.000000
G1 X35.118758 Y55.222282 F100.000000
G1 X35.071609 Y55.201601 F100.000000
G1 X35.020300 Y55.197349 F100.000000
G1 X34.970390 Y55.209988 F100.000000
G1 X34.927288 Y55.238148 F100.000000
G1 X34.895665 Y55.278777 F100.000000
G1 X34.878948 Y55.327472 F100.000000
G1 Y55.378958 F100.000000
G1 X34.895665 Y55.427653 F100.000000
G1 X34.927288 Y55.468282 F100.000000
G1 X34.970390 Y55.496442 F100.000000
G1 X35.020300 Y55.509081 F100.000000
G1 X35.071609 Y55.504829 F100.000000
G1 X35.118758 Y55.484148 F100.000000
G1 X35.156637 Y55.449278 F100.000000
G1 X35.181141 Y55.403998 F100.000000
G1 X35.189615 Y55.353215 F100.000000
G0 Z-1.416667 F30.000000
G1 X35.181141 Y55.302432 F100.000000
G1 X35.156637 Y55.257152 F100.000000
G1 X35.118758 Y55.222282 F100.000000
G1 X35.071609 Y55.201601 F100.000000
G1 X35.020300 Y55.197349 F100.000000
G1 X34.970390 Y55.209988 F100.000000
G1 X34.927288 Y55.238148 F100.000000
G1 X34.895665 Y55.278777 F100.000000
G1 X34.878948 Y55.327472 F100.000000
G1 Y55.378958 F100.000000
G1 X34.895665 Y55.427653 F100.000000
G1 X34.927288 Y55.468282 F100.000000
G1 X34.970390 Y55.496442 F100.000000
G1 X35.020300 Y55.509081 F100.000000
G1 X35.071609 Y55.504829 F100.000000
G1 X35.118758 Y55.484148 F100.000000
G1 X35.156637 Y55.449278 F100.000000
G1 X35.181141 Y55.403998 F100.000000
G1 X35.189615 Y55.353215 F100.000000
G0 Z-1.700000 F30.000000
G1 X35.181141 Y55.302432 F100.000000
G1 X35.156637 Y55.257152 F100.000000
G1 X35.118758 Y55.222282 F100.000000
G1 X35.071609 Y55.201601 F100.000000
G1 X35.020300 Y55.197349 F100.000000
G1 X34.970390 Y55.209988 F100.000000
G1 X34.927288 Y55.238148 F100.000000
G1 X34.895665 Y55.278777 F100.000000
G1 X34.878948 Y55.327472 F100.000000
G1 Y55.378958 F100.000000
G1 X34.895665 Y55.427653 F100.000000
G1 X34.927288 Y55.468282 F100.000000
G1 X34.970390 Y55.496442 F100.000000
G1 X35.020300 Y55.509081 F100.000000
G1 X35.071609 Y55.504829 F100.000000
G1 X35.118758 Y55.484148 F100.000000
G1 X35.156637 Y55.449278 F100.000000
G1 X35.181141 Y55.403998 F100.000000
G1 X35.189615 Y55.353215 F100.000000
G0 Z2.000000
G0 X34.935615 Y25.635215
G17
G0 Z-0.283333 F30.000000
G1 X34.935615 Y25.635215 F100.000000
G1 X34.927141 Y25.584432 F100.000000
G1 X34.902637 Y25.539152 F100.000000
G1 X34.864758 Y25.504282 F100.000000
G1 X34.817609 Y25.483601 F100.000000
G1 X34.766300 Y25.479349 F100.000000
G1 X34.716390 Y25.491988 F100.000000
G1 X34.673288 Y25.520148 F100.000000
G1 X34.641665 Y25.560777 F100.000000
G1 X34.624948 Y25.609472 F100.000000
G1 Y25.660958 F100.000000
G1 X34.641665 Y25.709653 F100.000000
G1 X34.673288 Y25.750282 F100.000000
G1 X34.716390 Y25.778442 F100.000000
G1 X34.766300 Y25.791081 F100.000000
G1 X34.817609 Y25.786829 F100.000000
G1 X34.864758 Y25.766148 F100.000000
G1 X34.902637 Y25.731278 F100.000000
G1 X34.927141 Y25.685998 F100.000000
G1 X34.935615 Y25.635215 F100.000000
G0 Z-0.566667 F30.000000
G1 X34.927141 Y25.584432 F100.000000
G1 X34.902637 Y25.539152 F100.000000
G1 X34.864758 Y25.504282 F100.000000
G1 X34.817609 Y25.483601 F100.000000
G1 X34.766300 Y25.479349 F100.000000
G1 X34.716390 Y25.491988 F100.000000
G1 X34.673288 Y25.520148 F100.000000
G1 X34.641665 Y25.560777 F100.000000
G1 X34.624948 Y25.609472 F100.000000
G1 Y25.660958 F100.000000
G1 X34.641665 Y25.709653 F100.000000
G1 X34.673288 Y25.750282 F100.000000
G1 X34.716390 Y25.778442 F100.000000
G1 X34.766300 Y25.791081 F100.000000
G1 X34.817609 Y25.786829 F100.000000
G1 X34.864758 Y25.766148 F100.000000
G1 X34.902637 Y25.731278 F100.000000
G1 X34.927141 Y25.685998 F100.000000
G1 X34.935615 Y25.635215 F100.000000
G0 Z-0.850000 F30.000000
G1 X34.927141 Y25.584432 F100.000000
G1 X34.902637 Y25.539152 F100.000000
G1 X34.864758 Y25.504282 F100.000000
G1 X34.817609 Y25.483601 F100.000000
G1 X34.766300 Y25.479349 F100.000000
G1 X34.716390 Y25.491988 F100.000000
G1 X34.673288 Y25.520148 F100.000000
G1 X34.641665 Y25.560777 F100.000000
G1 X34.624948 Y25.609472 F100.000000
G1 Y25.660958 F100.000000
G1 X34.641665 Y25.709653 F100.000000
G1 X34.673288 Y25.750282 F100.000000
G1 X34.716390 Y25.778442 F100.000000
G1 X34.766300 Y25.791081 F100.000000
G1 X34.817609 Y25.786829 F100.000000
G1 X34.864758 Y25.766148 F100.000000
G1 X34.902637 Y25.731278 F100.000000
G1 X34.927141 Y25.685998 F100.000000
G1 X34.935615 Y25.635215 F100.000000
G0 Z-1.133333 F30.000000
G1 X34.927141 Y25.584432 F100.000000
G1 X34.902637 Y25.539152 F100.000000
G1 X34.864758 Y25.504282 F100.000000
G1 X34.817609 Y25.483601 F100.000000
G1 X34.766300 Y25.479349 F100.000000
G1 X34.716390 Y25.491988 F100.000000
G1 X34.673288 Y25.520148 F100.000000
G1 X34.641665 Y25.560777 F100.000000
G1 X34.624948 Y25.609472 F100.000000
G1 Y25.660958 F100.000000
G1 X34.641665 Y25.709653 F100.000000
G1 X34.673288 Y25.750282 F100.000000
G1 X34.716390 Y25.778442 F100.000000
G1 X34.766300 Y25.791081 F100.000000
G1 X34.817609 Y25.786829 F100.000000
G1 X34.864758 Y25.766148 F100.000000
G1 X34.902637 Y25.731278 F100.000000
G1 X34.927141 Y25.685998 F100.000000
G1 X34.935615 Y25.635215 F100.000000
G0 Z-1.416667 F30.000000
G1 X34.927141 Y25.584432 F100.000000
G1 X34.902637 Y25.539152 F100.000000
G1 X34.864758 Y25.504282 F100.000000
G1 X34.817609 Y25.483601 F100.000000
G1 X34.766300 Y25.479349 F100.000000
G1 X34.716390 Y25.491988 F100.000000
G1 X34.673288 Y25.520148 F100.000000
G1 X34.641665 Y25.560777 F100.000000
G1 X34.624948 Y25.609472 F100.000000
G1 Y25.660958 F100.000000
G1 X34.641665 Y25.709653 F100.000000
G1 X34.673288 Y25.750282 F100.000000
G1 X34.716390 Y25.778442 F100.000000
G1 X34.766300 Y25.791081 F100.000000
G1 X34.817609 Y25.786829 F100.000000
G1 X34.864758 Y25.766148 F100.000000
G1 X34.902637 Y25.731278 F100.000000
G1 X34.927141 Y25.685998 F100.000000
G1 X34.935615 Y25.635215 F100.000000
G0 Z-1.700000 F30.000000
G1 X34.927141 Y25.584432 F100.000000
G1 X34.902637 Y25.539152 F100.000000
G1 X34.864758 Y25.504282 F100.000000
G1 X34.817609 Y25.483601 F100.000000
G1 X34.766300 Y25.479349 F100.000000
G1 X34.716390 Y25.491988 F100.000000
G1 X34.673288 Y25.520148 F100.000000
G1 X34.641665 Y25.560777 F100.000000
G1 X34.624948 Y25.609472 F100.000000
G1 Y25.660958 F100.000000
G1 X34.641665 Y25.709653 F100.000000
G1 X34.673288 Y25.750282 F100.000000
G1 X34.716390 Y25.778442 F100.000000
G1 X34.766300 Y25.791081 F100.000000
G1 X34.817609 Y25.786829 F100.000000
G1 X34.864758 Y25.766148 F100.000000
G1 X34.902637 Y25.731278 F100.000000
G1 X34.927141 Y25.685998 F100.000000
G1 X34.935615 Y25.635215 F100.000000
G0 Z2.000000
G0 X34.935615 Y22.587215
G17
G0 Z-0.283333 F30.000000
G1 Y22.587215 F100.000000
G1 X34.927141 Y22.536432 F100.000000
G1 X34.902637 Y22.491152 F100.000000
G1 X34.864758 Y22.456282 F100.000000
G1 X34.817609 Y22.435601 F100.000000
G1 X34.766300 Y22.431349 F100.000000
G1 X34.716390 Y22.443988 F100.000000
G1 X34.673288 Y22.472148 F100.000000
G1 X34.641665 Y22.512777 F100.000000
G1 X34.624948 Y22.561472 F100.000000
G1 Y22.612958 F100.000000
G1 X34.641665 Y22.661653 F100.000000
G1 X34.673288 Y22.702282 F100.000000
G1 X34.716390 Y22.730442 F100.000000
G1 X34.766300 Y22.743081 F100.000000
G1 X34.817609 Y22.738829 F100.000000
G1 X34.864758 Y22.718148 F100.000000
G1 X34.902637 Y22.683278 F100.000000
G1 X34.927141 Y22.637998 F100.000000
G1 X34.935615 Y22.587215 F100.000000
G0 Z-0.566667 F30.000000
G1 X34.927141 Y22.536432 F100.000000
G1 X34.902637 Y22.491152 F100.000000
G1 X34.864758 Y22.456282 F100.000000
G1 X34.817609 Y22.435601 F100.000000
G1 X34.766300 Y22.431349 F100.000000
G1 X34.716390 Y22.443988 F100.000000
G1 X34.673288 Y22.472148 F100.000000
G1 X34.641665 Y22.512777 F100.000000
G1 X34.624948 Y22.561472 F100.000000
G1 Y22.612958 F100.000000
G1 X34.641665 Y22.661653 F100.000000
G1 X34.673288 Y22.702282 F100.000000
G1 X34.716390 Y22.730442 F100.000000
G1 X34.766300 Y22.743081 F100.000000
G1 X34.817609 Y22.738829 F100.000000
G1 X34.864758 Y22.718148 F100.000000
G1 X34.902637 Y22.683278 F100.000000
G1 X34.927141 Y22.637998 F100.000000
G1 X34.935615 Y22.587215 F100.000000
G0 Z-0.850000 F30.000000
G1 X34.927141 Y22.536432 F100.000000
G1 X34.902637 Y22.491152 F100.000000
G1 X34.864758 Y22.456282 F100.000000
G1 X34.817609 Y22.435601 F100.000000
G1 X34.766300 Y22.431349 F100.000000
G1 X34.716390 Y22.443988 F100.000000
G1 X34.673288 Y22.472148 F100.000000
G1 X34.641665 Y22.512777 F100.000000
G1 X34.624948 Y22.561472 F100.000000
G1 Y22.612958 F100.000000
G1 X34.641665 Y22.661653 F100.000000
G1 X34.673288 Y22.702282 F100.000000
G1 X34.716390 Y22.730442 F100.000000
G1 X34.766300 Y22.743081 F100.000000
G1 X34.817609 Y22.738829 F100.000000
G1 X34.864758 Y22.718148 F100.000000
G1 X34.902637 Y22.683278 F100.000000
G1 X34.927141 Y22.637998 F100.000000
G1 X34.935615 Y22.587215 F100.000000
G0 Z-1.133333 F30.000000
G1 X34.927141 Y22.536432 F100.000000
G1 X34.902637 Y22.491152 F100.000000
G1 X34.864758 Y22.456282 F100.000000
G1 X34.817609 Y22.435601 F100.000000
G1 X34.766300 Y22.431349 F100.000000
G1 X34.716390 Y22.443988 F100.000000
G1 X34.673288 Y22.472148 F100.000000
G1 X34.641665 Y22.512777 F100.000000
G1 X34.624948 Y22.561472 F100.000000
G1 Y22.612958 F100.000000
G1 X34.641665 Y22.661653 F100.000000
G1 X34.673288 Y22.702282 F100.000000
G1 X34.716390 Y22.730442 F100.000000
G1 X34.766300 Y22.743081 F100.000000
G1 X34.817609 Y22.738829 F100.000000
G1 X34.864758 Y22.718148 F100.000000
G1 X34.902637 Y22.683278 F100.000000
G1 X34.927141 Y22.637998 F100.000000
G1 X34.935615 Y22.587215 F100.000000
G0 Z-1.416667 F30.000000
G1 X34.927141 Y22.536432 F100.000000
G1 X34.902637 Y22.491152 F100.000000
G1 X34.864758 Y22.456282 F100.000000
G1 X34.817609 Y22.435601 F100.000000
G1 X34.766300 Y22.431349 F100.000000
G1 X34.716390 Y22.443988 F100.000000
G1 X34.673288 Y22.472148 F100.000000
G1 X34.641665 Y22.512777 F100.000000
G1 X34.624948 Y22.561472 F100.000000
G1 Y22.612958 F100.000000
G1 X34.641665 Y22.661653 F100.000000
G1 X34.673288 Y22.702282 F100.000000
G1 X34.716390 Y22.730442 F100.000000
G1 X34.766300 Y22.743081 F100.000000
G1 X34.817609 Y22.738829 F100.000000
G1 X34.864758 Y22.718148 F100.000000
G1 X34.902637 Y22.683278 F100.000000
G1 X34.927141 Y22.637998 F100.000000
G1 X34.935615 Y22.587215 F100.000000
G0 Z-1.700000 F30.000000
G1 X34.927141 Y22.536432 F100.000000
G1 X34.902637 Y22.491152 F100.000000
G1 X34.864758 Y22.456282 F100.000000
G1 X34.817609 Y22.435601 F100.000000
G1 X34.766300 Y22.431349 F100.000000
G1 X34.716390 Y22.443988 F100.000000
G1 X34.673288 Y22.472148 F100.000000
G1 X34.641665 Y22.512777 F100.000000
G1 X34.624948 Y22.561472 F100.000000
G1 Y22.612958 F100.000000
G1 X34.641665 Y22.661653 F100.000000
G1 X34.673288 Y22.702282 F100.000000
G1 X34.716390 Y22.730442 F100.000000
G1 X34.766300 Y22.743081 F100.000000
G1 X34.817609 Y22.738829 F100.000000
G1 X34.864758 Y22.718148 F100.000000
G1 X34.902637 Y22.683278 F100.000000
G1 X34.927141 Y22.637998 F100.000000
G1 X34.935615 Y22.587215 F100.000000
G0 Z2.000000
G0 X33.919615 Y37.573215
G17
G0 Z-0.283333 F30.000000
G1 X33.919615 Y37.573215 F100.000000
G1 X33.911141 Y37.522432 F100.000000
G1 X33.886637 Y37.477152 F100.000000
G1 X33.848758 Y37.442282 F100.000000
G1 X33.801609 Y37.421601 F100.000000
G1 X33.750300 Y37.417349 F100.000000
G1 X33.700390 Y37.429988 F100.000000
G1 X33.657288 Y37.458148 F100.000000
G1 X33.625665 Y37.498777 F100.000000
G1 X33.608948 Y37.547472 F100.000000
G1 Y37.598958 F100.000000
G1 X33.625665 Y37.647653 F100.000000
G1 X33.657288 Y37.688282 F100.000000
G1 X33.700390 Y37.716442 F100.000000
G1 X33.750300 Y37.729081 F100.000000
G1 X33.801609 Y37.724829 F100.000000
G1 X33.848758 Y37.704148 F100.000000
G1 X33.886637 Y37.669278 F100.000000
G1 X33.911141 Y37.623998 F100.000000
G1 X33.919615 Y37.573215 F100.000000
G0 Z-0.566667 F30.000000
G1 X33.911141 Y37.522432 F100.000000
G1 X33.886637 Y37.477152 F100.000000
G1 X33.848758 Y37.442282 F100.000000
G1 X33.801609 Y37.421601 F100.000000
G1 X33.750300 Y37.417349 F100.000000
G1 X33.700390 Y37.429988 F100.000000
G1 X33.657288 Y37.458148 F100.000000
G1 X33.625665 Y37.498777 F100.000000
G1 X33.608948 Y37.547472 F100.000000
G1 Y37.598958 F100.000000
G1 X33.625665 Y37.647653 F100.000000
G1 X33.657288 Y37.688282 F100.000000
G1 X33.700390 Y37.716442 F100.000000
G1 X33.750300 Y37.729081 F100.000000
G1 X33.801609 Y37.724829 F100.000000
G1 X33.848758 Y37.704148 F100.000000
G1 X33.886637 Y37.669278 F100.000000
G1 X33.911141 Y37.623998 F100.000000
G1 X33.919615 Y37.573215 F100.000000
G0 Z-0.850000 F30.000000
G1 X33.911141 Y37.522432 F100.000000
G1 X33.886637 Y37.477152 F100.000000
G1 X33.848758 Y37.442282 F100.000000
G1 X33.801609 Y37.421601 F100.000000
G1 X33.750300 Y37.417349 F100.000000
G1 X33.700390 Y37.429988 F100.000000
G1 X33.657288 Y37.458148 F100.000000
G1 X33.625665 Y37.498777 F100.000000
G1 X33.608948 Y37.547472 F100.000000
G1 Y37.598958 F100.000000
G1 X33.625665 Y37.647653 F100.000000
G1 X33.657288 Y37.688282 F100.000000
G1 X33.700390 Y37.716442 F100.000000
G1 X33.750300 Y37.729081 F100.000000
G1 X33.801609 Y37.724829 F100.000000
G1 X33.848758 Y37.704148 F100.000000
G1 X33.886637 Y37.669278 F100.000000
G1 X33.911141 Y37.623998 F100.000000
G1 X33.919615 Y37.573215 F100.000000
G0 Z-1.133333 F30.000000
G1 X33.911141 Y37.522432 F100.000000
G1 X33.886637 Y37.477152 F100.000000
G1 X33.848758 Y37.442282 F100.000000
G1 X33.801609 Y37.421601 F100.000000
G1 X33.750300 Y37.417349 F100.000000
G1 X33.700390 Y37.429988 F100.000000
G1 X33.657288 Y37.458148 F100.000000
G1 X33.625665 Y37.498777 F100.000000
G1 X33.608948 Y37.547472 F100.000000
G1 Y37.598958 F100.000000
G1 X33.625665 Y37.647653 F100.000000
G1 X33.657288 Y37.688282 F100.000000
G1 X33.700390 Y37.716442 F100.000000
G1 X33.750300 Y37.729081 F100.000000
G1 X33.801609 Y37.724829 F100.000000
G1 X33.848758 Y37.704148 F100.000000
G1 X33.886637 Y37.669278 F100.000000
G1 X33.911141 Y37.623998 F100.000000
G1 X33.919615 Y37.573215 F100.000000
G0 Z-1.416667 F30.000000
G1 X33.911141 Y37.522432 F100.000000
G1 X33.886637 Y37.477152 F100.000000
G1 X33.848758 Y37.442282 F100.000000
G1 X33.801609 Y37.421601 F100.000000
G1 X33.750300 Y37.417349 F100.000000
G1 X33.700390 Y37.429988 F100.000000
G1 X33.657288 Y37.458148 F100.000000
G1 X33.625665 Y37.498777 F100.000000
G1 X33.608948 Y37.547472 F100.000000
G1 Y37.598958 F100.000000
G1 X33.625665 Y37.647653 F100.000000
G1 X33.657288 Y37.688282 F100.000000
G1 X33.700390 Y37.716442 F100.000000
G1 X33.750300 Y37.729081 F100.000000
G1 X33.801609 Y37.724829 F100.000000
G1 X33.848758 Y37.704148 F100.000000
G1 X33.886637 Y37.669278 F100.000000
G1 X33.911141 Y37.623998 F100.000000
G1 X33.919615 Y37.573215 F100.000000
G0 Z-1.700000 F30.000000
G1 X33.911141 Y37.522432 F100.000000
G1 X33.886637 Y37.477152 F100.000000
G1 X33.848758 Y37.442282 F100.000000
G1 X33.801609 Y37.421601 F100.000000
G1 X33.750300 Y37.417349 F100.000000
G1 X33.700390 Y37.429988 F100.000000
G1 X33.657288 Y37.458148 F100.000000
G1 X33.625665 Y37.498777 F100.000000
G1 X33.608948 Y37.547472 F100.000000
G1 Y37.598958 F100.000000
G1 X33.625665 Y37.647653 F100.000000
G1 X33.657288 Y37.688282 F100.000000
G1 X33.700390 Y37.716442 F100.000000
G1 X33.750300 Y37.729081 F100.000000
G1 X33.801609 Y37.724829 F100.000000
G1 X33.848758 Y37.704148 F100.000000
G1 X33.886637 Y37.669278 F100.000000
G1 X33.911141 Y37.623998 F100.000000
G1 X33.919615 Y37.573215 F100.000000
G0 Z2.000000
G0 X33.665615 Y7.093215
G17
G0 Z-0.283333 F30.000000
G1 X33.665615 Y7.093215 F100.000000
G1 X33.657141 Y7.042432 F100.000000
G1 X33.632637 Y6.997152 F100.000000
G1 X33.594758 Y6.962282 F100.000000
G1 X33.547609 Y6.941601 F100.000000
G1 X33.496300 Y6.937349 F100.000000
G1 X33.446390 Y6.949988 F100.000000
G1 X33.403288 Y6.978148 F100.000000
G1 X33.371665 Y7.018777 F100.000000
G1 X33.354948 Y7.067472 F100.000000
G1 Y7.118958 F100.000000
G1 X33.371665 Y7.167653 F100.000000
G1 X33.403288 Y7.208282 F100.000000
G1 X33.446390 Y7.236442 F100.000000
G1 X33.496300 Y7.249081 F100.000000
G1 X33.547609 Y7.244829 F100.000000
G1 X33.594758 Y7.224148 F100.000000
G1 X33.632637 Y7.189278 F100.000000
G1 X33.657141 Y7.143998 F100.000000
G1 X33.665615 Y7.093215 F100.000000
G0 Z-0.566667 F30.000000
G1 X33.657141 Y7.042432 F100.000000
G1 X33.632637 Y6.997152 F100.000000
G1 X33.594758 Y6.962282 F100.000000
G1 X33.547609 Y6.941601 F100.000000
G1 X33.496300 Y6.937349 F100.000000
G1 X33.446390 Y6.949988 F100.000000
G1 X33.403288 Y6.978148 F100.000000
G1 X33.371665 Y7.018777 F100.000000
G1 X33.354948 Y7.067472 F100.000000
G1 Y7.118958 F100.000000
G1 X33.371665 Y7.167653 F100.000000
G1 X33.403288 Y7.208282 F100.000000
G1 X33.446390 Y7.236442 F100.000000
G1 X33.496300 Y7.249081 F100.000000
G1 X33.547609 Y7.244829 F100.000000
G1 X33.594758 Y7.224148 F100.000000
G1 X33.632637 Y7.189278 F100.000000
G1 X33.657141 Y7.143998 F100.000000
G1 X33.665615 Y7.093215 F100.000000
G0 Z-0.850000 F30.000000
G1 X33.657141 Y7.042432 F100.000000
G1 X33.632637 Y6.997152 F100.000000
G1 X33.594758 Y6.962282 F100.000000
G1 X33.547609 Y6.941601 F100.000000
G1 X33.496300 Y6.937349 F100.000000
G1 X33.446390 Y6.949988 F100.000000
G1 X33.403288 Y6.978148 F100.000000
G1 X33.371665 Y7.018777 F100.000000
G1 X33.354948 Y7.067472 F100.000000
G1 Y7.118958 F100.000000
G1 X33.371665 Y7.167653 F100.000000
G1 X33.403288 Y7.208282 F100.000000
G1 X33.446390 Y7.236442 F100.000000
G1 X33.496300 Y7.249081 F100.000000
G1 X33.547609 Y7.244829 F100.000000
G1 X33.594758 Y7.224148 F100.000000
G1 X33.632637 Y7.189278 F100.000000
G1 X33.657141 Y7.143998 F100.000000
G1 X33.665615 Y7.093215 F100.000000
G0 Z-1.133333 F30.000000
G1 X33.657141 Y7.042432 F100.000000
G1 X33.632637 Y6.997152 F100.000000
G1 X33.594758 Y6.962282 F100.000000
G1 X33.547609 Y6.941601 F100.000000
G1 X33.496300 Y6.937349 F100.000000
G1 X33.446390 Y6.949988 F100.000000
G1 X33.403288 Y6.978148 F100.000000
G1 X33.371665 Y7.018777 F100.000000
G1 X33.354948 Y7.067472 F100.000000
G1 Y7.118958 F100.000000
G1 X33.371665 Y7.167653 F100.000000
G1 X33.403288 Y7.208282 F100.000000
G1 X33.446390 Y7.236442 F100.000000
G1 X33.496300 Y7.249081 F100.000000
G1 X33.547609 Y7.244829 F100.000000
G1 X33.594758 Y7.224148 F100.000000
G1 X33.632637 Y7.189278 F100.000000
G1 X33.657141 Y7.143998 F100.000000
G1 X33.665615 Y7.093215 F100.000000
G0 Z-1.416667 F30.000000
G1 X33.657141 Y7.042432 F100.000000
G1 X33.632637 Y6.997152 F100.000000
G1 X33.594758 Y6.962282 F100.000000
G1 X33.547609 Y6.941601 F100.000000
G1 X33.496300 Y6.937349 F100.000000
G1 X33.446390 Y6.949988 F100.000000
G1 X33.403288 Y6.978148 F100.000000
G1 X33.371665 Y7.018777 F100.000000
G1 X33.354948 Y7.067472 F100.000000
G1 Y7.118958 F100.000000
G1 X33.371665 Y7.167653 F100.000000
G1 X33.403288 Y7.208282 F100.000000
G1 X33.446390 Y7.236442 F100.000000
G1 X33.496300 Y7.249081 F100.000000
G1 X33.547609 Y7.244829 F100.000000
G1 X33.594758 Y7.224148 F100.000000
G1 X33.632637 Y7.189278 F100.000000
G1 X33.657141 Y7.143998 F100.000000
G1 X33.665615 Y7.093215 F100.000000
G0 Z-1.700000 F30.000000
G1 X33.657141 Y7.042432 F100.000000
G1 X33.632637 Y6.997152 F100.000000
G1 X33.594758 Y6.962282 F100.000000
G1 X33.547609 Y6.941601 F100.000000
G1 X33.496300 Y6.937349 F100.000000
G1 X33.446390 Y6.949988 F100.000000
G1 X33.403288 Y6.978148 F100.000000
G1 X33.371665 Y7.018777 F100.000000
G1 X33.354948 Y7.067472 F100.000000
G1 Y7.118958 F100.000000
G1 X33.371665 Y7.167653 F100.000000
G1 X33.403288 Y7.208282 F100.000000
G1 X33.446390 Y7.236442 F100.000000
G1 X33.496300 Y7.249081 F100.000000
G1 X33.547609 Y7.244829 F100.000000
G1 X33.594758 Y7.224148 F100.000000
G1 X33.632637 Y7.189278 F100.000000
G1 X33.657141 Y7.143998 F100.000000
G1 X33.665615 Y7.093215 F100.000000
G0 Z2.000000
G0 X32.649615 Y55.353215
G17
G0 Z-0.283333 F30.000000
G1 X32.649615 Y55.353215 F100.000000
G1 X32.641141 Y55.302432 F100.000000
G1 X32.616637 Y55.257152 F100.000000
G1 X32.578758 Y55.222282 F100.000000
G1 X32.531609 Y55.201601 F100.000000
G1 X32.480300 Y55.197349 F100.000000
G1 X32.430390 Y55.209988 F100.000000
G1 X32.387288 Y55.238148 F100.000000
G1 X32.355665 Y55.278777 F100.000000
G1 X32.338948 Y55.327472 F100.000000
G1 Y55.378958 F100.000000
G1 X32.355665 Y55.427653 F100.000000
G1 X32.387288 Y55.468282 F100.000000
G1 X32.430390 Y55.496442 F100.000000
G1 X32.480300 Y55.509081 F100.000000
G1 X32.531609 Y55.504829 F100.000000
G1 X32.578758 Y55.484148 F100.000000
G1 X32.616637 Y55.449278 F100.000000
G1 X32.641141 Y55.403998 F100.000000
G1 X32.649615 Y55.353215 F100.000000
G0 Z-0.566667 F30.000000
G1 X32.641141 Y55.302432 F100.000000
G1 X32.616637 Y55.257152 F100.000000
G1 X32.578758 Y55.222282 F100.000000
G1 X32.531609 Y55.201601 F100.000000
G1 X32.480300 Y55.197349 F100.000000
G1 X32.430390 Y55.209988 F100.000000
G1 X32.387288 Y55.238148 F100.000000
G1 X32.355665 Y55.278777 F100.000000
G1 X32.338948 Y55.327472 F100.000000
G1 Y55.378958 F100.000000
G1 X32.355665 Y55.427653 F100.000000
G1 X32.387288 Y55.468282 F100.000000
G1 X32.430390 Y55.496442 F100.000000
G1 X32.480300 Y55.509081 F100.000000
G1 X32.531609 Y55.504829 F100.000000
G1 X32.578758 Y55.484148 F100.000000
G1 X32.616637 Y55.449278 F100.000000
G1 X32.641141 Y55.403998 F100.000000
G1 X32.649615 Y55.353215 F100.000000
G0 Z-0.850000 F30.000000
G1 X32.641141 Y55.302432 F100.000000
G1 X32.616637 Y55.257152 F100.000000
G1 X32.578758 Y55.222282 F100.000000
G1 X32.531609 Y55.201601 F100.000000
G1 X32.480300 Y55.197349 F100.000000
G1 X32.430390 Y55.209988 F100.000000
G1 X32.387288 Y55.238148 F100.000000
G1 X32.355665 Y55.278777 F100.000000
G1 X32.338948 Y55.327472 F100.000000
G1 Y55.378958 F100.000000
G1 X32.355665 Y55.427653 F100.000000
G1 X32.387288 Y55.468282 F100.000000
G1 X32.430390 Y55.496442 F100.000000
G1 X32.480300 Y55.509081 F100.000000
G1 X32.531609 Y55.504829 F100.000000
G1 X32.578758 Y55.484148 F100.000000
G1 X32.616637 Y55.449278 F100.000000
G1 X32.641141 Y55.403998 F100.000000
G1 X32.649615 Y55.353215 F100.000000
G0 Z-1.133333 F30.000000
G1 X32.641141 Y55.302432 F100.000000
G1 X32.616637 Y55.257152 F100.000000
G1 X32.578758 Y55.222282 F100.000000
G1 X32.531609 Y55.201601 F100.000000
G1 X32.480300 Y55.197349 F100.000000
G1 X32.430390 Y55.209988 F100.000000
G1 X32.387288 Y55.238148 F100.000000
G1 X32.355665 Y55.278777 F100.000000
G1 X32.338948 Y55.327472 F100.000000
G1 Y55.378958 F100.000000
G1 X32.355665 Y55.427653 F100.000000
G1 X32.387288 Y55.468282 F100.000000
G1 X32.430390 Y55.496442 F100.000000
G1 X32.480300 Y55.509081 F100.000000
G1 X32.531609 Y55.504829 F100.000000
G1 X32.578758 Y55.484148 F100.000000
G1 X32.616637 Y55.449278 F100.000000
G1 X32.641141 Y55.403998 F100.000000
G1 X32.649615 Y55.353215 F100.000000
G0 Z-1.416667 F30.000000
G1 X32.641141 Y55.302432 F100.000000
G1 X32.616637 Y55.257152 F100.000000
G1 X32.578758 Y55.222282 F100.000000
G1 X32.531609 Y55.201601 F100.000000
G1 X32.480300 Y55.197349 F100.000000
G1 X32.430390 Y55.209988 F100.000000
G1 X32.387288 Y55.238148 F100.000000
G1 X32.355665 Y55.278777 F100.000000
G1 X32.338948 Y55.327472 F100.000000
G1 Y55.378958 F100.000000
G1 X32.355665 Y55.427653 F100.000000
G1 X32.387288 Y55.468282 F100.000000
G1 X32.430390 Y55.496442 F100.000000
G1 X32.480300 Y55.509081 F100.000000
G1 X32.531609 Y55.504829 F100.000000
G1 X32.578758 Y55.484148 F100.000000
G1 X32.616637 Y55.449278 F100.000000
G1 X32.641141 Y55.403998 F100.000000
G1 X32.649615 Y55.353215 F100.000000
G0 Z-1.700000 F30.000000
G1 X32.641141 Y55.302432 F100.000000
G1 X32.616637 Y55.257152 F100.000000
G1 X32.578758 Y55.222282 F100.000000
G1 X32.531609 Y55.201601 F100.000000
G1 X32.480300 Y55.197349 F100.000000
G1 X32.430390 Y55.209988 F100.000000
G1 X32.387288 Y55.238148 F100.000000
G1 X32.355665 Y55.278777 F100.000000
G1 X32.338948 Y55.327472 F100.000000
G1 Y55.378958 F100.000000
G1 X32.355665 Y55.427653 F100.000000
G1 X32.387288 Y55.468282 F100.000000
G1 X32.430390 Y55.496442 F100.000000
G1 X32.480300 Y55.509081 F100.000000
G1 X32.531609 Y55.504829 F100.000000
G1 X32.578758 Y55.484148 F100.000000
G1 X32.616637 Y55.449278 F100.000000
G1 X32.641141 Y55.403998 F100.000000
G1 X32.649615 Y55.353215 F100.000000
G0 Z2.000000
G0 X31.125615 Y7.093215
G17
G0 Z-0.283333 F30.000000
G1 X31.125615 Y7.093215 F100.000000
G1 X31.117141 Y7.042432 F100.000000
G1 X31.092637 Y6.997152 F100.000000
G1 X31.054758 Y6.962282 F100.000000
G1 X31.007609 Y6.941601 F100.000000
G1 X30.956300 Y6.937349 F100.000000
G1 X30.906390 Y6.949988 F100.000000
G1 X30.863288 Y6.978148 F100.000000
G1 X30.831665 Y7.018777 F100.000000
G1 X30.814948 Y7.067472 F100.000000
G1 Y7.118958 F100.000000
G1 X30.831665 Y7.167653 F100.000000
G1 X30.863288 Y7.208282 F100.000000
G1 X30.906390 Y7.236442 F100.000000
G1 X30.956300 Y7.249081 F100.000000
G1 X31.007609 Y7.244829 F100.000000
G1 X31.054758 Y7.224148 F100.000000
G1 X31.092637 Y7.189278 F100.000000
G1 X31.117141 Y7.143998 F100.000000
G1 X31.125615 Y7.093215 F100.000000
G0 Z-0.566667 F30.000000
G1 X31.117141 Y7.042432 F100.000000
G1 X31.092637 Y6.997152 F100.000000
G1 X31.054758 Y6.962282 F100.000000
G1 X31.007609 Y6.941601 F100.000000
G1 X30.956300 Y6.937349 F100.000000
G1 X30.906390 Y6.949988 F100.000000
G1 X30.863288 Y6.978148 F100.000000
G1 X30.831665 Y7.018777 F100.000000
G1 X30.814948 Y7.067472 F100.000000
G1 Y7.118958 F100.000000
G1 X30.831665 Y7.167653 F100.000000
G1 X30.863288 Y7.208282 F100.000000
G1 X30.906390 Y7.236442 F100.000000
G1 X30.956300 Y7.249081 F100.000000
G1 X31.007609 Y7.244829 F100.000000
G1 X31.054758 Y7.224148 F100.000000
G1 X31.092637 Y7.189278 F100.000000
G1 X31.117141 Y7.143998 F100.000000
G1 X31.125615 Y7.093215 F100.000000
G0 Z-0.850000 F30.000000
G1 X31.117141 Y7.042432 F100.000000
G1 X31.092637 Y6.997152 F100.000000
G1 X31.054758 Y6.962282 F100.000000
G1 X31.007609 Y6.941601 F100.000000
G1 X30.956300 Y6.937349 F100.000000
G1 X30.906390 Y6.949988 F100.000000
G1 X30.863288 Y6.978148 F100.000000
G1 X30.831665 Y7.018777 F100.000000
G1 X30.814948 Y7.067472 F100.000000
G1 Y7.118958 F100.000000
G1 X30.831665 Y7.167653 F100.000000
G1 X30.863288 Y7.208282 F100.000000
G1 X30.906390 Y7.236442 F100.000000
G1 X30.956300 Y7.249081 F100.000000
G1 X31.007609 Y7.244829 F100.000000
G1 X31.054758 Y7.224148 F100.000000
G1 X31.092637 Y7.189278 F100.000000
G1 X31.117141 Y7.143998 F100.000000
G1 X31.125615 Y7.093215 F100.000000
G0 Z-1.133333 F30.000000
G1 X31.117141 Y7.042432 F100.000000
G1 X31.092637 Y6.997152 F100.000000
G1 X31.054758 Y6.962282 F100.000000
G1 X31.007609 Y6.941601 F100.000000
G1 X30.956300 Y6.937349 F100.000000
G1 X30.906390 Y6.949988 F100.000000
G1 X30.863288 Y6.978148 F100.000000
G1 X30.831665 Y7.018777 F100.000000
G1 X30.814948 Y7.067472 F100.000000
G1 Y7.118958 F100.000000
G1 X30.831665 Y7.167653 F100.000000
G1 X30.863288 Y7.208282 F100.000000
G1 X30.906390 Y7.236442 F100.000000
G1 X30.956300 Y7.249081 F100.000000
G1 X31.007609 Y7.244829 F100.000000
G1 X31.054758 Y7.224148 F100.000000
G1 X31.092637 Y7.189278 F100.000000
G1 X31.117141 Y7.143998 F100.000000
G1 X31.125615 Y7.093215 F100.000000
G0 Z-1.416667 F30.000000
G1 X31.117141 Y7.042432 F100.000000
G1 X31.092637 Y6.997152 F100.000000
G1 X31.054758 Y6.962282 F100.000000
G1 X31.007609 Y6.941601 F100.000000
G1 X30.956300 Y6.937349 F100.000000
G1 X30.906390 Y6.949988 F100.000000
G1 X30.863288 Y6.978148 F100.000000
G1 X30.831665 Y7.018777 F100.000000
G1 X30.814948 Y7.067472 F100.000000
G1 Y7.118958 F100.000000
G1 X30.831665 Y7.167653 F100.000000
G1 X30.863288 Y7.208282 F100.000000
G1 X30.906390 Y7.236442 F100.000000
G1 X30.956300 Y7.249081 F100.000000
G1 X31.007609 Y7.244829 F100.000000
G1 X31.054758 Y7.224148 F100.000000
G1 X31.092637 Y7.189278 F100.000000
G1 X31.117141 Y7.143998 F100.000000
G1 X31.125615 Y7.093215 F100.000000
G0 Z-1.700000 F30.000000
G1 X31.117141 Y7.042432 F100.000000
G1 X31.092637 Y6.997152 F100.000000
G1 X31.054758 Y6.962282 F100.000000
G1 X31.007609 Y6.941601 F100.000000
G1 X30.956300 Y6.937349 F100.000000
G1 X30.906390 Y6.949988 F100.000000
G1 X30.863288 Y6.978148 F100.000000
G1 X30.831665 Y7.018777 F100.000000
G1 X30.814948 Y7.067472 F100.000000
G1 Y7.118958 F100.000000
G1 X30.831665 Y7.167653 F100.000000
G1 X30.863288 Y7.208282 F100.000000
G1 X30.906390 Y7.236442 F100.000000
G1 X30.956300 Y7.249081 F100.000000
G1 X31.007609 Y7.244829 F100.000000
G1 X31.054758 Y7.224148 F100.000000
G1 X31.092637 Y7.189278 F100.000000
G1 X31.117141 Y7.143998 F100.000000
G1 X31.125615 Y7.093215 F100.000000
G0 Z2.000000
G0 X30.109615 Y55.353215
G17
G0 Z-0.283333 F30.000000
G1 X30.109615 Y55.353215 F100.000000
G1 X30.101141 Y55.302432 F100.000000
G1 X30.076637 Y55.257152 F100.000000
G1 X30.038758 Y55.222282 F100.000000
G1 X29.991609 Y55.201601 F100.000000
G1 X29.940300 Y55.197349 F100.000000
G1 X29.890390 Y55.209988 F100.000000
G1 X29.847288 Y55.238148 F100.000000
G1 X29.815665 Y55.278777 F100.000000
G1 X29.798948 Y55.327472 F100.000000
G1 Y55.378958 F100.000000
G1 X29.815665 Y55.427653 F100.000000
G1 X29.847288 Y55.468282 F100.000000
G1 X29.890390 Y55.496442 F100.000000
G1 X29.940300 Y55.509081 F100.000000
G1 X29.991609 Y55.504829 F100.000000
G1 X30.038758 Y55.484148 F100.000000
G1 X30.076637 Y55.449278 F100.000000
G1 X30.101141 Y55.403998 F100.000000
G1 X30.109615 Y55.353215 F100.000000
G0 Z-0.566667 F30.000000
G1 X30.101141 Y55.302432 F100.000000
G1 X30.076637 Y55.257152 F100.000000
G1 X30.038758 Y55.222282 F100.000000
G1 X29.991609 Y55.201601 F100.000000
G1 X29.940300 Y55.197349 F100.000000
G1 X29.890390 Y55.209988 F100.000000
G1 X29.847288 Y55.238148 F100.000000
G1 X29.815665 Y55.278777 F100.000000
G1 X29.798948 Y55.327472 F100.000000
G1 Y55.378958 F100.000000
G1 X29.815665 Y55.427653 F100.000000
G1 X29.847288 Y55.468282 F100.000000
G1 X29.890390 Y55.496442 F100.000000
G1 X29.940300 Y55.509081 F100.000000
G1 X29.991609 Y55.504829 F100.000000
G1 X30.038758 Y55.484148 F100.000000
G1 X30.076637 Y55.449278 F100.000000
G1 X30.101141 Y55.403998 F100.000000
G1 X30.109615 Y55.353215 F100.000000
G0 Z-0.850000 F30.000000
G1 X30.101141 Y55.302432 F100.000000
G1 X30.076637 Y55.257152 F100.000000
G1 X30.038758 Y55.222282 F100.000000
G1 X29.991609 Y55.201601 F100.000000
G1 X29.940300 Y55.197349 F100.000000
G1 X29.890390 Y55.209988 F100.000000
G1 X29.847288 Y55.238148 F100.000000
G1 X29.815665 Y55.278777 F100.000000
G1 X29.798948 Y55.327472 F100.000000
G1 Y55.378958 F100.000000
G1 X29.815665 Y55.427653 F100.000000
G1 X29.847288 Y55.468282 F100.000000
G1 X29.890390 Y55.496442 F100.000000
G1 X29.940300 Y55.509081 F100.000000
G1 X29.991609 Y55.504829 F100.000000
G1 X30.038758 Y55.484148 F100.000000
G1 X30.076637 Y55.449278 F100.000000
G1 X30.101141 Y55.403998 F100.000000
G1 X30.109615 Y55.353215 F100.000000
G0 Z-1.133333 F30.000000
G1 X30.101141 Y55.302432 F100.000000
G1 X30.076637 Y55.257152 F100.000000
G1 X30.038758 Y55.222282 F100.000000
G1 X29.991609 Y55.201601 F100.000000
G1 X29.940300 Y55.197349 F100.000000
G1 X29.890390 Y55.209988 F100.000000
G1 X29.847288 Y55.238148 F100.000000
G1 X29.815665 Y55.278777 F100.000000
G1 X29.798948 Y55.327472 F100.000000
G1 Y55.378958 F100.000000
G1 X29.815665 Y55.427653 F100.000000
G1 X29.847288 Y55.468282 F100.000000
G1 X29.890390 Y55.496442 F100.000000
G1 X29.940300 Y55.509081 F100.000000
G1 X29.991609 Y55.504829 F100.000000
G1 X30.038758 Y55.484148 F100.000000
G1 X30.076637 Y55.449278 F100.000000
G1 X30.101141 Y55.403998 F100.000000
G1 X30.109615 Y55.353215 F100.000000
G0 Z-1.416667 F30.000000
G1 X30.101141 Y55.302432 F100.000000
G1 X30.076637 Y55.257152 F100.000000
G1 X30.038758 Y55.222282 F100.000000
G1 X29.991609 Y55.201601 F100.000000
G1 X29.940300 Y55.197349 F100.000000
G1 X29.890390 Y55.209988 F100.000000
G1 X29.847288 Y55.238148 F100.000000
G1 X29.815665 Y55.278777 F100.000000
G1 X29.798948 Y55.327472 F100.000000
G1 Y55.378958 F100.000000
G1 X29.815665 Y55.427653 F100.000000
G1 X29.847288 Y55.468282 F100.000000
G1 X29.890390 Y55.496442 F100.000000
G1 X29.940300 Y55.509081 F100.000000
G1 X29.991609 Y55.504829 F100.000000
G1 X30.038758 Y55.484148 F100.000000
G1 X30.076637 Y55.449278 F100.000000
G1 X30.101141 Y55.403998 F100.000000
G1 X30.109615 Y55.353215 F100.000000
G0 Z-1.700000 F30.000000
G1 X30.101141 Y55.302432 F100.000000
G1 X30.076637 Y55.257152 F100.000000
G1 X30.038758 Y55.222282 F100.000000
G1 X29.991609 Y55.201601 F100.000000
G1 X29.940300 Y55.197349 F100.000000
G1 X29.890390 Y55.209988 F100.000000
G1 X29.847288 Y55.238148 F100.000000
G1 X29.815665 Y55.278777 F100.000000
G1 X29.798948 Y55.327472 F100.000000
G1 Y55.378958 F100.000000
G1 X29.815665 Y55.427653 F100.000000
G1 X29.847288 Y55.468282 F100.000000
G1 X29.890390 Y55.496442 F100.000000
G1 X29.940300 Y55.509081 F100.000000
G1 X29.991609 Y55.504829 F100.000000
G1 X30.038758 Y55.484148 F100.000000
G1 X30.076637 Y55.449278 F100.000000
G1 X30.101141 Y55.403998 F100.000000
G1 X30.109615 Y55.353215 F100.000000
G0 Z2.000000
G0 X28.585615 Y7.093215
G17
G0 Z-0.283333 F30.000000
G1 X28.585615 Y7.093215 F100.000000
G1 X28.577141 Y7.042432 F100.000000
G1 X28.552637 Y6.997152 F100.000000
G1 X28.514758 Y6.962282 F100.000000
G1 X28.467609 Y6.941601 F100.000000
G1 X28.416300 Y6.937349 F100.000000
G1 X28.366390 Y6.949988 F100.000000
G1 X28.323288 Y6.978148 F100.000000
G1 X28.291665 Y7.018777 F100.000000
G1 X28.274948 Y7.067472 F100.000000
G1 Y7.118958 F100.000000
G1 X28.291665 Y7.167653 F100.000000
G1 X28.323288 Y7.208282 F100.000000
G1 X28.366390 Y7.236442 F100.000000
G1 X28.416300 Y7.249081 F100.000000
G1 X28.467609 Y7.244829 F100.000000
G1 X28.514758 Y7.224148 F100.000000
G1 X28.552637 Y7.189278 F100.000000
G1 X28.577141 Y7.143998 F100.000000
G1 X28.585615 Y7.093215 F100.000000
G0 Z-0.566667 F30.000000
G1 X28.577141 Y7.042432 F100.000000
G1 X28.552637 Y6.997152 F100.000000
G1 X28.514758 Y6.962282 F100.000000
G1 X28.467609 Y6.941601 F100.000000
G1 X28.416300 Y6.937349 F100.000000
G1 X28.366390 Y6.949988 F100.000000
G1 X28.323288 Y6.978148 F100.000000
G1 X28.291665 Y7.018777 F100.000000
G1 X28.274948 Y7.067472 F100.000000
G1 Y7.118958 F100.000000
G1 X28.291665 Y7.167653 F100.000000
G1 X28.323288 Y7.208282 F100.000000
G1 X28.366390 Y7.236442 F100.000000
G1 X28.416300 Y7.249081 F100.000000
G1 X28.467609 Y7.244829 F100.000000
G1 X28.514758 Y7.224148 F100.000000
G1 X28.552637 Y7.189278 F100.000000
G1 X28.577141 Y7.143998 F100.000000
G1 X28.585615 Y7.093215 F100.000000
G0 Z-0.850000 F30.000000
G1 X28.577141 Y7.042432 F100.000000
G1 X28.552637 Y6.997152 F100.000000
G1 X28.514758 Y6.962282 F100.000000
G1 X28.467609 Y6.941601 F100.000000
G1 X28.416300 Y6.937349 F100.000000
G1 X28.366390 Y6.949988 F100.000000
G1 X28.323288 Y6.978148 F100.000000
G1 X28.291665 Y7.018777 F100.000000
G1 X28.274948 Y7.067472 F100.000000
G1 Y7.118958 F100.000000
G1 X28.291665 Y7.167653 F100.000000
G1 X28.323288 Y7.208282 F100.000000
G1 X28.366390 Y7.236442 F100.000000
G1 X28.416300 Y7.249081 F100.000000
G1 X28.467609 Y7.244829 F100.000000
G1 X28.514758 Y7.224148 F100.000000
G1 X28.552637 Y7.189278 F100.000000
G1 X28.577141 Y7.143998 F100.000000
G1 X28.585615 Y7.093215 F100.000000
G0 Z-1.133333 F30.000000
G1 X28.577141 Y7.042432 F100.000000
G1 X28.552637 Y6.997152 F100.000000
G1 X28.514758 Y6.962282 F100.000000
G1 X28.467609 Y6.941601 F100.000000
G1 X28.416300 Y6.937349 F100.000000
G1 X28.366390 Y6.949988 F100.000000
G1 X28.323288 Y6.978148 F100.000000
G1 X28.291665 Y7.018777 F100.000000
G1 X28.274948 Y7.067472 F100.000000
G1 Y7.118958 F100.000000
G1 X28.291665 Y7.167653 F100.000000
G1 X28.323288 Y7.208282 F100.000000
G1 X28.366390 Y7.236442 F100.000000
G1 X28.416300 Y7.249081 F100.000000
G1 X28.467609 Y7.244829 F100.000000
G1 X28.514758 Y7.224148 F100.000000
G1 X28.552637 Y7.189278 F100.000000
G1 X28.577141 Y7.143998 F100.000000
G1 X28.585615 Y7.093215 F100.000000
G0 Z-1.416667 F30.000000
G1 X28.577141 Y7.042432 F100.000000
G1 X28.552637 Y6.997152 F100.000000
G1 X28.514758 Y6.962282 F100.000000
G1 X28.467609 Y6.941601 F100.000000
G1 X28.416300 Y6.937349 F100.000000
G1 X28.366390 Y6.949988 F100.000000
G1 X28.323288 Y6.978148 F100.000000
G1 X28.291665 Y7.018777 F100.000000
G1 X28.274948 Y7.067472 F100.000000
G1 Y7.118958 F100.000000
G1 X28.291665 Y7.167653 F100.000000
G1 X28.323288 Y7.208282 F100.000000
G1 X28.366390 Y7.236442 F100.000000
G1 X28.416300 Y7.249081 F100.000000
G1 X28.467609 Y7.244829 F100.000000
G1 X28.514758 Y7.224148 F100.000000
G1 X28.552637 Y7.189278 F100.000000
G1 X28.577141 Y7.143998 F100.000000
G1 X28.585615 Y7.093215 F100.000000
G0 Z-1.700000 F30.000000
G1 X28.577141 Y7.042432 F100.000000
G1 X28.552637 Y6.997152 F100.000000
G1 X28.514758 Y6.962282 F100.000000
G1 X28.467609 Y6.941601 F100.000000
G1 X28.416300 Y6.937349 F100.000000
G1 X28.366390 Y6.949988 F100.000000
G1 X28.323288 Y6.978148 F100.000000
G1 X28.291665 Y7.018777 F100.000000
G1 X28.274948 Y7.067472 F100.000000
G1 Y7.118958 F100.000000
G1 X28.291665 Y7.167653 F100.000000
G1 X28.323288 Y7.208282 F100.000000
G1 X28.366390 Y7.236442 F100.000000
G1 X28.416300 Y7.249081 F100.000000
G1 X28.467609 Y7.244829 F100.000000
G1 X28.514758 Y7.224148 F100.000000
G1 X28.552637 Y7.189278 F100.000000
G1 X28.577141 Y7.143998 F100.000000
G1 X28.585615 Y7.093215 F100.000000
G0 Z2.000000
G0 X27.315615 Y25.635215
G17
G0 Z-0.283333 F30.000000
G1 X27.315615 Y25.635215 F100.000000
G1 X27.307141 Y25.584432 F100.000000
G1 X27.282637 Y25.539152 F100.000000
G1 X27.244758 Y25.504282 F100.000000
G1 X27.197609 Y25.483601 F100.000000
G1 X27.146300 Y25.479349 F100.000000
G1 X27.096390 Y25.491988 F100.000000
G1 X27.053288 Y25.520148 F100.000000
G1 X27.021665 Y25.560777 F100.000000
G1 X27.004948 Y25.609472 F100.000000
G1 Y25.660958 F100.000000
G1 X27.021665 Y25.709653 F100.000000
G1 X27.053288 Y25.750282 F100.000000
G1 X27.096390 Y25.778442 F100.000000
G1 X27.146300 Y25.791081 F100.000000
G1 X27.197609 Y25.786829 F100.000000
G1 X27.244758 Y25.766148 F100.000000
G1 X27.282637 Y25.731278 F100.000000
G1 X27.307141 Y25.685998 F100.000000
G1 X27.315615 Y25.635215 F100.000000
G0 Z-0.566667 F30.000000
G1 X27.307141 Y25.584432 F100.000000
G1 X27.282637 Y25.539152 F100.000000
G1 X27.244758 Y25.504282 F100.000000
G1 X27.197609 Y25.483601 F100.000000
G1 X27.146300 Y25.479349 F100.000000
G1 X27.096390 Y25.491988 F100.000000
G1 X27.053288 Y25.520148 F100.000000
G1 X27.021665 Y25.560777 F100.000000
G1 X27.004948 Y25.609472 F100.000000
G1 Y25.660958 F100.000000
G1 X27.021665 Y25.709653 F100.000000
G1 X27.053288 Y25.750282 F100.000000
G1 X27.096390 Y25.778442 F100.000000
G1 X27.146300 Y25.791081 F100.000000
G1 X27.197609 Y25.786829 F100.000000
G1 X27.244758 Y25.766148 F100.000000
G1 X27.282637 Y25.731278 F100.000000
G1 X27.307141 Y25.685998 F100.000000
G1 X27.315615 Y25.635215 F100.000000
G0 Z-0.850000 F30.000000
G1 X27.307141 Y25.584432 F100.000000
G1 X27.282637 Y25.539152 F100.000000
G1 X27.244758 Y25.504282 F100.000000
G1 X27.197609 Y25.483601 F100.000000
G1 X27.146300 Y25.479349 F100.000000
G1 X27.096390 Y25.491988 F100.000000
G1 X27.053288 Y25.520148 F100.000000
G1 X27.021665 Y25.560777 F100.000000
G1 X27.004948 Y25.609472 F100.000000
G1 Y25.660958 F100.000000
G1 X27.021665 Y25.709653 F100.000000
G1 X27.053288 Y25.750282 F100.000000
G1 X27.096390 Y25.778442 F100.000000
G1 X27.146300 Y25.791081 F100.000000
G1 X27.197609 Y25.786829 F100.000000
G1 X27.244758 Y25.766148 F100.000000
G1 X27.282637 Y25.731278 F100.000000
G1 X27.307141 Y25.685998 F100.000000
G1 X27.315615 Y25.635215 F100.000000
G0 Z-1.133333 F30.000000
G1 X27.307141 Y25.584432 F100.000000
G1 X27.282637 Y25.539152 F100.000000
G1 X27.244758 Y25.504282 F100.000000
G1 X27.197609 Y25.483601 F100.000000
G1 X27.146300 Y25.479349 F100.000000
G1 X27.096390 Y25.491988 F100.000000
G1 X27.053288 Y25.520148 F100.000000
G1 X27.021665 Y25.560777 F100.000000
G1 X27.004948 Y25.609472 F100.000000
G1 Y25.660958 F100.000000
G1 X27.021665 Y25.709653 F100.000000
G1 X27.053288 Y25.750282 F100.000000
G1 X27.096390 Y25.778442 F100.000000
G1 X27.146300 Y25.791081 F100.000000
G1 X27.197609 Y25.786829 F100.000000
G1 X27.244758 Y25.766148 F100.000000
G1 X27.282637 Y25.731278 F100.000000
G1 X27.307141 Y25.685998 F100.000000
G1 X27.315615 Y25.635215 F100.000000
G0 Z-1.416667 F30.000000
G1 X27.307141 Y25.584432 F100.000000
G1 X27.282637 Y25.539152 F100.000000
G1 X27.244758 Y25.504282 F100.000000
G1 X27.197609 Y25.483601 F100.000000
G1 X27.146300 Y25.479349 F100.000000
G1 X27.096390 Y25.491988 F100.000000
G1 X27.053288 Y25.520148 F100.000000
G1 X27.021665 Y25.560777 F100.000000
G1 X27.004948 Y25.609472 F100.000000
G1 Y25.660958 F100.000000
G1 X27.021665 Y25.709653 F100.000000
G1 X27.053288 Y25.750282 F100.000000
G1 X27.096390 Y25.778442 F100.000000
G1 X27.146300 Y25.791081 F100.000000
G1 X27.197609 Y25.786829 F100.000000
G1 X27.244758 Y25.766148 F100.000000
G1 X27.282637 Y25.731278 F100.000000
G1 X27.307141 Y25.685998 F100.000000
G1 X27.315615 Y25.635215 F100.000000
G0 Z-1.700000 F30.000000
G1 X27.307141 Y25.584432 F100.000000
G1 X27.282637 Y25.539152 F100.000000
G1 X27.244758 Y25.504282 F100.000000
G1 X27.197609 Y25.483601 F100.000000
G1 X27.146300 Y25.479349 F100.000000
G1 X27.096390 Y25.491988 F100.000000
G1 X27.053288 Y25.520148 F100.000000
G1 X27.021665 Y25.560777 F100.000000
G1 X27.004948 Y25.609472 F100.000000
G1 Y25.660958 F100.000000
G1 X27.021665 Y25.709653 F100.000000
G1 X27.053288 Y25.750282 F100.000000
G1 X27.096390 Y25.778442 F100.000000
G1 X27.146300 Y25.791081 F100.000000
G1 X27.197609 Y25.786829 F100.000000
G1 X27.244758 Y25.766148 F100.000000
G1 X27.282637 Y25.731278 F100.000000
G1 X27.307141 Y25.685998 F100.000000
G1 X27.315615 Y25.635215 F100.000000
G0 Z2.000000
G0 X27.315615 Y22.587215
G17
G0 Z-0.283333 F30.000000
G1 Y22.587215 F100.000000
G1 X27.307141 Y22.536432 F100.000000
G1 X27.282637 Y22.491152 F100.000000
G1 X27.244758 Y22.456282 F100.000000
G1 X27.197609 Y22.435601 F100.000000
G1 X27.146300 Y22.431349 F100.000000
G1 X27.096390 Y22.443988 F100.000000
G1 X27.053288 Y22.472148 F100.000000
G1 X27.021665 Y22.512777 F100.000000
G1 X27.004948 Y22.561472 F100.000000
G1 Y22.612958 F100.000000
G1 X27.021665 Y22.661653 F100.000000
G1 X27.053288 Y22.702282 F100.000000
G1 X27.096390 Y22.730442 F100.000000
G1 X27.146300 Y22.743081 F100.000000
