(Generated by ./pygerber2gcode_cui_MOD.py )
( 2013-05-29 17:29:04 )
(Initialize)

(Start form here)
G0 Z2.000000
G0 X59.163215 Y58.401215
G1 Z-0.271429 F30.000000
G1 X3.029215 F50.000000
G1 Y4.553215 F50.000000
G1 Y4.299215 F50.000000
G1 X60.433215 F50.000000
G1 Y58.401215 F50.000000
G1 X59.163215 F50.000000
G1 Z-0.542857 F30.000000
G1 X3.029215 F50.000000
G1 Y4.553215 F50.000000
G1 Y4.299215 F50.000000
G1 X60.433215 F50.000000
G1 Y58.401215 F50.000000
G1 X59.163215 F50.000000
G1 Z-0.814286 F30.000000
G1 X3.029215 F50.000000
G1 Y4.553215 F50.000000
G1 Y4.299215 F50.000000
G1 X60.433215 F50.000000
G1 Y58.401215 F50.000000
G1 X59.163215 F50.000000
G1 Z-1.085714 F30.000000
G1 X3.029215 F50.000000
G1 Y4.553215 F50.000000
G1 Y4.299215 F50.000000
G1 X60.433215 F50.000000
G1 Y58.401215 F50.000000
G1 X59.163215 F50.000000
G1 Z-1.357143 F30.000000
G1 X3.029215 F50.000000
G1 Y4.553215 F50.000000
G1 Y4.299215 F50.000000
G1 X60.433215 F50.000000
G1 Y58.401215 F50.000000
G1 X59.163215 F50.000000
G1 Z-1.628571 F30.000000
G1 X3.029215 F50.000000
G1 Y4.553215 F50.000000
G1 Y4.299215 F50.000000
G1 X60.433215 F50.000000
G1 Y58.401215 F50.000000
G1 X59.163215 F50.000000
G1 Z-1.900000 F30.000000
G1 X3.029215 F50.000000
G1 Y4.553215 F50.000000
G1 Y4.299215 F50.000000
G1 X60.433215 F50.000000
G1 Y58.401215 F50.000000
G1 X59.163215 F50.000000

(Goto to Initial position)
G0 Z2.000000
G0 X0.000000 Y0.000000
G0 Z0.000000
