(Generated by pygerber2gcode_cui_MOD.py )
( 2013-05-29 01:46:38 )
(Initialize)
G92 X0.000000 Y0.000000 Z0.000000

(Start form here)
G0 Z2.000000
G0 X7.111400 Y19.020000
G17
G0 Z-0.283333 F30.000000
G1 X7.111400 Y19.020000 F100.000000
G1 X7.081530 Y18.928070 F100.000000
G1 X7.003330 Y18.871255 F100.000000
G1 X6.906670 F100.000000
G1 X6.828470 Y18.928070 F100.000000
G1 X6.798600 Y19.020000 F100.000000
G1 X6.828470 Y19.111930 F100.000000
G1 X6.906670 Y19.168745 F100.000000
G1 X7.003330 F100.000000
G1 X7.081530 Y19.111930 F100.000000
G1 X7.111400 Y19.020000 F100.000000
G0 Z-0.566667 F30.000000
G1 X7.081530 Y18.928070 F100.000000
G1 X7.003330 Y18.871255 F100.000000
G1 X6.906670 F100.000000
G1 X6.828470 Y18.928070 F100.000000
G1 X6.798600 Y19.020000 F100.000000
G1 X6.828470 Y19.111930 F100.000000
G1 X6.906670 Y19.168745 F100.000000
G1 X7.003330 F100.000000
G1 X7.081530 Y19.111930 F100.000000
G1 X7.111400 Y19.020000 F100.000000
G0 Z-0.850000 F30.000000
G1 X7.081530 Y18.928070 F100.000000
G1 X7.003330 Y18.871255 F100.000000
G1 X6.906670 F100.000000
G1 X6.828470 Y18.928070 F100.000000
G1 X6.798600 Y19.020000 F100.000000
G1 X6.828470 Y19.111930 F100.000000
G1 X6.906670 Y19.168745 F100.000000
G1 X7.003330 F100.000000
G1 X7.081530 Y19.111930 F100.000000
G1 X7.111400 Y19.020000 F100.000000
G0 Z-1.133333 F30.000000
G1 X7.081530 Y18.928070 F100.000000
G1 X7.003330 Y18.871255 F100.000000
G1 X6.906670 F100.000000
G1 X6.828470 Y18.928070 F100.000000
G1 X6.798600 Y19.020000 F100.000000
G1 X6.828470 Y19.111930 F100.000000
G1 X6.906670 Y19.168745 F100.000000
G1 X7.003330 F100.000000
G1 X7.081530 Y19.111930 F100.000000
G1 X7.111400 Y19.020000 F100.000000
G0 Z-1.416667 F30.000000
G1 X7.081530 Y18.928070 F100.000000
G1 X7.003330 Y18.871255 F100.000000
G1 X6.906670 F100.000000
G1 X6.828470 Y18.928070 F100.000000
G1 X6.798600 Y19.020000 F100.000000
G1 X6.828470 Y19.111930 F100.000000
G1 X6.906670 Y19.168745 F100.000000
G1 X7.003330 F100.000000
G1 X7.081530 Y19.111930 F100.000000
G1 X7.111400 Y19.020000 F100.000000
G0 Z-1.700000 F30.000000
G1 X7.081530 Y18.928070 F100.000000
G1 X7.003330 Y18.871255 F100.000000
G1 X6.906670 F100.000000
G1 X6.828470 Y18.928070 F100.000000
G1 X6.798600 Y19.020000 F100.000000
G1 X6.828470 Y19.111930 F100.000000
G1 X6.906670 Y19.168745 F100.000000
G1 X7.003330 F100.000000
G1 X7.081530 Y19.111930 F100.000000
G1 X7.111400 Y19.020000 F100.000000
G0 Z2.000000
G0 X7.111400 Y16.480000
G17
G0 Z-0.283333 F30.000000
G1 Y16.480000 F100.000000
G1 X7.081530 Y16.388070 F100.000000
G1 X7.003330 Y16.331255 F100.000000
G1 X6.906670 F100.000000
G1 X6.828470 Y16.388070 F100.000000
G1 X6.798600 Y16.480000 F100.000000
G1 X6.828470 Y16.571930 F100.000000
G1 X6.906670 Y16.628745 F100.000000
G1 X7.003330 F100.000000
G1 X7.081530 Y16.571930 F100.000000
G1 X7.111400 Y16.480000 F100.000000
G0 Z-0.566667 F30.000000
G1 X7.081530 Y16.388070 F100.000000
G1 X7.003330 Y16.331255 F100.000000
G1 X6.906670 F100.000000
G1 X6.828470 Y16.388070 F100.000000
G1 X6.798600 Y16.480000 F100.000000
G1 X6.828470 Y16.571930 F100.000000
G1 X6.906670 Y16.628745 F100.000000
G1 X7.003330 F100.000000
G1 X7.081530 Y16.571930 F100.000000
G1 X7.111400 Y16.480000 F100.000000
G0 Z-0.850000 F30.000000
G1 X7.081530 Y16.388070 F100.000000
G1 X7.003330 Y16.331255 F100.000000
G1 X6.906670 F100.000000
G1 X6.828470 Y16.388070 F100.000000
G1 X6.798600 Y16.480000 F100.000000
G1 X6.828470 Y16.571930 F100.000000
G1 X6.906670 Y16.628745 F100.000000
G1 X7.003330 F100.000000
G1 X7.081530 Y16.571930 F100.000000
G1 X7.111400 Y16.480000 F100.000000
G0 Z-1.133333 F30.000000
G1 X7.081530 Y16.388070 F100.000000
G1 X7.003330 Y16.331255 F100.000000
G1 X6.906670 F100.000000
G1 X6.828470 Y16.388070 F100.000000
G1 X6.798600 Y16.480000 F100.000000
G1 X6.828470 Y16.571930 F100.000000
G1 X6.906670 Y16.628745 F100.000000
G1 X7.003330 F100.000000
G1 X7.081530 Y16.571930 F100.000000
G1 X7.111400 Y16.480000 F100.000000
G0 Z-1.416667 F30.000000
G1 X7.081530 Y16.388070 F100.000000
G1 X7.003330 Y16.331255 F100.000000
G1 X6.906670 F100.000000
G1 X6.828470 Y16.388070 F100.000000
G1 X6.798600 Y16.480000 F100.000000
G1 X6.828470 Y16.571930 F100.000000
G1 X6.906670 Y16.628745 F100.000000
G1 X7.003330 F100.000000
G1 X7.081530 Y16.571930 F100.000000
G1 X7.111400 Y16.480000 F100.000000
G0 Z-1.700000 F30.000000
G1 X7.081530 Y16.388070 F100.000000
G1 X7.003330 Y16.331255 F100.000000
G1 X6.906670 F100.000000
G1 X6.828470 Y16.388070 F100.000000
G1 X6.798600 Y16.480000 F100.000000
G1 X6.828470 Y16.571930 F100.000000
G1 X6.906670 Y16.628745 F100.000000
G1 X7.003330 F100.000000
G1 X7.081530 Y16.571930 F100.000000
G1 X7.111400 Y16.480000 F100.000000
G0 Z2.000000
G0 X7.111400 Y10.130000
G17
G0 Z-0.283333 F30.000000
G1 Y10.130000 F100.000000
G1 X7.081530 Y10.038070 F100.000000
G1 X7.003330 Y9.981255 F100.000000
G1 X6.906670 F100.000000
G1 X6.828470 Y10.038070 F100.000000
G1 X6.798600 Y10.130000 F100.000000
G1 X6.828470 Y10.221930 F100.000000
G1 X6.906670 Y10.278745 F100.000000
G1 X7.003330 F100.000000
G1 X7.081530 Y10.221930 F100.000000
G1 X7.111400 Y10.130000 F100.000000
G0 Z-0.566667 F30.000000
G1 X7.081530 Y10.038070 F100.000000
G1 X7.003330 Y9.981255 F100.000000
G1 X6.906670 F100.000000
G1 X6.828470 Y10.038070 F100.000000
G1 X6.798600 Y10.130000 F100.000000
G1 X6.828470 Y10.221930 F100.000000
G1 X6.906670 Y10.278745 F100.000000
G1 X7.003330 F100.000000
G1 X7.081530 Y10.221930 F100.000000
G1 X7.111400 Y10.130000 F100.000000
G0 Z-0.850000 F30.000000
G1 X7.081530 Y10.038070 F100.000000
G1 X7.003330 Y9.981255 F100.000000
G1 X6.906670 F100.000000
G1 X6.828470 Y10.038070 F100.000000
G1 X6.798600 Y10.130000 F100.000000
G1 X6.828470 Y10.221930 F100.000000
G1 X6.906670 Y10.278745 F100.000000
G1 X7.003330 F100.000000
G1 X7.081530 Y10.221930 F100.000000
G1 X7.111400 Y10.130000 F100.000000
G0 Z-1.133333 F30.000000
G1 X7.081530 Y10.038070 F100.000000
G1 X7.003330 Y9.981255 F100.000000
G1 X6.906670 F100.000000
G1 X6.828470 Y10.038070 F100.000000
G1 X6.798600 Y10.130000 F100.000000
G1 X6.828470 Y10.221930 F100.000000
G1 X6.906670 Y10.278745 F100.000000
G1 X7.003330 F100.000000
G1 X7.081530 Y10.221930 F100.000000
G1 X7.111400 Y10.130000 F100.000000
G0 Z-1.416667 F30.000000
G1 X7.081530 Y10.038070 F100.000000
G1 X7.003330 Y9.981255 F100.000000
G1 X6.906670 F100.000000
G1 X6.828470 Y10.038070 F100.000000
G1 X6.798600 Y10.130000 F100.000000
G1 X6.828470 Y10.221930 F100.000000
G1 X6.906670 Y10.278745 F100.000000
G1 X7.003330 F100.000000
G1 X7.081530 Y10.221930 F100.000000
G1 X7.111400 Y10.130000 F100.000000
G0 Z-1.700000 F30.000000
G1 X7.081530 Y10.038070 F100.000000
G1 X7.003330 Y9.981255 F100.000000
G1 X6.906670 F100.000000
G1 X6.828470 Y10.038070 F100.000000
G1 X6.798600 Y10.130000 F100.000000
G1 X6.828470 Y10.221930 F100.000000
G1 X6.906670 Y10.278745 F100.000000
G1 X7.003330 F100.000000
G1 X7.081530 Y10.221930 F100.000000
G1 X7.111400 Y10.130000 F100.000000
G0 Z2.000000
G0 X7.111400 Y7.590000
G17
G0 Z-0.283333 F30.000000
G1 Y7.590000 F100.000000
G1 X7.081530 Y7.498070 F100.000000
G1 X7.003330 Y7.441255 F100.000000
G1 X6.906670 F100.000000
G1 X6.828470 Y7.498070 F100.000000
G1 X6.798600 Y7.590000 F100.000000
G1 X6.828470 Y7.681930 F100.000000
G1 X6.906670 Y7.738745 F100.000000
G1 X7.003330 F100.000000
G1 X7.081530 Y7.681930 F100.000000
G1 X7.111400 Y7.590000 F100.000000
G0 Z-0.566667 F30.000000
G1 X7.081530 Y7.498070 F100.000000
G1 X7.003330 Y7.441255 F100.000000
G1 X6.906670 F100.000000
G1 X6.828470 Y7.498070 F100.000000
G1 X6.798600 Y7.590000 F100.000000
G1 X6.828470 Y7.681930 F100.000000
G1 X6.906670 Y7.738745 F100.000000
G1 X7.003330 F100.000000
G1 X7.081530 Y7.681930 F100.000000
G1 X7.111400 Y7.590000 F100.000000
G0 Z-0.850000 F30.000000
G1 X7.081530 Y7.498070 F100.000000
G1 X7.003330 Y7.441255 F100.000000
G1 X6.906670 F100.000000
G1 X6.828470 Y7.498070 F100.000000
G1 X6.798600 Y7.590000 F100.000000
G1 X6.828470 Y7.681930 F100.000000
G1 X6.906670 Y7.738745 F100.000000
G1 X7.003330 F100.000000
G1 X7.081530 Y7.681930 F100.000000
G1 X7.111400 Y7.590000 F100.000000
G0 Z-1.133333 F30.000000
G1 X7.081530 Y7.498070 F100.000000
G1 X7.003330 Y7.441255 F100.000000
G1 X6.906670 F100.000000
G1 X6.828470 Y7.498070 F100.000000
G1 X6.798600 Y7.590000 F100.000000
G1 X6.828470 Y7.681930 F100.000000
G1 X6.906670 Y7.738745 F100.000000
G1 X7.003330 F100.000000
G1 X7.081530 Y7.681930 F100.000000
G1 X7.111400 Y7.590000 F100.000000
G0 Z-1.416667 F30.000000
G1 X7.081530 Y7.498070 F100.000000
G1 X7.003330 Y7.441255 F100.000000
G1 X6.906670 F100.000000
G1 X6.828470 Y7.498070 F100.000000
G1 X6.798600 Y7.590000 F100.000000
G1 X6.828470 Y7.681930 F100.000000
G1 X6.906670 Y7.738745 F100.000000
G1 X7.003330 F100.000000
G1 X7.081530 Y7.681930 F100.000000
G1 X7.111400 Y7.590000 F100.000000
G0 Z-1.700000 F30.000000
G1 X7.081530 Y7.498070 F100.000000
G1 X7.003330 Y7.441255 F100.000000
G1 X6.906670 F100.000000
G1 X6.828470 Y7.498070 F100.000000
G1 X6.798600 Y7.590000 F100.000000
G1 X6.828470 Y7.681930 F100.000000
G1 X6.906670 Y7.738745 F100.000000
G1 X7.003330 F100.000000
G1 X7.081530 Y7.681930 F100.000000
G1 X7.111400 Y7.590000 F100.000000
G0 Z2.000000
G0 X12.826400 Y6.955000
G17
G0 Z-0.283333 F30.000000
G1 X12.826400 Y6.955000 F100.000000
G1 X12.796530 Y6.863070 F100.000000
G1 X12.718330 Y6.806255 F100.000000
G1 X12.621670 F100.000000
G1 X12.543470 Y6.863070 F100.000000
G1 X12.513600 Y6.955000 F100.000000
G1 X12.543470 Y7.046930 F100.000000
G1 X12.621670 Y7.103745 F100.000000
G1 X12.718330 F100.000000
G1 X12.796530 Y7.046930 F100.000000
G1 X12.826400 Y6.955000 F100.000000
G0 Z-0.566667 F30.000000
G1 X12.796530 Y6.863070 F100.000000
G1 X12.718330 Y6.806255 F100.000000
G1 X12.621670 F100.000000
G1 X12.543470 Y6.863070 F100.000000
G1 X12.513600 Y6.955000 F100.000000
G1 X12.543470 Y7.046930 F100.000000
G1 X12.621670 Y7.103745 F100.000000
G1 X12.718330 F100.000000
G1 X12.796530 Y7.046930 F100.000000
G1 X12.826400 Y6.955000 F100.000000
G0 Z-0.850000 F30.000000
G1 X12.796530 Y6.863070 F100.000000
G1 X12.718330 Y6.806255 F100.000000
G1 X12.621670 F100.000000
G1 X12.543470 Y6.863070 F100.000000
G1 X12.513600 Y6.955000 F100.000000
G1 X12.543470 Y7.046930 F100.000000
G1 X12.621670 Y7.103745 F100.000000
G1 X12.718330 F100.000000
G1 X12.796530 Y7.046930 F100.000000
G1 X12.826400 Y6.955000 F100.000000
G0 Z-1.133333 F30.000000
G1 X12.796530 Y6.863070 F100.000000
G1 X12.718330 Y6.806255 F100.000000
G1 X12.621670 F100.000000
G1 X12.543470 Y6.863070 F100.000000
G1 X12.513600 Y6.955000 F100.000000
G1 X12.543470 Y7.046930 F100.000000
G1 X12.621670 Y7.103745 F100.000000
G1 X12.718330 F100.000000
G1 X12.796530 Y7.046930 F100.000000
G1 X12.826400 Y6.955000 F100.000000
G0 Z-1.416667 F30.000000
G1 X12.796530 Y6.863070 F100.000000
G1 X12.718330 Y6.806255 F100.000000
G1 X12.621670 F100.000000
G1 X12.543470 Y6.863070 F100.000000
G1 X12.513600 Y6.955000 F100.000000
G1 X12.543470 Y7.046930 F100.000000
G1 X12.621670 Y7.103745 F100.000000
G1 X12.718330 F100.000000
G1 X12.796530 Y7.046930 F100.000000
G1 X12.826400 Y6.955000 F100.000000
G0 Z-1.700000 F30.000000
G1 X12.796530 Y6.863070 F100.000000
G1 X12.718330 Y6.806255 F100.000000
G1 X12.621670 F100.000000
G1 X12.543470 Y6.863070 F100.000000
G1 X12.513600 Y6.955000 F100.000000
G1 X12.543470 Y7.046930 F100.000000
G1 X12.621670 Y7.103745 F100.000000
G1 X12.718330 F100.000000
G1 X12.796530 Y7.046930 F100.000000
G1 X12.826400 Y6.955000 F100.000000
G0 Z2.000000
G0 X15.366400 Y6.955000
G17
G0 Z-0.283333 F30.000000
G1 X15.366400 F100.000000
G1 X15.336530 Y6.863070 F100.000000
G1 X15.258330 Y6.806255 F100.000000
G1 X15.161670 F100.000000
G1 X15.083470 Y6.863070 F100.000000
G1 X15.053600 Y6.955000 F100.000000
G1 X15.083470 Y7.046930 F100.000000
G1 X15.161670 Y7.103745 F100.000000
G1 X15.258330 F100.000000
G1 X15.336530 Y7.046930 F100.000000
G1 X15.366400 Y6.955000 F100.000000
G0 Z-0.566667 F30.000000
G1 X15.336530 Y6.863070 F100.000000
G1 X15.258330 Y6.806255 F100.000000
G1 X15.161670 F100.000000
G1 X15.083470 Y6.863070 F100.000000
G1 X15.053600 Y6.955000 F100.000000
G1 X15.083470 Y7.046930 F100.000000
G1 X15.161670 Y7.103745 F100.000000
G1 X15.258330 F100.000000
G1 X15.336530 Y7.046930 F100.000000
G1 X15.366400 Y6.955000 F100.000000
G0 Z-0.850000 F30.000000
G1 X15.336530 Y6.863070 F100.000000
G1 X15.258330 Y6.806255 F100.000000
G1 X15.161670 F100.000000
G1 X15.083470 Y6.863070 F100.000000
G1 X15.053600 Y6.955000 F100.000000
G1 X15.083470 Y7.046930 F100.000000
G1 X15.161670 Y7.103745 F100.000000
G1 X15.258330 F100.000000
G1 X15.336530 Y7.046930 F100.000000
G1 X15.366400 Y6.955000 F100.000000
G0 Z-1.133333 F30.000000
G1 X15.336530 Y6.863070 F100.000000
G1 X15.258330 Y6.806255 F100.000000
G1 X15.161670 F100.000000
G1 X15.083470 Y6.863070 F100.000000
G1 X15.053600 Y6.955000 F100.000000
G1 X15.083470 Y7.046930 F100.000000
G1 X15.161670 Y7.103745 F100.000000
G1 X15.258330 F100.000000
G1 X15.336530 Y7.046930 F100.000000
G1 X15.366400 Y6.955000 F100.000000
G0 Z-1.416667 F30.000000
G1 X15.336530 Y6.863070 F100.000000
G1 X15.258330 Y6.806255 F100.000000
G1 X15.161670 F100.000000
G1 X15.083470 Y6.863070 F100.000000
G1 X15.053600 Y6.955000 F100.000000
G1 X15.083470 Y7.046930 F100.000000
G1 X15.161670 Y7.103745 F100.000000
G1 X15.258330 F100.000000
G1 X15.336530 Y7.046930 F100.000000
G1 X15.366400 Y6.955000 F100.000000
G0 Z-1.700000 F30.000000
G1 X15.336530 Y6.863070 F100.000000
G1 X15.258330 Y6.806255 F100.000000
G1 X15.161670 F100.000000
G1 X15.083470 Y6.863070 F100.000000
G1 X15.053600 Y6.955000 F100.000000
G1 X15.083470 Y7.046930 F100.000000
G1 X15.161670 Y7.103745 F100.000000
G1 X15.258330 F100.000000
G1 X15.336530 Y7.046930 F100.000000
G1 X15.366400 Y6.955000 F100.000000
G0 Z2.000000
G0 X19.811400 Y9.495000
G17
G0 Z-0.283333 F30.000000
G1 X19.811400 Y9.495000 F100.000000
G1 X19.781530 Y9.403070 F100.000000
G1 X19.703330 Y9.346255 F100.000000
G1 X19.606670 F100.000000
G1 X19.528470 Y9.403070 F100.000000
G1 X19.498600 Y9.495000 F100.000000
G1 X19.528470 Y9.586930 F100.000000
G1 X19.606670 Y9.643745 F100.000000
G1 X19.703330 F100.000000
G1 X19.781530 Y9.586930 F100.000000
G1 X19.811400 Y9.495000 F100.000000
G0 Z-0.566667 F30.000000
G1 X19.781530 Y9.403070 F100.000000
G1 X19.703330 Y9.346255 F100.000000
G1 X19.606670 F100.000000
G1 X19.528470 Y9.403070 F100.000000
G1 X19.498600 Y9.495000 F100.000000
G1 X19.528470 Y9.586930 F100.000000
G1 X19.606670 Y9.643745 F100.000000
G1 X19.703330 F100.000000
G1 X19.781530 Y9.586930 F100.000000
G1 X19.811400 Y9.495000 F100.000000
G0 Z-0.850000 F30.000000
G1 X19.781530 Y9.403070 F100.000000
G1 X19.703330 Y9.346255 F100.000000
G1 X19.606670 F100.000000
G1 X19.528470 Y9.403070 F100.000000
G1 X19.498600 Y9.495000 F100.000000
G1 X19.528470 Y9.586930 F100.000000
G1 X19.606670 Y9.643745 F100.000000
G1 X19.703330 F100.000000
G1 X19.781530 Y9.586930 F100.000000
G1 X19.811400 Y9.495000 F100.000000
G0 Z-1.133333 F30.000000
G1 X19.781530 Y9.403070 F100.000000
G1 X19.703330 Y9.346255 F100.000000
G1 X19.606670 F100.000000
G1 X19.528470 Y9.403070 F100.000000
G1 X19.498600 Y9.495000 F100.000000
G1 X19.528470 Y9.586930 F100.000000
G1 X19.606670 Y9.643745 F100.000000
G1 X19.703330 F100.000000
G1 X19.781530 Y9.586930 F100.000000
G1 X19.811400 Y9.495000 F100.000000
G0 Z-1.416667 F30.000000
G1 X19.781530 Y9.403070 F100.000000
G1 X19.703330 Y9.346255 F100.000000
G1 X19.606670 F100.000000
G1 X19.528470 Y9.403070 F100.000000
G1 X19.498600 Y9.495000 F100.000000
G1 X19.528470 Y9.586930 F100.000000
G1 X19.606670 Y9.643745 F100.000000
G1 X19.703330 F100.000000
G1 X19.781530 Y9.586930 F100.000000
G1 X19.811400 Y9.495000 F100.000000
G0 Z-1.700000 F30.000000
G1 X19.781530 Y9.403070 F100.000000
G1 X19.703330 Y9.346255 F100.000000
G1 X19.606670 F100.000000
G1 X19.528470 Y9.403070 F100.000000
G1 X19.498600 Y9.495000 F100.000000
G1 X19.528470 Y9.586930 F100.000000
G1 X19.606670 Y9.643745 F100.000000
G1 X19.703330 F100.000000
G1 X19.781530 Y9.586930 F100.000000
G1 X19.811400 Y9.495000 F100.000000
G0 Z2.000000
G0 X19.811400 Y6.955000
G17
G0 Z-0.283333 F30.000000
G1 Y6.955000 F100.000000
G1 X19.781530 Y6.863070 F100.000000
G1 X19.703330 Y6.806255 F100.000000
G1 X19.606670 F100.000000
G1 X19.528470 Y6.863070 F100.000000
G1 X19.498600 Y6.955000 F100.000000
G1 X19.528470 Y7.046930 F100.000000
G1 X19.606670 Y7.103745 F100.000000
G1 X19.703330 F100.000000
G1 X19.781530 Y7.046930 F100.000000
G1 X19.811400 Y6.955000 F100.000000
G0 Z-0.566667 F30.000000
G1 X19.781530 Y6.863070 F100.000000
G1 X19.703330 Y6.806255 F100.000000
G1 X19.606670 F100.000000
G1 X19.528470 Y6.863070 F100.000000
G1 X19.498600 Y6.955000 F100.000000
G1 X19.528470 Y7.046930 F100.000000
G1 X19.606670 Y7.103745 F100.000000
G1 X19.703330 F100.000000
G1 X19.781530 Y7.046930 F100.000000
G1 X19.811400 Y6.955000 F100.000000
G0 Z-0.850000 F30.000000
G1 X19.781530 Y6.863070 F100.000000
G1 X19.703330 Y6.806255 F100.000000
G1 X19.606670 F100.000000
G1 X19.528470 Y6.863070 F100.000000
G1 X19.498600 Y6.955000 F100.000000
G1 X19.528470 Y7.046930 F100.000000
G1 X19.606670 Y7.103745 F100.000000
G1 X19.703330 F100.000000
G1 X19.781530 Y7.046930 F100.000000
G1 X19.811400 Y6.955000 F100.000000
G0 Z-1.133333 F30.000000
G1 X19.781530 Y6.863070 F100.000000
G1 X19.703330 Y6.806255 F100.000000
G1 X19.606670 F100.000000
G1 X19.528470 Y6.863070 F100.000000
G1 X19.498600 Y6.955000 F100.000000
G1 X19.528470 Y7.046930 F100.000000
G1 X19.606670 Y7.103745 F100.000000
G1 X19.703330 F100.000000
G1 X19.781530 Y7.046930 F100.000000
G1 X19.811400 Y6.955000 F100.000000
G0 Z-1.416667 F30.000000
G1 X19.781530 Y6.863070 F100.000000
G1 X19.703330 Y6.806255 F100.000000
G1 X19.606670 F100.000000
G1 X19.528470 Y6.863070 F100.000000
G1 X19.498600 Y6.955000 F100.000000
G1 X19.528470 Y7.046930 F100.000000
G1 X19.606670 Y7.103745 F100.000000
G1 X19.703330 F100.000000
G1 X19.781530 Y7.046930 F100.000000
G1 X19.811400 Y6.955000 F100.000000
G0 Z-1.700000 F30.000000
G1 X19.781530 Y6.863070 F100.000000
G1 X19.703330 Y6.806255 F100.000000
G1 X19.606670 F100.000000
G1 X19.528470 Y6.863070 F100.000000
G1 X19.498600 Y6.955000 F100.000000
G1 X19.528470 Y7.046930 F100.000000
G1 X19.606670 Y7.103745 F100.000000
G1 X19.703330 F100.000000
G1 X19.781530 Y7.046930 F100.000000
G1 X19.811400 Y6.955000 F100.000000
G0 Z2.000000

(Goto to Initial position)
G0 Z2.000000
G0 X0.000000 Y0.000000
G0 Z0.000000
