(Generated by pygerber2gcode_cui_MOD.py )
( 2013-05-29 01:46:38 )
(Initialize)
G92 X0.000000 Y0.000000 Z0.000000

(Start form here)
G0 Z2.000000
G0 X13.562675 Y6.849027
G1 Z-0.040000 F60.000000
G1 X13.534574 Y7.205692 F100.000000
G1 X13.481424 Y7.335769 F100.000000
G1 X13.407298 Y7.261642 F100.000000
G1 X13.364051 Y7.218395 F100.000000
G1 X13.390744 Y7.156943 F100.000000
G1 X13.418500 Y6.955000 F100.000000
G1 X13.390744 Y6.753057 F100.000000
G1 X13.364051 Y6.691605 F100.000000
G1 X13.475793 Y6.579863 F100.000000
G1 X13.562675 Y6.849027 F100.000000
G0 Z2.000000
G0 X12.564027 Y6.062325
G1 Z-0.040000 F60.000000
G1 X12.920692 Y6.090426 F100.000000
G1 X13.050769 Y6.143576 F100.000000
G1 X12.948702 Y6.245642 F100.000000
G1 X12.932883 Y6.261461 F100.000000
G1 X12.822287 Y6.222156 F100.000000
G1 X12.618921 Y6.208245 F100.000000
G1 X12.419343 Y6.249718 F100.000000
G1 X12.403554 Y6.257899 F100.000000
G1 X12.391298 Y6.245642 F100.000000
G1 X12.294863 Y6.149207 F100.000000
G1 X12.564027 Y6.062325 F100.000000
G0 Z2.000000
G0 X11.858576 Y6.574231
G1 Z-0.040000 F60.000000
G1 X11.974204 Y6.689859 F100.000000
G1 X11.928472 Y6.853079 F100.000000
G1 Y7.056921 F100.000000
G1 X11.974204 Y7.220141 F100.000000
G1 X11.932702 Y7.261642 F100.000000
G1 X11.864207 Y7.330137 F100.000000
G1 X11.777325 Y7.060973 F100.000000
G1 X11.805426 Y6.704308 F100.000000
G1 X11.858576 Y6.574231 F100.000000
G0 Z2.000000
G0 X13.045137 Y7.760793
G1 Z-0.040000 F60.000000
G1 X12.775973 Y7.847675 F100.000000
G1 X12.419308 Y7.819574 F100.000000
G1 X12.289231 Y7.766424 F100.000000
G1 X12.340498 Y7.715158 F100.000000
G1 X12.403554 Y7.652101 F100.000000
G1 X12.419343 Y7.660282 F100.000000
G1 X12.618921 Y7.701755 F100.000000
G1 X12.822287 Y7.687844 F100.000000
G1 X12.932883 Y7.648539 F100.000000
G1 X12.999502 Y7.715158 F100.000000
G1 X13.045137 Y7.760793 F100.000000
G0 Z2.000000
G0 X9.365520 Y10.318020
G1 Z-0.040000 F60.000000
G1 X9.365520 Y10.318020 F100.000000
G1 X9.365520 Y10.318020 F100.000000
G1 X9.376539 Y10.307000 F100.000000
G1 X10.193500 F100.000000
G1 Y9.318000 F100.000000
G1 X8.796500 F100.000000
G1 Y9.864100 F100.000000
G1 X7.653500 F100.000000
G1 Y9.381500 F100.000000
G1 X6.256500 F100.000000
G1 Y10.878500 F100.000000
G1 X7.653500 F100.000000
G1 Y10.395900 F100.000000
G1 X9.177500 F100.000000
G0 Z2.000000
G0 X7.847675 Y7.484027
G1 Z-0.040000 F60.000000
G1 X7.819574 Y7.840692 F100.000000
G1 X7.766424 Y7.970769 F100.000000
G1 X7.666898 Y7.871242 F100.000000
G1 X7.649051 Y7.853395 F100.000000
G1 X7.675744 Y7.791943 F100.000000
G1 X7.703500 Y7.590000 F100.000000
G1 X7.675744 Y7.388057 F100.000000
G1 X7.649051 Y7.326605 F100.000000
G1 X7.666898 Y7.308758 F100.000000
G1 X7.760793 Y7.214863 F100.000000
G1 X7.847675 Y7.484027 F100.000000
G0 Z2.000000
G0 X6.849027 Y6.697325
G1 Z-0.040000 F60.000000
G1 X7.205692 Y6.725426 F100.000000
G1 X7.335769 Y6.778576 F100.000000
G1 X7.259102 Y6.855242 F100.000000
G1 X7.217883 Y6.896461 F100.000000
G1 X7.107287 Y6.857156 F100.000000
G1 X6.903921 Y6.843245 F100.000000
G1 X6.704343 Y6.884718 F100.000000
G1 X6.688554 Y6.892899 F100.000000
G1 X6.650898 Y6.855242 F100.000000
G1 X6.579863 Y6.784207 F100.000000
G1 X6.849027 Y6.697325 F100.000000
G0 Z2.000000
G0 X6.143576 Y7.209231
G1 Z-0.040000 F60.000000
G1 X6.243102 Y7.308758 F100.000000
G1 X6.259204 Y7.324859 F100.000000
G1 X6.213472 Y7.488079 F100.000000
G1 Y7.691921 F100.000000
G1 X6.259204 Y7.855141 F100.000000
G1 X6.243102 Y7.871242 F100.000000
G1 X6.149207 Y7.965137 F100.000000
G1 X6.062325 Y7.695973 F100.000000
G1 X6.090426 Y7.339308 F100.000000
G1 X6.143576 Y7.209231 F100.000000
G0 Z2.000000
G0 X7.330137 Y8.395793
G1 Z-0.040000 F60.000000
G1 X7.060973 Y8.482675 F100.000000
G1 X6.704308 Y8.454574 F100.000000
G1 X6.574231 Y8.401424 F100.000000
G1 X6.650898 Y8.324758 F100.000000
G1 X6.688554 Y8.287101 F100.000000
G1 X6.704343 Y8.295282 F100.000000
G1 X6.903921 Y8.336755 F100.000000
G1 X7.107287 Y8.322844 F100.000000
G1 X7.217883 Y8.283539 F100.000000
G1 X7.259102 Y8.324758 F100.000000
G1 X7.330137 Y8.395793 F100.000000
G0 Z2.000000
G0 X10.193500 Y18.436600
G1 Z-0.040000 F60.000000
G1 Y18.208000 F100.000000
G1 X8.796500 F100.000000
G1 Y18.754100 F100.000000
G1 X7.653500 F100.000000
G1 Y18.271500 F100.000000
G1 X6.256500 F100.000000
G1 Y19.768500 F100.000000
G1 X7.653500 F100.000000
G1 Y19.285900 F100.000000
G1 X9.177500 F100.000000
G1 Y19.285900 F100.000000
G0 Z2.000000
G0 X7.847675 Y16.374027
G1 Z-0.040000 F60.000000
G1 X7.819574 Y16.730692 F100.000000
G1 X7.766424 Y16.860769 F100.000000
G1 X7.717698 Y16.812042 F100.000000
G1 X7.649051 Y16.743395 F100.000000
G1 X7.675744 Y16.681943 F100.000000
G1 X7.703500 Y16.480000 F100.000000
G1 X7.675744 Y16.278057 F100.000000
G1 X7.649051 Y16.216605 F100.000000
G1 X7.760793 Y16.104863 F100.000000
G1 X7.847675 Y16.374027 F100.000000
G0 Z2.000000
G0 X6.849027 Y15.587325
G1 Z-0.040000 F60.000000
G1 X7.205692 Y15.615426 F100.000000
G1 X7.335769 Y15.668576 F100.000000
G1 X7.217883 Y15.786461 F100.000000
G1 X7.107287 Y15.747156 F100.000000
G1 X6.903921 Y15.733245 F100.000000
G1 X6.704343 Y15.774718 F100.000000
G1 X6.688554 Y15.782899 F100.000000
G1 X6.579863 Y15.674207 F100.000000
G1 X6.849027 Y15.587325 F100.000000
G0 Z2.000000
G0 X6.143576 Y16.099231
G1 Z-0.040000 F60.000000
G1 X6.259204 Y16.214859 F100.000000
G1 X6.213472 Y16.378079 F100.000000
G1 Y16.581921 F100.000000
G1 X6.259204 Y16.745141 F100.000000
G1 X6.192302 Y16.812042 F100.000000
G1 X6.149207 Y16.855137 F100.000000
G1 X6.062325 Y16.585973 F100.000000
G1 X6.090426 Y16.229308 F100.000000
G1 X6.143576 Y16.099231 F100.000000
G0 Z2.000000
G0 X7.330137 Y17.285793
G1 Z-0.040000 F60.000000
G1 X7.060973 Y17.372675 F100.000000
G1 X6.704308 Y17.344574 F100.000000
G1 X6.574231 Y17.291424 F100.000000
G1 X6.600098 Y17.265558 F100.000000
G1 X6.688554 Y17.177101 F100.000000
G1 X6.704343 Y17.185282 F100.000000
G1 X6.903921 Y17.226755 F100.000000
G1 X7.107287 Y17.212844 F100.000000
G1 X7.217883 Y17.173539 F100.000000
G1 X7.309902 Y17.265558 F100.000000
G1 X7.330137 Y17.285793 F100.000000
G0 Z2.000000
G0 X20.238400 Y12.556500
G1 Z-0.040000 F60.000000
G1 Y10.243500 F100.000000
G1 X20.353500 F100.000000
G1 Y8.746500 F100.000000
G1 X18.956500 F100.000000
G1 Y10.243500 F100.000000
G1 X19.706600 F100.000000
G1 Y12.556500 F100.000000
G1 X19.528000 F100.000000
G1 Y14.053500 F100.000000
G1 X20.417000 F100.000000
G1 Y12.556500 F100.000000
G1 X20.238400 F100.000000
G0 Z2.000000
G0 X16.789505 Y17.351740
G1 Z-0.040000 F60.000000
G1 X16.783919 Y17.349825 F100.000000
G1 X16.727664 Y17.377355 F100.000000
G1 X16.669802 Y17.401322 F100.000000
G1 X16.657392 Y17.413732 F100.000000
G1 X16.583073 Y17.443460 F100.000000
G1 X16.467300 F100.000000
G1 X16.466741 Y17.443692 F100.000000
G1 X16.466180 Y17.443464 F100.000000
G1 X16.149000 Y17.445471 F100.000000
G1 Y17.343600 F100.000000
G1 Y17.292000 F100.000000
G1 X16.543500 F100.000000
G1 Y17.101500 F100.000000
G1 X16.830520 F100.000000
G1 X17.051500 F100.000000
G1 Y17.292000 F100.000000
G1 X17.446000 F100.000000
G1 Y17.343600 F100.000000
G1 Y17.445471 F100.000000
G1 X17.128820 Y17.443464 F100.000000
G1 X17.128259 Y17.443692 F100.000000
G1 X17.127700 Y17.443460 F100.000000
G1 X17.011927 F100.000000
G1 X16.932296 Y17.411607 F100.000000
G1 X16.912067 Y17.393759 F100.000000
G1 X16.852822 Y17.373447 F100.000000
G1 X16.794960 Y17.349480 F100.000000
G1 X16.789505 Y17.351740 F100.000000
G0 Z2.000000
G0 X18.694505 Y17.351740
G1 Z-0.040000 F60.000000
G1 X18.688919 Y17.349825 F100.000000
G1 X18.632664 Y17.377355 F100.000000
G1 X18.574802 Y17.401322 F100.000000
G1 X18.562392 Y17.413732 F100.000000
G1 X18.488073 Y17.443460 F100.000000
G1 X18.372300 F100.000000
G1 X18.371741 Y17.443692 F100.000000
G1 X18.371180 Y17.443464 F100.000000
G1 X18.054000 Y17.445471 F100.000000
G1 Y17.343600 F100.000000
G1 Y17.292000 F100.000000
G1 X18.448500 F100.000000
G1 Y17.101500 F100.000000
G1 X18.735520 F100.000000
G1 X18.956500 F100.000000
G1 Y17.292000 F100.000000
G1 X19.351000 F100.000000
G1 Y17.343600 F100.000000
G1 Y17.445471 F100.000000
G1 X19.033820 Y17.443464 F100.000000
G1 X19.033259 Y17.443692 F100.000000
G1 X19.032700 Y17.443460 F100.000000
G1 X18.916927 F100.000000
G1 X18.837296 Y17.411607 F100.000000
G1 X18.817067 Y17.393759 F100.000000
G1 X18.757822 Y17.373447 F100.000000
G1 X18.699960 Y17.349480 F100.000000
G1 X18.694505 Y17.351740 F100.000000
G0 Z2.000000
G0 X18.757822 Y16.226633
G1 Z-0.040000 F60.000000
G1 X18.817067 Y16.206321 F100.000000
G1 X18.819663 Y16.201018 F100.000000
G1 X18.825118 Y16.198758 F100.000000
G1 X18.842608 Y16.181268 F100.000000
G1 X18.916927 Y16.151540 F100.000000
G1 X19.032700 F100.000000
G1 X19.033259 Y16.151308 F100.000000
G1 X19.033820 Y16.151536 F100.000000
G1 X19.351000 Y16.149529 F100.000000
G1 Y16.303000 F100.000000
G1 X18.956500 F100.000000
G1 Y16.493500 F100.000000
G1 X18.735520 F100.000000
G1 X18.448500 F100.000000
G1 Y16.303000 F100.000000
G1 X18.054000 F100.000000
G1 Y16.149529 F100.000000
G1 X18.371180 Y16.151536 F100.000000
G1 X18.371741 Y16.151308 F100.000000
G1 X18.372300 Y16.151540 F100.000000
G1 X18.488073 F100.000000
G1 X18.557010 Y16.179115 F100.000000
G1 X18.567239 Y16.190707 F100.000000
G1 X18.572542 Y16.193303 F100.000000
G1 X18.574802 Y16.198758 F100.000000
G1 X18.632664 Y16.222725 F100.000000
G1 X18.688919 Y16.250255 F100.000000
G1 X18.694505 Y16.248340 F100.000000
G1 X18.699960 Y16.250600 F100.000000
G1 X18.757822 Y16.226633 F100.000000
G0 Z2.000000
G0 X16.852822 Y16.226633
G1 Z-0.040000 F60.000000
G1 X16.912067 Y16.206321 F100.000000
G1 X16.914663 Y16.201018 F100.000000
G1 X16.920118 Y16.198758 F100.000000
G1 X16.937608 Y16.181268 F100.000000
G1 X17.011927 Y16.151540 F100.000000
G1 X17.127700 F100.000000
G1 X17.128259 Y16.151308 F100.000000
G1 X17.128820 Y16.151536 F100.000000
G1 X17.446000 Y16.149529 F100.000000
G1 Y16.303000 F100.000000
G1 X17.051500 F100.000000
G1 Y16.493500 F100.000000
G1 X16.830520 F100.000000
G1 X16.543500 F100.000000
G1 Y16.303000 F100.000000
G1 X16.149000 F100.000000
G1 Y16.149529 F100.000000
G1 X16.466180 Y16.151536 F100.000000
G1 X16.466741 Y16.151308 F100.000000
G1 X16.467300 Y16.151540 F100.000000
G1 X16.583073 F100.000000
G1 X16.652010 Y16.179115 F100.000000
G1 X16.662239 Y16.190707 F100.000000
G1 X16.667542 Y16.193303 F100.000000
G1 X16.669802 Y16.198758 F100.000000
G1 X16.727664 Y16.222725 F100.000000
G1 X16.783919 Y16.250255 F100.000000
G1 X16.789505 Y16.248340 F100.000000
G1 X16.794960 Y16.250600 F100.000000
G1 X16.852822 Y16.226633 F100.000000
G0 Z2.000000
G0 X9.365520 Y19.208020
G1 Z-0.040000 F60.000000
G1 X9.376539 Y19.197000 F100.000000
G1 X10.193500 F100.000000
G1 Y18.968400 F100.000000
G1 X10.701500 F100.000000
G1 Y19.197000 F100.000000
G1 X12.098500 F100.000000
G1 Y18.968400 F100.000000
G1 X12.606500 F100.000000
G1 Y19.197000 F100.000000
G1 X14.003500 F100.000000
G1 Y18.968400 F100.000000
G1 X15.146500 F100.000000
G1 Y19.197000 F100.000000
G1 X16.543500 F100.000000
G1 Y18.208000 F100.000000
G1 X15.146500 F100.000000
G1 Y18.436600 F100.000000
G1 X14.003500 F100.000000
G1 Y18.208000 F100.000000
G1 X12.606500 F100.000000
G1 Y18.436600 F100.000000
G1 X12.098500 F100.000000
G1 Y18.208000 F100.000000
G1 X10.701500 F100.000000
G1 Y18.436600 F100.000000
G1 X10.193500 F100.000000
G0 Z2.000000
G0 X11.466434 Y14.924720
G1 Z-0.040000 F60.000000
G1 X11.532020 Y15.083060 F100.000000
G1 X12.751961 Y16.303000 F100.000000
G1 X12.606500 F100.000000
G1 Y17.292000 F100.000000
G1 X14.003500 F100.000000
G1 Y16.303000 F100.000000
G1 X13.497584 F100.000000
G1 X13.495603 Y16.298217 F100.000000
G0 Z2.000000
G0 X11.030900 Y13.940000
G1 Z-0.040000 F60.000000
G1 Y13.415139 F100.000000
G1 X11.510139 Y12.935900 F100.000000
G1 X13.354060 F100.000000
G1 Y13.575040 F100.000000
G1 X13.119580 F100.000000
G1 Y14.274480 F100.000000
G1 X14.120340 F100.000000
G1 Y13.575040 F100.000000
G1 X13.885860 F100.000000
G1 Y12.935900 F100.000000
G1 X15.146500 F100.000000
G1 Y13.482000 F100.000000
G1 X16.543500 F100.000000
G1 Y13.253400 F100.000000
G1 X17.623000 F100.000000
G1 Y14.053500 F100.000000
G1 X18.512000 F100.000000
G1 Y12.556500 F100.000000
G1 X17.623000 F100.000000
G1 Y12.721600 F100.000000
G1 X16.543500 F100.000000
G1 Y12.493000 F100.000000
G1 X15.726539 F100.000000
G1 X15.715520 Y12.481980 F100.000000
G0 Z2.000000
G0 X15.527500 Y12.404100
G1 Z-0.040000 F60.000000
G1 X13.619960 F100.000000
G1 X11.400000 F100.000000
G1 X11.211980 Y12.481980 F100.000000
G1 X10.576980 Y13.116980 F100.000000
G1 X10.576980 Y13.116980 F100.000000
G1 X10.499100 Y13.305000 F100.000000
G1 Y13.829861 F100.000000
G1 X9.930961 Y14.398000 F100.000000
G1 X8.796500 F100.000000
G1 Y15.387000 F100.000000
G1 X9.613461 F100.000000
G1 X10.701500 Y16.475039 F100.000000
G1 Y17.292000 F100.000000
G1 X12.098500 F100.000000
G1 Y16.303000 F100.000000
G1 X11.281539 F100.000000
G1 X10.193500 Y15.214961 F100.000000
G1 Y14.887539 F100.000000
G1 X10.953020 Y14.128020 F100.000000
G0 Z2.000000
G0 X8.593210 Y13.291500
G1 Z-0.040000 F60.000000
G1 X8.796500 F100.000000
G1 Y13.482000 F100.000000
G1 X9.191000 F100.000000
G1 Y13.482800 F100.000000
G1 Y13.635471 F100.000000
G1 X8.873820 Y13.633464 F100.000000
G1 X8.873259 Y13.633692 F100.000000
G1 X8.872700 Y13.633460 F100.000000
G1 X8.756927 F100.000000
G1 X8.682608 Y13.603732 F100.000000
G1 X8.639718 Y13.560842 F100.000000
G1 X8.626293 Y13.547418 F100.000000
G1 X8.594739 Y13.471962 F100.000000
G1 X8.593210 Y13.291500 F100.000000
G0 Z2.000000
G0 X9.191000 Y12.339529
G1 Z-0.040000 F60.000000
G1 Y12.466800 F100.000000
G1 Y12.493000 F100.000000
G1 X8.796500 F100.000000
G1 Y12.683500 F100.000000
G1 X8.593210 F100.000000
G1 X8.594739 Y12.503038 F100.000000
G1 X8.626293 Y12.427582 F100.000000
G1 X8.665118 Y12.388758 F100.000000
G1 X8.665118 Y12.388758 F100.000000
G1 X8.665118 Y12.388758 F100.000000
G1 X8.682608 Y12.371268 F100.000000
G1 X8.756927 Y12.341540 F100.000000
G1 X8.872700 F100.000000
G1 X8.873259 Y12.341308 F100.000000
G1 X8.873820 Y12.341536 F100.000000
G1 X9.191000 Y12.339529 F100.000000
G0 Z2.000000
G0 X15.475900 Y9.812500
G1 Z-0.040000 F60.000000
G1 Y8.860000 F100.000000
G1 Y7.703500 F100.000000
G1 X15.908500 F100.000000
G1 Y7.220900 F100.000000
G1 X18.959416 F100.000000
G1 X18.968467 Y7.253203 F100.000000
G1 X19.074380 Y7.427369 F100.000000
G1 X19.223355 Y7.566502 F100.000000
G1 X19.404343 Y7.660282 F100.000000
G1 X19.603921 Y7.701755 F100.000000
G1 X19.807287 Y7.687844 F100.000000
G1 X19.999359 Y7.619582 F100.000000
G1 X20.165891 Y7.502031 F100.000000
G1 X20.294533 Y7.343909 F100.000000
G1 X20.375744 Y7.156943 F100.000000
G1 X20.403500 Y6.955000 F100.000000
G1 X20.375744 Y6.753057 F100.000000
G1 X20.294533 Y6.566091 F100.000000
G1 X20.165891 Y6.407969 F100.000000
G1 X19.999359 Y6.290418 F100.000000
G1 X19.807287 Y6.222156 F100.000000
G1 X19.603921 Y6.208245 F100.000000
G1 X19.404343 Y6.249718 F100.000000
G1 X19.223355 Y6.343498 F100.000000
G1 X19.074380 Y6.482631 F100.000000
G1 X18.968467 Y6.656797 F100.000000
G1 X18.959416 Y6.689100 F100.000000
G1 X15.908500 F100.000000
G1 Y6.206500 F100.000000
G1 X14.511500 F100.000000
G1 Y7.703500 F100.000000
G1 X14.944100 F100.000000
G1 Y8.594100 F100.000000
G1 X10.875139 F100.000000
G1 X10.193500 Y7.912461 F100.000000
G1 Y7.413000 F100.000000
G1 X8.796500 F100.000000
G1 Y8.402000 F100.000000
G1 X9.930961 F100.000000
G1 X10.576980 Y9.048020 F100.000000
G1 Y9.048020 F100.000000
G1 X10.765000 Y9.125900 F100.000000
G1 X14.944100 F100.000000
G1 Y9.381500 F100.000000
G1 X14.448000 F100.000000
G1 Y10.878500 F100.000000
G1 X15.337000 F100.000000
G1 Y10.061539 F100.000000
G1 X15.398020 Y10.000520 F100.000000
G0 Z2.000000
G0 X12.341209 Y10.434000
G1 Z-0.040000 F60.000000
G1 X12.543000 F100.000000
G1 Y10.878500 F100.000000
G1 X12.683500 F100.000000
G1 Y11.031790 F100.000000
G1 X12.503038 Y11.030261 F100.000000
G1 X12.427582 Y10.998707 F100.000000
G1 X12.371268 Y10.942392 F100.000000
G1 X12.341540 Y10.868073 F100.000000
G1 Y10.841200 F100.000000
G1 Y10.752300 F100.000000
G1 X12.341308 Y10.751741 F100.000000
G1 X12.341536 Y10.751180 F100.000000
G1 X12.340831 Y10.639712 F100.000000
G1 X12.341540 Y10.638000 F100.000000
G1 X12.340809 Y10.636235 F100.000000
G1 X12.339564 Y10.439570 F100.000000
G1 X12.341540 Y10.434800 F100.000000
G1 X12.341209 Y10.434000 F100.000000
G0 Z2.000000
G0 X13.633460 Y10.841200
G1 Z-0.040000 F60.000000
G1 Y10.868073 F100.000000
G1 X13.603732 Y10.942392 F100.000000
G1 X13.547418 Y10.998707 F100.000000
G1 X13.471962 Y11.030261 F100.000000
G1 X13.291500 Y11.031790 F100.000000
G1 Y10.878500 F100.000000
G1 X13.432000 F100.000000
G1 Y10.434000 F100.000000
G1 X13.635471 F100.000000
G1 X13.633464 Y10.751180 F100.000000
G1 X13.633692 Y10.751741 F100.000000
G1 X13.633460 Y10.752300 F100.000000
G1 Y10.841200 F100.000000
G0 Z2.000000
G0 Y9.456900
G1 Z-0.040000 F60.000000
G1 Y9.456900 F100.000000
G1 Y9.456900 F100.000000
G1 Y9.456900 F100.000000
G1 Y9.507700 F100.000000
G1 X13.633692 Y9.508259 F100.000000
G1 X13.633464 Y9.508820 F100.000000
G1 X13.634169 Y9.620288 F100.000000
G1 X13.633460 Y9.622000 F100.000000
G1 X13.634191 Y9.623765 F100.000000
G1 X13.635436 Y9.820430 F100.000000
G1 X13.633460 Y9.825200 F100.000000
G1 X13.633791 Y9.826000 F100.000000
G1 X13.432000 F100.000000
G1 Y9.381500 F100.000000
G1 X12.543000 F100.000000
G1 Y9.826000 F100.000000
G1 X12.339529 F100.000000
G1 X12.341536 Y9.508820 F100.000000
G1 X12.341308 Y9.508259 F100.000000
G1 X12.341540 Y9.507700 F100.000000
G1 Y9.456900 F100.000000
G0 Z2.000000
G0 X20.556790 Y17.101500
G1 Z-0.040000 F60.000000
G1 X20.555261 Y17.281962 F100.000000
G1 X20.523707 Y17.357418 F100.000000
G1 X20.467392 Y17.413732 F100.000000
G1 X20.393073 Y17.443460 F100.000000
G1 X20.277300 F100.000000
G1 X20.276741 Y17.443692 F100.000000
G1 X20.276180 Y17.443464 F100.000000
G1 X19.959000 Y17.445471 F100.000000
G1 Y17.343600 F100.000000
G1 Y17.292000 F100.000000
G1 X20.353500 F100.000000
G1 Y17.101500 F100.000000
G1 X20.556790 F100.000000
G0 Z2.000000
G0 X20.555393 Y16.328645
G1 Z-0.040000 F60.000000
G1 X20.556790 Y16.493500 F100.000000
G1 X20.353500 F100.000000
G1 Y16.303000 F100.000000
G1 X19.959000 F100.000000
G1 Y16.149529 F100.000000
G1 X20.276180 Y16.151536 F100.000000
G1 X20.276741 Y16.151308 F100.000000
G1 X20.277300 Y16.151540 F100.000000
G1 X20.393073 F100.000000
G1 X20.467392 Y16.181268 F100.000000
G1 X20.523707 Y16.237582 F100.000000
G1 X20.555261 Y16.313038 F100.000000
G1 X20.555376 Y16.326597 F100.000000
G1 X20.554960 Y16.327600 F100.000000
G1 X20.555393 Y16.328645 F100.000000
G0 Z2.000000
G0 X14.943508 Y17.136702
G1 Z-0.040000 F60.000000
G1 X14.943210 Y17.101500 F100.000000
G1 X15.072840 F100.000000
G1 X15.146500 F100.000000
G1 Y17.292000 F100.000000
G1 X15.541000 F100.000000
G1 Y17.343600 F100.000000
G1 Y17.445471 F100.000000
G1 X15.223820 Y17.443464 F100.000000
G1 X15.223259 Y17.443692 F100.000000
G1 X15.222700 Y17.443460 F100.000000
G1 X15.106927 F100.000000
G1 X15.032608 Y17.413732 F100.000000
G1 X14.976293 Y17.357418 F100.000000
G1 X14.944739 Y17.281962 F100.000000
G1 X14.943570 Y17.143950 F100.000000
G1 X14.945040 Y17.140400 F100.000000
G1 X14.943508 Y17.136702 F100.000000
G0 Z2.000000
G0 X15.541000 Y16.149529
G1 Z-0.040000 F60.000000
G1 Y16.303000 F100.000000
G1 X15.146500 F100.000000
G1 Y16.493500 F100.000000
G1 X15.072840 F100.000000
G1 X14.943210 F100.000000
G1 X14.944739 Y16.313038 F100.000000
G1 X14.976293 Y16.237582 F100.000000
G1 X15.032608 Y16.181268 F100.000000
G1 X15.106927 Y16.151540 F100.000000
G1 X15.222700 F100.000000
G1 X15.223259 Y16.151308 F100.000000
G1 X15.223820 Y16.151536 F100.000000
G1 X15.541000 Y16.149529 F100.000000
G0 Z2.000000
G0 X8.593210 Y17.101500
G1 Z-0.040000 F60.000000
G1 X8.796500 F100.000000
G1 Y17.292000 F100.000000
G1 X9.191000 F100.000000
G1 Y17.343600 F100.000000
G1 Y17.445471 F100.000000
G1 X8.873820 Y17.443464 F100.000000
G1 X8.873259 Y17.443692 F100.000000
G1 X8.872700 Y17.443460 F100.000000
G1 X8.756927 F100.000000
G1 X8.682608 Y17.413732 F100.000000
G1 X8.626293 Y17.357418 F100.000000
G1 X8.594739 Y17.281962 F100.000000
G1 X8.593570 Y17.143950 F100.000000
G1 X8.595040 Y17.140400 F100.000000
G1 X8.593508 Y17.136702 F100.000000
G1 X8.593210 Y17.101500 F100.000000
G0 Z2.000000
G0 X9.191000 Y16.149529
G1 Z-0.040000 F60.000000
G1 Y16.303000 F100.000000
G1 X8.796500 F100.000000
G1 Y16.493500 F100.000000
G1 X8.593210 F100.000000
G1 X8.594739 Y16.313038 F100.000000
G1 X8.626293 Y16.237582 F100.000000
G1 X8.682608 Y16.181268 F100.000000
G1 X8.756927 Y16.151540 F100.000000
G1 X8.872700 F100.000000
G1 X8.873259 Y16.151308 F100.000000
G1 X8.873820 Y16.151536 F100.000000
G1 X9.191000 Y16.149529 F100.000000
G0 Z2.000000
G0 X15.700280 Y15.413260
G1 Z-0.040000 F60.000000
G1 X15.726539 Y15.387000 F100.000000
G1 X16.543500 F100.000000
G1 Y15.158400 F100.000000
G1 X17.051500 F100.000000
G1 Y15.387000 F100.000000
G1 X18.448500 F100.000000
G1 Y15.158400 F100.000000
G1 X18.956500 F100.000000
G1 Y15.387000 F100.000000
G1 X20.353500 F100.000000
G1 Y14.398000 F100.000000
G1 X18.956500 F100.000000
G1 Y14.626600 F100.000000
G1 X18.448500 F100.000000
G1 Y14.398000 F100.000000
G1 X17.051500 F100.000000
G1 Y14.626600 F100.000000
G1 X16.543500 F100.000000
G1 Y14.398000 F100.000000
G1 X15.146500 F100.000000
G1 Y14.959340 F100.000000
G1 X14.120340 F100.000000
G1 Y14.875520 F100.000000
G1 X13.119580 F100.000000
G1 Y15.574960 F100.000000
G1 X14.120340 F100.000000
G1 Y15.491140 F100.000000
G1 X15.512260 F100.000000
G1 X15.512260 Y15.491140 F100.000000
G0 Z2.000000
G0 X13.493020 Y16.291980
G1 Z-0.040000 F60.000000
G1 X12.125759 Y14.924720 F100.000000
G1 X12.220420 F100.000000
G1 Y14.225280 F100.000000
G1 X11.219660 F100.000000
G1 Y14.924720 F100.000000
G1 X11.466434 F100.000000
G1 X11.532020 Y15.083060 F100.000000
G1 X12.751961 Y16.303000 F100.000000
G0 Z2.000000
G0 X11.532020 Y15.083060
G1 Z-0.040000 F60.000000
G1 Y15.083060 F100.000000
G0 Z2.000000
G0 X13.497584 Y16.303000
G1 Z-0.040000 F60.000000
G1 X13.495603 Y16.298217 F100.000000
G0 Z2.000000
G0 X11.400000 Y12.404100
G1 Z-0.040000 F60.000000
G1 X11.211980 Y12.481980 F100.000000
G1 X10.576980 Y13.116980 F100.000000
G0 Z2.000000
G0 X15.527500 Y12.404100
G1 Z-0.040000 F60.000000
G1 X13.619960 F100.000000
G0 Z2.000000
G0 X10.499100 Y13.305000
G1 Z-0.040000 F60.000000
G1 Y13.305000 F100.000000
G1 Y13.829861 F100.000000
G0 Z2.000000
G0 X10.765000 Y9.125900
G1 Z-0.040000 F60.000000
G1 X14.944100 F100.000000
G0 Z2.000000
G0 X5.000000 Y5.177000
G1 Z-0.040000 F60.000000
G1 Y5.177000 F100.000000
G1 Y5.177000 F100.000000
G1 Y5.177000 F100.000000
G1 Y5.354800 F100.000000
G1 Y5.558000 F100.000000
G1 Y5.761200 F100.000000
G1 Y5.964400 F100.000000
G1 Y6.167600 F100.000000
G1 Y6.370800 F100.000000
G1 Y6.574000 F100.000000
G1 Y6.777200 F100.000000
G1 Y6.980400 F100.000000
G1 Y7.183600 F100.000000
G1 Y7.386800 F100.000000
G1 Y7.590000 F100.000000
G1 Y7.793200 F100.000000
G1 Y7.996400 F100.000000
G1 Y8.199600 F100.000000
G1 Y8.402800 F100.000000
G1 Y8.606000 F100.000000
G1 Y8.809200 F100.000000
G1 Y9.012400 F100.000000
G1 Y9.215600 F100.000000
G1 Y9.418800 F100.000000
G1 Y9.622000 F100.000000
G1 Y9.825200 F100.000000
G1 Y10.028400 F100.000000
G1 Y10.231600 F100.000000
G1 Y10.434800 F100.000000
G1 Y10.638000 F100.000000
G1 Y10.841200 F100.000000
G1 Y11.044400 F100.000000
G1 Y11.247600 F100.000000
G1 Y11.450800 F100.000000
G1 Y11.654000 F100.000000
G1 Y11.857200 F100.000000
G1 Y12.060400 F100.000000
G1 Y12.263600 F100.000000
G1 Y12.466800 F100.000000
G1 Y12.670000 F100.000000
G1 Y12.873200 F100.000000
G1 Y13.076400 F100.000000
G1 Y13.279600 F100.000000
G1 Y13.482800 F100.000000
G1 Y13.686000 F100.000000
G1 Y13.889200 F100.000000
G1 Y14.092400 F100.000000
G1 Y14.295600 F100.000000
G1 Y14.498800 F100.000000
G1 Y14.702000 F100.000000
G1 Y14.905200 F100.000000
G1 Y15.108400 F100.000000
G1 Y15.311600 F100.000000
G1 Y15.514800 F100.000000
G1 Y15.718000 F100.000000
G1 Y15.921200 F100.000000
G1 Y16.124400 F100.000000
G1 Y16.327600 F100.000000
G1 Y16.530800 F100.000000
G1 Y16.734000 F100.000000
G1 Y16.937200 F100.000000
G1 Y17.140400 F100.000000
G1 Y17.343600 F100.000000
G1 Y17.546800 F100.000000
G1 Y17.750000 F100.000000
G1 Y17.953200 F100.000000
G1 Y18.156400 F100.000000
G1 Y18.359600 F100.000000
G1 Y18.562800 F100.000000
G1 Y18.766000 F100.000000
G1 Y18.969200 F100.000000
G1 Y19.172400 F100.000000
G1 Y19.375600 F100.000000
G1 Y19.578800 F100.000000
G1 Y19.782000 F100.000000
G1 Y19.985200 F100.000000
G1 Y20.188400 F100.000000
G1 Y20.391600 F100.000000
G1 Y20.594800 F100.000000
G1 Y20.798000 F100.000000
G1 Y20.798000 F100.000000
G1 Y20.798000 F100.000000
G1 X5.000000 Y20.798000 F100.000000
G1 X5.000000 Y20.798000 F100.000000
G0 Z2.000000
G0 X5.051842 Y20.923158
G1 Z-0.040000 F60.000000
G1 X5.051842 Y20.923158 F100.000000
G1 X5.051842 Y20.923158 F100.000000
G1 X5.051842 Y20.923158 F100.000000
G1 X5.051842 Y20.923158 F100.000000
G0 Z2.000000
G0 X5.177000 Y20.975000
G1 Z-0.040000 F60.000000
G1 X5.177000 F100.000000
G1 X21.433000 F100.000000
G1 X21.433000 Y20.975000 F100.000000
G1 X21.433000 Y20.975000 F100.000000
G0 Z2.000000
G0 X5.177000
G1 Z-0.040000 F60.000000
G1 X21.433000 F100.000000
G0 Z2.000000
G0 X5.000000 Y20.594800
G1 Z-0.040000 F60.000000
G0 Z2.000000
G0 Y20.391600
G1 Z-0.040000 F60.000000
G1 Y20.391600 F100.000000
G1 Y20.391600 F100.000000
G0 Z2.000000
G0 Y20.188400
G1 Z-0.040000 F60.000000
G1 Y20.188400 F100.000000
G1 Y20.188400 F100.000000
G0 Z2.000000
G0 Y19.985200
G1 Z-0.040000 F60.000000
G0 Z2.000000
G0 Y19.782000
G1 Z-0.040000 F60.000000
G1 Y19.782000 F100.000000
G1 Y19.782000 F100.000000
G0 Z2.000000
G0 Y19.578800
G1 Z-0.040000 F60.000000
G1 Y19.578800 F100.000000
G1 Y19.578800 F100.000000
G0 Z2.000000
G0 Y19.375600
G1 Z-0.040000 F60.000000
G0 Z2.000000
G0 Y19.172400
G1 Z-0.040000 F60.000000
G1 Y19.172400 F100.000000
G1 Y19.172400 F100.000000
G0 Z2.000000
G0 Y18.969200
G1 Z-0.040000 F60.000000
G1 Y18.969200 F100.000000
G1 Y18.969200 F100.000000
G0 Z2.000000
G0 X16.744960
G1 Z-0.040000 F60.000000
G1 Y18.969200 F100.000000
G1 Y18.969200 F100.000000
G0 Z2.000000
G0 X5.000000 Y18.766000
G1 Z-0.040000 F60.000000
G0 Z2.000000
G0 X16.744960
G1 Z-0.040000 F60.000000
G0 Z2.000000
G0 X5.000000 Y18.562800
G1 Z-0.040000 F60.000000
G1 Y18.562800 F100.000000
G1 Y18.562800 F100.000000
G0 Z2.000000
G0 X16.744960
G1 Z-0.040000 F60.000000
G1 Y18.562800 F100.000000
G1 Y18.562800 F100.000000
G0 Z2.000000
G0 X5.000000 Y18.359600
G1 Z-0.040000 F60.000000
G1 Y18.359600 F100.000000
G1 Y18.359600 F100.000000
G0 Z2.000000
G0 X7.906802 Y19.491742
G1 Z-0.040000 F60.000000
G1 X7.854960 Y19.616900 F100.000000
G1 Y19.759181 F100.000000
G1 X7.823707 Y19.833918 F100.000000
G1 X7.797582 Y19.860042 F100.000000
G1 X7.797582 Y19.860042 F100.000000
G1 X7.797582 Y19.860042 F100.000000
G1 X7.767392 Y19.890232 F100.000000
G1 X7.693073 Y19.919960 F100.000000
G1 X6.215819 F100.000000
G1 X6.141082 Y19.888707 F100.000000
G1 X6.112418 Y19.860042 F100.000000
G1 X6.084768 Y19.832392 F100.000000
G1 X6.055040 Y19.758073 F100.000000
G1 Y19.578800 F100.000000
G1 Y19.375600 F100.000000
G1 Y19.172400 F100.000000
G1 Y18.969200 F100.000000
G1 Y18.766000 F100.000000
G1 Y18.562800 F100.000000
G1 Y18.359600 F100.000000
G1 Y18.280819 F100.000000
G1 X6.086293 Y18.206082 F100.000000
G1 X6.142608 Y18.149768 F100.000000
G1 X6.216927 Y18.120040 F100.000000
G1 X7.694181 F100.000000
G1 X7.768918 Y18.151293 F100.000000
G1 X7.825232 Y18.207608 F100.000000
G1 X7.854960 Y18.281927 F100.000000
G1 Y18.359600 F100.000000
G1 Y18.359600 F100.000000
G1 Y18.359600 F100.000000
G1 Y18.423100 F100.000000
G1 Y18.423100 F100.000000
G1 Y18.423100 F100.000000
G1 Y18.423100 F100.000000
G1 X7.854960 Y18.423100 F100.000000
G0 Z2.000000
G0 X16.744960 Y18.359600
G1 Z-0.040000 F60.000000
G1 Y18.359600 F100.000000
G1 Y18.359600 F100.000000
G0 Z2.000000
G0 X5.000000 Y18.156400
G1 Z-0.040000 F60.000000
G0 Z2.000000
G0 Y17.953200
G1 Z-0.040000 F60.000000
G1 Y17.953200 F100.000000
G1 Y17.953200 F100.000000
G0 Z2.000000
G0 Y17.750000
G1 Z-0.040000 F60.000000
G1 Y17.750000 F100.000000
G1 Y17.750000 F100.000000
G0 Z2.000000
G0 Y17.546800
G1 Z-0.040000 F60.000000
G0 Z2.000000
G0 Y17.343600
G1 Z-0.040000 F60.000000
G1 Y17.343600 F100.000000
G1 Y17.343600 F100.000000
G0 Z2.000000
G0 X9.191000
G1 Z-0.040000 F60.000000
G1 Y17.343600 F100.000000
G1 Y17.343600 F100.000000
G0 Z2.000000
G0 X15.541000
G1 Z-0.040000 F60.000000
G1 Y17.343600 F100.000000
G1 Y17.343600 F100.000000
G0 Z2.000000
G0 X17.446000
G1 Z-0.040000 F60.000000
G1 Y17.343600 F100.000000
G1 Y17.343600 F100.000000
G0 Z2.000000
G0 X19.351000
G1 Z-0.040000 F60.000000
G1 Y17.343600 F100.000000
G1 Y17.343600 F100.000000
G0 Z2.000000
G0 X5.000000 Y17.140400
G1 Z-0.040000 F60.000000
G1 Y17.140400 F100.000000
G1 Y17.140400 F100.000000
G0 Z2.000000
G0 X7.309902 Y17.265558
G1 Z-0.040000 F60.000000
G1 X7.309902 Y17.265558 F100.000000
G1 X7.309902 Y17.265558 F100.000000
G0 Z2.000000
G0 X13.446542 Y16.028578
G1 Z-0.040000 F60.000000
G1 Y16.028578 F100.000000
G1 X13.464322 Y16.046358 F100.000000
G1 X13.517662 Y16.099698 F100.000000
G1 X13.642820 Y16.151540 F100.000000
G1 X13.642820 F100.000000
G1 X14.044181 F100.000000
G1 X14.118918 Y16.182793 F100.000000
G1 X14.175232 Y16.239108 F100.000000
G1 X14.204960 Y16.313427 F100.000000
G1 Y16.327600 F100.000000
G1 Y16.530800 F100.000000
G1 Y16.734000 F100.000000
G1 Y16.937200 F100.000000
G1 Y17.140400 F100.000000
G1 Y17.140400 F100.000000
G1 Y17.140400 F100.000000
G1 Y17.282681 F100.000000
G1 X14.173707 Y17.357418 F100.000000
G1 X14.117392 Y17.413732 F100.000000
G1 X14.043073 Y17.443460 F100.000000
G1 X12.565819 F100.000000
G1 X12.485471 Y17.409860 F100.000000
G1 X12.466515 Y17.393274 F100.000000
G1 X12.407509 Y17.373317 F100.000000
G1 X12.349960 Y17.349480 F100.000000
G1 X12.344147 Y17.351888 F100.000000
G1 X12.338186 Y17.349872 F100.000000
G1 X12.282351 Y17.377485 F100.000000
G1 X12.224802 Y17.401322 F100.000000
G1 X12.212392 Y17.413732 F100.000000
G1 X12.138073 Y17.443460 F100.000000
G1 X10.660819 F100.000000
G1 X10.580471 Y17.409860 F100.000000
G1 X10.561515 Y17.393274 F100.000000
G1 X10.502509 Y17.373317 F100.000000
G1 X10.444960 Y17.349480 F100.000000
G1 X10.439147 Y17.351888 F100.000000
G1 X10.433186 Y17.349872 F100.000000
G1 X10.377351 Y17.377485 F100.000000
G1 X10.319802 Y17.401322 F100.000000
G1 X10.307392 Y17.413732 F100.000000
G1 X10.233073 Y17.443460 F100.000000
G1 X10.117300 F100.000000
G1 X10.116741 Y17.443692 F100.000000
G1 X10.116180 Y17.443464 F100.000000
G1 X9.799000 Y17.445471 F100.000000
G1 Y17.343600 F100.000000
G1 Y17.292000 F100.000000
G1 X10.193500 F100.000000
G1 Y16.303000 F100.000000
G1 X9.799000 F100.000000
G1 Y16.139296 F100.000000
G1 X9.813923 Y16.124372 F100.000000
G1 X9.826862 Y16.121813 F100.000000
G1 X9.836757 Y16.107037 F100.000000
G1 X9.853220 Y16.100313 F100.000000
G1 X9.873336 Y16.052417 F100.000000
G1 X9.902243 Y16.009253 F100.000000
G1 X9.898792 Y15.991808 F100.000000
G1 X9.905678 Y15.975412 F100.000000
G1 X9.886034 Y15.927320 F100.000000
G1 X9.875953 Y15.876358 F100.000000
G1 X9.861177 Y15.866463 F100.000000
G1 X9.854453 Y15.850000 F100.000000
G1 X9.804486 Y15.799539 F100.000000
G1 X9.803038 Y15.796042 F100.000000
G1 X9.799623 Y15.794628 F100.000000
G1 X9.599854 Y15.592880 F100.000000
G1 X9.599838 Y15.592842 F100.000000
G1 X9.599801 Y15.592827 F100.000000
G1 X9.597913 Y15.590920 F100.000000
G1 X9.597478 Y15.590738 F100.000000
G1 X9.597298 Y15.590302 F100.000000
G1 X9.535091 Y15.564535 F100.000000
G1 X9.473012 Y15.538462 F100.000000
G1 X9.472576 Y15.538640 F100.000000
G1 X9.472140 Y15.538460 F100.000000
G1 X9.274020 F100.000000
G0 Z2.000000
G0 X5.000000 Y16.937200
G1 Z-0.040000 F60.000000
G0 Z2.000000
G0 X14.204960
G1 Z-0.040000 F60.000000
G0 Z2.000000
G0 X5.000000 Y16.734000
G1 Z-0.040000 F60.000000
G1 Y16.734000 F100.000000
G1 Y16.734000 F100.000000
G0 Z2.000000
G0 X14.204960
G1 Z-0.040000 F60.000000
G1 Y16.734000 F100.000000
G1 Y16.734000 F100.000000
G0 Z2.000000
G0 X5.000000 Y16.530800
G1 Z-0.040000 F60.000000
G1 Y16.530800 F100.000000
G1 Y16.530800 F100.000000
G0 Z2.000000
G0 X14.204960
G1 Z-0.040000 F60.000000
G1 Y16.530800 F100.000000
G1 Y16.530800 F100.000000
G0 Z2.000000
G0 X5.000000 Y16.327600
G1 Z-0.040000 F60.000000
G0 Z2.000000
G0 X14.204960
G1 Z-0.040000 F60.000000
G0 Z2.000000
G0 X5.000000 Y16.124400
G1 Z-0.040000 F60.000000
G1 Y16.124400 F100.000000
G1 Y16.124400 F100.000000
G0 Z2.000000
G0 Y15.921200
G1 Z-0.040000 F60.000000
G1 Y15.921200 F100.000000
G1 Y15.921200 F100.000000
G0 Z2.000000
G0 Y15.718000
G1 Z-0.040000 F60.000000
G0 Z2.000000
G0 Y15.514800
G1 Z-0.040000 F60.000000
G1 Y15.514800 F100.000000
G1 Y15.514800 F100.000000
G0 Z2.000000
G0 Y15.311600
G1 Z-0.040000 F60.000000
G1 Y15.311600 F100.000000
G1 Y15.311600 F100.000000
G0 Z2.000000
G0 Y15.108400
G1 Z-0.040000 F60.000000
G0 Z2.000000
G0 X20.554960
G1 Z-0.040000 F60.000000
G0 Z2.000000
G0 X5.000000 Y14.905200
G1 Z-0.040000 F60.000000
G1 Y14.905200 F100.000000
G1 Y14.905200 F100.000000
G0 Z2.000000
G0 X20.554960
G1 Z-0.040000 F60.000000
G1 Y14.905200 F100.000000
G1 Y14.905200 F100.000000
G0 Z2.000000
G0 X5.000000 Y14.702000
G1 Z-0.040000 F60.000000
G1 Y14.702000 F100.000000
G1 Y14.702000 F100.000000
G0 Z2.000000
G0 X20.554960
G1 Z-0.040000 F60.000000
G1 Y14.702000 F100.000000
G1 Y14.702000 F100.000000
G0 Z2.000000
G0 X5.000000 Y14.498800
G1 Z-0.040000 F60.000000
G0 Z2.000000
G0 X20.554960
G1 Z-0.040000 F60.000000
G0 Z2.000000
G0 X5.000000 Y14.295600
G1 Z-0.040000 F60.000000
G1 Y14.295600 F100.000000
G1 Y14.295600 F100.000000
G0 Z2.000000
G0 Y14.092400
G1 Z-0.040000 F60.000000
G1 Y14.092400 F100.000000
G1 Y14.092400 F100.000000
G0 Z2.000000
G0 Y13.889200
G1 Z-0.040000 F60.000000
G0 Z2.000000
G0 X17.428118 Y12.515758
G1 Z-0.040000 F60.000000
G1 X17.509108 Y12.434768 F100.000000
G1 X17.583427 Y12.405040 F100.000000
G1 X18.552681 F100.000000
G1 X18.627418 Y12.436293 F100.000000
G1 X18.683732 Y12.492608 F100.000000
G1 X18.713460 Y12.566927 F100.000000
G1 Y12.670000 F100.000000
G1 Y12.873200 F100.000000
G1 Y13.076400 F100.000000
G1 Y13.279600 F100.000000
G1 Y13.482800 F100.000000
G1 Y13.686000 F100.000000
G1 Y13.889200 F100.000000
G1 Y14.069540 F100.000000
G1 X18.765302 Y14.194698 F100.000000
G1 X18.765302 Y14.194698 F100.000000
G1 X18.765302 Y14.194698 F100.000000
G1 X18.765302 Y14.194698 F100.000000
G1 X18.765302 Y14.194698 F100.000000
G0 Z2.000000
G0 X5.000000 Y13.686000
G1 Z-0.040000 F60.000000
G1 Y13.686000 F100.000000
G1 Y13.686000 F100.000000
G0 Z2.000000
G0 X18.713460
G1 Z-0.040000 F60.000000
G1 Y13.686000 F100.000000
G1 Y13.686000 F100.000000
G0 Z2.000000
G0 X20.618460
G1 Z-0.040000 F60.000000
G1 Y13.686000 F100.000000
G1 Y13.686000 F100.000000
G0 Z2.000000
G0 X5.000000 Y13.482800
G1 Z-0.040000 F60.000000
G1 Y13.482800 F100.000000
G1 Y13.482800 F100.000000
G0 Z2.000000
G0 X9.191000
G1 Z-0.040000 F60.000000
G1 Y13.482800 F100.000000
G1 Y13.482800 F100.000000
G0 Z2.000000
G0 X18.713460
G1 Z-0.040000 F60.000000
G1 Y13.482800 F100.000000
G1 Y13.482800 F100.000000
G0 Z2.000000
G0 X20.618460
G1 Z-0.040000 F60.000000
G1 Y13.482800 F100.000000
G1 Y13.482800 F100.000000
G0 Z2.000000
G0 X5.000000 Y13.279600
G1 Z-0.040000 F60.000000
G0 Z2.000000
G0 X18.713460
G1 Z-0.040000 F60.000000
G0 Z2.000000
G0 X20.618460
G1 Z-0.040000 F60.000000
G0 Z2.000000
G0 X5.000000 Y13.076400
G1 Z-0.040000 F60.000000
G1 Y13.076400 F100.000000
G1 Y13.076400 F100.000000
G0 Z2.000000
G0 X18.713460
G1 Z-0.040000 F60.000000
G1 Y13.076400 F100.000000
G1 Y13.076400 F100.000000
G0 Z2.000000
G0 X20.618460
G1 Z-0.040000 F60.000000
G1 Y13.076400 F100.000000
G1 Y13.076400 F100.000000
G0 Z2.000000
G0 X5.000000 Y12.873200
G1 Z-0.040000 F60.000000
G1 Y12.873200 F100.000000
G1 Y12.873200 F100.000000
G0 Z2.000000
G0 X18.713460
G1 Z-0.040000 F60.000000
G1 Y12.873200 F100.000000
G1 Y12.873200 F100.000000
G0 Z2.000000
G0 X20.618460
G1 Z-0.040000 F60.000000
G1 Y12.873200 F100.000000
G1 Y12.873200 F100.000000
G0 Z2.000000
G0 X5.000000 Y12.670000
G1 Z-0.040000 F60.000000
G0 Z2.000000
G0 X18.713460
G1 Z-0.040000 F60.000000
G0 Z2.000000
G0 X20.618460
G1 Z-0.040000 F60.000000
G0 Z2.000000
G0 X5.000000 Y12.466800
G1 Z-0.040000 F60.000000
G1 Y12.466800 F100.000000
G1 Y12.466800 F100.000000
G0 Z2.000000
G0 X9.191000
G1 Z-0.040000 F60.000000
G1 Y12.466800 F100.000000
G1 Y12.466800 F100.000000
G0 Z2.000000
G0 X5.000000 Y12.263600
G1 Z-0.040000 F60.000000
G1 Y12.263600 F100.000000
G1 Y12.263600 F100.000000
G0 Z2.000000
G0 Y12.060400
G1 Z-0.040000 F60.000000
G0 Z2.000000
G0 X18.916927 Y8.595040
G1 Z-0.040000 F60.000000
G1 X20.394181 F100.000000
G1 X20.468918 Y8.626293 F100.000000
G1 X20.525232 Y8.682608 F100.000000
G1 X20.554960 Y8.756927 F100.000000
G1 Y8.809200 F100.000000
G1 Y9.012400 F100.000000
G1 Y9.215600 F100.000000
G1 Y9.418800 F100.000000
G1 Y9.622000 F100.000000
G1 Y9.825200 F100.000000
G1 Y10.028400 F100.000000
G1 Y10.231600 F100.000000
G1 Y10.234181 F100.000000
G1 X20.523707 Y10.308918 F100.000000
G1 X20.522982 Y10.309642 F100.000000
G1 X20.444242 Y10.388382 F100.000000
G1 X20.392400 Y10.513540 F100.000000
G1 Y10.638000 F100.000000
G1 Y10.841200 F100.000000
G1 Y11.044400 F100.000000
G1 Y11.247600 F100.000000
G1 Y11.450800 F100.000000
G1 Y11.654000 F100.000000
G1 Y11.857200 F100.000000
G1 Y12.060400 F100.000000
G1 Y12.261060 F100.000000
G1 X20.406269 Y12.294544 F100.000000
G1 X20.406711 Y12.330784 F100.000000
G1 X20.431166 Y12.354649 F100.000000
G1 X20.444242 Y12.386218 F100.000000
G1 X20.449104 Y12.388232 F100.000000
G1 X20.449322 Y12.388758 F100.000000
G1 X20.478502 Y12.400845 F100.000000
G1 X20.503664 Y12.425400 F100.000000
G1 X20.533432 Y12.437308 F100.000000
G1 X20.588732 Y12.492608 F100.000000
G1 X20.618460 Y12.566927 F100.000000
G1 Y12.670000 F100.000000
G1 Y12.873200 F100.000000
G1 Y13.076400 F100.000000
G1 Y13.279600 F100.000000
G1 Y13.482800 F100.000000
G1 Y13.686000 F100.000000
G1 Y13.889200 F100.000000
G1 Y14.044181 F100.000000
G1 X20.587207 Y14.118918 F100.000000
G1 X20.563622 Y14.142502 F100.000000
G1 X20.550412 Y14.174393 F100.000000
G1 X20.525807 Y14.198604 F100.000000
G1 X20.525516 Y14.234497 F100.000000
G1 X20.511780 Y14.267660 F100.000000
G1 X20.522647 Y14.293894 F100.000000
G1 X20.521940 Y14.295600 F100.000000
G1 X20.524963 Y14.302898 F100.000000
G1 X20.524710 Y14.334069 F100.000000
G1 X20.554960 Y14.408803 F100.000000
G1 Y14.498800 F100.000000
G1 Y14.702000 F100.000000
G1 Y14.905200 F100.000000
G1 Y15.108400 F100.000000
G1 Y15.311600 F100.000000
G1 Y15.311600 F100.000000
G1 Y15.311600 F100.000000
G1 Y15.377681 F100.000000
G1 X20.523707 Y15.452418 F100.000000
G1 X20.467392 Y15.508732 F100.000000
G1 X20.393073 Y15.538460 F100.000000
G1 X19.875980 F100.000000
G1 X19.434020 F100.000000
G1 X18.915819 F100.000000
G1 X18.835471 Y15.504860 F100.000000
G1 X18.816515 Y15.488274 F100.000000
G1 X18.757509 Y15.468317 F100.000000
G1 X18.699960 Y15.444480 F100.000000
G1 X18.694147 Y15.446888 F100.000000
G1 X18.688186 Y15.444872 F100.000000
G1 X18.632351 Y15.472485 F100.000000
G1 X18.574802 Y15.496322 F100.000000
G1 X18.562392 Y15.508732 F100.000000
G1 X18.488073 Y15.538460 F100.000000
G1 X17.529020 F100.000000
G1 X17.010819 F100.000000
G1 X16.930471 Y15.504860 F100.000000
G1 X16.911515 Y15.488274 F100.000000
G1 X16.852509 Y15.468317 F100.000000
G1 X16.794960 Y15.444480 F100.000000
G1 X16.789147 Y15.446888 F100.000000
G1 X16.783186 Y15.444872 F100.000000
G1 X16.727351 Y15.472485 F100.000000
G1 X16.669802 Y15.496322 F100.000000
G1 X16.657392 Y15.508732 F100.000000
G1 X16.583073 Y15.538460 F100.000000
G1 X15.829760 F100.000000
G1 X15.781144 Y15.558597 F100.000000
G1 X15.729661 Y15.569483 F100.000000
G1 X15.669367 Y15.610828 F100.000000
G1 X15.589378 Y15.628217 F100.000000
G1 X15.496300 Y15.645140 F100.000000
G1 X14.359100 F100.000000
G1 X14.359100 F100.000000
G1 X14.359100 F100.000000
G1 X14.359100 F100.000000
G1 X14.246168 Y15.691918 F100.000000
G1 X14.159913 Y15.726420 F100.000000
G1 X13.571700 F100.000000
G1 X13.446542 Y15.778262 F100.000000
G1 X13.446542 F100.000000
G1 X13.446542 F100.000000
G1 X13.446542 F100.000000
G1 X13.446542 F100.000000
G0 Z2.000000
G0 X5.000000 Y11.857200
G1 Z-0.040000 F60.000000
G1 Y11.857200 F100.000000
G1 Y11.857200 F100.000000
G0 Z2.000000
G0 X20.392400
G1 Z-0.040000 F60.000000
G1 Y11.857200 F100.000000
G1 Y11.857200 F100.000000
G0 Z2.000000
G0 X5.000000 Y11.654000
G1 Z-0.040000 F60.000000
G1 Y11.654000 F100.000000
G1 Y11.654000 F100.000000
G0 Z2.000000
G0 X20.392400
G1 Z-0.040000 F60.000000
G1 Y11.654000 F100.000000
G1 Y11.654000 F100.000000
G0 Z2.000000
G0 X5.000000 Y11.450800
G1 Z-0.040000 F60.000000
G0 Z2.000000
G0 X20.392400
G1 Z-0.040000 F60.000000
G0 Z2.000000
G0 X5.000000 Y11.247600
G1 Z-0.040000 F60.000000
G1 Y11.247600 F100.000000
G1 Y11.247600 F100.000000
G0 Z2.000000
G0 X20.392400
G1 Z-0.040000 F60.000000
G1 Y11.247600 F100.000000
G1 Y11.247600 F100.000000
G0 Z2.000000
G0 X5.000000 Y11.044400
G1 Z-0.040000 F60.000000
G1 Y11.044400 F100.000000
G1 Y11.044400 F100.000000
G0 Z2.000000
G0 X20.392400
G1 Z-0.040000 F60.000000
G1 Y11.044400 F100.000000
G1 Y11.044400 F100.000000
G0 Z2.000000
G0 X5.000000 Y10.841200
G1 Z-0.040000 F60.000000
G0 Z2.000000
G0 X15.629900 Y8.031960
G1 Z-0.040000 F60.000000
G1 Y8.031960 F100.000000
G1 Y8.031960 F100.000000
G1 Y8.031960 F100.000000
G1 Y8.199600 F100.000000
G1 Y8.402800 F100.000000
G1 Y8.606000 F100.000000
G1 Y8.809200 F100.000000
G1 Y9.012400 F100.000000
G1 Y9.215600 F100.000000
G1 Y9.418800 F100.000000
G1 Y9.622000 F100.000000
G1 Y9.794974 F100.000000
G1 X15.594184 Y9.973553 F100.000000
G1 X15.566571 Y10.016506 F100.000000
G1 X15.557658 Y10.065873 F100.000000
G1 X15.538460 Y10.112220 F100.000000
G1 Y10.231600 F100.000000
G1 Y10.434800 F100.000000
G1 Y10.638000 F100.000000
G1 Y10.841200 F100.000000
G1 Y10.869181 F100.000000
G1 X15.507207 Y10.943918 F100.000000
G1 X15.450892 Y11.000232 F100.000000
G1 X15.376573 Y11.029960 F100.000000
G1 X14.407319 F100.000000
G1 X14.332582 Y10.998707 F100.000000
G1 X14.276268 Y10.942392 F100.000000
G1 X14.246540 Y10.868073 F100.000000
G1 Y10.841200 F100.000000
G1 Y10.638000 F100.000000
G1 Y10.434800 F100.000000
G1 Y10.231600 F100.000000
G1 Y10.028400 F100.000000
G1 Y9.825200 F100.000000
G1 Y9.622000 F100.000000
G1 Y9.456900 F100.000000
G0 Z2.000000
G0 X20.392400 Y10.841200
G1 Z-0.040000 F60.000000
G0 Z2.000000
G0 X5.000000 Y10.638000
G1 Z-0.040000 F60.000000
G1 Y10.638000 F100.000000
G1 Y10.638000 F100.000000
G0 Z2.000000
G0 X15.538460
G1 Z-0.040000 F60.000000
G1 Y10.638000 F100.000000
G1 Y10.638000 F100.000000
G0 Z2.000000
G0 X20.392400
G1 Z-0.040000 F60.000000
G1 Y10.638000 F100.000000
G1 Y10.638000 F100.000000
G0 Z2.000000
G0 X5.000000 Y10.434800
G1 Z-0.040000 F60.000000
G1 Y10.434800 F100.000000
G1 Y10.434800 F100.000000
G0 Z2.000000
G0 X15.538460
G1 Z-0.040000 F60.000000
G1 Y10.434800 F100.000000
G1 Y10.434800 F100.000000
G0 Z2.000000
G0 X5.000000 Y10.231600
G1 Z-0.040000 F60.000000
G0 Z2.000000
G0 X20.554960
G1 Z-0.040000 F60.000000
G0 Z2.000000
G0 X5.000000 Y10.028400
G1 Z-0.040000 F60.000000
G1 Y10.028400 F100.000000
G1 Y10.028400 F100.000000
G0 Z2.000000
G0 X10.394960
G1 Z-0.040000 F60.000000
G1 Y10.028400 F100.000000
G1 Y10.028400 F100.000000
G0 Z2.000000
G0 X20.554960
G1 Z-0.040000 F60.000000
G1 Y10.028400 F100.000000
G1 Y10.028400 F100.000000
G0 Z2.000000
G0 X5.000000 Y9.825200
G1 Z-0.040000 F60.000000
G1 Y9.825200 F100.000000
G1 Y9.825200 F100.000000
G0 Z2.000000
G0 X10.394960
G1 Z-0.040000 F60.000000
G1 Y9.825200 F100.000000
G1 Y9.825200 F100.000000
G0 Z2.000000
G0 X20.554960
G1 Z-0.040000 F60.000000
G1 Y9.825200 F100.000000
G1 Y9.825200 F100.000000
G0 Z2.000000
G0 X5.000000 Y9.622000
G1 Z-0.040000 F60.000000
G0 Z2.000000
G0 X15.629900
G1 Z-0.040000 F60.000000
G0 Z2.000000
G0 X20.554960
G1 Z-0.040000 F60.000000
G0 Z2.000000
G0 X5.000000 Y9.418800
G1 Z-0.040000 F60.000000
G1 Y9.418800 F100.000000
G1 Y9.418800 F100.000000
G0 Z2.000000
G0 X7.854960 Y10.726900
G1 Z-0.040000 F60.000000
G1 Y10.726900 F100.000000
G1 Y10.726900 F100.000000
G1 Y10.726900 F100.000000
G1 Y10.841200 F100.000000
G1 Y10.869181 F100.000000
G1 X7.823707 Y10.943918 F100.000000
G1 X7.767176 Y11.000448 F100.000000
G1 X7.694099 Y11.029960 F100.000000
G1 X6.828000 F100.000000
G1 X6.211970 F100.000000
G1 X6.141950 Y10.999574 F100.000000
G1 X6.084768 Y10.942392 F100.000000
G1 X6.055040 Y10.868073 F100.000000
G1 Y10.841200 F100.000000
G1 Y10.638000 F100.000000
G1 Y10.434800 F100.000000
G1 Y10.231600 F100.000000
G1 Y10.028400 F100.000000
G1 Y9.825200 F100.000000
G1 Y9.622000 F100.000000
G1 Y9.418800 F100.000000
G1 Y9.390819 F100.000000
G1 X6.086293 Y9.316082 F100.000000
G1 X6.142608 Y9.259768 F100.000000
G1 X6.216927 Y9.230040 F100.000000
G1 X7.694181 F100.000000
G1 X7.768918 Y9.261293 F100.000000
G1 X7.825232 Y9.317608 F100.000000
G1 X7.854960 Y9.391927 F100.000000
G1 Y9.418800 F100.000000
G1 Y9.418800 F100.000000
G1 Y9.418800 F100.000000
G1 Y9.533100 F100.000000
G1 Y9.533100 F100.000000
G1 Y9.533100 F100.000000
G1 Y9.533100 F100.000000
G1 X7.854960 Y9.533100 F100.000000
G0 Z2.000000
G0 X15.629900 Y9.418800
G1 Z-0.040000 F60.000000
G1 Y9.418800 F100.000000
G1 Y9.418800 F100.000000
G0 Z2.000000
G0 X20.554960
G1 Z-0.040000 F60.000000
G1 Y9.418800 F100.000000
G1 Y9.418800 F100.000000
G0 Z2.000000
G0 X5.000000 Y9.215600
G1 Z-0.040000 F60.000000
G1 Y9.215600 F100.000000
G1 Y9.215600 F100.000000
G0 Z2.000000
G0 X15.629900
G1 Z-0.040000 F60.000000
G1 Y9.215600 F100.000000
G1 Y9.215600 F100.000000
G0 Z2.000000
G0 X20.554960
G1 Z-0.040000 F60.000000
G1 Y9.215600 F100.000000
G1 Y9.215600 F100.000000
G0 Z2.000000
G0 X5.000000 Y9.012400
G1 Z-0.040000 F60.000000
G0 Z2.000000
G0 X15.629900
G1 Z-0.040000 F60.000000
G0 Z2.000000
G0 X20.554960
G1 Z-0.040000 F60.000000
G0 Z2.000000
G0 X5.000000 Y8.809200
G1 Z-0.040000 F60.000000
G1 Y8.809200 F100.000000
G1 Y8.809200 F100.000000
G0 Z2.000000
G0 X15.629900
G1 Z-0.040000 F60.000000
G1 Y8.809200 F100.000000
G1 Y8.809200 F100.000000
G0 Z2.000000
G0 X20.554960
G1 Z-0.040000 F60.000000
G1 Y8.809200 F100.000000
G1 Y8.809200 F100.000000
G0 Z2.000000
G0 X5.000000 Y8.606000
G1 Z-0.040000 F60.000000
G1 Y8.606000 F100.000000
G1 Y8.606000 F100.000000
G0 Z2.000000
G0 X15.629900
G1 Z-0.040000 F60.000000
G1 Y8.606000 F100.000000
G1 Y8.606000 F100.000000
G0 Z2.000000
G0 X5.000000 Y8.402800
G1 Z-0.040000 F60.000000
G0 Z2.000000
G0 X15.629900
G1 Z-0.040000 F60.000000
G0 Z2.000000
G0 X5.000000 Y8.199600
G1 Z-0.040000 F60.000000
G1 Y8.199600 F100.000000
G1 Y8.199600 F100.000000
G0 Z2.000000
G0 X10.173878 Y8.864382
G1 Z-0.040000 F60.000000
G1 X10.173878 Y8.864382 F100.000000
G1 X9.993538 Y8.684042 F100.000000
G1 X9.914798 Y8.605302 F100.000000
G1 X9.789640 Y8.553460 F100.000000
G1 X9.789640 F100.000000
G1 X8.755819 F100.000000
G1 X8.681082 Y8.522207 F100.000000
G1 X8.639718 Y8.480842 F100.000000
G1 X8.624768 Y8.465892 F100.000000
G1 X8.595040 Y8.391573 F100.000000
G1 Y8.199600 F100.000000
G1 Y7.996400 F100.000000
G1 Y7.793200 F100.000000
G1 Y7.590000 F100.000000
G1 Y7.422319 F100.000000
G1 X8.626293 Y7.347582 F100.000000
G1 X8.665118 Y7.308758 F100.000000
G1 X8.682608 Y7.291268 F100.000000
G1 X8.756927 Y7.261540 F100.000000
G1 X10.234181 F100.000000
G1 X10.308918 Y7.292793 F100.000000
G1 X10.324882 Y7.308758 F100.000000
G1 X10.365232 Y7.349108 F100.000000
G1 X10.394960 Y7.423427 F100.000000
G1 Y7.590000 F100.000000
G1 Y7.793200 F100.000000
G1 Y7.823680 F100.000000
G1 X10.446802 Y7.948838 F100.000000
G1 X10.619522 Y8.121558 F100.000000
G1 X10.822722 Y8.324758 F100.000000
G1 X10.822722 Y8.324758 F100.000000
G1 X10.822722 Y8.324758 F100.000000
G1 X10.886222 Y8.388258 F100.000000
G1 X10.886222 F100.000000
G1 X10.886222 F100.000000
G1 X10.886222 Y8.388258 F100.000000
G0 Z2.000000
G0 X15.629900 Y8.199600
G1 Z-0.040000 F60.000000
G1 Y8.199600 F100.000000
G1 Y8.199600 F100.000000
G0 Z2.000000
G0 X5.000000 Y7.996400
G1 Z-0.040000 F60.000000
G1 Y7.996400 F100.000000
G1 Y7.996400 F100.000000
G0 Z2.000000
G0 X6.243102 Y7.871242
G1 Z-0.040000 F60.000000
G0 Z2.000000
G0 X10.394960 Y7.823680
G1 Z-0.040000 F60.000000
G1 X10.446802 Y7.948838 F100.000000
G1 Y7.948838 F100.000000
G1 X10.619522 Y8.121558 F100.000000
G1 X10.619522 Y8.121558 F100.000000
G1 X10.619522 Y8.121558 F100.000000
G0 Z2.000000
G0 X5.000000 Y7.793200
G1 Z-0.040000 F60.000000
G0 Z2.000000
G0 X10.394960
G1 Z-0.040000 F60.000000
G0 Z2.000000
G0 X5.000000 Y7.590000
G1 Z-0.040000 F60.000000
G1 Y7.590000 F100.000000
G1 Y7.590000 F100.000000
G0 Z2.000000
G0 X10.394960
G1 Z-0.040000 F60.000000
G1 Y7.590000 F100.000000
G1 Y7.590000 F100.000000
G0 Z2.000000
G0 X12.999502 Y7.715158
G1 Z-0.040000 F60.000000
G1 X12.999502 F100.000000
G1 X12.999502 F100.000000
G0 Z2.000000
G0 X16.109960 Y7.551900
G1 Z-0.040000 F60.000000
G1 Y7.551900 F100.000000
G1 Y7.551900 F100.000000
G1 Y7.551900 F100.000000
G1 Y7.590000 F100.000000
G1 Y7.590000 F100.000000
G1 Y7.590000 F100.000000
G1 Y7.694181 F100.000000
G1 X16.078707 Y7.768918 F100.000000
G1 X16.022392 Y7.825232 F100.000000
G1 X15.948073 Y7.854960 F100.000000
G1 X15.806900 F100.000000
G1 X15.806900 F100.000000
G1 X15.806900 F100.000000
G1 X15.681742 Y7.906802 F100.000000
G1 X15.681742 F100.000000
G1 X15.681742 F100.000000
G1 X15.681742 F100.000000
G1 X15.681742 F100.000000
G0 Z2.000000
G0 X20.421382 Y7.464842
G1 Z-0.040000 F60.000000
G0 Z2.000000
G0 X5.000000 Y7.386800
G1 Z-0.040000 F60.000000
G1 Y7.386800 F100.000000
G1 Y7.386800 F100.000000
G0 Z2.000000
G0 Y7.183600
G1 Z-0.040000 F60.000000
G0 Z2.000000
G0 X6.243102 Y7.308758
G1 Z-0.040000 F60.000000
G1 X6.243102 Y7.308758 F100.000000
G1 X6.243102 Y7.308758 F100.000000
G0 Z2.000000
G0 X10.324882
G1 Z-0.040000 F60.000000
G1 Y7.308758 F100.000000
G1 Y7.308758 F100.000000
G0 Z2.000000
G0 X5.000000 Y6.980400
G1 Z-0.040000 F60.000000
G1 Y6.980400 F100.000000
G1 Y6.980400 F100.000000
G0 Z2.000000
G0 X6.650898 Y6.855242
G1 Z-0.040000 F60.000000
G1 X6.650898 Y6.855242 F100.000000
G1 X6.650898 Y6.855242 F100.000000
G0 Z2.000000
G0 X7.259102
G1 Z-0.040000 F60.000000
G1 X7.259102 F100.000000
G1 X7.259102 F100.000000
G0 Z2.000000
G0 X20.557500 Y6.980400
G1 Z-0.040000 F60.000000
G1 Y6.980400 F100.000000
G1 Y6.980400 F100.000000
G0 Z2.000000
G0 X5.000000 Y6.777200
G1 Z-0.040000 F60.000000
G1 Y6.777200 F100.000000
G1 Y6.777200 F100.000000
G0 Z2.000000
G0 X20.557500
G1 Z-0.040000 F60.000000
G1 Y6.777200 F100.000000
G1 Y6.777200 F100.000000
G0 Z2.000000
G0 X5.000000 Y6.574000
G1 Z-0.040000 F60.000000
G0 Z2.000000
G0 Y6.370800
G1 Z-0.040000 F60.000000
G1 Y6.370800 F100.000000
G1 Y6.370800 F100.000000
G0 Z2.000000
G0 X12.391298 Y6.245642
G1 Z-0.040000 F60.000000
G1 X12.391298 F100.000000
G1 X12.391298 F100.000000
G0 Z2.000000
G0 X12.948702
G1 Z-0.040000 F60.000000
G1 X12.948702 Y6.245642 F100.000000
G1 X12.948702 Y6.245642 F100.000000
G0 Z2.000000
G0 X5.000000 Y6.167600
G1 Z-0.040000 F60.000000
G1 Y6.167600 F100.000000
G1 Y6.167600 F100.000000
G0 Z2.000000
G0 X20.268982 Y6.292758
G1 Z-0.040000 F60.000000
G1 X20.268982 Y6.292758 F100.000000
G1 X20.268982 Y6.292758 F100.000000
G0 Z2.000000
G0 X5.000000 Y5.964400
G1 Z-0.040000 F60.000000
G0 Z2.000000
G0 Y5.761200
G1 Z-0.040000 F60.000000
G1 Y5.761200 F100.000000
G1 Y5.761200 F100.000000
G0 Z2.000000
G0 Y5.558000
G1 Z-0.040000 F60.000000
G1 Y5.558000 F100.000000
G1 Y5.558000 F100.000000
G0 Z2.000000
G0 Y5.354800
G1 Z-0.040000 F60.000000
G0 Z2.000000
G0 X21.610000 Y20.798000
G1 Z-0.040000 F60.000000
G1 Y20.594800 F100.000000
G1 Y20.391600 F100.000000
G1 Y20.188400 F100.000000
G1 Y19.985200 F100.000000
G1 Y19.782000 F100.000000
G1 Y19.578800 F100.000000
G1 Y19.375600 F100.000000
G1 Y19.172400 F100.000000
G1 Y18.969200 F100.000000
G1 Y18.766000 F100.000000
G1 Y18.562800 F100.000000
G1 Y18.359600 F100.000000
G1 Y18.156400 F100.000000
G1 Y17.953200 F100.000000
G1 Y17.750000 F100.000000
G1 Y17.546800 F100.000000
G1 Y17.343600 F100.000000
G1 Y17.140400 F100.000000
G1 Y16.937200 F100.000000
G1 Y16.734000 F100.000000
G1 Y16.530800 F100.000000
G1 Y16.327600 F100.000000
G1 Y16.124400 F100.000000
G1 Y15.921200 F100.000000
G1 Y15.718000 F100.000000
G1 Y15.514800 F100.000000
G1 Y15.311600 F100.000000
G1 Y15.108400 F100.000000
G1 Y14.905200 F100.000000
G1 Y14.702000 F100.000000
G1 Y14.498800 F100.000000
G1 Y14.295600 F100.000000
G1 Y14.092400 F100.000000
G1 Y13.889200 F100.000000
G1 Y13.686000 F100.000000
G1 Y13.482800 F100.000000
G1 Y13.279600 F100.000000
G1 Y13.076400 F100.000000
G1 Y12.873200 F100.000000
G1 Y12.670000 F100.000000
G1 Y12.466800 F100.000000
G1 Y12.263600 F100.000000
G1 Y12.060400 F100.000000
G1 Y11.857200 F100.000000
G1 Y11.654000 F100.000000
G1 Y11.450800 F100.000000
G1 Y11.247600 F100.000000
G1 Y11.044400 F100.000000
G1 Y10.841200 F100.000000
G1 Y10.638000 F100.000000
G1 Y10.434800 F100.000000
G1 Y10.231600 F100.000000
G1 Y10.028400 F100.000000
G1 Y9.825200 F100.000000
G1 Y9.622000 F100.000000
G1 Y9.418800 F100.000000
G1 Y9.215600 F100.000000
G1 Y9.012400 F100.000000
G1 Y8.809200 F100.000000
G1 Y8.606000 F100.000000
G1 Y8.402800 F100.000000
G1 Y8.199600 F100.000000
G1 Y7.996400 F100.000000
G1 Y7.793200 F100.000000
G1 Y7.590000 F100.000000
G1 Y7.386800 F100.000000
G1 Y7.183600 F100.000000
G1 Y6.980400 F100.000000
G1 Y6.777200 F100.000000
G1 Y6.574000 F100.000000
G1 Y6.370800 F100.000000
G1 Y6.167600 F100.000000
G1 Y5.964400 F100.000000
G1 Y5.761200 F100.000000
G1 Y5.558000 F100.000000
G1 Y5.354800 F100.000000
G1 Y5.177000 F100.000000
G0 Z2.000000
G0 X21.433000 Y5.000000
G1 Z-0.040000 F60.000000
G1 X21.433000 F100.000000
G1 X19.439100 F100.000000
G1 X13.449780 F100.000000
G1 X13.449780 F100.000000
G1 X12.543000 F100.000000
G1 X11.890220 F100.000000
G1 X7.734780 F100.000000
G1 X6.828000 F100.000000
G1 X6.175220 F100.000000
G1 X5.177000 F100.000000
G0 Z2.000000
G0 X21.433000
G1 Z-0.040000 F60.000000
G1 X19.439100 F100.000000
G1 X19.439100 F100.000000
G1 X19.439100 F100.000000
G1 X13.449780 F100.000000
G1 X12.543000 F100.000000
G1 X11.890220 F100.000000
G1 X7.734780 F100.000000
G1 X6.828000 F100.000000
G1 X6.175220 F100.000000
G1 X5.177000 F100.000000
G1 X5.177000 F100.000000
G1 X5.177000 F100.000000
G1 X5.051842 Y5.051842 F100.000000
G1 Y5.051842 F100.000000
G0 Z2.000000
G0 X6.175220 Y5.000000
G1 Z-0.040000 F60.000000
G0 Z2.000000
G0 X6.828000
G1 Z-0.040000 F60.000000
G1 X6.828000 F100.000000
G1 X6.828000 F100.000000
G0 Z2.000000
G0 X7.734780
G1 Z-0.040000 F60.000000
G0 Z2.000000
G0 X11.890220
G1 Z-0.040000 F60.000000
G0 Z2.000000
G0 X12.543000
G1 Z-0.040000 F60.000000
G0 Z2.000000
G0 X14.613100 Y7.854960
G1 Z-0.040000 F60.000000
G1 X14.613100 F100.000000
G1 X14.470819 F100.000000
G1 X14.396082 Y7.823707 F100.000000
G1 X14.339768 Y7.767392 F100.000000
G1 X14.310040 Y7.693073 F100.000000
G1 Y7.590000 F100.000000
G1 Y7.386800 F100.000000
G1 Y7.183600 F100.000000
G1 Y6.980400 F100.000000
G1 Y6.777200 F100.000000
G1 Y6.574000 F100.000000
G1 Y6.370800 F100.000000
G1 Y6.215819 F100.000000
G1 X14.341293 Y6.141082 F100.000000
G1 X14.392818 Y6.089558 F100.000000
G1 X14.397608 Y6.084768 F100.000000
G1 X14.471927 Y6.055040 F100.000000
G1 X15.949181 F100.000000
G1 X16.023918 Y6.086293 F100.000000
G1 X16.027182 Y6.089558 F100.000000
G1 X16.080232 Y6.142608 F100.000000
G1 X16.109960 Y6.216927 F100.000000
G1 Y6.358100 F100.000000
G1 Y6.358100 F100.000000
G1 Y6.358100 F100.000000
G1 Y6.358100 F100.000000
G1 Y6.358100 F100.000000
G0 Z2.000000
G0 X16.161802 Y6.483258
G1 Z-0.040000 F60.000000
G1 Y6.483258 F100.000000
G1 X16.286960 Y6.535100 F100.000000
G1 X18.730440 F100.000000
G0 Z2.000000
G0 X14.613100 Y7.854960
G1 Z-0.040000 F60.000000
G1 X14.470819 F100.000000
G0 Z2.000000
G0 X14.790100 Y8.263100
G1 Z-0.040000 F60.000000
G1 Y8.199600 F100.000000
G1 Y8.031960 F100.000000
G0 Z2.000000
G0 X11.011380 Y8.440100
G1 Z-0.040000 F60.000000
G1 X11.011380 F100.000000
G1 X11.011380 F100.000000
G1 X11.011380 F100.000000
G1 X14.613100 F100.000000
G1 X14.613100 Y8.440100 F100.000000
G1 X14.613100 Y8.440100 F100.000000
G0 Z2.000000
G0 X9.839205 Y8.573991
G1 Z-0.040000 F60.000000
G1 X9.914798 Y8.605302 F100.000000
G1 X9.914798 Y8.605302 F100.000000
G0 Z2.000000
G0 X9.789640 Y8.553460
G1 Z-0.040000 F60.000000
G1 X8.755819 F100.000000
G0 Z2.000000
G0 X10.173878 Y9.114698
G1 Z-0.040000 F60.000000
G1 X10.173878 F100.000000
G1 X10.173878 F100.000000
G0 Z2.000000
G0 X10.059274 Y9.162168
G1 Z-0.040000 F60.000000
G1 X10.048720 Y9.166540 F100.000000
G1 X10.048720 F100.000000
G1 X10.048720 F100.000000
G0 Z2.000000
G0 X8.595040 Y9.533100
G1 Z-0.040000 F60.000000
G1 Y9.418800 F100.000000
G1 Y9.327319 F100.000000
G1 X8.626293 Y9.252582 F100.000000
G1 X8.682608 Y9.196268 F100.000000
G1 X8.756927 Y9.166540 F100.000000
G1 X10.048720 F100.000000
G0 Z2.000000
G0 X8.031960 Y9.710100
G1 Z-0.040000 F60.000000
G1 X8.031960 F100.000000
G1 X8.418040 F100.000000
G1 X8.418040 F100.000000
G1 X8.418040 F100.000000
G0 Z2.000000
G0 X7.906802 Y9.658258
G1 Z-0.040000 F60.000000
G1 X7.906802 Y9.658258 F100.000000
G1 X7.906802 Y9.658258 F100.000000
G1 X7.906802 Y9.658258 F100.000000
G1 X7.906802 Y9.658258 F100.000000
G0 Z2.000000
G0 X8.031960 Y9.710100
G1 Z-0.040000 F60.000000
G1 X8.418040 F100.000000
G0 Z2.000000
G0 X6.086293 Y9.316082
G1 Z-0.040000 F60.000000
G1 X6.142608 Y9.259768 F100.000000
G0 Z2.000000
G0 X6.828000 Y11.029960
G1 Z-0.040000 F60.000000
G0 Z2.000000
G0 X7.823707 Y10.943918
G1 Z-0.040000 F60.000000
G1 X7.767176 Y11.000448 F100.000000
G0 Z2.000000
G0 X12.164540 Y9.279900
G1 Z-0.040000 F60.000000
G1 X10.782300 F100.000000
G1 X10.606233 Y9.245150 F100.000000
G1 X10.588587 Y9.248687 F100.000000
G1 X10.571960 Y9.241800 F100.000000
G1 X10.524148 Y9.261604 F100.000000
G1 X10.473406 Y9.271776 F100.000000
G1 X10.463429 Y9.286755 F100.000000
G1 X10.446802 Y9.293642 F100.000000
G1 X10.426998 Y9.341454 F100.000000
G1 X10.398310 Y9.384527 F100.000000
G1 X10.401847 Y9.402173 F100.000000
G1 X10.394960 Y9.418800 F100.000000
G1 Y9.622000 F100.000000
G1 Y9.825200 F100.000000
G1 Y10.028400 F100.000000
G1 Y10.231600 F100.000000
G1 Y10.297681 F100.000000
G1 X10.363707 Y10.372418 F100.000000
G1 X10.307392 Y10.428732 F100.000000
G1 X10.233073 Y10.458460 F100.000000
G1 X9.472140 F100.000000
G1 X9.423184 Y10.478738 F100.000000
G1 X9.371390 Y10.489932 F100.000000
G1 X9.334629 Y10.515382 F100.000000
G1 X9.239665 Y10.535470 F100.000000
G1 X9.161333 Y10.549900 F100.000000
G1 X8.031960 F100.000000
G1 X8.031960 F100.000000
G1 X8.031960 F100.000000
G1 X8.031960 F100.000000
G1 X7.906802 Y10.601742 F100.000000
G1 Y10.601742 F100.000000
G0 Z2.000000
G0 X12.164540 Y9.279900
G1 Z-0.040000 F60.000000
G1 X10.782300 F100.000000
G0 Z2.000000
G0 X14.069540
G1 Z-0.040000 F60.000000
G1 X13.810460 F100.000000
G1 X13.685302 Y9.331742 F100.000000
G1 Y9.331742 F100.000000
G0 Z2.000000
G0 X14.069540 Y9.279900
G1 Z-0.040000 F60.000000
G1 X13.810460 F100.000000
G1 X13.685302 Y9.331742 F100.000000
G0 Z2.000000
G0 X15.507207 Y10.943918
G1 Z-0.040000 F60.000000
G1 X15.450892 Y11.000232 F100.000000
G0 Z2.000000
G0 X16.161802 Y6.483258
G1 Z-0.040000 F60.000000
G1 Y6.483258 F100.000000
G1 X16.286960 Y6.535100 F100.000000
G1 X18.730440 F100.000000
G1 X18.751173 Y6.526512 F100.000000
G1 X18.773369 Y6.529815 F100.000000
G1 X18.811618 Y6.501475 F100.000000
G1 X18.855598 Y6.483258 F100.000000
G1 X18.860370 Y6.471738 F100.000000
G1 X18.863218 Y6.470558 F100.000000
G1 X19.041018 Y6.292758 F100.000000
G1 X19.041018 Y6.292758 F100.000000
G1 X19.041018 Y6.292758 F100.000000
G1 X19.143259 Y6.190517 F100.000000
G1 X19.474500 Y6.052500 F100.000000
G1 X19.833464 F100.000000
G1 X20.164558 Y6.188333 F100.000000
G1 X20.268982 Y6.292758 F100.000000
G1 X20.419483 Y6.443259 F100.000000
G1 X20.557500 Y6.774500 F100.000000
G1 Y6.777200 F100.000000
G1 Y6.980400 F100.000000
G1 Y7.133464 F100.000000
G1 X20.421667 Y7.464558 F100.000000
G1 X20.421382 Y7.464842 F100.000000
G1 X20.218182 Y7.668042 F100.000000
G1 Y7.668042 F100.000000
G1 Y7.668042 F100.000000
G1 X20.166741 Y7.719483 F100.000000
G1 X19.835500 Y7.857500 F100.000000
G1 X19.476536 F100.000000
G1 X19.145442 Y7.721667 F100.000000
G1 X19.091818 Y7.668042 F100.000000
G1 X19.007998 Y7.584222 F100.000000
G1 X18.888618 Y7.464842 F100.000000
G1 X18.888618 Y7.464842 F100.000000
G1 X18.888618 Y7.464842 F100.000000
G1 X18.865758 Y7.441982 F100.000000
G1 X18.864180 Y7.441328 F100.000000
G1 X18.858138 Y7.426742 F100.000000
G1 X18.820076 Y7.410976 F100.000000
G1 X18.788952 Y7.383983 F100.000000
G1 X18.759894 Y7.386048 F100.000000
G1 X18.732980 Y7.374900 F100.000000
G1 X16.286960 F100.000000
G1 X16.161802 Y7.426742 F100.000000
G1 X16.161802 F100.000000
G1 X16.161802 F100.000000
G1 X16.161802 F100.000000
G1 X16.161802 F100.000000
G0 Z2.000000
G0 X16.286960 Y7.374900
G1 Z-0.040000 F60.000000
G1 X16.161802 Y7.426742 F100.000000
G0 Z2.000000
G0 X19.375600 Y10.394960
G1 Z-0.040000 F60.000000
G1 X18.915819 F100.000000
G1 X18.841082 Y10.363707 F100.000000
G1 X18.787018 Y10.309642 F100.000000
G1 X18.784768 Y10.307392 F100.000000
G1 X18.755040 Y10.233073 F100.000000
G1 Y10.231600 F100.000000
G1 Y10.028400 F100.000000
G1 Y9.825200 F100.000000
G1 Y9.622000 F100.000000
G1 Y9.418800 F100.000000
G1 Y9.215600 F100.000000
G1 Y9.012400 F100.000000
G1 Y8.809200 F100.000000
G1 Y8.755819 F100.000000
G1 X18.786293 Y8.681082 F100.000000
G1 X18.842608 Y8.624768 F100.000000
G1 X18.916927 Y8.595040 F100.000000
G1 X20.394181 F100.000000
G0 Z2.000000
G0 X19.375600 Y10.394960
G1 Z-0.040000 F60.000000
G1 X18.915819 F100.000000
G0 Z2.000000
G0 X19.326540 Y14.069540
G1 Z-0.040000 F60.000000
G1 Y13.889200 F100.000000
G1 Y13.686000 F100.000000
G1 Y13.482800 F100.000000
G1 Y13.279600 F100.000000
G1 Y13.076400 F100.000000
G1 Y12.873200 F100.000000
G1 Y12.670000 F100.000000
G1 Y12.565819 F100.000000
G1 X19.357793 Y12.491082 F100.000000
G1 X19.412688 Y12.436188 F100.000000
G1 X19.437749 Y12.426790 F100.000000
G1 X19.465575 Y12.400791 F100.000000
G1 X19.500758 Y12.386218 F100.000000
G1 X19.513124 Y12.356364 F100.000000
G1 X19.536735 Y12.334303 F100.000000
G1 X19.538027 Y12.296243 F100.000000
G1 X19.552600 Y12.261060 F100.000000
G1 Y12.060400 F100.000000
G1 Y11.857200 F100.000000
G1 Y11.654000 F100.000000
G1 Y11.450800 F100.000000
G1 Y11.247600 F100.000000
G1 Y11.044400 F100.000000
G1 Y10.841200 F100.000000
G1 Y10.638000 F100.000000
G1 Y10.571960 F100.000000
G0 Z2.000000
G0 X18.890460 Y14.246540
G1 Z-0.040000 F60.000000
G1 X19.149540 F100.000000
G1 X19.149540 Y14.246540 F100.000000
G1 X19.149540 Y14.246540 F100.000000
G0 Z2.000000
G0 X18.890460
G1 Z-0.040000 F60.000000
G1 X19.149540 F100.000000
G0 Z2.000000
G0 X18.713460 Y14.069540
G1 Z-0.040000 F60.000000
G1 X18.765302 Y14.194698 F100.000000
G0 Z2.000000
G0 X9.274020 Y15.538460
G1 Z-0.040000 F60.000000
G1 X9.274020 F100.000000
G1 X8.755819 F100.000000
G1 X8.681082 Y15.507207 F100.000000
G1 X8.624768 Y15.450892 F100.000000
G1 X8.595040 Y15.376573 F100.000000
G1 Y15.311600 F100.000000
G1 Y15.108400 F100.000000
G1 Y14.905200 F100.000000
G1 Y14.702000 F100.000000
G1 Y14.498800 F100.000000
G1 Y14.407319 F100.000000
G1 X8.626293 Y14.332582 F100.000000
G1 X8.682608 Y14.276268 F100.000000
G1 X8.756927 Y14.246540 F100.000000
G1 X9.789640 F100.000000
G1 X9.851847 Y14.220773 F100.000000
G1 X9.914180 Y14.195313 F100.000000
G1 X10.173260 Y13.938773 F100.000000
G1 X10.173442 Y13.938338 F100.000000
G1 X10.173878 Y13.938158 F100.000000
G1 X10.199645 Y13.875951 F100.000000
G1 X10.225718 Y13.813872 F100.000000
G1 X10.225540 Y13.813436 F100.000000
G1 X10.225720 Y13.813000 F100.000000
G1 X10.199953 Y13.750793 F100.000000
G1 X10.174493 Y13.688460 F100.000000
G1 X10.174058 Y13.688278 F100.000000
G1 X10.173878 Y13.687842 F100.000000
G1 X10.111671 Y13.662075 F100.000000
G1 X10.049592 Y13.636002 F100.000000
G1 X10.049156 Y13.636180 F100.000000
G1 X10.048720 Y13.636000 F100.000000
G1 X9.799000 F100.000000
G1 Y13.482800 F100.000000
G1 Y13.482000 F100.000000
G1 X10.193500 F100.000000
G1 Y12.493000 F100.000000
G1 X9.799000 F100.000000
G1 Y12.466800 F100.000000
G1 Y12.339529 F100.000000
G1 X10.116180 Y12.341536 F100.000000
G1 X10.116741 Y12.341308 F100.000000
G1 X10.117300 Y12.341540 F100.000000
G1 X10.233073 F100.000000
G1 X10.307392 Y12.371268 F100.000000
G1 X10.324882 Y12.388758 F100.000000
G1 X10.363707 Y12.427582 F100.000000
G1 X10.394960 Y12.502319 F100.000000
G1 Y12.654760 F100.000000
G1 X10.395075 Y12.655037 F100.000000
G1 X10.394961 Y12.655315 F100.000000
G1 X10.420979 Y12.717576 F100.000000
G1 X10.446802 Y12.779918 F100.000000
G1 X10.447079 Y12.780033 F100.000000
G1 X10.447195 Y12.780310 F100.000000
G1 X10.509618 Y12.805937 F100.000000
G1 X10.571960 Y12.831760 F100.000000
G1 X10.572237 Y12.831645 F100.000000
G1 X10.572515 Y12.831759 F100.000000
G1 X10.634776 Y12.805741 F100.000000
G1 X10.697118 Y12.779918 F100.000000
G1 X10.697233 Y12.779641 F100.000000
G1 X10.697510 Y12.779525 F100.000000
G1 X11.088629 Y12.385946 F100.000000
G1 X11.240177 Y12.285570 F100.000000
G1 X11.417526 Y12.250100 F100.000000
G1 X15.509974 F100.000000
G1 X15.685468 Y12.285199 F100.000000
G1 X15.721390 Y12.310068 F100.000000
G1 X15.773184 Y12.321262 F100.000000
G1 X15.822140 Y12.341540 F100.000000
G1 X16.584181 F100.000000
G1 X16.658918 Y12.372793 F100.000000
G1 X16.674882 Y12.388758 F100.000000
G1 X16.674882 Y12.388758 F100.000000
G1 X16.674882 Y12.388758 F100.000000
G1 X16.713812 Y12.427688 F100.000000
G1 X16.723210 Y12.452749 F100.000000
G1 X16.749209 Y12.480575 F100.000000
G1 X16.763782 Y12.515758 F100.000000
G1 X16.793636 Y12.528124 F100.000000
G1 X16.815697 Y12.551735 F100.000000
G1 X16.853757 Y12.553027 F100.000000
G1 X16.888940 Y12.567600 F100.000000
G1 X17.302960 F100.000000
G1 X17.302960 Y12.567600 F100.000000
G0 Z2.000000
G0 X13.517662 Y16.099698
G1 Z-0.040000 F60.000000
G1 X13.517662 Y16.099698 F100.000000
G1 X13.517662 Y16.099698 F100.000000
G0 Z2.000000
G0 X13.642820 Y16.151540
G1 Z-0.040000 F60.000000
G1 X14.044181 F100.000000
G0 Z2.000000
G0 X13.394700 Y15.903420
G1 Z-0.040000 F60.000000
G1 Y15.903420 F100.000000
G1 Y15.903420 F100.000000
G1 Y15.903420 F100.000000
G1 Y15.903420 F100.000000
G0 Z2.000000
G0 X13.446542 Y16.028578
G1 Z-0.040000 F60.000000
G1 X13.446542 F100.000000
G1 X13.464322 Y16.046358 F100.000000
G0 Z2.000000
G0 X13.571700 Y15.726420
G1 Z-0.040000 F60.000000
G1 X13.446542 Y15.778262 F100.000000
G0 Z2.000000
G0 X14.309868 Y15.665532
G1 Z-0.040000 F60.000000
G1 X14.246168 Y15.691918 F100.000000
G0 Z2.000000
G0 X15.072840 Y16.493500
G1 Z-0.040000 F60.000000
G0 Z2.000000
G0 X8.595040 Y18.423100
G1 Z-0.040000 F60.000000
G1 Y18.359600 F100.000000
G1 Y18.217319 F100.000000
G1 X8.626293 Y18.142582 F100.000000
G1 X8.682608 Y18.086268 F100.000000
G1 X8.756927 Y18.056540 F100.000000
G1 X10.234181 F100.000000
G1 X10.303232 Y18.085416 F100.000000
G1 X10.311754 Y18.095155 F100.000000
G1 X10.317394 Y18.097945 F100.000000
G1 X10.319802 Y18.103758 F100.000000
G1 X10.377351 Y18.127595 F100.000000
G1 X10.433186 Y18.155208 F100.000000
G1 X10.439147 Y18.153192 F100.000000
G1 X10.444960 Y18.155600 F100.000000
G1 X10.502509 Y18.131763 F100.000000
G1 X10.561515 Y18.111806 F100.000000
G1 X10.564305 Y18.106166 F100.000000
G1 X10.570118 Y18.103758 F100.000000
G1 X10.587608 Y18.086268 F100.000000
G1 X10.661927 Y18.056540 F100.000000
G1 X12.139181 F100.000000
G1 X12.208232 Y18.085416 F100.000000
G1 X12.216754 Y18.095155 F100.000000
G1 X12.222394 Y18.097945 F100.000000
G1 X12.224802 Y18.103758 F100.000000
G1 X12.282351 Y18.127595 F100.000000
G1 X12.338186 Y18.155208 F100.000000
G1 X12.344147 Y18.153192 F100.000000
G1 X12.349960 Y18.155600 F100.000000
G1 X12.407509 Y18.131763 F100.000000
G1 X12.466515 Y18.111806 F100.000000
G1 X12.469305 Y18.106166 F100.000000
G1 X12.475118 Y18.103758 F100.000000
G1 X12.492608 Y18.086268 F100.000000
G1 X12.566927 Y18.056540 F100.000000
G1 X14.044181 F100.000000
G1 X14.118918 Y18.087793 F100.000000
G1 X14.173812 Y18.142688 F100.000000
G1 X14.183210 Y18.167749 F100.000000
G1 X14.209209 Y18.195575 F100.000000
G1 X14.223782 Y18.230758 F100.000000
G1 X14.253636 Y18.243124 F100.000000
G1 X14.275697 Y18.266735 F100.000000
G1 X14.313757 Y18.268027 F100.000000
G1 X14.348940 Y18.282600 F100.000000
G1 X14.798520 F100.000000
G1 X14.829331 Y18.269838 F100.000000
G1 X14.862673 Y18.270565 F100.000000
G1 X14.889442 Y18.244939 F100.000000
G1 X14.923678 Y18.230758 F100.000000
G1 X14.936440 Y18.199947 F100.000000
G1 X14.960531 Y18.176885 F100.000000
G1 X14.975098 Y18.143778 F100.000000
G1 X15.032608 Y18.086268 F100.000000
G1 X15.106927 Y18.056540 F100.000000
G1 X16.584181 F100.000000
G1 X16.658918 Y18.087793 F100.000000
G1 X16.715232 Y18.144108 F100.000000
G1 X16.744960 Y18.218427 F100.000000
G1 Y18.359600 F100.000000
G1 Y18.562800 F100.000000
G1 Y18.766000 F100.000000
G1 Y18.969200 F100.000000
G1 Y19.172400 F100.000000
G1 Y19.172400 F100.000000
G1 Y19.172400 F100.000000
G1 Y19.187681 F100.000000
G1 X16.713707 Y19.262418 F100.000000
G1 X16.657392 Y19.318732 F100.000000
G1 X16.583073 Y19.348460 F100.000000
G1 X15.105819 F100.000000
G1 X15.031082 Y19.317207 F100.000000
G1 X14.973837 Y19.259961 F100.000000
G1 X14.961905 Y19.231323 F100.000000
G1 X14.937083 Y19.206605 F100.000000
G1 X14.923678 Y19.174242 F100.000000
G1 X14.890986 Y19.160701 F100.000000
G1 X14.865913 Y19.135732 F100.000000
G1 X14.830883 Y19.135805 F100.000000
G1 X14.798520 Y19.122400 F100.000000
G1 X14.348940 F100.000000
G1 X14.315456 Y19.136269 F100.000000
G1 X14.279216 Y19.136711 F100.000000
G1 X14.255351 Y19.161166 F100.000000
G1 X14.223782 Y19.174242 F100.000000
G1 X14.209913 Y19.207726 F100.000000
G1 X14.184600 Y19.233664 F100.000000
G1 X14.172692 Y19.263432 F100.000000
G1 X14.117392 Y19.318732 F100.000000
G1 X14.043073 Y19.348460 F100.000000
G1 X12.565819 F100.000000
G1 X12.485471 Y19.314860 F100.000000
G1 X12.466515 Y19.298274 F100.000000
G1 X12.407509 Y19.278317 F100.000000
G1 X12.349960 Y19.254480 F100.000000
G1 X12.344147 Y19.256888 F100.000000
G0 Z2.000000
G0 X8.031960 Y18.600100
G1 Z-0.040000 F60.000000
G1 X8.031960 F100.000000
G1 X8.418040 F100.000000
G1 X8.418040 F100.000000
G1 X8.418040 F100.000000
G0 Z2.000000
G0 X7.906802 Y18.548258
G1 Z-0.040000 F60.000000
G1 X7.906802 Y18.548258 F100.000000
G1 X7.906802 Y18.548258 F100.000000
G1 X7.906802 Y18.548258 F100.000000
G1 X7.906802 Y18.548258 F100.000000
G0 Z2.000000
G0 X8.031960 Y18.600100
G1 Z-0.040000 F60.000000
G1 X8.418040 F100.000000
G0 Z2.000000
G0 X12.344147 Y19.256888
G1 Z-0.040000 F60.000000
G1 X12.338186 Y19.254872 F100.000000
G1 X12.282351 Y19.282485 F100.000000
G1 X12.224802 Y19.306322 F100.000000
G1 X12.212392 Y19.318732 F100.000000
G1 X12.138073 Y19.348460 F100.000000
G1 X10.660819 F100.000000
G1 X10.580471 Y19.314860 F100.000000
G1 X10.561515 Y19.298274 F100.000000
G1 X10.502509 Y19.278317 F100.000000
G1 X10.444960 Y19.254480 F100.000000
G1 X10.439147 Y19.256888 F100.000000
G1 X10.433186 Y19.254872 F100.000000
G1 X10.377351 Y19.282485 F100.000000
G1 X10.319802 Y19.306322 F100.000000
G1 X10.307392 Y19.318732 F100.000000
G1 X10.233073 Y19.348460 F100.000000
G1 X9.472140 F100.000000
G1 X9.423184 Y19.368738 F100.000000
G1 X9.371390 Y19.379932 F100.000000
G1 X9.335468 Y19.404801 F100.000000
G1 X9.159974 Y19.439900 F100.000000
G1 X8.031960 F100.000000
G1 X8.031960 F100.000000
G1 X8.031960 F100.000000
G1 X7.906802 Y19.491742 F100.000000
G1 X7.854960 Y19.616900 F100.000000
G1 Y19.616900 F100.000000
G1 Y19.616900 F100.000000
G1 Y19.616900 F100.000000
G1 Y19.616900 F100.000000
G0 Z2.000000
G0 X17.529020 Y15.538460
G1 Z-0.040000 F60.000000
G0 Z2.000000
G0 X16.830520 Y16.493500
G1 Z-0.040000 F60.000000
G0 Z2.000000
G0 X19.434020 Y15.538460
G1 Z-0.040000 F60.000000
G0 Z2.000000
G0 X19.875980
G1 Z-0.040000 F60.000000
G0 Z2.000000
G0 X20.444242 Y10.388382
G1 Z-0.040000 F60.000000
G1 X20.444242 F100.000000
G1 X20.444242 F100.000000
G0 Z2.000000
G0 X20.392400 Y10.513540
G1 Z-0.040000 F60.000000
G1 Y10.513540 F100.000000
G1 Y10.513540 F100.000000
G1 Y10.513540 F100.000000
G1 Y10.513540 F100.000000

(Goto to Initial position)
G0 Z2.000000
G0 X0.000000 Y0.000000
G0 Z0.000000
