( PCB Contour )
( Generated by Rapid-PCB.com )
( Material Size)
( X= 160.000, Y= 100.000, Z= 1.580)
()
G00
G17
G21
G40
G49
G54
G80
G90
G94
G00 F3000 Z3.000
M03 S9000
G00 F3000 X120.557 Y38.536
G00 F1500 Z0
G01 F300 Z-0.060
G01 F300 X120.509 Y38.526
G01 F300 X120.464 Y38.506
G01 F300 X120.424 Y38.477
G01 F300 X120.391 Y38.440
G01 F300 X120.367 Y38.398
G01 F300 X120.351 Y38.351
G01 F300 X120.347 Y38.307
G01 F300 X120.347 Y36.296
G01 F300 X120.351 Y36.252
G01 F300 X120.367 Y36.205
G01 F300 X120.391 Y36.163
G01 F300 X120.424 Y36.126
G01 F300 X120.464 Y36.097
G01 F300 X120.509 Y36.077
G01 F300 X120.557 Y36.067
G01 F300 X121.083 Y36.067
G01 F300 X121.128 Y36.077
G01 F300 X121.420 Y36.176
G01 F300 X121.461 Y36.194
G01 F300 X121.499 Y36.221
G01 F300 X121.695 Y36.418
G01 F300 X121.724 Y36.450
G01 F300 X121.745 Y36.486
G01 F300 X121.846 Y36.685
G01 F300 X121.858 Y36.724
G01 F300 X121.954 Y37.114
G01 F300 X121.959 Y37.155
G01 F300 X121.959 Y37.448
G01 F300 X121.954 Y37.489
G01 F300 X121.858 Y37.879
G01 F300 X121.846 Y37.918
G01 F300 X121.745 Y38.117
G01 F300 X121.724 Y38.153
G01 F300 X121.695 Y38.185
G01 F300 X121.499 Y38.382
G01 F300 X121.461 Y38.409
G01 F300 X121.420 Y38.427
G01 F300 X121.128 Y38.527
G01 F300 X121.083 Y38.536
G01 F300 X120.557 Y38.536
G00 F3000 Z3.000
G00 F3000 X118.939 Y38.536
G00 F1500 Z0
G01 F300 Z-0.060
G01 F300 X118.891 Y38.526
G01 F300 X118.846 Y38.506
G01 F300 X118.806 Y38.477
G01 F300 X118.773 Y38.440
G01 F300 X118.749 Y38.398
G01 F300 X118.733 Y38.351
G01 F300 X118.729 Y38.307
G01 F300 X118.729 Y36.296
G01 F300 X118.733 Y36.252
G01 F300 X118.749 Y36.205
G01 F300 X118.773 Y36.163
G01 F300 X118.806 Y36.126
G01 F300 X118.846 Y36.097
G01 F300 X118.891 Y36.077
G01 F300 X118.939 Y36.067
G01 F300 X119.940 Y36.067
G01 F300 X119.988 Y36.077
G01 F300 X120.033 Y36.097
G01 F300 X120.073 Y36.126
G01 F300 X120.106 Y36.163
G01 F300 X120.130 Y36.205
G01 F300 X120.146 Y36.252
G01 F300 X120.151 Y36.301
G01 F300 X120.146 Y36.350
G01 F300 X120.130 Y36.396
G01 F300 X120.106 Y36.439
G01 F300 X120.073 Y36.475
G01 F300 X120.033 Y36.504
G01 F300 X119.988 Y36.524
G01 F300 X119.940 Y36.534
G01 F300 X119.198 Y36.534
G01 F300 X119.198 Y38.307
G01 F300 X119.193 Y38.351
G01 F300 X119.178 Y38.398
G01 F300 X119.153 Y38.440
G01 F300 X119.121 Y38.477
G01 F300 X119.081 Y38.506
G01 F300 X119.036 Y38.526
G01 F300 X118.988 Y38.536
G01 F300 X118.939 Y38.536
G00 F3000 Z3.000
G00 F3000 X122.558 Y38.536
G00 F1500 Z0
G01 F300 Z-0.060
G01 F300 X122.510 Y38.526
G01 F300 X122.465 Y38.506
G01 F300 X122.426 Y38.477
G01 F300 X122.393 Y38.440
G01 F300 X122.368 Y38.398
G01 F300 X122.353 Y38.351
G01 F300 X122.348 Y38.307
G01 F300 X122.348 Y36.296
G01 F300 X122.353 Y36.252
G01 F300 X122.368 Y36.205
G01 F300 X122.393 Y36.163
G01 F300 X122.426 Y36.126
G01 F300 X122.465 Y36.097
G01 F300 X122.510 Y36.077
G01 F300 X122.558 Y36.067
G01 F300 X122.607 Y36.067
G01 F300 X122.655 Y36.077
G01 F300 X122.700 Y36.097
G01 F300 X122.740 Y36.126
G01 F300 X122.773 Y36.163
G01 F300 X122.797 Y36.205
G01 F300 X122.813 Y36.252
G01 F300 X122.817 Y36.296
G01 F300 X122.817 Y37.020
G01 F300 X122.935 Y37.020
G01 F300 X123.538 Y36.160
G01 F300 X123.569 Y36.126
G01 F300 X123.608 Y36.097
G01 F300 X123.653 Y36.077
G01 F300 X123.701 Y36.067
G01 F300 X123.750 Y36.067
G01 F300 X123.798 Y36.077
G01 F300 X123.843 Y36.097
G01 F300 X123.883 Y36.126
G01 F300 X123.916 Y36.163
G01 F300 X123.940 Y36.205
G01 F300 X123.956 Y36.252
G01 F300 X123.961 Y36.301
G01 F300 X123.956 Y36.350
G01 F300 X123.940 Y36.396
G01 F300 X123.919 Y36.434
G01 F300 X123.490 Y37.064
G01 F300 X123.655 Y37.148
G01 F300 X123.691 Y37.174
G01 F300 X123.791 Y37.274
G01 F300 X123.819 Y37.306
G01 F300 X123.841 Y37.343
G01 F300 X123.941 Y37.541
G01 F300 X123.956 Y37.585
G01 F300 X123.960 Y37.630
G01 F300 X123.960 Y37.926
G01 F300 X123.956 Y37.970
G01 F300 X123.941 Y38.015
G01 F300 X123.841 Y38.213
G01 F300 X123.819 Y38.250
G01 F300 X123.791 Y38.281
G01 F300 X123.691 Y38.382
G01 F300 X123.655 Y38.408
G01 F300 X123.456 Y38.509
G01 F300 X123.417 Y38.526
G01 F300 X123.369 Y38.536
G01 F300 X122.558 Y38.536
G00 F3000 Z3.000
G00 F3000 X122.817 Y38.069
G00 F1500 Z0
G01 F300 Z-0.060
G01 F300 X123.288 Y38.069
G01 F300 X123.396 Y38.014
G01 F300 X123.437 Y37.972
G01 F300 X123.491 Y37.866
G01 F300 X123.491 Y37.690
G01 F300 X123.437 Y37.583
G01 F300 X123.396 Y37.542
G01 F300 X123.288 Y37.487
G01 F300 X122.817 Y37.487
G01 F300 X122.817 Y38.069
G00 F3000 Z3.000
G00 F3000 X120.816 Y38.069
G00 F1500 Z0
G01 F300 Z-0.060
G01 F300 X121.018 Y38.069
G01 F300 X121.216 Y38.001
G01 F300 X121.342 Y37.876
G01 F300 X121.409 Y37.743
G01 F300 X121.490 Y37.415
G01 F300 X121.490 Y37.188
G01 F300 X121.409 Y36.860
G01 F300 X121.342 Y36.727
G01 F300 X121.216 Y36.602
G01 F300 X121.018 Y36.534
G01 F300 X120.816 Y36.534
G01 F300 X120.816 Y38.069
G00 F3000 Z3.000
G00 F3000 X121.207 Y35.507
G00 F1500 Z0
G01 F300 Z-0.060
G01 F300 X121.033 Y35.471
G01 F300 X120.872 Y35.398
G01 F300 X120.728 Y35.294
G01 F300 X120.610 Y35.163
G01 F300 X120.521 Y35.010
G01 F300 X120.467 Y34.841
G01 F300 X120.448 Y34.665
G01 F300 X120.467 Y34.489
G01 F300 X120.521 Y34.321
G01 F300 X120.610 Y34.167
G01 F300 X120.728 Y34.036
G01 F300 X120.872 Y33.931
G01 F300 X121.033 Y33.860
G01 F300 X121.207 Y33.823
G01 F300 X121.384 Y33.823
G01 F300 X121.491 Y33.845
G01 F300 X121.519 Y33.833
G01 F300 X121.618 Y33.812
G01 F300 X121.710 Y33.812
G01 F300 X124.163 Y33.812
G01 F300 X124.168 Y33.803
G01 F300 X124.285 Y33.674
G01 F300 X124.426 Y33.571
G01 F300 X124.585 Y33.500
G01 F300 X124.756 Y33.464
G01 F300 X124.931 Y33.464
G01 F300 X125.101 Y33.500
G01 F300 X125.261 Y33.571
G01 F300 X125.402 Y33.674
G01 F300 X125.519 Y33.803
G01 F300 X125.606 Y33.955
G01 F300 X125.660 Y34.121
G01 F300 X125.678 Y34.294
G01 F300 X125.660 Y34.468
G01 F300 X125.606 Y34.634
G01 F300 X125.519 Y34.785
G01 F300 X125.402 Y34.915
G01 F300 X125.261 Y35.017
G01 F300 X125.101 Y35.088
G01 F300 X124.931 Y35.125
G01 F300 X124.756 Y35.125
G01 F300 X124.585 Y35.088
G01 F300 X124.426 Y35.017
G01 F300 X124.285 Y34.915
G01 F300 X124.168 Y34.785
G01 F300 X124.163 Y34.776
G01 F300 X122.130 Y34.776
G01 F300 X122.124 Y34.841
G01 F300 X122.069 Y35.010
G01 F300 X121.980 Y35.163
G01 F300 X121.862 Y35.294
G01 F300 X121.719 Y35.398
G01 F300 X121.557 Y35.471
G01 F300 X121.384 Y35.507
G01 F300 X121.207 Y35.507
G00 F3000 Z3.000
G00 F3000 X117.662 Y35.125
G00 F1500 Z0
G01 F300 Z-0.060
G01 F300 X117.491 Y35.088
G01 F300 X117.332 Y35.017
G01 F300 X117.191 Y34.915
G01 F300 X117.074 Y34.785
G01 F300 X116.986 Y34.634
G01 F300 X116.932 Y34.468
G01 F300 X116.914 Y34.294
G01 F300 X116.932 Y34.121
G01 F300 X116.986 Y33.955
G01 F300 X117.074 Y33.803
G01 F300 X117.191 Y33.674
G01 F300 X117.332 Y33.571
G01 F300 X117.491 Y33.500
G01 F300 X117.662 Y33.464
G01 F300 X117.837 Y33.464
G01 F300 X117.972 Y33.496
G01 F300 X119.702 Y31.763
G01 F300 X119.782 Y31.705
G01 F300 X119.875 Y31.664
G01 F300 X119.974 Y31.643
G01 F300 X120.596 Y31.643
G01 F300 X120.728 Y31.496
G01 F300 X120.872 Y31.392
G01 F300 X121.033 Y31.320
G01 F300 X121.207 Y31.283
G01 F300 X121.384 Y31.283
G01 F300 X121.557 Y31.320
G01 F300 X121.719 Y31.392
G01 F300 X121.862 Y31.496
G01 F300 X121.980 Y31.627
G01 F300 X122.069 Y31.780
G01 F300 X122.124 Y31.949
G01 F300 X122.142 Y32.125
G01 F300 X122.124 Y32.301
G01 F300 X122.069 Y32.470
G01 F300 X121.980 Y32.623
G01 F300 X121.862 Y32.754
G01 F300 X121.719 Y32.858
G01 F300 X121.557 Y32.931
G01 F300 X121.384 Y32.967
G01 F300 X121.207 Y32.967
G01 F300 X121.033 Y32.931
G01 F300 X120.872 Y32.858
G01 F300 X120.728 Y32.754
G01 F300 X120.610 Y32.623
G01 F300 X120.601 Y32.607
G01 F300 X120.227 Y32.607
G01 F300 X118.580 Y34.256
G01 F300 X118.584 Y34.294
G01 F300 X118.566 Y34.468
G01 F300 X118.512 Y34.634
G01 F300 X118.425 Y34.785
G01 F300 X118.308 Y34.915
G01 F300 X118.167 Y35.017
G01 F300 X118.007 Y35.088
G01 F300 X117.836 Y35.125
G01 F300 X117.662 Y35.125
G00 F3000 Z3.000
G00 F3000 X115.861 Y33.379
G00 F1500 Z0
G01 F300 Z-0.060
G01 F300 X115.680 Y33.340
G01 F300 X115.511 Y33.265
G01 F300 X115.361 Y33.156
G01 F300 X115.237 Y33.019
G01 F300 X115.145 Y32.858
G01 F300 X115.088 Y32.682
G01 F300 X115.068 Y32.498
G01 F300 X115.087 Y32.317
G01 F300 X113.981 Y31.210
G01 F300 X113.918 Y31.140
G01 F300 X113.867 Y31.052
G01 F300 X113.836 Y30.956
G01 F300 X113.826 Y30.859
G01 F300 X113.826 Y25.771
G01 F300 X113.836 Y25.674
G01 F300 X113.867 Y25.578
G01 F300 X113.918 Y25.490
G01 F300 X113.981 Y25.420
G01 F300 X114.887 Y24.517
G01 F300 X114.967 Y24.458
G01 F300 X115.059 Y24.417
G01 F300 X115.159 Y24.396
G01 F300 X117.011 Y24.396
G01 F300 X117.033 Y24.358
G01 F300 X117.157 Y24.221
G01 F300 X117.307 Y24.112
G01 F300 X117.476 Y24.037
G01 F300 X117.657 Y23.998
G01 F300 X117.842 Y23.998
G01 F300 X118.008 Y24.036
G01 F300 X118.069 Y24.023
G01 F300 X120.449 Y24.023
G01 F300 X120.449 Y23.659
G01 F300 X122.142 Y23.659
G01 F300 X122.142 Y24.023
G01 F300 X124.517 Y24.023
G01 F300 X124.592 Y24.032
G01 F300 X124.751 Y23.998
G01 F300 X124.936 Y23.998
G01 F300 X125.117 Y24.037
G01 F300 X125.286 Y24.112
G01 F300 X125.436 Y24.221
G01 F300 X125.559 Y24.358
G01 F300 X125.581 Y24.396
G01 F300 X127.434 Y24.396
G01 F300 X127.533 Y24.417
G01 F300 X127.626 Y24.458
G01 F300 X127.706 Y24.517
G01 F300 X128.609 Y25.420
G01 F300 X128.672 Y25.490
G01 F300 X128.723 Y25.578
G01 F300 X128.754 Y25.674
G01 F300 X128.764 Y25.771
G01 F300 X128.764 Y30.859
G01 F300 X128.754 Y30.956
G01 F300 X128.723 Y31.052
G01 F300 X128.672 Y31.140
G01 F300 X128.609 Y31.210
G01 F300 X127.505 Y32.316
G01 F300 X127.524 Y32.498
G01 F300 X127.505 Y32.682
G01 F300 X127.448 Y32.858
G01 F300 X127.355 Y33.019
G01 F300 X127.231 Y33.156
G01 F300 X127.082 Y33.265
G01 F300 X126.913 Y33.340
G01 F300 X126.732 Y33.379
G01 F300 X126.547 Y33.379
G01 F300 X126.366 Y33.340
G01 F300 X126.197 Y33.265
G01 F300 X126.047 Y33.156
G01 F300 X125.923 Y33.019
G01 F300 X125.831 Y32.858
G01 F300 X125.774 Y32.682
G01 F300 X125.754 Y32.498
G01 F300 X125.774 Y32.314
G01 F300 X125.831 Y32.138
G01 F300 X125.923 Y31.978
G01 F300 X126.047 Y31.841
G01 F300 X126.197 Y31.732
G01 F300 X126.366 Y31.657
G01 F300 X126.547 Y31.618
G01 F300 X126.732 Y31.618
G01 F300 X126.816 Y31.636
G01 F300 X127.796 Y30.655
G01 F300 X127.796 Y25.975
G01 F300 X127.181 Y25.361
G01 F300 X125.581 Y25.361
G01 F300 X125.559 Y25.399
G01 F300 X125.436 Y25.536
G01 F300 X125.286 Y25.645
G01 F300 X125.117 Y25.720
G01 F300 X124.936 Y25.759
G01 F300 X124.751 Y25.759
G01 F300 X124.570 Y25.720
G01 F300 X124.401 Y25.645
G01 F300 X124.251 Y25.536
G01 F300 X124.127 Y25.399
G01 F300 X124.035 Y25.238
G01 F300 X123.978 Y25.062
G01 F300 X123.970 Y24.987
G01 F300 X122.142 Y24.987
G01 F300 X122.142 Y25.352
G01 F300 X120.449 Y25.352
G01 F300 X120.449 Y24.987
G01 F300 X118.623 Y24.987
G01 F300 X118.615 Y25.062
G01 F300 X118.558 Y25.238
G01 F300 X118.465 Y25.399
G01 F300 X118.341 Y25.536
G01 F300 X118.192 Y25.645
G01 F300 X118.023 Y25.720
G01 F300 X117.842 Y25.759
G01 F300 X117.657 Y25.759
G01 F300 X117.476 Y25.720
G01 F300 X117.307 Y25.645
G01 F300 X117.157 Y25.536
G01 F300 X117.033 Y25.399
G01 F300 X117.011 Y25.361
G01 F300 X115.411 Y25.361
G01 F300 X114.794 Y25.975
G01 F300 X114.794 Y30.655
G01 F300 X115.776 Y31.636
G01 F300 X115.861 Y31.618
G01 F300 X116.046 Y31.618
G01 F300 X116.227 Y31.657
G01 F300 X116.396 Y31.732
G01 F300 X116.546 Y31.841
G01 F300 X116.669 Y31.978
G01 F300 X116.762 Y32.138
G01 F300 X116.819 Y32.314
G01 F300 X116.838 Y32.498
G01 F300 X116.819 Y32.682
G01 F300 X116.762 Y32.858
G01 F300 X116.669 Y33.019
G01 F300 X116.546 Y33.156
G01 F300 X116.396 Y33.265
G01 F300 X116.227 Y33.340
G01 F300 X116.046 Y33.379
G01 F300 X115.861 Y33.379
G00 F3000 Z3.000
G00 F3000 X118.060 Y32.384
G00 F1500 Z0
G01 F300 Z-0.060
G01 F300 X118.019 Y32.375
G01 F300 X117.726 Y32.302
G01 F300 X117.689 Y32.286
G01 F300 X117.538 Y32.210
G01 F300 X117.501 Y32.183
G01 F300 X117.351 Y32.033
G01 F300 X117.323 Y32.002
G01 F300 X117.299 Y31.959
G01 F300 X117.225 Y31.737
G01 F300 X117.212 Y31.699
G01 F300 X117.207 Y31.655
G01 F300 X117.207 Y31.503
G01 F300 X117.212 Y31.459
G01 F300 X117.225 Y31.421
G01 F300 X117.298 Y31.196
G01 F300 X117.323 Y31.154
G01 F300 X117.352 Y31.122
G01 F300 X117.432 Y31.044
G01 F300 X117.469 Y31.017
G01 F300 X117.514 Y30.997
G01 F300 X117.562 Y30.987
G01 F300 X117.611 Y30.987
G01 F300 X117.659 Y30.997
G01 F300 X117.704 Y31.017
G01 F300 X117.744 Y31.046
G01 F300 X117.777 Y31.083
G01 F300 X117.801 Y31.125
G01 F300 X117.816 Y31.172
G01 F300 X117.822 Y31.221
G01 F300 X117.816 Y31.270
G01 F300 X117.801 Y31.316
G01 F300 X117.777 Y31.359
G01 F300 X117.748 Y31.391
G01 F300 X117.716 Y31.421
G01 F300 X117.676 Y31.543
G01 F300 X117.676 Y31.614
G01 F300 X117.717 Y31.736
G01 F300 X117.797 Y31.816
G01 F300 X117.882 Y31.858
G01 F300 X118.115 Y31.917
G01 F300 X118.269 Y31.917
G01 F300 X118.504 Y31.858
G01 F300 X118.591 Y31.816
G01 F300 X118.667 Y31.737
G01 F300 X118.709 Y31.614
G01 F300 X118.709 Y31.543
G01 F300 X118.668 Y31.419
G01 F300 X118.639 Y31.390
G01 F300 X118.611 Y31.359
G01 F300 X118.586 Y31.316
G01 F300 X118.571 Y31.270
G01 F300 X118.566 Y31.221
G01 F300 X118.571 Y31.172
G01 F300 X118.586 Y31.125
G01 F300 X118.611 Y31.083
G01 F300 X118.644 Y31.046
G01 F300 X118.683 Y31.017
G01 F300 X118.728 Y30.997
G01 F300 X118.776 Y30.987
G01 F300 X118.825 Y30.987
G01 F300 X118.873 Y30.997
G01 F300 X118.918 Y31.017
G01 F300 X118.956 Y31.045
G01 F300 X119.034 Y31.122
G01 F300 X119.062 Y31.154
G01 F300 X119.086 Y31.196
G01 F300 X119.160 Y31.421
G01 F300 X119.173 Y31.459
G01 F300 X119.178 Y31.503
G01 F300 X119.178 Y31.654
G01 F300 X119.173 Y31.699
G01 F300 X119.160 Y31.737
G01 F300 X119.086 Y31.959
G01 F300 X119.062 Y32.002
G01 F300 X119.034 Y32.033
G01 F300 X118.885 Y32.184
G01 F300 X118.848 Y32.211
G01 F300 X118.696 Y32.286
G01 F300 X118.659 Y32.302
G01 F300 X118.366 Y32.375
G01 F300 X118.325 Y32.384
G01 F300 X118.060 Y32.384
G00 F3000 Z3.000
G00 F3000 X118.060 Y30.883
G00 F1500 Z0
G01 F300 Z-0.060
G01 F300 X118.019 Y30.874
G01 F300 X117.726 Y30.801
G01 F300 X117.689 Y30.784
G01 F300 X117.539 Y30.709
G01 F300 X117.503 Y30.683
G01 F300 X117.352 Y30.535
G01 F300 X117.322 Y30.502
G01 F300 X117.296 Y30.452
G01 F300 X117.225 Y30.236
G01 F300 X117.212 Y30.198
G01 F300 X117.207 Y30.153
G01 F300 X117.207 Y30.002
G01 F300 X117.212 Y29.958
G01 F300 X117.225 Y29.919
G01 F300 X117.299 Y29.697
G01 F300 X117.323 Y29.655
G01 F300 X117.352 Y29.623
G01 F300 X117.432 Y29.546
G01 F300 X117.469 Y29.519
G01 F300 X117.514 Y29.499
G01 F300 X117.562 Y29.489
G01 F300 X118.109 Y29.489
G01 F300 X118.157 Y29.499
G01 F300 X118.202 Y29.519
G01 F300 X118.242 Y29.548
G01 F300 X118.275 Y29.584
G01 F300 X118.299 Y29.627
G01 F300 X118.314 Y29.673
G01 F300 X118.319 Y29.718
G01 F300 X118.319 Y30.011
G01 F300 X118.314 Y30.056
G01 F300 X118.299 Y30.102
G01 F300 X118.275 Y30.145
G01 F300 X118.242 Y30.181
G01 F300 X118.202 Y30.210
G01 F300 X118.157 Y30.230
G01 F300 X118.109 Y30.240
G01 F300 X118.060 Y30.240
G01 F300 X118.012 Y30.230
G01 F300 X117.967 Y30.210
G01 F300 X117.927 Y30.181
G01 F300 X117.894 Y30.145
G01 F300 X117.870 Y30.102
G01 F300 X117.855 Y30.056
G01 F300 X117.850 Y30.011
G01 F300 X117.850 Y29.957
G01 F300 X117.704 Y29.960
G01 F300 X117.676 Y30.043
G01 F300 X117.676 Y30.114
G01 F300 X117.717 Y30.237
G01 F300 X117.796 Y30.314
G01 F300 X117.882 Y30.357
G01 F300 X118.115 Y30.416
G01 F300 X118.270 Y30.416
G01 F300 X118.504 Y30.357
G01 F300 X118.591 Y30.314
G01 F300 X118.668 Y30.238
G01 F300 X118.709 Y30.114
G01 F300 X118.709 Y29.991
G01 F300 X118.656 Y29.886
G01 F300 X118.642 Y29.842
G01 F300 X118.637 Y29.793
G01 F300 X118.642 Y29.744
G01 F300 X118.657 Y29.698
G01 F300 X118.682 Y29.655
G01 F300 X118.715 Y29.619
G01 F300 X118.754 Y29.590
G01 F300 X118.799 Y29.570
G01 F300 X118.847 Y29.560
G01 F300 X118.896 Y29.560
G01 F300 X118.944 Y29.570
G01 F300 X118.989 Y29.590
G01 F300 X119.029 Y29.619
G01 F300 X119.062 Y29.655
G01 F300 X119.083 Y29.692
G01 F300 X119.158 Y29.842
G01 F300 X119.173 Y29.887
G01 F300 X119.178 Y29.931
G01 F300 X119.178 Y30.153
G01 F300 X119.173 Y30.198
G01 F300 X119.160 Y30.236
G01 F300 X119.086 Y30.460
G01 F300 X119.062 Y30.503
G01 F300 X119.034 Y30.534
G01 F300 X118.885 Y30.683
G01 F300 X118.848 Y30.710
G01 F300 X118.696 Y30.785
G01 F300 X118.659 Y30.801
G01 F300 X118.366 Y30.874
G01 F300 X118.325 Y30.883
G01 F300 X118.060 Y30.883
G00 F3000 Z3.000
G00 F3000 X121.207 Y30.427
G00 F1500 Z0
G01 F300 Z-0.060
G01 F300 X121.033 Y30.391
G01 F300 X120.872 Y30.319
G01 F300 X120.728 Y30.214
G01 F300 X120.610 Y30.083
G01 F300 X120.521 Y29.930
G01 F300 X120.467 Y29.761
G01 F300 X120.448 Y29.585
G01 F300 X120.467 Y29.409
G01 F300 X120.521 Y29.241
G01 F300 X120.610 Y29.087
G01 F300 X120.728 Y28.956
G01 F300 X120.872 Y28.852
G01 F300 X121.033 Y28.780
G01 F300 X121.207 Y28.743
G01 F300 X121.384 Y28.743
G01 F300 X121.557 Y28.780
G01 F300 X121.719 Y28.852
G01 F300 X121.862 Y28.956
G01 F300 X121.980 Y29.087
G01 F300 X121.989 Y29.103
G01 F300 X123.526 Y29.103
G01 F300 X125.817 Y26.799
G01 F300 X125.804 Y26.674
G01 F300 X125.822 Y26.501
G01 F300 X125.876 Y26.335
G01 F300 X125.964 Y26.183
G01 F300 X126.081 Y26.054
G01 F300 X126.222 Y25.951
G01 F300 X126.381 Y25.880
G01 F300 X126.552 Y25.844
G01 F300 X126.726 Y25.844
G01 F300 X126.897 Y25.880
G01 F300 X127.057 Y25.951
G01 F300 X127.198 Y26.054
G01 F300 X127.315 Y26.183
G01 F300 X127.402 Y26.335
G01 F300 X127.456 Y26.501
G01 F300 X127.474 Y26.674
G01 F300 X127.456 Y26.848
G01 F300 X127.402 Y27.014
G01 F300 X127.315 Y27.165
G01 F300 X127.198 Y27.295
G01 F300 X127.057 Y27.397
G01 F300 X126.897 Y27.468
G01 F300 X126.726 Y27.505
G01 F300 X126.552 Y27.505
G01 F300 X126.504 Y27.494
G01 F300 X124.051 Y29.947
G01 F300 X123.971 Y30.005
G01 F300 X123.878 Y30.046
G01 F300 X123.779 Y30.067
G01 F300 X121.989 Y30.067
G01 F300 X121.980 Y30.083
G01 F300 X121.862 Y30.214
G01 F300 X121.719 Y30.319
G01 F300 X121.557 Y30.391
G01 F300 X121.384 Y30.427
G01 F300 X121.207 Y30.427
G00 F3000 Z3.000
G00 F3000 X117.488 Y29.384
G00 F1500 Z0
G01 F300 Z-0.060
G01 F300 X117.440 Y29.374
G01 F300 X117.396 Y29.354
G01 F300 X117.356 Y29.325
G01 F300 X117.323 Y29.289
G01 F300 X117.298 Y29.246
G01 F300 X117.225 Y29.022
G01 F300 X117.212 Y28.984
G01 F300 X117.207 Y28.939
G01 F300 X117.207 Y28.575
G01 F300 X117.212 Y28.530
G01 F300 X117.226 Y28.486
G01 F300 X117.301 Y28.334
G01 F300 X117.323 Y28.296
G01 F300 X117.352 Y28.264
G01 F300 X117.432 Y28.187
G01 F300 X117.468 Y28.161
G01 F300 X117.618 Y28.086
G01 F300 X117.656 Y28.069
G01 F300 X117.704 Y28.059
G01 F300 X117.896 Y28.059
G01 F300 X117.944 Y28.069
G01 F300 X117.982 Y28.086
G01 F300 X118.132 Y28.161
G01 F300 X118.169 Y28.187
G01 F300 X118.246 Y28.265
G01 F300 X118.275 Y28.296
G01 F300 X118.296 Y28.333
G01 F300 X118.373 Y28.486
G01 F300 X118.386 Y28.525
G01 F300 X118.450 Y28.782
G01 F300 X118.494 Y28.870
G01 F300 X118.512 Y28.888
G01 F300 X118.570 Y28.917
G01 F300 X118.600 Y28.917
G01 F300 X118.661 Y28.887
G01 F300 X118.678 Y28.870
G01 F300 X118.709 Y28.809
G01 F300 X118.709 Y28.543
G01 F300 X118.654 Y28.379
G01 F300 X118.642 Y28.341
G01 F300 X118.637 Y28.292
G01 F300 X118.642 Y28.243
G01 F300 X118.657 Y28.197
G01 F300 X118.682 Y28.154
G01 F300 X118.715 Y28.117
G01 F300 X118.754 Y28.089
G01 F300 X118.799 Y28.069
G01 F300 X118.847 Y28.059
G01 F300 X118.896 Y28.059
G01 F300 X118.944 Y28.069
G01 F300 X118.989 Y28.089
G01 F300 X119.029 Y28.117
G01 F300 X119.062 Y28.154
G01 F300 X119.086 Y28.196
G01 F300 X119.160 Y28.421
G01 F300 X119.173 Y28.459
G01 F300 X119.178 Y28.504
G01 F300 X119.178 Y28.868
G01 F300 X119.173 Y28.913
G01 F300 X119.158 Y28.957
G01 F300 X119.083 Y29.107
G01 F300 X119.062 Y29.144
G01 F300 X119.034 Y29.175
G01 F300 X118.957 Y29.255
G01 F300 X118.919 Y29.282
G01 F300 X118.767 Y29.357
G01 F300 X118.729 Y29.374
G01 F300 X118.681 Y29.384
G01 F300 X118.489 Y29.384
G01 F300 X118.441 Y29.374
G01 F300 X118.403 Y29.357
G01 F300 X118.252 Y29.282
G01 F300 X118.215 Y29.255
G01 F300 X118.138 Y29.175
G01 F300 X118.110 Y29.144
G01 F300 X118.089 Y29.107
G01 F300 X118.014 Y28.957
G01 F300 X118.001 Y28.918
G01 F300 X117.937 Y28.661
G01 F300 X117.893 Y28.574
G01 F300 X117.874 Y28.556
G01 F300 X117.815 Y28.526
G01 F300 X117.785 Y28.526
G01 F300 X117.724 Y28.556
G01 F300 X117.705 Y28.575
G01 F300 X117.676 Y28.634
G01 F300 X117.676 Y28.899
G01 F300 X117.730 Y29.063
G01 F300 X117.743 Y29.102
G01 F300 X117.748 Y29.151
G01 F300 X117.743 Y29.200
G01 F300 X117.728 Y29.246
G01 F300 X117.703 Y29.289
G01 F300 X117.670 Y29.325
G01 F300 X117.630 Y29.354
G01 F300 X117.586 Y29.374
G01 F300 X117.538 Y29.384
G01 F300 X117.488 Y29.384
G00 F3000 Z3.000
G00 F3000 X121.207 Y27.887
G00 F1500 Z0
G01 F300 Z-0.060
G01 F300 X121.033 Y27.851
G01 F300 X120.872 Y27.779
G01 F300 X120.728 Y27.674
G01 F300 X120.610 Y27.543
G01 F300 X120.601 Y27.527
G01 F300 X116.273 Y27.527
G01 F300 X116.174 Y27.506
G01 F300 X116.129 Y27.486
G01 F300 X116.041 Y27.505
G01 F300 X115.866 Y27.505
G01 F300 X115.695 Y27.468
G01 F300 X115.536 Y27.397
G01 F300 X115.395 Y27.295
G01 F300 X115.278 Y27.165
G01 F300 X115.191 Y27.014
G01 F300 X115.137 Y26.848
G01 F300 X115.118 Y26.674
G01 F300 X115.137 Y26.501
G01 F300 X115.191 Y26.335
G01 F300 X115.278 Y26.183
G01 F300 X115.395 Y26.054
G01 F300 X115.536 Y25.951
G01 F300 X115.695 Y25.880
G01 F300 X115.866 Y25.844
G01 F300 X116.041 Y25.844
G01 F300 X116.211 Y25.880
G01 F300 X116.371 Y25.951
G01 F300 X116.512 Y26.054
G01 F300 X116.629 Y26.183
G01 F300 X116.716 Y26.335
G01 F300 X116.770 Y26.501
G01 F300 X116.777 Y26.563
G01 F300 X120.601 Y26.563
G01 F300 X120.610 Y26.547
G01 F300 X120.728 Y26.416
G01 F300 X120.872 Y26.312
G01 F300 X121.033 Y26.239
G01 F300 X121.207 Y26.203
G01 F300 X121.384 Y26.203
G01 F300 X121.557 Y26.239
G01 F300 X121.719 Y26.312
G01 F300 X121.862 Y26.416
G01 F300 X121.980 Y26.547
G01 F300 X122.069 Y26.701
G01 F300 X122.124 Y26.869
G01 F300 X122.142 Y27.045
G01 F300 X122.124 Y27.221
G01 F300 X122.069 Y27.390
G01 F300 X121.980 Y27.543
G01 F300 X121.862 Y27.674
G01 F300 X121.719 Y27.779
G01 F300 X121.557 Y27.851
G01 F300 X121.384 Y27.887
G01 F300 X121.207 Y27.887
G00 F3000 Z3.000
G00 F3000 X120.511 Y23.296
G00 F1500 Z0
G01 F300 Z-0.060
G01 F300 X120.463 Y23.286
G01 F300 X120.424 Y23.268
G01 F300 X120.226 Y23.168
G01 F300 X120.190 Y23.141
G01 F300 X120.087 Y23.042
G01 F300 X120.058 Y23.010
G01 F300 X120.037 Y22.973
G01 F300 X119.939 Y22.774
G01 F300 X119.927 Y22.736
G01 F300 X119.828 Y22.346
G01 F300 X119.824 Y22.305
G01 F300 X119.824 Y21.818
G01 F300 X119.828 Y21.777
G01 F300 X119.927 Y21.387
G01 F300 X119.939 Y21.349
G01 F300 X120.037 Y21.150
G01 F300 X120.058 Y21.113
G01 F300 X120.087 Y21.081
G01 F300 X120.190 Y20.981
G01 F300 X120.226 Y20.955
G01 F300 X120.424 Y20.855
G01 F300 X120.463 Y20.837
G01 F300 X120.511 Y20.827
G01 F300 X120.751 Y20.827
G01 F300 X120.799 Y20.837
G01 F300 X120.837 Y20.855
G01 F300 X121.036 Y20.955
G01 F300 X121.072 Y20.981
G01 F300 X121.172 Y21.082
G01 F300 X121.201 Y21.113
G01 F300 X121.222 Y21.150
G01 F300 X121.322 Y21.348
G01 F300 X121.335 Y21.387
G01 F300 X121.431 Y21.777
G01 F300 X121.436 Y21.818
G01 F300 X121.436 Y22.305
G01 F300 X121.431 Y22.347
G01 F300 X121.335 Y22.736
G01 F300 X121.323 Y22.775
G01 F300 X121.222 Y22.973
G01 F300 X121.201 Y23.010
G01 F300 X121.172 Y23.042
G01 F300 X121.072 Y23.142
G01 F300 X121.036 Y23.168
G01 F300 X120.837 Y23.268
G01 F300 X120.799 Y23.286
G01 F300 X120.751 Y23.296
G01 F300 X120.511 Y23.296
G00 F3000 Z3.000
G00 F3000 X123.463 Y23.296
G00 F1500 Z0
G01 F300 Z-0.060
G01 F300 X123.414 Y23.286
G01 F300 X123.370 Y23.266
G01 F300 X123.330 Y23.237
G01 F300 X123.299 Y23.202
G01 F300 X123.114 Y22.924
G01 F300 X122.968 Y22.778
G01 F300 X122.797 Y22.693
G01 F300 X122.758 Y22.665
G01 F300 X122.725 Y22.629
G01 F300 X122.701 Y22.586
G01 F300 X122.686 Y22.540
G01 F300 X122.681 Y22.491
G01 F300 X122.686 Y22.442
G01 F300 X122.701 Y22.395
G01 F300 X122.725 Y22.353
G01 F300 X122.758 Y22.316
G01 F300 X122.798 Y22.287
G01 F300 X122.843 Y22.267
G01 F300 X122.891 Y22.257
G01 F300 X122.940 Y22.257
G01 F300 X122.988 Y22.267
G01 F300 X123.026 Y22.284
G01 F300 X123.225 Y22.382
G01 F300 X123.253 Y22.402
G01 F300 X123.253 Y21.294
G01 F300 X122.891 Y21.294
G01 F300 X122.843 Y21.284
G01 F300 X122.798 Y21.264
G01 F300 X122.758 Y21.235
G01 F300 X122.725 Y21.199
G01 F300 X122.701 Y21.156
G01 F300 X122.686 Y21.110
G01 F300 X122.681 Y21.061
G01 F300 X122.686 Y21.012
G01 F300 X122.701 Y20.965
G01 F300 X122.725 Y20.923
G01 F300 X122.758 Y20.886
G01 F300 X122.798 Y20.857
G01 F300 X122.843 Y20.837
G01 F300 X122.891 Y20.827
G01 F300 X124.083 Y20.827
G01 F300 X124.131 Y20.837
G01 F300 X124.176 Y20.857
G01 F300 X124.216 Y20.886
G01 F300 X124.249 Y20.923
G01 F300 X124.273 Y20.965
G01 F300 X124.288 Y21.012
G01 F300 X124.294 Y21.061
G01 F300 X124.288 Y21.110
G01 F300 X124.273 Y21.156
G01 F300 X124.249 Y21.199
G01 F300 X124.216 Y21.235
G01 F300 X124.176 Y21.264
G01 F300 X124.131 Y21.284
G01 F300 X124.083 Y21.294
G01 F300 X123.722 Y21.294
G01 F300 X123.722 Y23.067
G01 F300 X123.717 Y23.111
G01 F300 X123.702 Y23.158
G01 F300 X123.677 Y23.200
G01 F300 X123.644 Y23.237
G01 F300 X123.605 Y23.266
G01 F300 X123.560 Y23.286
G01 F300 X123.512 Y23.296
G01 F300 X123.463 Y23.296
G00 F3000 Z3.000
G00 F3000 X120.593 Y22.829
G00 F1500 Z0
G01 F300 Z-0.060
G01 F300 X120.669 Y22.829
G01 F300 X120.777 Y22.774
G01 F300 X120.819 Y22.732
G01 F300 X120.886 Y22.599
G01 F300 X120.967 Y22.272
G01 F300 X120.967 Y21.851
G01 F300 X120.886 Y21.524
G01 F300 X120.818 Y21.390
G01 F300 X120.777 Y21.349
G01 F300 X120.669 Y21.294
G01 F300 X120.593 Y21.294
G01 F300 X120.483 Y21.350
G01 F300 X120.441 Y21.391
G01 F300 X120.376 Y21.523
G01 F300 X120.293 Y21.852
G01 F300 X120.293 Y22.271
G01 F300 X120.376 Y22.600
G01 F300 X120.441 Y22.732
G01 F300 X120.483 Y22.773
G01 F300 X120.593 Y22.829
G00 F3000 Z3.000
G00 F3000 X118.416 Y22.628
G00 F1500 Z0
G01 F300 Z-0.060
G01 F300 X118.367 Y22.618
G01 F300 X118.323 Y22.598
G01 F300 X118.283 Y22.569
G01 F300 X118.250 Y22.532
G01 F300 X118.225 Y22.490
G01 F300 X118.210 Y22.443
G01 F300 X118.205 Y22.394
G01 F300 X118.210 Y22.345
G01 F300 X118.223 Y22.306
G01 F300 X118.701 Y20.964
G01 F300 X118.725 Y20.923
G01 F300 X118.758 Y20.886
G01 F300 X118.797 Y20.857
G01 F300 X118.842 Y20.837
G01 F300 X118.891 Y20.827
G01 F300 X118.940 Y20.827
G01 F300 X118.988 Y20.837
G01 F300 X119.032 Y20.857
G01 F300 X119.072 Y20.886
G01 F300 X119.105 Y20.923
G01 F300 X119.129 Y20.964
G01 F300 X119.610 Y22.306
G01 F300 X119.622 Y22.345
G01 F300 X119.628 Y22.394
G01 F300 X119.622 Y22.443
G01 F300 X119.607 Y22.490
G01 F300 X119.583 Y22.532
G01 F300 X119.550 Y22.569
G01 F300 X119.510 Y22.598
G01 F300 X119.465 Y22.618
G01 F300 X119.417 Y22.628
G01 F300 X119.368 Y22.628
G01 F300 X119.320 Y22.618
G01 F300 X119.275 Y22.598
G01 F300 X119.235 Y22.569
G01 F300 X119.202 Y22.532
G01 F300 X119.178 Y22.491
G01 F300 X118.916 Y21.757
G01 F300 X118.654 Y22.491
G01 F300 X118.630 Y22.532
G01 F300 X118.597 Y22.569
G01 F300 X118.558 Y22.598
G01 F300 X118.513 Y22.618
G01 F300 X118.465 Y22.628
G01 F300 X118.416 Y22.628
G00 F3000 Z3.000
G00 F3000 X122.032 Y21.485
G00 F1500 Z0
G01 F300 Z-0.060
G01 F300 X121.984 Y21.475
G01 F300 X121.940 Y21.455
G01 F300 X121.902 Y21.427
G01 F300 X121.801 Y21.327
G01 F300 X121.773 Y21.295
G01 F300 X121.748 Y21.253
G01 F300 X121.733 Y21.206
G01 F300 X121.728 Y21.157
G01 F300 X121.733 Y21.108
G01 F300 X121.748 Y21.062
G01 F300 X121.773 Y21.019
G01 F300 X121.801 Y20.988
G01 F300 X121.901 Y20.885
G01 F300 X121.940 Y20.857
G01 F300 X121.984 Y20.837
G01 F300 X122.032 Y20.827
G01 F300 X122.082 Y20.827
G01 F300 X122.130 Y20.837
G01 F300 X122.175 Y20.857
G01 F300 X122.212 Y20.885
G01 F300 X122.315 Y20.988
G01 F300 X122.344 Y21.019
G01 F300 X122.368 Y21.062
G01 F300 X122.383 Y21.108
G01 F300 X122.389 Y21.157
G01 F300 X122.383 Y21.206
G01 F300 X122.368 Y21.253
G01 F300 X122.344 Y21.295
G01 F300 X122.315 Y21.327
G01 F300 X122.212 Y21.428
G01 F300 X122.175 Y21.455
G01 F300 X122.130 Y21.475
G01 F300 X122.082 Y21.485
G01 F300 X122.032 Y21.485
G00 F3000 Z3.000
G00 F3000 X122.543 Y38.676
G00 F1500 Z0
G01 F300 Z-0.060
G01 F300 X122.467 Y38.660
G01 F300 X122.395 Y38.628
G01 F300 X122.331 Y38.581
G01 F300 X122.279 Y38.523
G01 F300 X122.240 Y38.455
G01 F300 X122.215 Y38.380
G01 F300 X122.208 Y38.314
G01 F300 X122.208 Y36.289
G01 F300 X122.215 Y36.223
G01 F300 X122.240 Y36.148
G01 F300 X122.279 Y36.080
G01 F300 X122.331 Y36.022
G01 F300 X122.395 Y35.975
G01 F300 X122.467 Y35.943
G01 F300 X122.544 Y35.927
G01 F300 X122.622 Y35.927
G01 F300 X122.699 Y35.943
G01 F300 X122.771 Y35.975
G01 F300 X122.834 Y36.022
G01 F300 X122.887 Y36.080
G01 F300 X122.926 Y36.148
G01 F300 X122.950 Y36.223
G01 F300 X122.957 Y36.289
G01 F300 X122.957 Y36.744
G01 F300 X123.428 Y36.073
G01 F300 X123.474 Y36.022
G01 F300 X123.538 Y35.975
G01 F300 X123.610 Y35.943
G01 F300 X123.687 Y35.927
G01 F300 X123.765 Y35.927
G01 F300 X123.842 Y35.943
G01 F300 X123.914 Y35.975
G01 F300 X123.977 Y36.022
G01 F300 X124.030 Y36.080
G01 F300 X124.069 Y36.148
G01 F300 X124.093 Y36.223
G01 F300 X124.102 Y36.301
G01 F300 X124.093 Y36.379
G01 F300 X124.069 Y36.454
G01 F300 X124.037 Y36.508
G01 F300 X123.695 Y37.011
G01 F300 X123.728 Y37.028
G01 F300 X123.782 Y37.067
G01 F300 X123.893 Y37.178
G01 F300 X123.933 Y37.223
G01 F300 X123.964 Y37.276
G01 F300 X124.071 Y37.487
G01 F300 X124.093 Y37.556
G01 F300 X124.100 Y37.622
G01 F300 X124.100 Y37.933
G01 F300 X124.093 Y37.999
G01 F300 X124.071 Y38.068
G01 F300 X123.964 Y38.280
G01 F300 X123.933 Y38.333
G01 F300 X123.892 Y38.378
G01 F300 X123.782 Y38.489
G01 F300 X123.728 Y38.528
G01 F300 X123.516 Y38.635
G01 F300 X123.461 Y38.660
G01 F300 X123.384 Y38.676
G01 F300 X122.543 Y38.676
G00 F3000 Z3.000
G00 F3000 X118.924 Y38.676
G00 F1500 Z0
G01 F300 Z-0.060
G01 F300 X118.847 Y38.660
G01 F300 X118.776 Y38.628
G01 F300 X118.712 Y38.581
G01 F300 X118.659 Y38.523
G01 F300 X118.620 Y38.455
G01 F300 X118.596 Y38.380
G01 F300 X118.589 Y38.314
G01 F300 X118.589 Y36.289
G01 F300 X118.596 Y36.223
G01 F300 X118.620 Y36.148
G01 F300 X118.659 Y36.080
G01 F300 X118.712 Y36.022
G01 F300 X118.776 Y35.975
G01 F300 X118.847 Y35.943
G01 F300 X118.924 Y35.927
G01 F300 X119.955 Y35.927
G01 F300 X120.032 Y35.943
G01 F300 X120.104 Y35.975
G01 F300 X120.167 Y36.022
G01 F300 X120.220 Y36.080
G01 F300 X120.249 Y36.130
G01 F300 X120.277 Y36.080
G01 F300 X120.330 Y36.022
G01 F300 X120.394 Y35.975
G01 F300 X120.465 Y35.943
G01 F300 X120.542 Y35.927
G01 F300 X121.098 Y35.927
G01 F300 X121.165 Y35.941
G01 F300 X121.472 Y36.045
G01 F300 X121.531 Y36.072
G01 F300 X121.590 Y36.115
G01 F300 X121.797 Y36.322
G01 F300 X121.838 Y36.367
G01 F300 X121.868 Y36.420
G01 F300 X121.976 Y36.631
G01 F300 X121.993 Y36.686
G01 F300 X122.093 Y37.089
G01 F300 X122.099 Y37.148
G01 F300 X122.099 Y37.456
G01 F300 X122.093 Y37.514
G01 F300 X121.993 Y37.918
G01 F300 X121.976 Y37.972
G01 F300 X121.868 Y38.183
G01 F300 X121.838 Y38.236
G01 F300 X121.797 Y38.281
G01 F300 X121.590 Y38.489
G01 F300 X121.531 Y38.531
G01 F300 X121.472 Y38.558
G01 F300 X121.165 Y38.662
G01 F300 X121.098 Y38.676
G01 F300 X120.542 Y38.676
G01 F300 X120.465 Y38.660
G01 F300 X120.394 Y38.628
G01 F300 X120.330 Y38.581
G01 F300 X120.277 Y38.523
G01 F300 X120.238 Y38.455
G01 F300 X120.214 Y38.380
G01 F300 X120.207 Y38.314
G01 F300 X120.207 Y36.536
G01 F300 X120.167 Y36.580
G01 F300 X120.104 Y36.626
G01 F300 X120.032 Y36.658
G01 F300 X119.955 Y36.674
G01 F300 X119.338 Y36.674
G01 F300 X119.338 Y38.314
G01 F300 X119.331 Y38.381
G01 F300 X119.306 Y38.455
G01 F300 X119.267 Y38.523
G01 F300 X119.215 Y38.581
G01 F300 X119.151 Y38.628
G01 F300 X119.079 Y38.660
G01 F300 X119.003 Y38.676
G01 F300 X118.924 Y38.676
G00 F3000 Z3.000
G00 F3000 X122.957 Y37.929
G00 F1500 Z0
G01 F300 Z-0.060
G01 F300 X123.254 Y37.929
G01 F300 X123.313 Y37.899
G01 F300 X123.322 Y37.889
G01 F300 X123.351 Y37.832
G01 F300 X123.351 Y37.723
G01 F300 X123.322 Y37.666
G01 F300 X123.313 Y37.657
G01 F300 X123.254 Y37.627
G01 F300 X122.957 Y37.627
G01 F300 X122.957 Y37.929
G00 F3000 Z3.000
G00 F3000 X120.956 Y37.929
G00 F1500 Z0
G01 F300 Z-0.060
G01 F300 X120.995 Y37.929
G01 F300 X121.141 Y37.879
G01 F300 X121.227 Y37.793
G01 F300 X121.277 Y37.694
G01 F300 X121.350 Y37.398
G01 F300 X121.350 Y37.205
G01 F300 X121.277 Y36.910
G01 F300 X121.227 Y36.810
G01 F300 X121.140 Y36.724
G01 F300 X120.994 Y36.674
G01 F300 X120.956 Y36.674
G01 F300 X120.956 Y37.929
G00 F3000 Z3.000
G00 F3000 X121.192 Y35.647
G00 F1500 Z0
G01 F300 Z-0.060
G01 F300 X120.990 Y35.604
G01 F300 X120.801 Y35.520
G01 F300 X120.634 Y35.399
G01 F300 X120.496 Y35.245
G01 F300 X120.393 Y35.067
G01 F300 X120.329 Y34.870
G01 F300 X120.307 Y34.665
G01 F300 X120.329 Y34.460
G01 F300 X120.393 Y34.263
G01 F300 X120.496 Y34.084
G01 F300 X120.634 Y33.931
G01 F300 X120.801 Y33.810
G01 F300 X120.990 Y33.726
G01 F300 X121.192 Y33.683
G01 F300 X121.398 Y33.683
G01 F300 X121.475 Y33.699
G01 F300 X121.603 Y33.672
G01 F300 X121.710 Y33.672
G01 F300 X124.098 Y33.672
G01 F300 X124.191 Y33.569
G01 F300 X124.356 Y33.449
G01 F300 X124.542 Y33.366
G01 F300 X124.741 Y33.324
G01 F300 X124.945 Y33.324
G01 F300 X125.145 Y33.366
G01 F300 X125.331 Y33.449
G01 F300 X125.496 Y33.569
G01 F300 X125.633 Y33.721
G01 F300 X125.735 Y33.897
G01 F300 X125.798 Y34.091
G01 F300 X125.819 Y34.294
G01 F300 X125.798 Y34.497
G01 F300 X125.735 Y34.691
G01 F300 X125.633 Y34.868
G01 F300 X125.496 Y35.019
G01 F300 X125.331 Y35.139
G01 F300 X125.145 Y35.222
G01 F300 X124.945 Y35.264
G01 F300 X124.741 Y35.264
G01 F300 X124.542 Y35.222
G01 F300 X124.356 Y35.139
G01 F300 X124.191 Y35.019
G01 F300 X124.098 Y34.916
G01 F300 X122.246 Y34.916
G01 F300 X122.197 Y35.067
G01 F300 X122.094 Y35.245
G01 F300 X121.956 Y35.399
G01 F300 X121.789 Y35.520
G01 F300 X121.600 Y35.604
G01 F300 X121.398 Y35.647
G01 F300 X121.192 Y35.647
G00 F3000 Z3.000
G00 F3000 X117.647 Y35.264
G00 F1500 Z0
G01 F300 Z-0.060
G01 F300 X117.448 Y35.222
G01 F300 X117.261 Y35.139
G01 F300 X117.096 Y35.019
G01 F300 X116.960 Y34.868
G01 F300 X116.858 Y34.691
G01 F300 X116.795 Y34.497
G01 F300 X116.773 Y34.294
G01 F300 X116.795 Y34.091
G01 F300 X116.858 Y33.897
G01 F300 X116.960 Y33.721
G01 F300 X117.096 Y33.569
G01 F300 X117.261 Y33.449
G01 F300 X117.448 Y33.366
G01 F300 X117.647 Y33.324
G01 F300 X117.854 Y33.324
G01 F300 X117.928 Y33.341
G01 F300 X119.611 Y31.657
G01 F300 X119.712 Y31.583
G01 F300 X119.832 Y31.530
G01 F300 X119.960 Y31.503
G01 F300 X120.534 Y31.503
G01 F300 X120.634 Y31.391
G01 F300 X120.801 Y31.270
G01 F300 X120.990 Y31.186
G01 F300 X121.192 Y31.143
G01 F300 X121.398 Y31.143
G01 F300 X121.600 Y31.186
G01 F300 X121.789 Y31.270
G01 F300 X121.956 Y31.391
G01 F300 X122.094 Y31.545
G01 F300 X122.197 Y31.723
G01 F300 X122.261 Y31.920
G01 F300 X122.283 Y32.125
G01 F300 X122.261 Y32.330
G01 F300 X122.197 Y32.527
G01 F300 X122.094 Y32.706
G01 F300 X121.956 Y32.859
G01 F300 X121.789 Y32.980
G01 F300 X121.600 Y33.064
G01 F300 X121.398 Y33.107
G01 F300 X121.192 Y33.107
G01 F300 X120.990 Y33.064
G01 F300 X120.801 Y32.980
G01 F300 X120.634 Y32.859
G01 F300 X120.534 Y32.747
G01 F300 X120.285 Y32.747
G01 F300 X118.723 Y34.311
G01 F300 X118.704 Y34.497
G01 F300 X118.641 Y34.691
G01 F300 X118.539 Y34.868
G01 F300 X118.402 Y35.019
G01 F300 X118.237 Y35.139
G01 F300 X118.051 Y35.222
G01 F300 X117.851 Y35.264
G01 F300 X117.647 Y35.264
G00 F3000 Z3.000
G00 F3000 X115.846 Y33.519
G00 F1500 Z0
G01 F300 Z-0.060
G01 F300 X115.636 Y33.474
G01 F300 X115.441 Y33.387
G01 F300 X115.267 Y33.261
G01 F300 X115.124 Y33.101
G01 F300 X115.016 Y32.916
G01 F300 X114.950 Y32.712
G01 F300 X114.928 Y32.498
G01 F300 X114.941 Y32.369
G01 F300 X113.879 Y31.307
G01 F300 X113.804 Y31.223
G01 F300 X113.738 Y31.110
G01 F300 X113.698 Y30.985
G01 F300 X113.686 Y30.867
G01 F300 X113.686 Y25.763
G01 F300 X113.698 Y25.645
G01 F300 X113.738 Y25.520
G01 F300 X113.804 Y25.407
G01 F300 X113.879 Y25.323
G01 F300 X114.795 Y24.410
G01 F300 X114.896 Y24.337
G01 F300 X115.016 Y24.283
G01 F300 X115.144 Y24.256
G01 F300 X116.937 Y24.256
G01 F300 X117.063 Y24.116
G01 F300 X117.236 Y23.990
G01 F300 X117.432 Y23.903
G01 F300 X117.642 Y23.858
G01 F300 X117.858 Y23.858
G01 F300 X118.009 Y23.893
G01 F300 X118.055 Y23.883
G01 F300 X120.309 Y23.883
G01 F300 X120.309 Y23.518
G01 F300 X122.282 Y23.518
G01 F300 X122.282 Y23.883
G01 F300 X124.526 Y23.883
G01 F300 X124.586 Y23.890
G01 F300 X124.736 Y23.858
G01 F300 X124.951 Y23.858
G01 F300 X125.160 Y23.903
G01 F300 X125.356 Y23.990
G01 F300 X125.530 Y24.116
G01 F300 X125.656 Y24.256
G01 F300 X127.449 Y24.256
G01 F300 X127.577 Y24.283
G01 F300 X127.696 Y24.337
G01 F300 X127.797 Y24.410
G01 F300 X128.711 Y25.323
G01 F300 X128.786 Y25.407
G01 F300 X128.852 Y25.520
G01 F300 X128.892 Y25.645
G01 F300 X128.905 Y25.763
G01 F300 X128.905 Y30.867
G01 F300 X128.892 Y30.985
G01 F300 X128.852 Y31.110
G01 F300 X128.786 Y31.223
G01 F300 X128.711 Y31.307
G01 F300 X127.651 Y32.368
G01 F300 X127.665 Y32.498
G01 F300 X127.643 Y32.712
G01 F300 X127.576 Y32.916
G01 F300 X127.469 Y33.101
G01 F300 X127.326 Y33.261
G01 F300 X127.152 Y33.387
G01 F300 X126.956 Y33.474
G01 F300 X126.746 Y33.519
G01 F300 X126.532 Y33.519
G01 F300 X126.322 Y33.474
G01 F300 X126.126 Y33.387
G01 F300 X125.953 Y33.261
G01 F300 X125.809 Y33.101
G01 F300 X125.702 Y32.916
G01 F300 X125.636 Y32.712
G01 F300 X125.613 Y32.498
G01 F300 X125.636 Y32.285
G01 F300 X125.702 Y32.081
G01 F300 X125.809 Y31.896
G01 F300 X125.953 Y31.736
G01 F300 X126.126 Y31.610
G01 F300 X126.322 Y31.523
G01 F300 X126.532 Y31.478
G01 F300 X126.746 Y31.478
G01 F300 X126.771 Y31.484
G01 F300 X127.656 Y30.597
G01 F300 X127.656 Y26.033
G01 F300 X127.123 Y25.501
G01 F300 X125.656 Y25.501
G01 F300 X125.530 Y25.641
G01 F300 X125.356 Y25.767
G01 F300 X125.160 Y25.854
G01 F300 X124.951 Y25.899
G01 F300 X124.736 Y25.899
G01 F300 X124.526 Y25.854
G01 F300 X124.331 Y25.767
G01 F300 X124.157 Y25.641
G01 F300 X124.014 Y25.481
G01 F300 X123.906 Y25.296
G01 F300 X123.852 Y25.127
G01 F300 X122.282 Y25.127
G01 F300 X122.282 Y25.492
G01 F300 X120.309 Y25.492
G01 F300 X120.309 Y25.127
G01 F300 X118.741 Y25.127
G01 F300 X118.686 Y25.296
G01 F300 X118.579 Y25.481
G01 F300 X118.436 Y25.641
G01 F300 X118.262 Y25.767
G01 F300 X118.066 Y25.854
G01 F300 X117.856 Y25.899
G01 F300 X117.642 Y25.899
G01 F300 X117.432 Y25.854
G01 F300 X117.236 Y25.767
G01 F300 X117.063 Y25.641
G01 F300 X116.937 Y25.501
G01 F300 X115.469 Y25.501
G01 F300 X114.934 Y26.034
G01 F300 X114.934 Y30.597
G01 F300 X115.821 Y31.484
G01 F300 X115.846 Y31.478
G01 F300 X116.061 Y31.478
G01 F300 X116.270 Y31.523
G01 F300 X116.466 Y31.610
G01 F300 X116.640 Y31.736
G01 F300 X116.783 Y31.896
G01 F300 X116.890 Y32.081
G01 F300 X116.957 Y32.285
G01 F300 X116.979 Y32.498
G01 F300 X116.957 Y32.712
G01 F300 X116.890 Y32.916
G01 F300 X116.783 Y33.101
G01 F300 X116.640 Y33.261
G01 F300 X116.466 Y33.387
G01 F300 X116.270 Y33.474
G01 F300 X116.061 Y33.519
G01 F300 X115.846 Y33.519
G00 F3000 Z3.000
G00 F3000 X118.045 Y32.524
G00 F1500 Z0
G01 F300 Z-0.060
G01 F300 X117.988 Y32.512
G01 F300 X117.680 Y32.435
G01 F300 X117.629 Y32.412
G01 F300 X117.465 Y32.330
G01 F300 X117.410 Y32.289
G01 F300 X117.250 Y32.130
G01 F300 X117.209 Y32.084
G01 F300 X117.170 Y32.017
G01 F300 X117.092 Y31.781
G01 F300 X117.074 Y31.728
G01 F300 X117.067 Y31.662
G01 F300 X117.067 Y31.496
G01 F300 X117.074 Y31.430
G01 F300 X117.092 Y31.377
G01 F300 X117.170 Y31.139
G01 F300 X117.209 Y31.071
G01 F300 X117.251 Y31.024
G01 F300 X117.342 Y30.937
G01 F300 X117.399 Y30.895
G01 F300 X117.471 Y30.863
G01 F300 X117.515 Y30.854
G01 F300 X117.466 Y30.830
G01 F300 X117.412 Y30.790
G01 F300 X117.250 Y30.632
G01 F300 X117.206 Y30.582
G01 F300 X117.166 Y30.507
G01 F300 X117.091 Y30.280
G01 F300 X117.074 Y30.227
G01 F300 X117.067 Y30.161
G01 F300 X117.067 Y29.995
G01 F300 X117.074 Y29.929
G01 F300 X117.092 Y29.876
G01 F300 X117.170 Y29.640
G01 F300 X117.209 Y29.572
G01 F300 X117.251 Y29.526
G01 F300 X117.312 Y29.467
G01 F300 X117.262 Y29.430
G01 F300 X117.209 Y29.372
G01 F300 X117.170 Y29.304
G01 F300 X117.092 Y29.066
G01 F300 X117.074 Y29.013
G01 F300 X117.067 Y28.947
G01 F300 X117.067 Y28.567
G01 F300 X117.074 Y28.501
G01 F300 X117.096 Y28.434
G01 F300 X117.178 Y28.268
G01 F300 X117.209 Y28.213
G01 F300 X117.251 Y28.167
G01 F300 X117.342 Y28.079
G01 F300 X117.395 Y28.041
G01 F300 X117.558 Y27.959
G01 F300 X117.613 Y27.935
G01 F300 X117.690 Y27.919
G01 F300 X117.910 Y27.919
G01 F300 X117.987 Y27.935
G01 F300 X118.042 Y27.959
G01 F300 X118.205 Y28.041
G01 F300 X118.260 Y28.081
G01 F300 X118.348 Y28.168
G01 F300 X118.388 Y28.214
G01 F300 X118.419 Y28.266
G01 F300 X118.503 Y28.432
G01 F300 X118.521 Y28.486
G01 F300 X118.569 Y28.677
G01 F300 X118.569 Y28.566
G01 F300 X118.522 Y28.423
G01 F300 X118.504 Y28.370
G01 F300 X118.496 Y28.292
G01 F300 X118.504 Y28.214
G01 F300 X118.529 Y28.139
G01 F300 X118.568 Y28.071
G01 F300 X118.621 Y28.013
G01 F300 X118.684 Y27.967
G01 F300 X118.756 Y27.935
G01 F300 X118.833 Y27.919
G01 F300 X118.911 Y27.919
G01 F300 X118.988 Y27.935
G01 F300 X119.060 Y27.967
G01 F300 X119.123 Y28.013
G01 F300 X119.176 Y28.071
G01 F300 X119.215 Y28.139
G01 F300 X119.293 Y28.377
G01 F300 X119.311 Y28.430
G01 F300 X119.318 Y28.496
G01 F300 X119.318 Y28.876
G01 F300 X119.311 Y28.942
G01 F300 X119.288 Y29.010
G01 F300 X119.207 Y29.173
G01 F300 X119.176 Y29.227
G01 F300 X119.136 Y29.271
G01 F300 X119.049 Y29.361
G01 F300 X118.992 Y29.402
G01 F300 X118.943 Y29.426
G01 F300 X118.988 Y29.436
G01 F300 X119.060 Y29.468
G01 F300 X119.123 Y29.514
G01 F300 X119.176 Y29.573
G01 F300 X119.207 Y29.626
G01 F300 X119.288 Y29.789
G01 F300 X119.311 Y29.857
G01 F300 X119.318 Y29.924
G01 F300 X119.318 Y30.161
G01 F300 X119.311 Y30.227
G01 F300 X119.293 Y30.280
G01 F300 X119.215 Y30.518
G01 F300 X119.176 Y30.586
G01 F300 X119.135 Y30.631
G01 F300 X118.976 Y30.790
G01 F300 X118.921 Y30.830
G01 F300 X118.872 Y30.854
G01 F300 X118.917 Y30.863
G01 F300 X118.989 Y30.895
G01 F300 X119.047 Y30.938
G01 F300 X119.135 Y31.026
G01 F300 X119.176 Y31.071
G01 F300 X119.215 Y31.139
G01 F300 X119.293 Y31.377
G01 F300 X119.311 Y31.430
G01 F300 X119.318 Y31.496
G01 F300 X119.318 Y31.662
G01 F300 X119.311 Y31.728
G01 F300 X119.293 Y31.781
G01 F300 X119.215 Y32.017
G01 F300 X119.176 Y32.084
G01 F300 X119.136 Y32.129
G01 F300 X118.977 Y32.290
G01 F300 X118.921 Y32.331
G01 F300 X118.755 Y32.413
G01 F300 X118.705 Y32.435
G01 F300 X118.397 Y32.512
G01 F300 X118.340 Y32.524
G01 F300 X118.045 Y32.524
G00 F3000 Z3.000
G00 F3000 X118.132 Y31.777
G00 F1500 Z0
G01 F300 Z-0.060
G01 F300 X118.252 Y31.777
G01 F300 X118.455 Y31.726
G01 F300 X118.508 Y31.701
G01 F300 X118.545 Y31.663
G01 F300 X118.569 Y31.591
G01 F300 X118.569 Y31.566
G01 F300 X118.545 Y31.494
G01 F300 X118.537 Y31.487
G01 F300 X118.497 Y31.442
G01 F300 X118.458 Y31.373
G01 F300 X118.433 Y31.299
G01 F300 X118.425 Y31.221
G01 F300 X118.433 Y31.143
G01 F300 X118.458 Y31.068
G01 F300 X118.497 Y31.000
G01 F300 X118.513 Y30.982
G01 F300 X118.397 Y31.011
G01 F300 X118.340 Y31.023
G01 F300 X118.045 Y31.023
G01 F300 X117.988 Y31.011
G01 F300 X117.875 Y30.983
G01 F300 X117.891 Y31.000
G01 F300 X117.930 Y31.068
G01 F300 X117.954 Y31.143
G01 F300 X117.962 Y31.221
G01 F300 X117.954 Y31.299
G01 F300 X117.930 Y31.373
G01 F300 X117.891 Y31.442
G01 F300 X117.849 Y31.488
G01 F300 X117.839 Y31.498
G01 F300 X117.816 Y31.566
G01 F300 X117.816 Y31.591
G01 F300 X117.839 Y31.660
G01 F300 X117.880 Y31.701
G01 F300 X117.931 Y31.726
G01 F300 X118.132 Y31.777
G00 F3000 Z3.000
G00 F3000 X121.192 Y30.567
G00 F1500 Z0
G01 F300 Z-0.060
G01 F300 X120.990 Y30.524
G01 F300 X120.801 Y30.440
G01 F300 X120.634 Y30.319
G01 F300 X120.496 Y30.166
G01 F300 X120.393 Y29.987
G01 F300 X120.329 Y29.790
G01 F300 X120.307 Y29.585
G01 F300 X120.329 Y29.380
G01 F300 X120.393 Y29.183
G01 F300 X120.496 Y29.005
G01 F300 X120.634 Y28.851
G01 F300 X120.801 Y28.730
G01 F300 X120.990 Y28.646
G01 F300 X121.192 Y28.603
G01 F300 X121.398 Y28.603
G01 F300 X121.600 Y28.646
G01 F300 X121.789 Y28.730
G01 F300 X121.956 Y28.851
G01 F300 X122.057 Y28.963
G01 F300 X123.468 Y28.963
G01 F300 X125.671 Y26.747
G01 F300 X125.663 Y26.674
G01 F300 X125.685 Y26.471
G01 F300 X125.748 Y26.277
G01 F300 X125.850 Y26.101
G01 F300 X125.986 Y25.949
G01 F300 X126.151 Y25.829
G01 F300 X126.338 Y25.746
G01 F300 X126.537 Y25.704
G01 F300 X126.741 Y25.704
G01 F300 X126.941 Y25.746
G01 F300 X127.127 Y25.829
G01 F300 X127.292 Y25.949
G01 F300 X127.429 Y26.101
G01 F300 X127.531 Y26.277
G01 F300 X127.594 Y26.471
G01 F300 X127.615 Y26.674
G01 F300 X127.594 Y26.877
G01 F300 X127.531 Y27.071
G01 F300 X127.429 Y27.248
G01 F300 X127.292 Y27.399
G01 F300 X127.127 Y27.519
G01 F300 X126.941 Y27.602
G01 F300 X126.741 Y27.645
G01 F300 X126.551 Y27.645
G01 F300 X124.142 Y30.054
G01 F300 X124.041 Y30.127
G01 F300 X123.922 Y30.180
G01 F300 X123.794 Y30.207
G01 F300 X122.056 Y30.207
G01 F300 X121.956 Y30.319
G01 F300 X121.789 Y30.440
G01 F300 X121.600 Y30.524
G01 F300 X121.398 Y30.567
G01 F300 X121.192 Y30.567
G00 F3000 Z3.000
G00 F3000 X118.372 Y30.246
G00 F1500 Z0
G01 F300 Z-0.060
G01 F300 X118.455 Y30.225
G01 F300 X118.509 Y30.199
G01 F300 X118.545 Y30.162
G01 F300 X118.569 Y30.091
G01 F300 X118.569 Y30.024
G01 F300 X118.526 Y29.940
G01 F300 X118.504 Y29.871
G01 F300 X118.496 Y29.793
G01 F300 X118.504 Y29.715
G01 F300 X118.529 Y29.641
G01 F300 X118.568 Y29.573
G01 F300 X118.611 Y29.524
G01 F300 X118.474 Y29.524
G01 F300 X118.398 Y29.508
G01 F300 X118.390 Y29.505
G01 F300 X118.428 Y29.569
G01 F300 X118.452 Y29.644
G01 F300 X118.459 Y29.710
G01 F300 X118.459 Y30.018
G01 F300 X118.452 Y30.085
G01 F300 X118.428 Y30.160
G01 F300 X118.388 Y30.227
G01 F300 X118.372 Y30.246
G00 F3000 Z3.000
G00 F3000 X117.830 Y29.349
G00 F1500 Z0
G01 F300 Z-0.060
G01 F300 X118.111 Y29.349
G01 F300 X118.036 Y29.271
G01 F300 X117.996 Y29.227
G01 F300 X117.966 Y29.173
G01 F300 X117.884 Y29.010
G01 F300 X117.867 Y28.957
G01 F300 X117.816 Y28.756
G01 F300 X117.816 Y28.877
G01 F300 X117.863 Y29.020
G01 F300 X117.881 Y29.073
G01 F300 X117.889 Y29.151
G01 F300 X117.881 Y29.229
G01 F300 X117.856 Y29.303
G01 F300 X117.830 Y29.349
G00 F3000 Z3.000
G00 F3000 X121.192 Y28.027
G00 F1500 Z0
G01 F300 Z-0.060
G01 F300 X120.990 Y27.984
G01 F300 X120.801 Y27.900
G01 F300 X120.634 Y27.779
G01 F300 X120.534 Y27.667
G01 F300 X116.259 Y27.667
G01 F300 X116.131 Y27.640
G01 F300 X116.113 Y27.632
G01 F300 X116.055 Y27.645
G01 F300 X115.851 Y27.645
G01 F300 X115.652 Y27.602
G01 F300 X115.466 Y27.519
G01 F300 X115.300 Y27.399
G01 F300 X115.164 Y27.248
G01 F300 X115.062 Y27.071
G01 F300 X114.999 Y26.877
G01 F300 X114.978 Y26.674
G01 F300 X114.999 Y26.471
G01 F300 X115.062 Y26.277
G01 F300 X115.164 Y26.101
G01 F300 X115.300 Y25.949
G01 F300 X115.466 Y25.829
G01 F300 X115.652 Y25.746
G01 F300 X115.851 Y25.704
G01 F300 X116.055 Y25.704
G01 F300 X116.255 Y25.746
G01 F300 X116.441 Y25.829
G01 F300 X116.606 Y25.949
G01 F300 X116.743 Y26.101
G01 F300 X116.845 Y26.277
G01 F300 X116.892 Y26.423
G01 F300 X120.534 Y26.423
G01 F300 X120.634 Y26.311
G01 F300 X120.801 Y26.190
G01 F300 X120.990 Y26.106
G01 F300 X121.192 Y26.063
G01 F300 X121.398 Y26.063
G01 F300 X121.600 Y26.106
G01 F300 X121.789 Y26.190
G01 F300 X121.956 Y26.311
G01 F300 X122.094 Y26.465
G01 F300 X122.197 Y26.643
G01 F300 X122.261 Y26.840
G01 F300 X122.283 Y27.045
G01 F300 X122.261 Y27.250
G01 F300 X122.197 Y27.447
G01 F300 X122.094 Y27.626
G01 F300 X121.956 Y27.779
G01 F300 X121.789 Y27.900
G01 F300 X121.600 Y27.984
G01 F300 X121.398 Y28.027
G01 F300 X121.192 Y28.027
G00 F3000 Z3.000
G00 F3000 X123.448 Y23.436
G00 F1500 Z0
G01 F300 Z-0.060
G01 F300 X123.371 Y23.420
G01 F300 X123.299 Y23.388
G01 F300 X123.235 Y23.341
G01 F300 X123.188 Y23.288
G01 F300 X123.005 Y23.014
G01 F300 X122.885 Y22.893
G01 F300 X122.724 Y22.814
G01 F300 X122.664 Y22.770
G01 F300 X122.612 Y22.712
G01 F300 X122.572 Y22.643
G01 F300 X122.548 Y22.569
G01 F300 X122.540 Y22.491
G01 F300 X122.548 Y22.413
G01 F300 X122.572 Y22.338
G01 F300 X122.612 Y22.270
G01 F300 X122.664 Y22.212
G01 F300 X122.728 Y22.165
G01 F300 X122.799 Y22.133
G01 F300 X122.876 Y22.117
G01 F300 X122.955 Y22.117
G01 F300 X123.032 Y22.133
G01 F300 X123.086 Y22.158
G01 F300 X123.113 Y22.171
G01 F300 X123.113 Y21.434
G01 F300 X122.876 Y21.434
G01 F300 X122.799 Y21.418
G01 F300 X122.728 Y21.386
G01 F300 X122.664 Y21.340
G01 F300 X122.612 Y21.282
G01 F300 X122.572 Y21.213
G01 F300 X122.548 Y21.139
G01 F300 X122.540 Y21.061
G01 F300 X122.548 Y20.983
G01 F300 X122.572 Y20.908
G01 F300 X122.612 Y20.840
G01 F300 X122.664 Y20.782
G01 F300 X122.728 Y20.735
G01 F300 X122.799 Y20.703
G01 F300 X122.876 Y20.687
G01 F300 X124.098 Y20.687
G01 F300 X124.175 Y20.703
G01 F300 X124.246 Y20.735
G01 F300 X124.310 Y20.782
G01 F300 X124.363 Y20.840
G01 F300 X124.402 Y20.908
G01 F300 X124.426 Y20.983
G01 F300 X124.434 Y21.061
G01 F300 X124.426 Y21.139
G01 F300 X124.402 Y21.214
G01 F300 X124.363 Y21.282
G01 F300 X124.310 Y21.340
G01 F300 X124.246 Y21.386
G01 F300 X124.175 Y21.418
G01 F300 X124.098 Y21.434
G01 F300 X123.862 Y21.434
G01 F300 X123.862 Y23.074
G01 F300 X123.855 Y23.140
G01 F300 X123.830 Y23.215
G01 F300 X123.791 Y23.283
G01 F300 X123.738 Y23.341
G01 F300 X123.675 Y23.388
G01 F300 X123.603 Y23.420
G01 F300 X123.527 Y23.436
G01 F300 X123.448 Y23.436
G00 F3000 Z3.000
G00 F3000 X120.496 Y23.436
G00 F1500 Z0
G01 F300 Z-0.060
G01 F300 X120.419 Y23.420
G01 F300 X120.364 Y23.395
G01 F300 X120.152 Y23.288
G01 F300 X120.099 Y23.248
G01 F300 X119.986 Y23.139
G01 F300 X119.945 Y23.093
G01 F300 X119.913 Y23.039
G01 F300 X119.809 Y22.827
G01 F300 X119.792 Y22.775
G01 F300 X119.735 Y22.549
G01 F300 X119.697 Y22.615
G01 F300 X119.644 Y22.674
G01 F300 X119.580 Y22.720
G01 F300 X119.509 Y22.752
G01 F300 X119.432 Y22.768
G01 F300 X119.353 Y22.768
G01 F300 X119.276 Y22.752
G01 F300 X119.205 Y22.720
G01 F300 X119.141 Y22.674
G01 F300 X119.089 Y22.615
G01 F300 X119.051 Y22.550
G01 F300 X118.916 Y22.173
G01 F300 X118.782 Y22.550
G01 F300 X118.744 Y22.615
G01 F300 X118.692 Y22.674
G01 F300 X118.628 Y22.720
G01 F300 X118.556 Y22.752
G01 F300 X118.479 Y22.768
G01 F300 X118.401 Y22.768
G01 F300 X118.324 Y22.752
G01 F300 X118.252 Y22.720
G01 F300 X118.189 Y22.674
G01 F300 X118.136 Y22.615
G01 F300 X118.097 Y22.547
G01 F300 X118.073 Y22.472
G01 F300 X118.064 Y22.394
G01 F300 X118.073 Y22.316
G01 F300 X118.091 Y22.261
G01 F300 X118.573 Y20.905
G01 F300 X118.611 Y20.840
G01 F300 X118.664 Y20.782
G01 F300 X118.727 Y20.735
G01 F300 X118.799 Y20.703
G01 F300 X118.876 Y20.687
G01 F300 X118.954 Y20.687
G01 F300 X119.031 Y20.703
G01 F300 X119.103 Y20.735
G01 F300 X119.166 Y20.782
G01 F300 X119.219 Y20.840
G01 F300 X119.257 Y20.905
G01 F300 X119.684 Y22.097
G01 F300 X119.684 Y21.811
G01 F300 X119.690 Y21.752
G01 F300 X119.792 Y21.348
G01 F300 X119.809 Y21.296
G01 F300 X119.913 Y21.084
G01 F300 X119.945 Y21.030
G01 F300 X119.986 Y20.984
G01 F300 X120.100 Y20.874
G01 F300 X120.153 Y20.835
G01 F300 X120.364 Y20.728
G01 F300 X120.419 Y20.703
G01 F300 X120.496 Y20.687
G01 F300 X120.765 Y20.687
G01 F300 X120.842 Y20.703
G01 F300 X120.897 Y20.728
G01 F300 X121.109 Y20.835
G01 F300 X121.163 Y20.875
G01 F300 X121.274 Y20.985
G01 F300 X121.315 Y21.030
G01 F300 X121.345 Y21.083
G01 F300 X121.452 Y21.295
G01 F300 X121.470 Y21.349
G01 F300 X121.569 Y21.753
G01 F300 X121.576 Y21.811
G01 F300 X121.576 Y22.312
G01 F300 X121.569 Y22.371
G01 F300 X121.470 Y22.774
G01 F300 X121.452 Y22.828
G01 F300 X121.345 Y23.040
G01 F300 X121.315 Y23.092
G01 F300 X121.274 Y23.138
G01 F300 X121.163 Y23.248
G01 F300 X121.109 Y23.288
G01 F300 X120.897 Y23.395
G01 F300 X120.842 Y23.420
G01 F300 X120.766 Y23.436
G01 F300 X120.496 Y23.436
G00 F3000 Z3.000
G00 F3000 X120.626 Y22.689
G00 F1500 Z0
G01 F300 Z-0.060
G01 F300 X120.635 Y22.689
G01 F300 X120.694 Y22.659
G01 F300 X120.704 Y22.649
G01 F300 X120.754 Y22.550
G01 F300 X120.827 Y22.255
G01 F300 X120.827 Y21.868
G01 F300 X120.754 Y21.573
G01 F300 X120.704 Y21.474
G01 F300 X120.694 Y21.464
G01 F300 X120.635 Y21.434
G01 F300 X120.626 Y21.434
G01 F300 X120.566 Y21.465
G01 F300 X120.556 Y21.475
G01 F300 X120.508 Y21.572
G01 F300 X120.433 Y21.869
G01 F300 X120.433 Y22.254
G01 F300 X120.508 Y22.551
G01 F300 X120.556 Y22.649
G01 F300 X120.566 Y22.658
G01 F300 X120.626 Y22.689
G00 F3000 Z3.000
G00 F3000 X122.018 Y21.625
G00 F1500 Z0
G01 F300 Z-0.060
G01 F300 X121.941 Y21.609
G01 F300 X121.869 Y21.577
G01 F300 X121.810 Y21.534
G01 F300 X121.700 Y21.423
G01 F300 X121.659 Y21.378
G01 F300 X121.620 Y21.310
G01 F300 X121.596 Y21.235
G01 F300 X121.587 Y21.157
G01 F300 X121.596 Y21.079
G01 F300 X121.620 Y21.004
G01 F300 X121.659 Y20.936
G01 F300 X121.699 Y20.892
G01 F300 X121.809 Y20.779
G01 F300 X121.869 Y20.735
G01 F300 X121.941 Y20.703
G01 F300 X122.018 Y20.687
G01 F300 X122.096 Y20.687
G01 F300 X122.173 Y20.703
G01 F300 X122.245 Y20.735
G01 F300 X122.304 Y20.778
G01 F300 X122.417 Y20.891
G01 F300 X122.458 Y20.937
G01 F300 X122.497 Y21.004
G01 F300 X122.521 Y21.079
G01 F300 X122.529 Y21.157
G01 F300 X122.521 Y21.235
G01 F300 X122.497 Y21.310
G01 F300 X122.458 Y21.378
G01 F300 X122.416 Y21.425
G01 F300 X122.302 Y21.535
G01 F300 X122.245 Y21.577
G01 F300 X122.173 Y21.609
G01 F300 X122.096 Y21.625
G01 F300 X122.018 Y21.625
G00 F3000 Z3.000
G00 F3000 X118.909 Y38.816
G00 F1500 Z0
G01 F300 Z-0.060
G01 F300 X118.804 Y38.794
G01 F300 X118.705 Y38.750
G01 F300 X118.618 Y38.686
G01 F300 X118.545 Y38.606
G01 F300 X118.491 Y38.512
G01 F300 X118.458 Y38.410
G01 F300 X118.449 Y38.321
G01 F300 X118.449 Y36.282
G01 F300 X118.458 Y36.194
G01 F300 X118.491 Y36.090
G01 F300 X118.546 Y35.997
G01 F300 X118.618 Y35.917
G01 F300 X118.705 Y35.854
G01 F300 X118.804 Y35.809
G01 F300 X118.909 Y35.787
G01 F300 X119.970 Y35.787
G01 F300 X120.075 Y35.809
G01 F300 X120.174 Y35.854
G01 F300 X120.249 Y35.907
G01 F300 X120.323 Y35.853
G01 F300 X120.422 Y35.809
G01 F300 X120.527 Y35.787
G01 F300 X121.113 Y35.787
G01 F300 X121.202 Y35.806
G01 F300 X121.523 Y35.915
G01 F300 X121.602 Y35.950
G01 F300 X121.681 Y36.008
G01 F300 X121.898 Y36.225
G01 F300 X121.952 Y36.284
G01 F300 X121.992 Y36.353
G01 F300 X122.068 Y36.505
G01 F300 X122.068 Y36.282
G01 F300 X122.078 Y36.194
G01 F300 X122.111 Y36.090
G01 F300 X122.165 Y35.997
G01 F300 X122.237 Y35.917
G01 F300 X122.325 Y35.854
G01 F300 X122.423 Y35.809
G01 F300 X122.529 Y35.787
G01 F300 X122.637 Y35.787
G01 F300 X122.742 Y35.809
G01 F300 X122.841 Y35.854
G01 F300 X122.928 Y35.917
G01 F300 X123.001 Y35.997
G01 F300 X123.055 Y36.091
G01 F300 X123.088 Y36.193
G01 F300 X123.097 Y36.282
G01 F300 X123.097 Y36.301
G01 F300 X123.319 Y35.985
G01 F300 X123.380 Y35.917
G01 F300 X123.468 Y35.854
G01 F300 X123.566 Y35.809
G01 F300 X123.672 Y35.787
G01 F300 X123.780 Y35.787
G01 F300 X123.885 Y35.809
G01 F300 X123.984 Y35.854
G01 F300 X124.071 Y35.917
G01 F300 X124.144 Y35.997
G01 F300 X124.198 Y36.091
G01 F300 X124.231 Y36.193
G01 F300 X124.242 Y36.301
G01 F300 X124.231 Y36.408
G01 F300 X124.198 Y36.511
G01 F300 X124.156 Y36.583
G01 F300 X123.889 Y36.976
G01 F300 X123.994 Y37.081
G01 F300 X124.047 Y37.140
G01 F300 X124.087 Y37.209
G01 F300 X124.201 Y37.434
G01 F300 X124.231 Y37.527
G01 F300 X124.240 Y37.615
G01 F300 X124.240 Y37.941
G01 F300 X124.231 Y38.029
G01 F300 X124.201 Y38.122
G01 F300 X124.087 Y38.346
G01 F300 X124.047 Y38.416
G01 F300 X123.994 Y38.474
G01 F300 X123.873 Y38.595
G01 F300 X123.801 Y38.648
G01 F300 X123.576 Y38.762
G01 F300 X123.505 Y38.793
G01 F300 X123.399 Y38.816
G01 F300 X122.529 Y38.816
G01 F300 X122.423 Y38.794
G01 F300 X122.325 Y38.750
G01 F300 X122.237 Y38.686
G01 F300 X122.165 Y38.606
G01 F300 X122.111 Y38.512
G01 F300 X122.078 Y38.410
G01 F300 X122.068 Y38.321
G01 F300 X122.068 Y38.098
G01 F300 X121.992 Y38.250
G01 F300 X121.952 Y38.319
G01 F300 X121.898 Y38.378
G01 F300 X121.681 Y38.596
G01 F300 X121.601 Y38.653
G01 F300 X121.523 Y38.688
G01 F300 X121.202 Y38.797
G01 F300 X121.113 Y38.816
G01 F300 X120.527 Y38.816
G01 F300 X120.422 Y38.794
G01 F300 X120.323 Y38.750
G01 F300 X120.236 Y38.686
G01 F300 X120.163 Y38.606
G01 F300 X120.109 Y38.512
G01 F300 X120.076 Y38.410
G01 F300 X120.067 Y38.321
G01 F300 X120.067 Y36.794
G01 F300 X119.970 Y36.814
G01 F300 X119.478 Y36.814
G01 F300 X119.478 Y38.322
G01 F300 X119.469 Y38.410
G01 F300 X119.435 Y38.512
G01 F300 X119.381 Y38.606
G01 F300 X119.309 Y38.686
G01 F300 X119.222 Y38.750
G01 F300 X119.123 Y38.794
G01 F300 X119.017 Y38.816
G01 F300 X118.909 Y38.816
G00 F3000 Z3.000
G00 F3000 X123.097 Y37.789
G00 F1500 Z0
G01 F300 Z-0.060
G01 F300 X123.211 Y37.789
G01 F300 X123.211 Y37.767
G01 F300 X123.097 Y37.767
G01 F300 X123.097 Y37.789
G00 F3000 Z3.000
G00 F3000 X121.096 Y37.726
G00 F1500 Z0
G01 F300 Z-0.060
G01 F300 X121.112 Y37.710
G01 F300 X121.145 Y37.644
G01 F300 X121.210 Y37.382
G01 F300 X121.210 Y37.221
G01 F300 X121.145 Y36.959
G01 F300 X121.112 Y36.894
G01 F300 X121.096 Y36.877
G01 F300 X121.096 Y37.726
G00 F3000 Z3.000
G00 F3000 X121.177 Y35.787
G00 F1500 Z0
G01 F300 Z-0.060
G01 F300 X120.946 Y35.738
G01 F300 X120.731 Y35.642
G01 F300 X120.540 Y35.504
G01 F300 X120.382 Y35.328
G01 F300 X120.264 Y35.124
G01 F300 X120.191 Y34.900
G01 F300 X120.166 Y34.665
G01 F300 X120.191 Y34.430
G01 F300 X120.264 Y34.206
G01 F300 X120.382 Y34.002
G01 F300 X120.540 Y33.826
G01 F300 X120.731 Y33.688
G01 F300 X120.946 Y33.592
G01 F300 X121.177 Y33.543
G01 F300 X121.413 Y33.543
G01 F300 X121.475 Y33.556
G01 F300 X121.589 Y33.532
G01 F300 X121.711 Y33.532
G01 F300 X124.036 Y33.532
G01 F300 X124.096 Y33.465
G01 F300 X124.285 Y33.327
G01 F300 X124.498 Y33.232
G01 F300 X124.727 Y33.184
G01 F300 X124.960 Y33.184
G01 F300 X125.188 Y33.232
G01 F300 X125.402 Y33.327
G01 F300 X125.591 Y33.465
G01 F300 X125.747 Y33.638
G01 F300 X125.863 Y33.840
G01 F300 X125.936 Y34.062
G01 F300 X125.960 Y34.294
G01 F300 X125.936 Y34.526
G01 F300 X125.863 Y34.748
G01 F300 X125.747 Y34.950
G01 F300 X125.591 Y35.124
G01 F300 X125.402 Y35.261
G01 F300 X125.188 Y35.356
G01 F300 X124.960 Y35.404
G01 F300 X124.727 Y35.404
G01 F300 X124.498 Y35.356
G01 F300 X124.285 Y35.261
G01 F300 X124.096 Y35.124
G01 F300 X124.036 Y35.056
G01 F300 X122.348 Y35.056
G01 F300 X122.326 Y35.124
G01 F300 X122.208 Y35.328
G01 F300 X122.050 Y35.504
G01 F300 X121.859 Y35.642
G01 F300 X121.644 Y35.738
G01 F300 X121.413 Y35.787
G01 F300 X121.177 Y35.787
G00 F3000 Z3.000
G00 F3000 X117.633 Y35.404
G00 F1500 Z0
G01 F300 Z-0.060
G01 F300 X117.404 Y35.356
G01 F300 X117.191 Y35.261
G01 F300 X117.002 Y35.124
G01 F300 X116.846 Y34.950
G01 F300 X116.729 Y34.748
G01 F300 X116.657 Y34.526
G01 F300 X116.633 Y34.294
G01 F300 X116.657 Y34.062
G01 F300 X116.729 Y33.840
G01 F300 X116.846 Y33.638
G01 F300 X117.002 Y33.465
G01 F300 X117.191 Y33.327
G01 F300 X117.404 Y33.232
G01 F300 X117.633 Y33.184
G01 F300 X117.870 Y33.184
G01 F300 X117.884 Y33.187
G01 F300 X118.421 Y32.650
G01 F300 X118.354 Y32.664
G01 F300 X118.030 Y32.664
G01 F300 X117.956 Y32.648
G01 F300 X117.634 Y32.568
G01 F300 X117.569 Y32.539
G01 F300 X117.392 Y32.450
G01 F300 X117.318 Y32.396
G01 F300 X117.148 Y32.226
G01 F300 X117.095 Y32.167
G01 F300 X117.042 Y32.074
G01 F300 X116.959 Y31.825
G01 F300 X116.937 Y31.758
G01 F300 X116.927 Y31.669
G01 F300 X116.927 Y31.489
G01 F300 X116.937 Y31.400
G01 F300 X116.959 Y31.333
G01 F300 X117.041 Y31.081
G01 F300 X117.095 Y30.988
G01 F300 X117.151 Y30.927
G01 F300 X117.251 Y30.829
G01 F300 X117.252 Y30.829
G01 F300 X117.149 Y30.728
G01 F300 X117.090 Y30.663
G01 F300 X117.037 Y30.562
G01 F300 X116.958 Y30.323
G01 F300 X116.937 Y30.256
G01 F300 X116.927 Y30.168
G01 F300 X116.927 Y29.987
G01 F300 X116.937 Y29.899
G01 F300 X116.959 Y29.832
G01 F300 X117.042 Y29.582
G01 F300 X117.095 Y29.490
G01 F300 X117.111 Y29.472
G01 F300 X117.095 Y29.454
G01 F300 X117.041 Y29.361
G01 F300 X116.959 Y29.109
G01 F300 X116.937 Y29.042
G01 F300 X116.927 Y28.954
G01 F300 X116.927 Y28.560
G01 F300 X116.937 Y28.472
G01 F300 X116.966 Y28.381
G01 F300 X117.054 Y28.202
G01 F300 X117.095 Y28.131
G01 F300 X117.150 Y28.070
G01 F300 X117.251 Y27.972
G01 F300 X117.322 Y27.921
G01 F300 X117.498 Y27.833
G01 F300 X117.555 Y27.807
G01 F300 X116.244 Y27.807
G01 F300 X116.104 Y27.777
G01 F300 X116.070 Y27.785
G01 F300 X115.837 Y27.785
G01 F300 X115.608 Y27.736
G01 F300 X115.395 Y27.641
G01 F300 X115.206 Y27.504
G01 F300 X115.075 Y27.357
G01 F300 X115.075 Y30.539
G01 F300 X115.874 Y31.338
G01 F300 X116.075 Y31.338
G01 F300 X116.314 Y31.389
G01 F300 X116.537 Y31.488
G01 F300 X116.734 Y31.632
G01 F300 X116.897 Y31.813
G01 F300 X117.019 Y32.024
G01 F300 X117.094 Y32.256
G01 F300 X117.120 Y32.498
G01 F300 X117.094 Y32.741
G01 F300 X117.019 Y32.973
G01 F300 X116.897 Y33.184
G01 F300 X116.734 Y33.365
G01 F300 X116.537 Y33.509
G01 F300 X116.314 Y33.608
G01 F300 X116.075 Y33.659
G01 F300 X115.832 Y33.659
G01 F300 X115.593 Y33.608
G01 F300 X115.370 Y33.509
G01 F300 X115.173 Y33.365
G01 F300 X115.010 Y33.184
G01 F300 X114.888 Y32.973
G01 F300 X114.812 Y32.741
G01 F300 X114.787 Y32.499
G01 F300 X114.795 Y32.421
G01 F300 X113.778 Y31.403
G01 F300 X113.690 Y31.306
G01 F300 X113.610 Y31.167
G01 F300 X113.560 Y31.014
G01 F300 X113.546 Y30.874
G01 F300 X113.546 Y25.756
G01 F300 X113.560 Y25.616
G01 F300 X113.610 Y25.463
G01 F300 X113.690 Y25.325
G01 F300 X113.778 Y25.227
G01 F300 X114.704 Y24.303
G01 F300 X114.826 Y24.215
G01 F300 X114.972 Y24.149
G01 F300 X115.129 Y24.116
G01 F300 X116.874 Y24.116
G01 F300 X116.969 Y24.012
G01 F300 X117.166 Y23.868
G01 F300 X117.389 Y23.769
G01 F300 X117.627 Y23.718
G01 F300 X117.874 Y23.718
G01 F300 X118.010 Y23.749
G01 F300 X118.040 Y23.743
G01 F300 X120.169 Y23.743
G01 F300 X120.169 Y23.453
G01 F300 X120.079 Y23.407
G01 F300 X120.008 Y23.356
G01 F300 X119.885 Y23.236
G01 F300 X119.831 Y23.175
G01 F300 X119.790 Y23.105
G01 F300 X119.679 Y22.880
G01 F300 X119.663 Y22.832
G01 F300 X119.651 Y22.842
G01 F300 X119.552 Y22.886
G01 F300 X119.447 Y22.908
G01 F300 X119.339 Y22.908
G01 F300 X119.233 Y22.886
G01 F300 X119.135 Y22.841
G01 F300 X119.047 Y22.778
G01 F300 X118.975 Y22.698
G01 F300 X118.923 Y22.609
G01 F300 X118.916 Y22.589
G01 F300 X118.909 Y22.609
G01 F300 X118.858 Y22.698
G01 F300 X118.786 Y22.778
G01 F300 X118.698 Y22.842
G01 F300 X118.600 Y22.886
G01 F300 X118.494 Y22.908
G01 F300 X118.386 Y22.908
G01 F300 X118.280 Y22.886
G01 F300 X118.182 Y22.841
G01 F300 X118.095 Y22.778
G01 F300 X118.022 Y22.698
G01 F300 X117.968 Y22.604
G01 F300 X117.935 Y22.502
G01 F300 X117.924 Y22.394
G01 F300 X117.935 Y22.287
G01 F300 X117.958 Y22.216
G01 F300 X118.446 Y20.846
G01 F300 X118.497 Y20.758
G01 F300 X118.569 Y20.677
G01 F300 X118.657 Y20.614
G01 F300 X118.755 Y20.570
G01 F300 X118.861 Y20.547
G01 F300 X118.969 Y20.547
G01 F300 X119.075 Y20.570
G01 F300 X119.173 Y20.614
G01 F300 X119.261 Y20.677
G01 F300 X119.333 Y20.757
G01 F300 X119.384 Y20.846
G01 F300 X119.613 Y21.485
G01 F300 X119.657 Y21.309
G01 F300 X119.679 Y21.243
G01 F300 X119.790 Y21.018
G01 F300 X119.831 Y20.948
G01 F300 X119.885 Y20.887
G01 F300 X120.009 Y20.766
G01 F300 X120.079 Y20.715
G01 F300 X120.304 Y20.602
G01 F300 X120.376 Y20.570
G01 F300 X120.482 Y20.547
G01 F300 X120.780 Y20.547
G01 F300 X120.886 Y20.570
G01 F300 X120.958 Y20.602
G01 F300 X121.182 Y20.715
G01 F300 X121.254 Y20.768
G01 F300 X121.375 Y20.889
G01 F300 X121.428 Y20.948
G01 F300 X121.468 Y21.017
G01 F300 X121.468 Y21.017
G01 F300 X121.491 Y20.947
G01 F300 X121.545 Y20.854
G01 F300 X121.597 Y20.796
G01 F300 X121.717 Y20.673
G01 F300 X121.799 Y20.614
G01 F300 X121.897 Y20.570
G01 F300 X122.003 Y20.547
G01 F300 X122.111 Y20.547
G01 F300 X122.217 Y20.570
G01 F300 X122.315 Y20.614
G01 F300 X122.395 Y20.671
G01 F300 X122.492 Y20.768
G01 F300 X122.498 Y20.757
G01 F300 X122.570 Y20.677
G01 F300 X122.657 Y20.614
G01 F300 X122.756 Y20.570
G01 F300 X122.862 Y20.547
G01 F300 X124.113 Y20.547
G01 F300 X124.218 Y20.570
G01 F300 X124.317 Y20.614
G01 F300 X124.404 Y20.677
G01 F300 X124.476 Y20.757
G01 F300 X124.530 Y20.851
G01 F300 X124.564 Y20.954
G01 F300 X124.575 Y21.061
G01 F300 X124.564 Y21.168
G01 F300 X124.530 Y21.271
G01 F300 X124.476 Y21.364
G01 F300 X124.404 Y21.445
G01 F300 X124.317 Y21.508
G01 F300 X124.218 Y21.552
G01 F300 X124.113 Y21.574
G01 F300 X124.002 Y21.574
G01 F300 X124.002 Y23.081
G01 F300 X123.992 Y23.170
G01 F300 X123.959 Y23.272
G01 F300 X123.905 Y23.366
G01 F300 X123.833 Y23.446
G01 F300 X123.745 Y23.510
G01 F300 X123.647 Y23.553
G01 F300 X123.541 Y23.576
G01 F300 X123.433 Y23.576
G01 F300 X123.327 Y23.553
G01 F300 X123.229 Y23.510
G01 F300 X123.141 Y23.446
G01 F300 X123.077 Y23.374
G01 F300 X122.896 Y23.103
G01 F300 X122.802 Y23.008
G01 F300 X122.652 Y22.934
G01 F300 X122.570 Y22.875
G01 F300 X122.498 Y22.794
G01 F300 X122.444 Y22.701
G01 F300 X122.410 Y22.598
G01 F300 X122.399 Y22.491
G01 F300 X122.410 Y22.383
G01 F300 X122.444 Y22.281
G01 F300 X122.498 Y22.187
G01 F300 X122.570 Y22.107
G01 F300 X122.657 Y22.044
G01 F300 X122.756 Y22.000
G01 F300 X122.862 Y21.977
G01 F300 X122.970 Y21.977
G01 F300 X122.973 Y21.978
G01 F300 X122.973 Y21.574
G01 F300 X122.862 Y21.574
G01 F300 X122.756 Y21.552
G01 F300 X122.657 Y21.508
G01 F300 X122.578 Y21.450
G01 F300 X122.571 Y21.461
G01 F300 X122.517 Y21.522
G01 F300 X122.393 Y21.642
G01 F300 X122.315 Y21.699
G01 F300 X122.217 Y21.742
G01 F300 X122.111 Y21.765
G01 F300 X122.003 Y21.765
G01 F300 X121.897 Y21.742
G01 F300 X121.799 Y21.699
G01 F300 X121.719 Y21.641
G01 F300 X121.675 Y21.597
G01 F300 X121.708 Y21.729
G01 F300 X121.716 Y21.804
G01 F300 X121.716 Y22.320
G01 F300 X121.707 Y22.395
G01 F300 X121.605 Y22.812
G01 F300 X121.582 Y22.882
G01 F300 X121.468 Y23.107
G01 F300 X121.428 Y23.175
G01 F300 X121.376 Y23.234
G01 F300 X121.254 Y23.355
G01 F300 X121.222 Y23.379
G01 F300 X122.422 Y23.379
G01 F300 X122.422 Y23.743
G01 F300 X124.534 Y23.743
G01 F300 X124.580 Y23.748
G01 F300 X124.722 Y23.718
G01 F300 X124.965 Y23.718
G01 F300 X125.204 Y23.769
G01 F300 X125.427 Y23.868
G01 F300 X125.624 Y24.012
G01 F300 X125.718 Y24.116
G01 F300 X127.464 Y24.116
G01 F300 X127.620 Y24.149
G01 F300 X127.767 Y24.215
G01 F300 X127.889 Y24.303
G01 F300 X128.812 Y25.227
G01 F300 X128.900 Y25.325
G01 F300 X128.980 Y25.463
G01 F300 X129.030 Y25.616
G01 F300 X129.044 Y25.756
G01 F300 X129.044 Y30.874
G01 F300 X129.030 Y31.014
G01 F300 X128.980 Y31.167
G01 F300 X128.900 Y31.306
G01 F300 X128.812 Y31.403
G01 F300 X127.797 Y32.420
G01 F300 X127.806 Y32.498
G01 F300 X127.780 Y32.741
G01 F300 X127.705 Y32.973
G01 F300 X127.583 Y33.184
G01 F300 X127.420 Y33.365
G01 F300 X127.222 Y33.509
G01 F300 X127.000 Y33.608
G01 F300 X126.761 Y33.659
G01 F300 X126.517 Y33.659
G01 F300 X126.279 Y33.608
G01 F300 X126.056 Y33.509
G01 F300 X125.859 Y33.365
G01 F300 X125.695 Y33.184
G01 F300 X125.574 Y32.973
G01 F300 X125.498 Y32.741
G01 F300 X125.473 Y32.498
G01 F300 X125.498 Y32.256
G01 F300 X125.574 Y32.024
G01 F300 X125.695 Y31.813
G01 F300 X125.859 Y31.632
G01 F300 X126.056 Y31.488
G01 F300 X126.279 Y31.389
G01 F300 X126.517 Y31.338
G01 F300 X126.718 Y31.338
G01 F300 X127.516 Y30.540
G01 F300 X127.516 Y27.360
G01 F300 X127.386 Y27.504
G01 F300 X127.197 Y27.641
G01 F300 X126.984 Y27.736
G01 F300 X126.756 Y27.785
G01 F300 X126.609 Y27.785
G01 F300 X124.233 Y30.160
G01 F300 X124.112 Y30.249
G01 F300 X123.965 Y30.314
G01 F300 X123.808 Y30.347
G01 F300 X122.119 Y30.347
G01 F300 X122.050 Y30.424
G01 F300 X121.859 Y30.562
G01 F300 X121.644 Y30.658
G01 F300 X121.413 Y30.707
G01 F300 X121.177 Y30.707
G01 F300 X120.946 Y30.658
G01 F300 X120.731 Y30.562
G01 F300 X120.540 Y30.424
G01 F300 X120.382 Y30.248
G01 F300 X120.264 Y30.044
G01 F300 X120.191 Y29.820
G01 F300 X120.166 Y29.585
G01 F300 X120.191 Y29.350
G01 F300 X120.264 Y29.126
G01 F300 X120.382 Y28.922
G01 F300 X120.540 Y28.746
G01 F300 X120.731 Y28.608
G01 F300 X120.946 Y28.512
G01 F300 X121.177 Y28.463
G01 F300 X121.413 Y28.463
G01 F300 X121.644 Y28.512
G01 F300 X121.859 Y28.608
G01 F300 X122.050 Y28.746
G01 F300 X122.119 Y28.823
G01 F300 X123.410 Y28.823
G01 F300 X125.525 Y26.696
G01 F300 X125.523 Y26.674
G01 F300 X125.547 Y26.442
G01 F300 X125.619 Y26.220
G01 F300 X125.736 Y26.018
G01 F300 X125.892 Y25.845
G01 F300 X126.081 Y25.707
G01 F300 X126.230 Y25.641
G01 F300 X125.718 Y25.641
G01 F300 X125.624 Y25.745
G01 F300 X125.427 Y25.889
G01 F300 X125.204 Y25.988
G01 F300 X124.965 Y26.039
G01 F300 X124.722 Y26.039
G01 F300 X124.483 Y25.988
G01 F300 X124.260 Y25.889
G01 F300 X124.063 Y25.745
G01 F300 X123.900 Y25.564
G01 F300 X123.778 Y25.353
G01 F300 X123.750 Y25.267
G01 F300 X122.422 Y25.267
G01 F300 X122.422 Y25.632
G01 F300 X120.169 Y25.632
G01 F300 X120.169 Y25.267
G01 F300 X118.843 Y25.267
G01 F300 X118.815 Y25.353
G01 F300 X118.693 Y25.564
G01 F300 X118.530 Y25.745
G01 F300 X118.332 Y25.889
G01 F300 X118.110 Y25.988
G01 F300 X117.871 Y26.039
G01 F300 X117.627 Y26.039
G01 F300 X117.389 Y25.988
G01 F300 X117.166 Y25.889
G01 F300 X116.969 Y25.745
G01 F300 X116.875 Y25.641
G01 F300 X116.362 Y25.641
G01 F300 X116.512 Y25.707
G01 F300 X116.701 Y25.845
G01 F300 X116.857 Y26.018
G01 F300 X116.973 Y26.220
G01 F300 X116.994 Y26.283
G01 F300 X120.471 Y26.283
G01 F300 X120.540 Y26.206
G01 F300 X120.731 Y26.068
G01 F300 X120.946 Y25.972
G01 F300 X121.177 Y25.923
G01 F300 X121.413 Y25.923
G01 F300 X121.644 Y25.972
G01 F300 X121.859 Y26.068
G01 F300 X122.050 Y26.206
G01 F300 X122.208 Y26.382
G01 F300 X122.326 Y26.586
G01 F300 X122.399 Y26.810
G01 F300 X122.424 Y27.045
G01 F300 X122.399 Y27.280
G01 F300 X122.326 Y27.504
G01 F300 X122.208 Y27.708
G01 F300 X122.050 Y27.884
G01 F300 X121.859 Y28.022
G01 F300 X121.644 Y28.118
G01 F300 X121.413 Y28.167
G01 F300 X121.177 Y28.167
G01 F300 X120.946 Y28.118
G01 F300 X120.731 Y28.022
G01 F300 X120.540 Y27.884
G01 F300 X120.471 Y27.807
G01 F300 X119.046 Y27.807
G01 F300 X119.130 Y27.845
G01 F300 X119.218 Y27.908
G01 F300 X119.290 Y27.989
G01 F300 X119.343 Y28.081
G01 F300 X119.426 Y28.334
G01 F300 X119.448 Y28.400
G01 F300 X119.458 Y28.489
G01 F300 X119.458 Y28.883
G01 F300 X119.448 Y28.971
G01 F300 X119.418 Y29.063
G01 F300 X119.330 Y29.240
G01 F300 X119.290 Y29.309
G01 F300 X119.239 Y29.366
G01 F300 X119.205 Y29.401
G01 F300 X119.218 Y29.410
G01 F300 X119.290 Y29.490
G01 F300 X119.330 Y29.559
G01 F300 X119.418 Y29.736
G01 F300 X119.448 Y29.828
G01 F300 X119.458 Y29.916
G01 F300 X119.458 Y30.168
G01 F300 X119.448 Y30.256
G01 F300 X119.427 Y30.323
G01 F300 X119.343 Y30.576
G01 F300 X119.290 Y30.668
G01 F300 X119.237 Y30.727
G01 F300 X119.135 Y30.829
G01 F300 X119.139 Y30.831
G01 F300 X119.237 Y30.930
G01 F300 X119.290 Y30.988
G01 F300 X119.343 Y31.081
G01 F300 X119.426 Y31.333
G01 F300 X119.448 Y31.400
G01 F300 X119.458 Y31.489
G01 F300 X119.458 Y31.612
G01 F300 X119.520 Y31.550
G01 F300 X119.642 Y31.461
G01 F300 X119.788 Y31.396
G01 F300 X119.945 Y31.363
G01 F300 X120.471 Y31.363
G01 F300 X120.540 Y31.286
G01 F300 X120.731 Y31.148
G01 F300 X120.946 Y31.052
G01 F300 X121.177 Y31.003
G01 F300 X121.413 Y31.003
G01 F300 X121.644 Y31.052
G01 F300 X121.859 Y31.148
G01 F300 X122.050 Y31.286
G01 F300 X122.208 Y31.462
G01 F300 X122.326 Y31.666
G01 F300 X122.399 Y31.890
G01 F300 X122.424 Y32.125
G01 F300 X122.399 Y32.360
G01 F300 X122.326 Y32.584
G01 F300 X122.208 Y32.788
G01 F300 X122.050 Y32.964
G01 F300 X121.859 Y33.102
G01 F300 X121.644 Y33.198
G01 F300 X121.413 Y33.247
G01 F300 X121.177 Y33.247
G01 F300 X120.946 Y33.198
G01 F300 X120.731 Y33.102
G01 F300 X120.540 Y32.964
G01 F300 X120.471 Y32.887
G01 F300 X120.343 Y32.887
G01 F300 X118.857 Y34.375
G01 F300 X118.841 Y34.526
G01 F300 X118.769 Y34.748
G01 F300 X118.653 Y34.950
G01 F300 X118.496 Y35.124
G01 F300 X118.307 Y35.261
G01 F300 X118.094 Y35.356
G01 F300 X117.866 Y35.404
G01 F300 X117.633 Y35.404
G00 F3000 Z3.000
G00 F3000 X118.150 Y31.637
G00 F1500 Z0
G01 F300 Z-0.060
G01 F300 X118.235 Y31.637
G01 F300 X118.407 Y31.594
G01 F300 X118.423 Y31.586
G01 F300 X118.425 Y31.578
G01 F300 X118.422 Y31.568
G01 F300 X118.383 Y31.524
G01 F300 X118.329 Y31.431
G01 F300 X118.296 Y31.328
G01 F300 X118.284 Y31.221
G01 F300 X118.290 Y31.163
G01 F300 X118.097 Y31.163
G01 F300 X118.103 Y31.221
G01 F300 X118.092 Y31.328
G01 F300 X118.059 Y31.431
G01 F300 X118.005 Y31.524
G01 F300 X117.962 Y31.572
G01 F300 X117.960 Y31.578
G01 F300 X117.962 Y31.585
G01 F300 X117.963 Y31.586
G01 F300 X117.980 Y31.594
G01 F300 X118.150 Y31.637
G00 F3000 Z3.000
G00 F3000 X118.422 Y28.044
G00 F1500 Z0
G01 F300 Z-0.060
G01 F300 X118.454 Y27.989
G01 F300 X118.526 Y27.908
G01 F300 X118.614 Y27.845
G01 F300 X118.698 Y27.807
G01 F300 X118.045 Y27.807
G01 F300 X118.102 Y27.833
G01 F300 X118.278 Y27.921
G01 F300 X118.351 Y27.974
G01 F300 X118.422 Y28.044
G00 F3000 Z3.000
G00 F3000 X115.512 Y25.655
G00 F1500 Z0
G01 F300 Z-0.060
G01 F300 X115.545 Y25.641
G01 F300 X115.527 Y25.641
G01 F300 X115.512 Y25.655
G00 F3000 Z3.000
G00 F3000 X127.079 Y25.655
G00 F1500 Z0
G01 F300 Z-0.060
G01 F300 X127.065 Y25.641
G01 F300 X127.048 Y25.641
G01 F300 X127.079 Y25.655
G00 F3000 Z3.000
G00 F3000 X120.631 Y22.466
G00 F1500 Z0
G01 F300 Z-0.060
G01 F300 X120.687 Y22.239
G01 F300 X120.687 Y21.885
G01 F300 X120.631 Y21.657
G01 F300 X120.573 Y21.886
G01 F300 X120.573 Y22.237
G01 F300 X120.631 Y22.466
G00 F3000 Z3.000
G00 F3000 Z3.000
G00 F3000 X0.000 Y0.000
M05
M30
%