( PCB Cuts )
( Generated by Rapid-PCB.com )
( Material Size)
( X= 160.000, Y= 100.000, Z= 1.580)
()
G00
G17
G21
G40
G49
G54
G80
G90
G94
G00 F3000 Z3.000
M03 S9000
G00 F3000 X111.000 Y40.500
G00 F1500 Z0
G01 F60 Z-5.000
G01 F60 X111.000 Y18.500
G01 F60 X131.000 Y18.500
G01 F60 X131.000 Y40.500
G01 F60 X111.000 Y40.500
G00 F3000 Z3.000
G00 F3000 Z3.000
G00 F3000 X0.000 Y0.000
M05
M30
%