(Generated by ./pygerber2gcode_cui_MOD.py )
( 2013-10-19 12:20:24 )
(Initialize)

(Start form here)
G0 Z0.500000 F40.000000
G0 X103.229159 Y47.085080
G0 Z-2.000000 F40.000000 D0.609600
G0 Z0.500000
G0 X103.229159 Y41.263400
G0 Z-2.000000 F40.000000 D0.609600
G0 Z0.500000
G0 X101.430839 Y48.883400
G0 Z-2.000000 F40.000000 D0.609600
G0 Z0.500000
G0 X101.430839 Y39.465080
G0 Z-2.000000 F40.000000 D0.609600
G0 Z0.500000
G0 X94.339159 Y48.883400
G0 Z-2.000000 F40.000000 D0.609600
G0 Z0.500000
G0 X94.339159 Y39.465080
G0 Z-2.000000 F40.000000 D0.609600
G0 Z0.500000
G0 X92.540839 Y47.085080
G0 Z-2.000000 F40.000000 D0.609600
G0 Z0.500000
G0 X92.540839 Y41.263400
G0 Z-2.000000 F40.000000 D0.609600
G0 Z0.500000
G0 X97.884999 Y49.254240
G0 Z-2.000000 F40.000000 D1.016000
G0 Z0.500000
G0 X97.884999 Y46.714240
G0 Z-2.000000 F40.000000 D1.016000
G0 Z0.500000
G0 X97.884999 Y44.174240
G0 Z-2.000000 F40.000000 D1.016000
G0 Z0.500000
G0 X97.884999 Y41.634240
G0 Z-2.000000 F40.000000 D1.016000
G0 Z0.500000
G0 X97.884999 Y39.094240
G0 Z-2.000000 F40.000000 D1.016000
G0 Z0.500000

(Goto to Initial position)
G0 Z0.500000
G0 X0.000000 Y0.000000
G0 Z0.000000
