(Generated by ./pygerber2gcode_cui_MOD.py )
( 2013-10-19 12:20:24 )
(Initialize)

(Start form here)
G0 Z0.500000
G0 X94.674439 Y45.728499
G1 Z-0.040000 F60.000000
G1 X94.651015 Y45.723153 F200.000000
G1 X94.664405 Y45.763687 F200.000000
G1 X94.636192 Y45.979924 F200.000000
G1 X94.535508 Y46.134090 F200.000000
G1 X94.524454 Y46.167649 F200.000000
G1 X94.531215 Y46.187931 F200.000000
G1 X94.537975 Y46.194691 F200.000000
G1 X94.560984 Y46.206196 F200.000000
G1 X94.734761 Y46.249640 F200.000000
G1 X94.830017 F200.000000
G1 X95.005488 Y46.205772 F200.000000
G1 X95.028595 Y46.194421 F200.000000
G1 X95.032841 Y46.190100 F200.000000
G1 X95.040325 Y46.167649 F200.000000
G1 X95.028281 Y46.131088 F200.000000
G1 X94.928217 Y45.971836 F200.000000
G1 X94.903801 Y45.755137 F200.000000
G1 X94.915099 Y45.722848 F200.000000
G1 X94.890339 Y45.728499 F200.000000
G1 X94.674439 F200.000000
G0 Z0.500000
G0 X95.924342 Y45.115856
G1 Z-0.040000 F60.000000
G1 X95.868668 Y45.204461 F200.000000
G1 X95.814632 Y45.294075 F200.000000
G1 X95.810774 Y45.296598 F200.000000
G1 X95.808321 Y45.300502 F200.000000
G1 X95.680766 Y45.428057 F200.000000
G1 X95.737201 Y45.463518 F200.000000
G1 X95.808321 Y45.534638 F200.000000
G1 X95.810774 Y45.538541 F200.000000
G1 X95.814632 Y45.541065 F200.000000
G1 X95.868668 Y45.630678 F200.000000
G1 X95.924342 Y45.719283 F200.000000
G1 X95.924858 Y45.723864 F200.000000
G1 X95.927238 Y45.727812 F200.000000
G1 X95.998358 Y45.943712 F200.000000
G1 X96.005647 Y46.021170 F200.000000
G1 X96.022959 Y46.097020 F200.000000
G1 Y46.239260 F200.000000
G1 X96.016869 Y46.265940 F200.000000
G1 X96.091434 Y46.191288 F200.000000
G1 X96.196696 Y46.125062 F200.000000
G1 X96.293926 Y46.047523 F200.000000
G1 X96.334745 Y46.038207 F200.000000
G1 X96.370184 Y46.015910 F200.000000
G1 X96.493755 Y46.001914 F200.000000
G1 X96.614999 Y45.974241 F200.000000
G1 X97.111106 F200.000000
G1 X97.258992 Y45.807311 F200.000000
G1 X97.752168 Y45.620275 F200.000000
G1 X98.275774 Y45.683852 F200.000000
G1 X98.709858 Y45.983479 F200.000000
G1 X98.954977 Y46.450514 F200.000000
G1 Y46.977966 F200.000000
G1 X98.709858 Y47.445001 F200.000000
G1 X98.275774 Y47.744628 F200.000000
G1 X97.752168 Y47.808205 F200.000000
G1 X97.258992 Y47.621168 F200.000000
G1 X97.111106 Y47.454239 F200.000000
G1 X96.921771 F200.000000
G1 X95.397484 Y48.980312 F200.000000
G1 Y49.144253 F200.000000
G1 X95.155035 Y49.606202 F200.000000
G1 X94.725678 Y49.902566 F200.000000
G1 X94.207774 Y49.965451 F200.000000
G1 X93.719969 Y49.780451 F200.000000
G1 X93.374013 Y49.389947 F200.000000
G1 X93.249161 Y48.883400 F200.000000
G1 X93.374013 Y48.376852 F200.000000
G1 X93.719969 Y47.986349 F200.000000
G1 X94.207774 Y47.801349 F200.000000
G1 X94.453462 Y47.831180 F200.000000
G1 X95.088791 Y47.195107 F200.000000
G1 X95.009182 Y47.215009 F200.000000
G1 X94.949012 Y47.216248 F200.000000
G1 X94.890339 Y47.229639 F200.000000
G1 X94.674439 F200.000000
G1 X94.615766 Y47.216248 F200.000000
G1 X94.555597 Y47.215009 F200.000000
G1 X94.271117 Y47.143889 F200.000000
G1 X94.223115 Y47.119543 F200.000000
G1 X94.170825 Y47.106789 F200.000000
G1 X94.028585 Y47.035669 F200.000000
G1 X93.967830 Y46.985725 F200.000000
G1 X93.901237 Y46.943882 F200.000000
G1 X93.756457 Y46.799102 F200.000000
G1 X93.754475 Y46.795948 F200.000000
G1 X93.751351 Y46.793919 F200.000000
G1 X93.696560 Y46.703776 F200.000000
G1 X93.640437 Y46.614456 F200.000000
G1 X93.640020 Y46.610755 F200.000000
G1 X93.638085 Y46.607571 F200.000000
G1 X93.566965 Y46.394211 F200.000000
G1 X93.559320 Y46.315936 F200.000000
G1 X93.541820 Y46.239260 F200.000000
G1 Y46.097020 F200.000000
G1 X93.559132 Y46.021170 F200.000000
G1 X93.566420 Y45.943712 F200.000000
G1 X93.637540 Y45.727812 F200.000000
G1 X93.642183 Y45.720111 F200.000000
G1 X93.643347 Y45.711195 F200.000000
G1 X93.698275 Y45.627089 F200.000000
G1 X93.750147 Y45.541065 F200.000000
G1 X93.757671 Y45.536142 F200.000000
G1 X93.762588 Y45.528613 F200.000000
G1 X93.836248 Y45.457493 F200.000000
G1 X93.885771 Y45.427574 F200.000000
G1 X93.759537 Y45.303554 F200.000000
G1 X93.755856 Y45.297810 F200.000000
G1 X93.750147 Y45.294075 F200.000000
G1 X93.697202 Y45.206272 F200.000000
G1 X93.641887 Y45.119943 F200.000000
G1 X93.641063 Y45.113170 F200.000000
G1 X93.637540 Y45.107328 F200.000000
G1 X93.566420 Y44.891428 F200.000000
G1 X93.559132 Y44.813969 F200.000000
G1 X93.541820 Y44.738120 F200.000000
G1 Y44.595880 F200.000000
G1 X93.559320 Y44.519204 F200.000000
G1 X93.566965 Y44.440928 F200.000000
G1 X93.638085 Y44.227568 F200.000000
G1 X93.642297 Y44.220637 F200.000000
G1 X93.643347 Y44.212595 F200.000000
G1 X93.698737 Y44.127782 F200.000000
G1 X93.739022 Y44.061504 F200.000000
G1 X93.637540 Y43.893208 F200.000000
G1 X93.566420 Y43.677308 F200.000000
G1 X93.559132 Y43.599849 F200.000000
G1 X93.541820 Y43.524000 F200.000000
G1 Y43.168400 F200.000000
G1 X93.542256 Y43.166489 F200.000000
G1 X93.541834 Y43.164575 F200.000000
G1 X93.566497 Y43.060280 F200.000000
G1 X93.590345 Y42.955797 F200.000000
G1 X93.591567 Y42.954264 F200.000000
G1 X93.592018 Y42.952357 F200.000000
G1 X93.663138 Y42.807577 F200.000000
G1 X93.716362 Y42.741895 F200.000000
G1 X93.762588 Y42.671113 F200.000000
G1 X93.836248 Y42.599993 F200.000000
G1 X93.899962 Y42.561501 F200.000000
G1 X93.957465 Y42.514231 F200.000000
G1 X94.099705 Y42.443111 F200.000000
G1 X94.103324 Y42.442228 F200.000000
G1 X94.106236 Y42.439905 F200.000000
G1 X94.209080 Y42.416432 F200.000000
G1 X94.311564 Y42.391434 F200.000000
G1 X94.315207 Y42.392209 F200.000000
G1 X94.318839 Y42.391380 F200.000000
G1 X94.461079 F200.000000
G1 X94.464711 Y42.392209 F200.000000
G1 X94.468355 Y42.391434 F200.000000
G1 X94.570839 Y42.416432 F200.000000
G1 X94.673682 Y42.439905 F200.000000
G1 X94.676595 Y42.442228 F200.000000
G1 X94.680214 Y42.443111 F200.000000
G1 X94.822454 Y42.514231 F200.000000
G1 X94.883208 Y42.564174 F200.000000
G1 X94.949801 Y42.606018 F200.000000
G1 X95.020921 Y42.677138 F200.000000
G1 X95.025417 Y42.684293 F200.000000
G1 X95.051807 Y42.613102 F200.000000
G1 X95.208814 Y42.461763 F200.000000
G1 X95.415936 Y42.393535 F200.000000
G1 X95.632150 Y42.421930 F200.000000
G1 X95.814632 Y42.541325 F200.000000
G1 X95.927238 Y42.728072 F200.000000
G1 X95.998358 Y42.943972 F200.000000
G1 X96.005647 Y43.021430 F200.000000
G1 X96.022959 Y43.097280 F200.000000
G1 Y43.452880 F200.000000
G1 X96.022130 Y43.456512 F200.000000
G1 X96.022905 Y43.460155 F200.000000
G1 X95.997907 Y43.562639 F200.000000
G1 X95.974434 Y43.665483 F200.000000
G1 X95.972111 Y43.668395 F200.000000
G1 X95.971228 Y43.672014 F200.000000
G1 X95.900108 Y43.814254 F200.000000
G1 X95.852838 Y43.871757 F200.000000
G1 X95.814346 Y43.935471 F200.000000
G1 X95.758388 Y43.993427 F200.000000
G1 X95.761627 Y43.994928 F200.000000
G1 X95.900108 Y44.163385 F200.000000
G1 X95.971228 Y44.305625 F200.000000
G1 X95.972111 Y44.309244 F200.000000
G1 X95.974434 Y44.312157 F200.000000
G1 X95.997907 Y44.415000 F200.000000
G1 X96.022905 Y44.517484 F200.000000
G1 X96.022130 Y44.521128 F200.000000
G1 X96.022959 Y44.524760 F200.000000
G1 Y44.738120 F200.000000
G1 X96.005647 Y44.813969 F200.000000
G1 X95.998358 Y44.891428 F200.000000
G1 X95.927238 Y45.107328 F200.000000
G1 X95.924858 Y45.111275 F200.000000
G1 X95.924342 Y45.115856 F200.000000
G0 Z0.500000
G0 X90.201873 Y40.118846
G1 Z-0.040000 F60.000000
G1 X90.224035 Y40.083686 F200.000000
G1 X90.233283 Y40.043166 F200.000000
G1 X90.311008 Y39.945702 F200.000000
G1 X90.377481 Y39.840242 F200.000000
G1 X91.276641 Y38.943622 F200.000000
G1 X91.381422 Y38.877990 F200.000000
G1 X91.478086 Y38.800903 F200.000000
G1 X91.519629 Y38.791421 F200.000000
G1 X91.555741 Y38.768802 F200.000000
G1 X91.678621 Y38.755133 F200.000000
G1 X91.799159 Y38.727621 F200.000000
G1 X93.507734 F200.000000
G1 X93.628382 Y38.576333 F200.000000
G1 X94.085486 Y38.356203 F200.000000
G1 X94.592833 F200.000000
G1 X94.627742 Y38.373015 F200.000000
G1 X94.709999 Y38.354241 F200.000000
G1 X96.782999 F200.000000
G1 Y38.027271 F200.000000
G1 X96.713577 Y37.992097 F200.000000
G1 X96.656531 Y37.944691 F200.000000
G1 X96.593207 Y37.906070 F200.000000
G1 X96.496687 Y37.812090 F200.000000
G1 X96.451527 Y37.742302 F200.000000
G1 X96.399085 Y37.677807 F200.000000
G1 X96.305105 Y37.487307 F200.000000
G1 X96.293106 Y37.436948 F200.000000
G1 X96.269545 Y37.390852 F200.000000
G1 X96.265916 Y37.376528 F200.000000
G1 X96.246244 Y37.396488 F200.000000
G1 X96.040940 Y37.470007 F200.000000
G1 X95.824069 Y37.447166 F200.000000
G1 X95.638585 Y37.332491 F200.000000
G1 X95.521225 Y37.148694 F200.000000
G1 X95.506250 Y37.106874 F200.000000
G1 X95.491632 Y37.147914 F200.000000
G1 X95.374583 Y37.331910 F200.000000
G1 X95.189293 Y37.446898 F200.000000
G1 X94.972461 Y37.470105 F200.000000
G1 X94.767033 Y37.396933 F200.000000
G1 X94.613696 Y37.241876 F200.000000
G1 X94.542822 Y37.035644 F200.000000
G1 X94.568447 Y36.819085 F200.000000
G1 X95.043427 Y35.485585 F200.000000
G1 X95.071391 Y35.441626 F200.000000
G1 X95.088241 Y35.392327 F200.000000
G1 X95.129175 Y35.350793 F200.000000
G1 X95.160476 Y35.301590 F200.000000
G1 X95.204744 Y35.274118 F200.000000
G1 X95.241315 Y35.237011 F200.000000
G1 X95.296216 Y35.217351 F200.000000
G1 X95.345766 Y35.186601 F200.000000
G1 X95.397569 Y35.181057 F200.000000
G1 X95.446619 Y35.163493 F200.000000
G1 X95.504613 Y35.169601 F200.000000
G1 X95.562598 Y35.163395 F200.000000
G1 X95.611677 Y35.180876 F200.000000
G1 X95.663490 Y35.186333 F200.000000
G1 X95.713091 Y35.216999 F200.000000
G1 X95.768026 Y35.236566 F200.000000
G1 X95.804659 Y35.273611 F200.000000
G1 X95.848974 Y35.301008 F200.000000
G1 X95.880357 Y35.350158 F200.000000
G1 X95.921362 Y35.391623 F200.000000
G1 X95.938295 Y35.440894 F200.000000
G1 X95.966333 Y35.484805 F200.000000
G1 X96.207100 Y36.157160 F200.000000
G1 X96.269545 Y35.910668 F200.000000
G1 X96.293106 Y35.864571 F200.000000
G1 X96.305105 Y35.814212 F200.000000
G1 X96.399085 Y35.623712 F200.000000
G1 X96.451527 Y35.559217 F200.000000
G1 X96.496687 Y35.489429 F200.000000
G1 X96.593207 Y35.395449 F200.000000
G1 X96.656531 Y35.356828 F200.000000
G1 X96.713577 Y35.309422 F200.000000
G1 X96.904077 Y35.212902 F200.000000
G1 X96.908983 Y35.211678 F200.000000
G1 X96.912936 Y35.208525 F200.000000
G1 X97.014541 Y35.185335 F200.000000
G0 Z0.500000
G0 X97.220283 Y37.127331
G1 Z-0.040000 F60.000000
G1 X97.234683 Y37.098910 F200.000000
G1 X97.301020 Y36.829979 F200.000000
G1 Y36.471541 F200.000000
G1 X97.234683 Y36.202609 F200.000000
G1 X97.220283 Y36.174188 F200.000000
G1 X97.206841 Y36.201435 F200.000000
G1 X97.138019 Y36.473101 F200.000000
G1 Y36.828418 F200.000000
G1 X97.206841 Y37.100084 F200.000000
G1 X97.220283 Y37.127331 F200.000000
G0 Z0.500000
G0 X97.014541 Y35.185335
G1 Z-0.040000 F60.000000
G1 X97.115658 Y35.160100 F200.000000
G1 X97.120609 Y35.161125 F200.000000
G1 X97.125539 Y35.160000 F200.000000
G1 X97.316039 F200.000000
G1 X97.320969 Y35.161125 F200.000000
G1 X97.325921 Y35.160100 F200.000000
G1 X97.427037 Y35.185335 F200.000000
G1 X97.528642 Y35.208525 F200.000000
G1 X97.532596 Y35.211678 F200.000000
G1 X97.537502 Y35.212902 F200.000000
G1 X97.728002 Y35.309422 F200.000000
G1 X97.787509 Y35.358873 F200.000000
G1 X97.853021 Y35.400038 F200.000000
G1 X97.947001 Y35.494018 F200.000000
G1 X97.988166 Y35.559530 F200.000000
G1 X98.037616 Y35.619037 F200.000000
G1 X98.069495 Y35.681956 F200.000000
G1 X98.083269 Y35.642592 F200.000000
G1 X98.088400 Y35.590864 F200.000000
G1 X98.118826 Y35.540977 F200.000000
G0 Z0.500000
G0 X97.661259 Y51.411669
G1 Z-0.040000 F60.000000
G1 Y52.369851 F200.000000
G1 X97.667593 Y52.367702 F200.000000
G1 X97.721996 Y52.313299 F200.000000
G1 X97.757923 Y52.242390 F200.000000
G1 X97.824260 Y51.973459 F200.000000
G1 Y51.808061 F200.000000
G1 X97.757923 Y51.539129 F200.000000
G1 X97.721996 Y51.468221 F200.000000
G1 X97.667593 Y51.413818 F200.000000
G1 X97.661259 Y51.411669 F200.000000
G0 Z0.500000
G0 X100.780444 Y52.112502
G1 Z-0.040000 F60.000000
G1 X100.805679 Y52.213618 F200.000000
G1 X100.804654 Y52.218570 F200.000000
G1 X100.805779 Y52.223500 F200.000000
G1 Y52.510520 F200.000000
G1 X100.804654 Y52.515450 F200.000000
G1 X100.805679 Y52.520401 F200.000000
G1 X100.780444 Y52.621518 F200.000000
G1 X100.757254 Y52.723123 F200.000000
G1 X100.754101 Y52.727076 F200.000000
G1 X100.752876 Y52.731982 F200.000000
G1 X100.656356 Y52.922482 F200.000000
G1 X100.606906 Y52.981989 F200.000000
G1 X100.565741 Y53.047502 F200.000000
G1 X100.471761 Y53.141482 F200.000000
G1 X100.406249 Y53.182646 F200.000000
G1 X100.346742 Y53.232097 F200.000000
G1 X100.156242 Y53.328617 F200.000000
G1 X100.151336 Y53.329841 F200.000000
G1 X100.147382 Y53.332994 F200.000000
G1 X100.045777 Y53.356185 F200.000000
G1 X99.944661 Y53.381420 F200.000000
G1 X99.939709 Y53.380394 F200.000000
G1 X99.934779 Y53.381519 F200.000000
G1 X99.172779 F200.000000
G1 X99.118954 Y53.369234 F200.000000
G1 X99.063744 F200.000000
G1 X99.014002 Y53.345279 F200.000000
G1 X98.960176 Y53.332994 F200.000000
G1 X98.917012 Y53.298571 F200.000000
G1 X98.867269 Y53.274617 F200.000000
G1 X98.832847 Y53.231452 F200.000000
G1 X98.789682 Y53.197030 F200.000000
G1 X98.765727 Y53.147287 F200.000000
G1 X98.731305 Y53.104123 F200.000000
G1 X98.719019 Y53.050297 F200.000000
G1 X98.695065 Y53.000555 F200.000000
G1 Y52.945345 F200.000000
G1 X98.682780 Y52.891520 F200.000000
G1 Y52.557658 F200.000000
G1 X98.670905 Y52.581255 F200.000000
G1 X98.657376 Y52.635462 F200.000000
G1 X98.560856 Y52.825962 F200.000000
G1 X98.511406 Y52.885469 F200.000000
G1 X98.470241 Y52.950982 F200.000000
G1 X98.279741 Y53.141482 F200.000000
G1 X98.277722 Y53.142751 F200.000000
G1 X98.276434 Y53.144758 F200.000000
G1 X98.185497 Y53.200699 F200.000000
G1 X98.095096 Y53.257502 F200.000000
G1 X98.092726 Y53.257769 F200.000000
G1 X98.090694 Y53.259019 F200.000000
G1 X97.806214 Y53.355539 F200.000000
G1 X97.726705 Y53.363733 F200.000000
G1 X97.648779 Y53.381519 F200.000000
G1 X97.171259 F200.000000
G1 X97.117434 Y53.369234 F200.000000
G1 X97.062224 F200.000000
G1 X97.012482 Y53.345279 F200.000000
G1 X96.958656 Y53.332994 F200.000000
G1 X96.915492 Y53.298571 F200.000000
G1 X96.865749 Y53.274617 F200.000000
G1 X96.831327 Y53.231452 F200.000000
G1 X96.788162 Y53.197030 F200.000000
G1 X96.764207 Y53.147287 F200.000000
G1 X96.729785 Y53.104123 F200.000000
G1 X96.717499 Y53.050297 F200.000000
G1 X96.693545 Y53.000555 F200.000000
G1 Y52.945345 F200.000000
G1 X96.681260 Y52.891520 F200.000000
G1 Y51.339947 F200.000000
G1 X96.505779 Y51.379999 F200.000000
G1 X96.043279 F200.000000
G1 Y52.891520 F200.000000
G1 X95.994754 Y53.104123 F200.000000
G1 X95.858789 Y53.274617 F200.000000
G1 X95.662314 Y53.369234 F200.000000
G1 X95.444244 F200.000000
G1 X95.247769 Y53.274617 F200.000000
G1 X95.111805 Y53.104123 F200.000000
G1 X95.063280 Y52.891520 F200.000000
G1 Y50.890000 F200.000000
G1 X95.075565 Y50.836174 F200.000000
G1 Y50.780965 F200.000000
G1 X95.099519 Y50.731222 F200.000000
G1 X95.111805 Y50.677397 F200.000000
G1 X95.146227 Y50.634232 F200.000000
G1 X95.170182 Y50.584490 F200.000000
G1 X95.213347 Y50.550067 F200.000000
G1 X95.247769 Y50.506903 F200.000000
G1 X95.297512 Y50.482948 F200.000000
G1 X95.340676 Y50.448525 F200.000000
G1 X95.394502 Y50.436240 F200.000000
G1 X95.444244 Y50.412285 F200.000000
G1 X95.499454 F200.000000
G1 X95.553279 Y50.400000 F200.000000
G1 X96.505779 F200.000000
G1 X96.718382 Y50.448525 F200.000000
G1 X96.836919 Y50.543055 F200.000000
G1 X96.865749 Y50.506903 F200.000000
G1 X96.915492 Y50.482948 F200.000000
G1 X96.958656 Y50.448525 F200.000000
G1 X97.012482 Y50.436240 F200.000000
G1 X97.062224 Y50.412285 F200.000000
G1 X97.117434 F200.000000
G1 X97.171259 Y50.400000 F200.000000
G1 X97.648779 F200.000000
G1 X97.726705 Y50.417786 F200.000000
G1 X97.806214 Y50.425980 F200.000000
G1 X98.090694 Y50.522500 F200.000000
G1 X98.092726 Y50.523750 F200.000000
G1 X98.095096 Y50.524017 F200.000000
G1 X98.185497 Y50.580820 F200.000000
G1 X98.276434 Y50.636761 F200.000000
G1 X98.277722 Y50.638769 F200.000000
G1 X98.279741 Y50.640038 F200.000000
G1 X98.470241 Y50.830538 F200.000000
G1 X98.511406 Y50.896050 F200.000000
G1 X98.560856 Y50.955557 F200.000000
G1 X98.657376 Y51.146057 F200.000000
G1 X98.670905 Y51.200264 F200.000000
G1 X98.682780 Y51.223861 F200.000000
G1 Y50.890000 F200.000000
G1 X98.731305 Y50.677397 F200.000000
G1 X98.867269 Y50.506903 F200.000000
G1 X99.063744 Y50.412285 F200.000000
G1 X99.281814 F200.000000
G1 X99.478289 Y50.506903 F200.000000
G1 X99.614254 Y50.677397 F200.000000
G1 X99.662779 Y50.890000 F200.000000
G1 Y50.967715 F200.000000
G1 X99.914607 Y50.608644 F200.000000
G1 X100.076411 Y50.462445 F200.000000
G1 X100.285625 Y50.400929 F200.000000
G1 X100.500811 Y50.436279 F200.000000
G1 X100.679349 Y50.561493 F200.000000
G1 X100.785878 Y50.751773 F200.000000
G1 X100.799298 Y50.969430 F200.000000
G1 X100.716951 Y51.171355 F200.000000
G1 X100.436917 Y51.570643 F200.000000
G1 X100.471761 Y51.592538 F200.000000
G1 X100.565741 Y51.686518 F200.000000
G1 X100.606906 Y51.752030 F200.000000
G1 X100.656356 Y51.811537 F200.000000
G1 X100.752876 Y52.002037 F200.000000
G1 X100.754101 Y52.006943 F200.000000
G1 X100.757254 Y52.010897 F200.000000
G1 X100.780444 Y52.112502 F200.000000
G0 Z0.500000
G0 X99.662779 Y52.332499
G1 Z-0.040000 F60.000000
G1 Y52.401520 F200.000000
G1 X99.817729 F200.000000
G1 X99.823072 Y52.398813 F200.000000
G1 X99.825780 Y52.393470 F200.000000
G1 Y52.340550 F200.000000
G1 X99.823072 Y52.335207 F200.000000
G1 X99.817729 Y52.332499 F200.000000
G1 X99.662779 F200.000000
G0 Z0.500000
G0 X96.909227 Y49.766365
G1 Z-0.040000 F60.000000
G1 X96.782999 Y49.254240 F200.000000
G1 X96.909227 Y48.742115 F200.000000
G1 X97.258992 Y48.347311 F200.000000
G1 X97.752168 Y48.160275 F200.000000
G1 X98.005276 Y48.191007 F200.000000
G1 X98.016358 Y48.184097 F200.000000
G1 X98.138546 Y48.170752 F200.000000
G1 X98.258379 Y48.143401 F200.000000
G1 X100.675054 F200.000000
G1 X100.814189 Y47.986349 F200.000000
G1 X101.301994 Y47.801349 F200.000000
G1 X101.819898 Y47.864233 F200.000000
G1 X102.249255 Y48.160597 F200.000000
G1 X102.491704 Y48.622546 F200.000000
G1 Y49.144253 F200.000000
G1 X102.249255 Y49.606202 F200.000000
G1 X101.819898 Y49.902566 F200.000000
G1 X101.301994 Y49.965451 F200.000000
G1 X100.814189 Y49.780451 F200.000000
G1 X100.675054 Y49.623399 F200.000000
G1 X98.899641 F200.000000
G1 X98.709858 Y49.985001 F200.000000
G1 X98.275774 Y50.284628 F200.000000
G1 X97.752168 Y50.348205 F200.000000
G1 X97.258992 Y50.161168 F200.000000
G1 X96.909227 Y49.766365 F200.000000
G0 Z0.500000
G0 X92.914219 Y42.374239
G1 Z-0.040000 F60.000000
G1 X92.793182 Y42.346613 F200.000000
G1 X92.669813 Y42.332713 F200.000000
G1 X92.645050 Y42.317153 F200.000000
G1 X92.411994 Y42.345451 F200.000000
G1 X91.924189 Y42.160451 F200.000000
G1 X91.639998 Y41.839665 F200.000000
G1 Y45.137722 F200.000000
G1 X92.478480 Y45.976203 F200.000000
G1 X92.797053 F200.000000
G1 X93.254157 Y46.196333 F200.000000
G1 X93.570482 Y46.592993 F200.000000
G1 X93.683378 Y47.087620 F200.000000
G1 X93.570482 Y47.582246 F200.000000
G1 X93.254157 Y47.978906 F200.000000
G1 X92.797053 Y48.199036 F200.000000
G1 X92.289706 F200.000000
G1 X91.832602 Y47.978906 F200.000000
G1 X91.516276 Y47.582246 F200.000000
G1 X91.403381 Y47.087620 F200.000000
G1 X91.420752 Y47.011510 F200.000000
G1 X90.376741 Y45.967498 F200.000000
G1 X90.310689 Y45.862378 F200.000000
G1 X90.233283 Y45.765313 F200.000000
G1 X90.223918 Y45.724282 F200.000000
G1 X90.201526 Y45.688646 F200.000000
G1 X90.187626 Y45.565277 F200.000000
G1 X90.160000 Y45.444240 F200.000000
G1 Y40.364240 F200.000000
G1 X90.187740 Y40.242704 F200.000000
G1 X90.201873 Y40.118846 F200.000000
G0 Z0.500000
G0 X103.666861 Y40.207619
G1 Z-0.040000 F60.000000
G1 X103.314130 F200.000000
G1 X103.615678 Y40.244233 F200.000000
G1 X103.899126 Y40.439883 F200.000000
G1 X103.666861 Y40.207619 F200.000000
G0 Z0.500000
G0 X104.094955 Y40.635713
G1 Z-0.040000 F60.000000
G1 X104.130000 Y40.702485 F200.000000
G1 Y40.670757 F200.000000
G1 X104.094955 Y40.635713 F200.000000
G0 Z0.500000
G0 X91.639998 Y40.671371
G1 Z-0.040000 F60.000000
G1 Y40.687134 F200.000000
G1 X91.759787 Y40.551920 F200.000000
G1 X91.639998 Y40.671371 F200.000000
G0 Z0.500000
G0 X91.959200 Y40.353071
G1 Z-0.040000 F60.000000
G1 X92.342725 Y40.207619 F200.000000
G1 X92.105064 F200.000000
G1 X91.959200 Y40.353071 F200.000000
G0 Z0.500000
G0 X98.118826 Y35.540977
G1 Z-0.040000 F60.000000
G1 X98.138125 Y35.485824 F200.000000
G1 X98.174882 Y35.449067 F200.000000
G1 X98.201949 Y35.404688 F200.000000
G1 X98.295929 Y35.308168 F200.000000
G1 X98.322073 Y35.291250 F200.000000
G1 X98.341489 Y35.266903 F200.000000
G1 X98.366598 Y35.254811 F200.000000
G1 X98.386304 Y35.235105 F200.000000
G1 X98.435369 Y35.217936 F200.000000
G1 X98.479011 Y35.189696 F200.000000
G1 X98.509907 Y35.185797 F200.000000
G1 X98.537964 Y35.172285 F200.000000
G1 X98.565832 F200.000000
G1 X98.592137 Y35.163081 F200.000000
G1 X98.643792 Y35.168901 F200.000000
G1 X98.695365 Y35.162393 F200.000000
G1 X98.724893 Y35.172285 F200.000000
G1 X98.756034 F200.000000
G1 X98.781143 Y35.184377 F200.000000
G1 X98.808836 Y35.187497 F200.000000
G1 X98.852850 Y35.215153 F200.000000
G1 X98.902140 Y35.231666 F200.000000
G1 X98.924452 Y35.253391 F200.000000
G1 X98.952509 Y35.266903 F200.000000
G1 X98.969885 Y35.288691 F200.000000
G1 X98.993481 Y35.303518 F200.000000
G1 X99.090001 Y35.400038 F200.000000
G1 X99.093211 Y35.405146 F200.000000
G1 X99.122422 Y35.344490 F200.000000
G1 X99.292916 Y35.208525 F200.000000
G1 X99.505519 Y35.160000 F200.000000
G1 X100.648519 F200.000000
G1 X100.861122 Y35.208525 F200.000000
G1 X101.031616 Y35.344490 F200.000000
G1 X101.126234 Y35.540965 F200.000000
G1 Y35.759035 F200.000000
G1 X101.031616 Y35.955510 F200.000000
G1 X100.861122 Y36.091474 F200.000000
G1 X100.648519 Y36.139999 F200.000000
G1 X100.567019 F200.000000
G1 Y37.651520 F200.000000
G1 X100.550058 Y37.725831 F200.000000
G1 X100.543417 Y37.801764 F200.000000
G1 X100.526057 Y37.830985 F200.000000
G1 X100.518494 Y37.864123 F200.000000
G1 X100.470970 Y37.923716 F200.000000
G1 X100.432040 Y37.989247 F200.000000
G1 X100.403721 Y38.008043 F200.000000
G1 X100.382529 Y38.034617 F200.000000
G1 X100.313855 Y38.067689 F200.000000
G1 X100.250348 Y38.109839 F200.000000
G1 X100.216678 Y38.114487 F200.000000
G1 X100.186054 Y38.129234 F200.000000
G1 X100.109832 F200.000000
G1 X100.034325 Y38.139656 F200.000000
G1 X100.001973 Y38.129234 F200.000000
G1 X99.967984 F200.000000
G1 X99.899310 Y38.096162 F200.000000
G1 X99.826759 Y38.072791 F200.000000
G1 X99.802133 Y38.049364 F200.000000
G1 X99.771509 Y38.034617 F200.000000
G1 X99.723985 Y37.975024 F200.000000
G1 X99.668760 Y37.922488 F200.000000
G1 X99.505371 Y37.676316 F200.000000
G1 X99.406715 Y37.577659 F200.000000
G1 X99.288731 Y37.519454 F200.000000
G1 X99.119537 Y37.381876 F200.000000
G1 X99.026790 Y37.184511 F200.000000
G1 X99.028862 Y36.966451 F200.000000
G1 X99.125342 Y36.770884 F200.000000
G1 X99.297120 Y36.636545 F200.000000
G1 X99.510175 Y36.590042 F200.000000
G1 X99.587020 Y36.608351 F200.000000
G1 Y36.139999 F200.000000
G1 X99.505519 F200.000000
G1 X99.292916 Y36.091474 F200.000000
G1 X99.164707 Y35.989231 F200.000000
G1 X99.158414 Y36.007215 F200.000000
G1 X99.117096 Y36.048533 F200.000000
G1 X99.085351 Y36.097590 F200.000000
G1 X98.988831 Y36.191570 F200.000000
G1 X98.967839 Y36.204373 F200.000000
G1 X98.952509 Y36.223597 F200.000000
G1 X98.927401 Y36.235688 F200.000000
G1 X98.907695 Y36.255394 F200.000000
G1 X98.852541 Y36.274693 F200.000000
G1 X98.802655 Y36.305119 F200.000000
G1 X98.778187 Y36.307546 F200.000000
G1 X98.756034 Y36.318214 F200.000000
G1 X98.728166 F200.000000
G1 X98.701862 Y36.327418 F200.000000
G1 X98.643797 Y36.320876 F200.000000
G1 X98.585650 Y36.326644 F200.000000
G1 X98.562552 Y36.318214 F200.000000
G1 X98.537964 F200.000000
G1 X98.512856 Y36.306123 F200.000000
G1 X98.485163 Y36.303002 F200.000000
G1 X98.435686 Y36.271914 F200.000000
G1 X98.380795 Y36.251882 F200.000000
G1 X98.363642 Y36.234265 F200.000000
G1 X98.341489 Y36.223597 F200.000000
G1 X98.324114 Y36.201809 F200.000000
G1 X98.300517 Y36.186982 F200.000000
G1 X98.220452 Y36.106917 F200.000000
G1 X98.266760 Y36.294650 F200.000000
G1 X98.267796 Y36.354065 F200.000000
G1 X98.281019 Y36.412000 F200.000000
G1 Y36.889520 F200.000000
G1 X98.267796 Y36.947454 F200.000000
G1 X98.266760 Y37.006869 F200.000000
G1 X98.172780 Y37.387869 F200.000000
G1 X98.147665 Y37.437775 F200.000000
G1 X98.134136 Y37.491982 F200.000000
G1 X98.037616 Y37.682482 F200.000000
G1 X97.988166 Y37.741989 F200.000000
G1 X97.947001 Y37.807502 F200.000000
G1 X97.853021 Y37.901482 F200.000000
G1 X97.787509 Y37.942646 F200.000000
G1 X97.728002 Y37.992097 F200.000000
G1 X97.727720 Y37.992240 F200.000000
G1 X98.986999 F200.000000
G1 Y38.354241 F200.000000
G1 X101.059999 F200.000000
G1 X101.143979 Y38.373408 F200.000000
G1 X101.179706 Y38.356203 F200.000000
G1 X101.687053 F200.000000
G1 X102.144157 Y38.576333 F200.000000
G1 X102.264804 Y38.727621 F200.000000
G1 X103.973379 F200.000000
G1 X104.094416 Y38.755246 F200.000000
G1 X104.217785 Y38.769147 F200.000000
G1 X104.253421 Y38.791538 F200.000000
G1 X104.294453 Y38.800903 F200.000000
G1 X104.391517 Y38.878310 F200.000000
G1 X104.496638 Y38.944361 F200.000000
G1 X105.393258 Y39.840981 F200.000000
G1 X105.459309 Y39.946102 F200.000000
G1 X105.536715 Y40.043166 F200.000000
G1 X105.546081 Y40.084198 F200.000000
G1 X105.568472 Y40.119833 F200.000000
G1 X105.582372 Y40.243203 F200.000000
G1 X105.609998 Y40.364240 F200.000000
G1 Y45.444240 F200.000000
G1 X105.582435 Y45.565004 F200.000000
G1 X105.568661 Y45.688106 F200.000000
G1 X105.546144 Y45.724002 F200.000000
G1 X105.536715 Y45.765313 F200.000000
G1 X105.459484 Y45.862159 F200.000000
G1 X105.393662 Y45.967093 F200.000000
G1 X104.351614 Y47.010755 F200.000000
G1 X104.369158 Y47.087620 F200.000000
G1 X104.256262 Y47.582246 F200.000000
G1 X103.939937 Y47.978906 F200.000000
G1 X103.482833 Y48.199036 F200.000000
G1 X102.975486 F200.000000
G1 X102.518382 Y47.978906 F200.000000
G1 X102.202056 Y47.582246 F200.000000
G1 X102.089161 Y47.087620 F200.000000
G1 X102.202056 Y46.592993 F200.000000
G1 X102.518382 Y46.196333 F200.000000
G1 X102.975486 Y45.976203 F200.000000
G1 X103.293149 F200.000000
G1 X104.130000 Y45.138057 F200.000000
G1 Y41.824315 F200.000000
G1 X104.045035 Y41.986202 F200.000000
G1 X103.615678 Y42.282566 F200.000000
G1 X103.206872 Y42.332204 F200.000000
G1 X100.841578 Y44.697498 F200.000000
G1 X100.736457 Y44.763550 F200.000000
G1 X100.639393 Y44.840956 F200.000000
G1 X100.598361 Y44.850321 F200.000000
G1 X100.562725 Y44.872713 F200.000000
G1 X100.439356 Y44.886613 F200.000000
G1 X100.318319 Y44.914239 F200.000000
G1 X98.696474 F200.000000
G1 X98.275774 Y45.204628 F200.000000
G1 X97.752168 Y45.268205 F200.000000
G1 X97.258992 Y45.081168 F200.000000
G1 X96.909227 Y44.686365 F200.000000
G1 X96.782999 Y44.174240 F200.000000
G1 X96.909227 Y43.662115 F200.000000
G1 X97.258992 Y43.267311 F200.000000
G1 X97.752168 Y43.080275 F200.000000
G1 X98.275774 Y43.143852 F200.000000
G1 X98.696474 Y43.434240 F200.000000
G1 X100.011801 F200.000000
G1 X102.147759 Y41.298283 F200.000000
G1 X102.139161 Y41.263400 F200.000000
G1 X102.264013 Y40.756852 F200.000000
G1 X102.609969 Y40.366349 F200.000000
G1 X103.028505 Y40.207619 F200.000000
G1 X102.264804 Y40.207619 F200.000000
G1 X102.144157 Y40.358906 F200.000000
G1 X101.687053 Y40.579036 F200.000000
G1 X101.179706 F200.000000
G1 X100.722602 Y40.358906 F200.000000
G1 X100.406276 Y39.962246 F200.000000
G1 X100.377059 Y39.834239 F200.000000
G1 X98.986999 Y39.834239 F200.000000
G1 Y40.196240 F200.000000
G1 X96.782999 F200.000000
G1 Y39.834239 F200.000000
G1 X95.395479 Y39.834239 F200.000000
G1 X95.366262 Y39.962246 F200.000000
G1 X95.049937 Y40.358906 F200.000000
G1 X94.592833 Y40.579036 F200.000000
G1 X94.085486 F200.000000
G1 X93.628382 Y40.358906 F200.000000
G1 X93.507734 Y40.207619 F200.000000
G1 X92.628350 Y40.207619 F200.000000
G1 X92.929898 Y40.244233 F200.000000
G1 X93.359255 Y40.540597 F200.000000
G1 X93.544861 Y40.894240 F200.000000
G1 X97.111106 Y40.894240 F200.000000
G1 X97.258992 Y40.727311 F200.000000
G1 X97.752168 Y40.540275 F200.000000
G1 X98.275774 Y40.603852 F200.000000
G1 X98.709858 Y40.903479 F200.000000
G1 X98.954977 Y41.370514 F200.000000
G1 Y41.897966 F200.000000
G1 X98.709858 Y42.365001 F200.000000
G1 X98.275774 Y42.664628 F200.000000
G1 X97.752168 Y42.728205 F200.000000
G1 X97.258992 Y42.541168 F200.000000
G1 X97.111106 Y42.374239 F200.000000
G1 X92.914219 F200.000000

(Goto to Initial position)
G0 Z0.500000
G0 X0.000000 Y0.000000
G0 Z0.000000
