(Generated by ./pygerber2gcode_cui_MOD.py )
( 2013-11-01 20:28:12 )
(Initialize)

(Start form here)
G0 Z0.500000
G0 X132.744624 Y82.054122
G1 Z-0.040000 F60.000000
G1 X132.715134 Y82.068324 F200.000000
G1 X132.689543 Y82.088731 F200.000000
G1 X132.657632 Y82.096015 F200.000000
G1 X132.628142 Y82.110217 F200.000000
G1 X132.595411 F200.000000
G1 X132.563500 Y82.117500 F200.000000
G1 X5.690500 F200.000000
G1 X5.658589 Y82.110217 F200.000000
G1 X5.625858 F200.000000
G1 X5.596368 Y82.096015 F200.000000
G1 X5.564457 Y82.088731 F200.000000
G1 X5.538866 Y82.068324 F200.000000
G1 X5.509376 Y82.054122 F200.000000
G1 X5.488968 Y82.028532 F200.000000
G1 X5.463378 Y82.008124 F200.000000
G1 X5.449176 Y81.978634 F200.000000
G1 X5.428769 Y81.953043 F200.000000
G1 X5.421485 Y81.921132 F200.000000
G1 X5.407283 Y81.891642 F200.000000
G1 Y81.858911 F200.000000
G1 X5.400000 Y81.827000 F200.000000
G1 Y5.690500 F200.000000
G1 X5.407283 Y5.658589 F200.000000
G1 Y5.625858 F200.000000
G1 X5.421485 Y5.596368 F200.000000
G1 X5.428769 Y5.564457 F200.000000
G1 X5.449176 Y5.538866 F200.000000
G1 X5.463378 Y5.509376 F200.000000
G1 X5.488968 Y5.488968 F200.000000
G1 X5.509376 Y5.463378 F200.000000
G1 X5.538866 Y5.449176 F200.000000
G1 X5.564457 Y5.428769 F200.000000
G1 X5.596368 Y5.421485 F200.000000
G1 X5.625858 Y5.407283 F200.000000
G1 X5.658589 F200.000000
G1 X5.690500 Y5.400000 F200.000000
G1 X132.563500 F200.000000
G1 X132.595411 Y5.407283 F200.000000
G1 X132.628142 F200.000000
G1 X132.657632 Y5.421485 F200.000000
G1 X132.689543 Y5.428769 F200.000000
G1 X132.715134 Y5.449176 F200.000000
G1 X132.744624 Y5.463378 F200.000000
G1 X132.765032 Y5.488968 F200.000000
G1 X132.790622 Y5.509376 F200.000000
G1 X132.804824 Y5.538866 F200.000000
G1 X132.825231 Y5.564457 F200.000000
G1 X132.832515 Y5.596368 F200.000000
G1 X132.846717 Y5.625858 F200.000000
G1 Y5.658589 F200.000000
G1 X132.854000 Y5.690500 F200.000000
G1 Y81.827000 F200.000000
G1 X132.846717 Y81.858911 F200.000000
G1 Y81.891642 F200.000000
G1 X132.832515 Y81.921132 F200.000000
G1 X132.825231 Y81.953043 F200.000000
G1 X132.804824 Y81.978634 F200.000000
G1 X132.790622 Y82.008124 F200.000000
G1 X132.765032 Y82.028532 F200.000000
G1 X132.744624 Y82.054122 F200.000000
G0 Z0.500000
G0 X6.890980 Y20.615841
G1 Z-0.040000 F60.000000
G1 Y10.726635 F200.000000
G1 X6.618613 Y10.067220 F200.000000
G1 X6.611389 Y10.024443 F200.000000
G1 X6.601426 Y9.982221 F200.000000
G1 X6.593806 Y8.940821 F200.000000
G1 X6.593989 Y8.939990 F200.000000
G1 X6.593800 Y8.939160 F200.000000
G1 Y5.981000 F200.000000
G1 X6.547420 F200.000000
G1 Y20.771763 F200.000000
G1 X6.838118 Y20.629960 F200.000000
G1 X6.875749 Y20.621171 F200.000000
G1 X6.890980 Y20.615841 F200.000000
G0 Z0.500000
G0 X7.528520 Y7.537381
G1 Z-0.040000 F60.000000
G1 Y5.981000 F200.000000
G1 X7.047800 F200.000000
G1 Y7.818713 F200.000000
G1 X7.056487 Y7.806209 F200.000000
G1 X7.076448 Y7.794917 F200.000000
G1 X7.093028 Y7.779071 F200.000000
G1 X7.458788 Y7.560631 F200.000000
G1 X7.504449 Y7.545804 F200.000000
G1 X7.528520 Y7.537381 F200.000000
G0 Z0.500000
G0 X56.913740 Y6.263600
G1 Z-0.040000 F60.000000
G1 Y5.981000 F200.000000
G1 X38.571740 F200.000000
G1 Y6.263600 F200.000000
G1 X39.663000 F200.000000
G1 X56.913740 F200.000000
G0 Z0.500000
G0 X57.495400
G1 Z-0.040000 F60.000000
G1 Y5.981000 F200.000000
G1 X57.367740 F200.000000
G1 Y6.263600 F200.000000
G1 X57.495400 F200.000000
G0 Z0.500000
G0 X67.655400
G1 Z-0.040000 F60.000000
G1 Y5.981000 F200.000000
G1 X57.949400 F200.000000
G1 Y6.263600 F200.000000
G1 X67.655400 F200.000000
G0 Z0.500000
G0 X77.769680
G1 Z-0.040000 F60.000000
G1 Y5.981000 F200.000000
G1 X68.109400 F200.000000
G1 Y6.263600 F200.000000
G1 X77.769680 F200.000000
G0 Z0.500000
G0 X83.532940
G1 Z-0.040000 F60.000000
G1 Y5.981000 F200.000000
G1 X78.223680 F200.000000
G1 Y6.263600 F200.000000
G1 X83.532940 F200.000000
G0 Z0.500000
G0 X84.267000
G1 Z-0.040000 F60.000000
G1 Y5.981000 F200.000000
G1 X83.986940 F200.000000
G1 Y6.263600 F200.000000
G1 X84.267000 F200.000000
G0 Z0.500000
G0 X103.852940
G1 Z-0.040000 F60.000000
G1 Y5.981000 F200.000000
G1 X84.721000 F200.000000
G1 Y6.263600 F200.000000
G1 X85.637000 F200.000000
G1 X103.852940 F200.000000
G0 Z0.500000
G0 X104.587000
G1 Z-0.040000 F60.000000
G1 Y5.981000 F200.000000
G1 X104.306940 F200.000000
G1 Y6.263600 F200.000000
G1 X104.587000 F200.000000
G0 Z0.500000
G0 X125.973800 Y8.930600
G1 Z-0.040000 F60.000000
G1 Y5.981000 F200.000000
G1 X105.041000 F200.000000
G1 Y6.263600 F200.000000
G1 X105.957000 F200.000000
G1 X122.340000 F200.000000
G1 X122.422829 Y6.282505 F200.000000
G1 X122.507253 Y6.292017 F200.000000
G1 X122.531640 Y6.307341 F200.000000
G1 X122.559719 Y6.313749 F200.000000
G1 X122.626142 Y6.366720 F200.000000
G1 X122.698079 Y6.411921 F200.000000
G1 X125.216758 Y8.930600 F200.000000
G1 X125.973800 F200.000000
G0 Z0.500000
G0 X126.908520 Y7.537381
G1 Z-0.040000 F60.000000
G1 Y5.981000 F200.000000
G1 X126.427800 F200.000000
G1 Y7.818713 F200.000000
G1 X126.436487 Y7.806209 F200.000000
G1 X126.456448 Y7.794917 F200.000000
G1 X126.473028 Y7.779071 F200.000000
G1 X126.838788 Y7.560631 F200.000000
G1 X126.884449 Y7.545804 F200.000000
G1 X126.908520 Y7.537381 F200.000000
G0 Z0.500000
G0 X10.971888 Y30.777254
G1 Z-0.040000 F60.000000
G1 X10.741750 Y30.547116 F200.000000
G1 X10.715841 Y30.565940 F200.000000
G1 X10.190159 F200.000000
G1 X10.164250 Y30.547116 F200.000000
G1 X9.937558 Y30.773808 F200.000000
G1 X10.288054 Y30.899359 F200.000000
G1 X10.742118 Y30.873657 F200.000000
G1 X10.971487 Y30.778746 F200.000000
G1 X10.971888 Y30.777254 F200.000000
G0 Z0.500000
G0 X14.482719 Y30.213251
G1 Z-0.040000 F60.000000
G1 X14.454640 Y30.219659 F200.000000
G1 X14.430253 Y30.234983 F200.000000
G1 X14.345829 Y30.244495 F200.000000
G1 X14.263000 Y30.263400 F200.000000
G1 X13.164251 F200.000000
G1 X12.747841 Y30.565940 F200.000000
G1 X12.222159 F200.000000
G1 X11.796874 Y30.256953 F200.000000
G1 X11.634430 Y29.757000 F200.000000
G1 X11.796874 Y29.257047 F200.000000
G1 X12.222159 Y28.948060 F200.000000
G1 X12.747841 F200.000000
G1 X13.164251 Y29.250600 F200.000000
G1 X14.053242 F200.000000
G1 X14.671000 Y28.632842 F200.000000
G1 Y25.058000 F200.000000
G1 X14.689905 Y24.975171 F200.000000
G1 X14.699417 Y24.890747 F200.000000
G1 X14.714741 Y24.866360 F200.000000
G1 X14.721149 Y24.838281 F200.000000
G1 X14.774120 Y24.771858 F200.000000
G1 X14.819321 Y24.699921 F200.000000
G1 X15.987721 Y23.531521 F200.000000
G1 X16.059658 Y23.486320 F200.000000
G1 X16.126081 Y23.433349 F200.000000
G1 X16.154160 Y23.426941 F200.000000
G1 X16.178547 Y23.411617 F200.000000
G1 X16.262971 Y23.402105 F200.000000
G0 Z0.500000
G0 X20.947754 Y23.121374
G1 Z-0.040000 F60.000000
G1 X20.930942 Y23.125211 F200.000000
G1 X20.916341 Y23.134385 F200.000000
G1 X20.865793 Y23.140081 F200.000000
G1 X20.816200 Y23.151400 F200.000000
G1 X15.582390 Y23.151400 F200.000000
G1 X12.976978 Y25.756812 F200.000000
G1 X12.991400 Y25.820000 F200.000000
G1 Y27.093016 F200.000000
G1 X13.173126 Y27.225047 F200.000000
G1 X13.335570 Y27.725000 F200.000000
G1 X13.173126 Y28.224953 F200.000000
G1 X12.747841 Y28.533940 F200.000000
G1 X12.222159 F200.000000
G1 X11.796874 Y28.224953 F200.000000
G1 X11.634430 Y27.725000 F200.000000
G1 X11.796874 Y27.225047 F200.000000
G1 X11.978600 Y27.093016 F200.000000
G1 Y25.820000 F200.000000
G1 X12.028749 Y25.600281 F200.000000
G1 X12.169265 Y25.424081 F200.000000
G1 X12.372315 Y25.326297 F200.000000
G1 X12.549914 F200.000000
G1 X15.242405 Y22.633805 F200.000000
G1 X15.285476 Y22.606742 F200.000000
G1 X15.325246 Y22.575026 F200.000000
G1 X15.342058 Y22.571189 F200.000000
G1 X15.356659 Y22.562015 F200.000000
G1 X15.407207 Y22.556319 F200.000000
G0 Z0.500000
G0 X6.890992 Y36.373642
G1 Z-0.040000 F60.000000
G1 X7.076916 Y36.187717 F200.000000
G1 X6.899433 Y35.839387 F200.000000
G1 X6.821130 Y35.345000 F200.000000
G1 X6.899433 Y34.850613 F200.000000
G1 X7.076916 Y34.502283 F200.000000
G1 X6.891627 Y34.316993 F200.000000
G1 X6.804122 Y34.359679 F200.000000
G1 X6.548341 Y35.009790 F200.000000
G1 X6.564239 Y35.754755 F200.000000
G1 X6.802289 Y36.329867 F200.000000
G1 X6.890992 Y36.373642 F200.000000
G0 Z0.500000
G0 X9.765084 Y34.502283
G1 Z-0.040000 F60.000000
G1 X9.942567 Y34.850613 F200.000000
G1 X10.020870 Y35.345000 F200.000000
G1 X9.942567 Y35.839387 F200.000000
G1 X9.765084 Y36.187717 F200.000000
G1 X9.950373 Y36.373007 F200.000000
G1 X10.037878 Y36.330321 F200.000000
G1 X10.293659 Y35.680210 F200.000000
G1 X10.277761 Y34.935245 F200.000000
G1 X10.039939 Y34.360684 F200.000000
G1 X9.950373 Y34.316993 F200.000000
G1 X9.765084 Y34.502283 F200.000000
G0 Z0.500000
G0 X8.927400 Y33.539694
G1 Z-0.040000 F60.000000
G1 Y33.829554 F200.000000
G1 X9.263717 Y34.000916 F200.000000
G1 X9.449007 Y33.815627 F200.000000
G1 X9.406321 Y33.728122 F200.000000
G1 X8.927400 Y33.539694 F200.000000
G0 Z0.500000
G0 X7.838353 Y37.122469
G1 Z-0.040000 F60.000000
G1 X7.914600 Y37.151898 F200.000000
G1 Y36.860446 F200.000000
G1 X7.578283 Y36.689084 F200.000000
G1 X7.392993 Y36.874373 F200.000000
G1 X7.435899 Y36.962331 F200.000000
G1 X7.838353 Y37.122469 F200.000000
G0 Z0.500000
G0 X9.263717 Y36.689084
G1 Z-0.040000 F60.000000
G1 X8.927400 Y36.860446 F200.000000
G1 Y37.161758 F200.000000
G1 X9.405316 Y36.963939 F200.000000
G1 X9.449007 Y36.874373 F200.000000
G1 X9.263717 Y36.689084 F200.000000
G0 Z0.500000
G0 X7.392993 Y33.815627
G1 Z-0.040000 F60.000000
G1 X7.578283 Y34.000916 F200.000000
G1 X7.914600 Y33.829554 F200.000000
G1 Y33.528242 F200.000000
G1 X7.436684 Y33.726061 F200.000000
G1 X7.392993 Y33.815627 F200.000000
G0 Z0.500000
G0 X6.891627 Y23.165007
G1 Z-0.040000 F60.000000
G1 X7.076916 Y22.979717 F200.000000
G1 X6.899433 Y22.631387 F200.000000
G1 X6.821130 Y22.137000 F200.000000
G1 X6.899433 Y21.642613 F200.000000
G1 X7.076916 Y21.294283 F200.000000
G1 X6.891627 Y21.108993 F200.000000
G1 X6.804122 Y21.151679 F200.000000
G1 X6.548341 Y21.801790 F200.000000
G1 X6.564239 Y22.546755 F200.000000
G1 X6.802061 Y23.121316 F200.000000
G1 X6.891627 Y23.165007 F200.000000
G0 Z0.500000
G0 X7.392993 Y20.607627
G1 Z-0.040000 F60.000000
G1 X7.578283 Y20.792916 F200.000000
G1 X7.926613 Y20.615433 F200.000000
G1 X8.421000 Y20.537130 F200.000000
G1 X8.915387 Y20.615433 F200.000000
G1 X9.104523 Y20.711803 F200.000000
G1 X9.305091 Y20.480294 F200.000000
G1 X8.756210 Y20.264341 F200.000000
G1 X8.011245 Y20.280239 F200.000000
G1 X7.436684 Y20.518061 F200.000000
G1 X7.392993 Y20.607627 F200.000000
G0 Z0.500000
G0 X10.047262 Y21.170376
G1 Z-0.040000 F60.000000
G1 X9.829829 Y21.421352 F200.000000
G1 X9.942567 Y21.642613 F200.000000
G1 X10.020870 Y22.137000 F200.000000
G1 X9.942567 Y22.631387 F200.000000
G1 X9.765084 Y22.979717 F200.000000
G1 X9.950373 Y23.165007 F200.000000
G1 X10.037878 Y23.122321 F200.000000
G1 X10.293659 Y22.472210 F200.000000
G1 X10.277761 Y21.727245 F200.000000
G1 X10.047262 Y21.170376 F200.000000
G0 Z0.500000
G0 X7.435679 Y23.753878
G1 Z-0.040000 F60.000000
G1 X7.914600 Y23.942306 F200.000000
G1 Y23.652446 F200.000000
G1 X7.578283 Y23.481084 F200.000000
G1 X7.392993 Y23.666373 F200.000000
G1 X7.435679 Y23.753878 F200.000000
G0 Z0.500000
G0 X9.263717 Y23.481084
G1 Z-0.040000 F60.000000
G1 X8.927400 Y23.652446 F200.000000
G1 Y23.954574 F200.000000
G1 X8.984756 Y23.931179 F200.000000
G1 X9.405203 Y23.756170 F200.000000
G1 X9.449007 Y23.666373 F200.000000
G1 X9.263717 Y23.481084 F200.000000
G0 Z0.500000
G0 X43.440815 Y59.628859
G1 Z-0.040000 F60.000000
G1 X43.449989 Y59.614258 F200.000000
G1 X43.453826 Y59.597446 F200.000000
G1 X43.485542 Y59.557676 F200.000000
G1 X43.512605 Y59.514605 F200.000000
G1 X47.440309 Y55.586901 F200.000000
G1 X47.145000 Y55.372347 F200.000000
G1 X46.992500 Y54.903000 F200.000000
G1 X47.145000 Y54.433653 F200.000000
G1 X47.487800 Y54.184595 F200.000000
G1 Y52.996590 F200.000000
G1 X45.379410 Y50.888200 F200.000000
G0 Z0.500000
G0 X36.985000 Y55.372347
G1 Z-0.040000 F60.000000
G1 X36.832500 Y54.903000 F200.000000
G1 X36.985000 Y54.433653 F200.000000
G1 X37.384250 Y54.143581 F200.000000
G1 X37.877750 F200.000000
G1 X38.226000 Y54.396600 F200.000000
G1 X39.576000 Y54.396600 F200.000000
G1 X39.924250 Y54.143581 F200.000000
G1 X40.417750 F200.000000
G1 X40.817000 Y54.433653 F200.000000
G1 X40.969500 Y54.903000 F200.000000
G1 X40.817000 Y55.372347 F200.000000
G1 X40.417750 Y55.662419 F200.000000
G1 X39.924250 F200.000000
G1 X39.576000 Y55.409400 F200.000000
G1 X38.226000 Y55.409400 F200.000000
G1 X37.877750 Y55.662419 F200.000000
G1 X37.384250 F200.000000
G1 X36.985000 Y55.372347 F200.000000
G0 Z0.500000
G0 X52.363000 Y48.856200
G1 Z-0.040000 F60.000000
G1 X36.740590 Y48.856200 F200.000000
G1 X35.394200 Y50.202590 F200.000000
G1 Y54.184595 F200.000000
G1 X35.737000 Y54.433653 F200.000000
G1 X35.889500 Y54.903000 F200.000000
G1 X35.737000 Y55.372347 F200.000000
G1 X35.337750 Y55.662419 F200.000000
G1 X34.844250 F200.000000
G1 X34.445000 Y55.372347 F200.000000
G1 X34.292500 Y54.903000 F200.000000
G1 X34.445000 Y54.433653 F200.000000
G1 X34.787800 Y54.184595 F200.000000
G1 Y50.077000 F200.000000
G1 X34.799119 Y50.027407 F200.000000
G1 X34.804815 Y49.976859 F200.000000
G1 X34.813989 Y49.962258 F200.000000
G1 X34.817826 Y49.945446 F200.000000
G1 X34.849542 Y49.905676 F200.000000
G1 X34.876605 Y49.862605 F200.000000
G1 X36.400605 Y48.338605 F200.000000
G0 Z0.500000
G0 X50.077000 Y47.332200
G1 Z-0.040000 F60.000000
G1 X34.200590 F200.000000
G1 X32.854200 Y48.678590 F200.000000
G1 Y54.184595 F200.000000
G1 X33.197000 Y54.433653 F200.000000
G1 X33.349500 Y54.903000 F200.000000
G1 X33.197000 Y55.372347 F200.000000
G1 X32.797750 Y55.662419 F200.000000
G1 X32.304250 F200.000000
G1 X31.905000 Y55.372347 F200.000000
G1 X31.752500 Y54.903000 F200.000000
G1 X31.905000 Y54.433653 F200.000000
G1 X32.247800 Y54.184595 F200.000000
G1 Y48.553000 F200.000000
G1 X32.259119 Y48.503407 F200.000000
G1 X32.264815 Y48.452859 F200.000000
G1 X32.273989 Y48.438258 F200.000000
G0 Z0.500000
G0 X97.015251 Y63.827281
G1 Z-0.040000 F60.000000
G1 X97.021659 Y63.855360 F200.000000
G1 X97.036983 Y63.879747 F200.000000
G1 X97.046495 Y63.964171 F200.000000
G1 X97.065400 Y64.047000 F200.000000
G1 Y66.804500 F200.000000
G1 X97.357500 F200.000000
G1 Y67.685342 F200.000000
G1 X106.065158 Y76.393000 F200.000000
G1 X107.581000 F200.000000
G1 Y79.133000 F200.000000
G1 X104.841000 F200.000000
G1 Y76.601158 F200.000000
G1 X97.065400 Y68.825558 F200.000000
G1 Y70.962223 F200.000000
G1 X97.140123 Y70.996348 F200.000000
G1 X97.410454 Y71.416991 F200.000000
G1 Y71.917009 F200.000000
G1 X97.140123 Y72.337652 F200.000000
G1 X96.685290 Y72.545368 F200.000000
G1 X96.190361 Y72.474207 F200.000000
G1 X95.812472 Y72.146765 F200.000000
G0 Z0.500000
G1 Z-0.040000 F60.000000
G1 X95.671600 Y71.667000 F200.000000
G1 X95.812472 Y71.187235 F200.000000
G1 X96.052600 Y70.979163 F200.000000
G1 Y68.401500 F200.000000
G1 X95.760500 F200.000000
G1 Y66.804500 F200.000000
G1 X96.052600 F200.000000
G1 Y64.256758 F200.000000
G1 X95.184921 Y63.389079 F200.000000
G1 X95.139720 Y63.317142 F200.000000
G1 X95.086749 Y63.250719 F200.000000
G1 X95.080341 Y63.222640 F200.000000
G1 X95.065017 Y63.198253 F200.000000
G1 X95.055505 Y63.113829 F200.000000
G0 Z0.500000
G0 X94.886063 Y75.758000
G1 Z-0.040000 F60.000000
G1 X91.596563 Y72.275000 F200.000000
G1 X90.617000 F200.000000
G1 Y70.551000 F200.000000
G1 X90.972600 F200.000000
G1 Y68.173772 F200.000000
G1 X90.833000 Y68.072347 F200.000000
G1 X90.680500 Y67.603000 F200.000000
G1 X90.833000 Y67.133653 F200.000000
G1 X91.232250 Y66.843581 F200.000000
G1 X91.725750 F200.000000
G1 X92.125000 Y67.133653 F200.000000
G1 X92.277500 Y67.603000 F200.000000
G1 X92.125000 Y68.072347 F200.000000
G1 X91.985400 Y68.173772 F200.000000
G1 Y70.551000 F200.000000
G1 X92.341000 F200.000000
G1 Y71.588184 F200.000000
G1 X96.165159 Y75.637294 F200.000000
G1 X96.204694 Y75.704393 F200.000000
G1 X96.247444 Y75.758000 F200.000000
G1 X97.802000 F200.000000
G1 Y79.768000 F200.000000
G1 X93.792000 F200.000000
G1 Y75.758000 F200.000000
G1 X94.886063 F200.000000
G0 Z0.500000
G0 X85.180749 Y74.495281
G1 Z-0.040000 F60.000000
G1 X85.233720 Y74.428858 F200.000000
G1 X85.278921 Y74.356921 F200.000000
G1 X85.892600 Y73.743242 F200.000000
G1 Y72.058421 F200.000000
G1 X85.701627 Y71.919671 F200.000000
G1 X85.537000 Y71.413000 F200.000000
G1 X85.701627 Y70.906329 F200.000000
G1 X85.892600 Y70.767579 F200.000000
G1 Y68.173772 F200.000000
G1 X85.753000 Y68.072347 F200.000000
G1 X85.600500 Y67.603000 F200.000000
G1 X85.753000 Y67.133653 F200.000000
G1 X86.152250 Y66.843581 F200.000000
G1 X86.645750 F200.000000
G1 X87.045000 Y67.133653 F200.000000
G1 X87.197500 Y67.603000 F200.000000
G1 X87.045000 Y68.072347 F200.000000
G1 X86.905400 Y68.173772 F200.000000
G1 Y70.767579 F200.000000
G1 X87.096373 Y70.906329 F200.000000
G1 X87.261000 Y71.413000 F200.000000
G1 X87.096373 Y71.919671 F200.000000
G1 X86.905400 Y72.058421 F200.000000
G1 Y73.953000 F200.000000
G1 X86.886495 Y74.035829 F200.000000
G1 X86.876983 Y74.120253 F200.000000
G1 X86.861659 Y74.144640 F200.000000
G1 X86.855251 Y74.172719 F200.000000
G1 X86.802280 Y74.239142 F200.000000
G1 X86.757079 Y74.311079 F200.000000
G1 X86.143400 Y74.924758 F200.000000
G0 Z0.500000
G0 X84.556461 Y64.553400
G1 Z-0.040000 F60.000000
G1 X84.556373 Y64.553671 F200.000000
G1 X84.125373 Y64.866811 F200.000000
G1 X83.592627 F200.000000
G1 X83.161627 Y64.553671 F200.000000
G1 X83.161539 Y64.553400 F200.000000
G1 X81.825400 Y64.553400 F200.000000
G1 Y67.032228 F200.000000
G1 X81.965000 Y67.133653 F200.000000
G1 X82.117500 Y67.603000 F200.000000
G1 X81.965000 Y68.072347 F200.000000
G1 X81.565750 Y68.362419 F200.000000
G1 X81.072250 F200.000000
G1 X80.673000 Y68.072347 F200.000000
G1 X80.520500 Y67.603000 F200.000000
G1 X80.673000 Y67.133653 F200.000000
G1 X80.812600 Y67.032228 F200.000000
G1 Y64.553400 F200.000000
G1 X78.779000 F200.000000
G1 X78.696171 Y64.534495 F200.000000
G1 X78.611747 Y64.524983 F200.000000
G1 X78.587360 Y64.509659 F200.000000
G1 X78.559281 Y64.503251 F200.000000
G1 X78.492858 Y64.450280 F200.000000
G1 X78.420921 Y64.405079 F200.000000
G1 X77.807242 Y63.791400 F200.000000
G1 X76.491400 F200.000000
G0 Z0.500000
G0 X77.795866 Y68.084767
G1 Z-0.040000 F60.000000
G1 X78.053368 Y67.827265 F200.000000
G1 X77.980500 Y67.603000 F200.000000
G1 X78.053368 Y67.378735 F200.000000
G1 X77.801180 Y67.126546 F200.000000
G1 X77.689812 Y67.447352 F200.000000
G1 X77.713289 Y67.882748 F200.000000
G1 X77.795866 Y68.084767 F200.000000
G0 Z0.500000
G0 X78.297233 Y66.619866
G1 Z-0.040000 F60.000000
G1 X78.525704 Y66.848337 F200.000000
G1 X78.532250 Y66.843581 F200.000000
G1 X79.025750 F200.000000
G1 X79.032296 Y66.848337 F200.000000
G1 X79.255454 Y66.625180 F200.000000
G1 X78.934648 Y66.513812 F200.000000
G1 X78.499252 Y66.537289 F200.000000
G1 X78.297233 Y66.619866 F200.000000
G0 Z0.500000
G0 X79.032296 Y68.357663
G1 Z-0.040000 F60.000000
G1 X79.025750 Y68.362419 F200.000000
G1 X78.989739 F200.000000
G1 X78.662057 Y68.690101 F200.000000
G1 X79.058748 Y68.668711 F200.000000
G1 X79.260767 Y68.586134 F200.000000
G1 X79.032296 Y68.357663 F200.000000
G0 Z0.500000
G0 X73.901251 Y65.097281
G1 Z-0.040000 F60.000000
G1 X73.907659 Y65.125360 F200.000000
G1 X73.922983 Y65.149747 F200.000000
G1 X73.932495 Y65.234171 F200.000000
G1 X73.951400 Y65.317000 F200.000000
G1 Y66.804500 F200.000000
G1 X74.243500 F200.000000
G1 Y68.401500 F200.000000
G1 X73.951400 F200.000000
G1 Y69.001600 F200.000000
G1 X74.715000 F200.000000
G1 X74.797829 Y69.020505 F200.000000
G1 X74.882253 Y69.030017 F200.000000
G1 X74.906640 Y69.045341 F200.000000
G1 X74.934719 Y69.051749 F200.000000
G1 X75.001142 Y69.104720 F200.000000
G1 X75.073079 Y69.149921 F200.000000
G1 X75.581079 Y69.657921 F200.000000
G1 X75.626280 Y69.729858 F200.000000
G1 X75.679251 Y69.796281 F200.000000
G1 X75.685659 Y69.824360 F200.000000
G0 Z0.500000
G0 Y69.824360
G1 Z-0.040000 F60.000000
G1 X75.700983 Y69.848747 F200.000000
G1 X75.710495 Y69.933171 F200.000000
G1 X75.729400 Y70.016000 F200.000000
G1 Y70.200223 F200.000000
G1 X75.804123 Y70.234348 F200.000000
G1 X76.074454 Y70.654991 F200.000000
G1 Y71.155009 F200.000000
G1 X75.804123 Y71.575652 F200.000000
G1 X75.349290 Y71.783368 F200.000000
G1 X74.854361 Y71.712207 F200.000000
G1 X74.476472 Y71.384765 F200.000000
G1 X74.335600 Y70.905000 F200.000000
G1 X74.476472 Y70.425235 F200.000000
G1 X74.711995 Y70.221153 F200.000000
G1 X74.505242 Y70.014400 F200.000000
G1 X73.951400 F200.000000
G1 Y70.200223 F200.000000
G1 X74.026123 Y70.234348 F200.000000
G1 X74.296454 Y70.654991 F200.000000
G1 Y71.155009 F200.000000
G1 X74.026123 Y71.575652 F200.000000
G1 X73.571290 Y71.783368 F200.000000
G1 X73.076361 Y71.712207 F200.000000
G1 X72.698472 Y71.384765 F200.000000
G1 X72.557600 Y70.905000 F200.000000
G1 X72.698472 Y70.425235 F200.000000
G1 X72.938600 Y70.217163 F200.000000
G1 Y69.508000 F200.000000
G1 Y69.508000 F200.000000
G1 Y69.508000 F200.000000
G1 Y68.401500 F200.000000
G1 X72.646500 F200.000000
G1 Y66.804500 F200.000000
G1 X72.938600 F200.000000
G1 Y65.526758 F200.000000
G1 X72.070921 Y64.659079 F200.000000
G1 X72.025720 Y64.587142 F200.000000
G1 X71.972749 Y64.520719 F200.000000
G1 X71.966341 Y64.492640 F200.000000
G0 Z0.500000
G0 X72.408495 Y75.140171
G1 Z-0.040000 F60.000000
G1 X72.427400 Y75.223000 F200.000000
G1 Y75.758000 F200.000000
G1 X73.926000 F200.000000
G1 Y79.768000 F200.000000
G1 X69.916000 F200.000000
G1 Y75.758000 F200.000000
G1 X71.414600 F200.000000
G1 Y75.432758 F200.000000
G1 X68.510842 Y72.529000 F200.000000
G1 X67.503000 F200.000000
G1 Y70.805000 F200.000000
G1 X67.858600 F200.000000
G1 Y68.173772 F200.000000
G1 X67.719000 Y68.072347 F200.000000
G1 X67.566500 Y67.603000 F200.000000
G1 X67.719000 Y67.133653 F200.000000
G1 X68.118250 Y66.843581 F200.000000
G1 X68.611750 F200.000000
G1 X69.011000 Y67.133653 F200.000000
G1 X69.163500 Y67.603000 F200.000000
G1 X69.011000 Y68.072347 F200.000000
G1 X68.871400 Y68.173772 F200.000000
G1 Y70.805000 F200.000000
G1 X69.227000 F200.000000
G1 Y71.812842 F200.000000
G1 X72.279079 Y74.864921 F200.000000
G1 X72.324280 Y74.936858 F200.000000
G1 X72.377251 Y75.003281 F200.000000
G1 X72.383659 Y75.031360 F200.000000
G1 X72.398983 Y75.055747 F200.000000
G1 X72.408495 Y75.140171 F200.000000
G0 Z0.500000
G0 X61.696461 Y64.807400
G1 Z-0.040000 F60.000000
G1 X61.696373 Y64.807671 F200.000000
G1 X61.265373 Y65.120811 F200.000000
G1 X60.732627 F200.000000
G1 X60.301627 Y64.807671 F200.000000
G1 X60.301539 Y64.807400 F200.000000
G1 X58.711400 F200.000000
G1 Y67.032228 F200.000000
G1 X58.851000 Y67.133653 F200.000000
G1 X59.003500 Y67.603000 F200.000000
G1 X58.851000 Y68.072347 F200.000000
G1 X58.451750 Y68.362419 F200.000000
G1 X57.958250 F200.000000
G1 X57.559000 Y68.072347 F200.000000
G1 X57.406500 Y67.603000 F200.000000
G1 X57.559000 Y67.133653 F200.000000
G1 X57.698600 Y67.032228 F200.000000
G1 Y64.807400 F200.000000
G1 X56.173000 F200.000000
G1 X56.090171 Y64.788495 F200.000000
G1 X56.005747 Y64.778983 F200.000000
G1 X55.981360 Y64.763659 F200.000000
G1 X55.953281 Y64.757251 F200.000000
G1 X55.886858 Y64.704280 F200.000000
G1 X55.814921 Y64.659079 F200.000000
G1 X54.947242 Y63.791400 F200.000000
G1 X53.631400 F200.000000
G0 Z0.500000
G0 X54.599289 Y67.882748
G1 Z-0.040000 F60.000000
G1 X54.619543 Y67.932299 F200.000000
G1 X54.886693 Y67.665149 F200.000000
G1 X54.866500 Y67.603000 F200.000000
G1 X54.939368 Y67.378735 F200.000000
G1 X54.687180 Y67.126546 F200.000000
G1 X54.575812 Y67.447352 F200.000000
G1 X54.599289 Y67.882748 F200.000000
G0 Z0.500000
G0 X55.183233 Y66.619866
G1 Z-0.040000 F60.000000
G1 X55.411704 Y66.848337 F200.000000
G1 X55.418250 Y66.843581 F200.000000
G1 X55.911750 F200.000000
G1 X55.918296 Y66.848337 F200.000000
G1 X56.141454 Y66.625180 F200.000000
G1 X55.820648 Y66.513812 F200.000000
G1 X55.385252 Y66.537289 F200.000000
G1 X55.183233 Y66.619866 F200.000000
G0 Z0.500000
G0 X55.918296 Y68.357663
G1 Z-0.040000 F60.000000
G1 X55.911750 Y68.362419 F200.000000
G1 X55.621739 F200.000000
G1 X55.347988 Y68.636170 F200.000000
G1 X55.509352 Y68.692188 F200.000000
G1 X55.944748 Y68.668711 F200.000000
G1 X56.146767 Y68.586134 F200.000000
G1 X55.918296 Y68.357663 F200.000000
G0 Z0.500000
G0 X49.802495 Y75.394171
G1 Z-0.040000 F60.000000
G1 X49.821400 Y75.477000 F200.000000
G1 Y75.758000 F200.000000
G1 X51.320000 F200.000000
G1 Y79.768000 F200.000000
G1 X47.310000 F200.000000
G1 Y75.758000 F200.000000
G1 X48.808600 F200.000000
G1 Y75.686758 F200.000000
G1 X45.396842 Y72.275000 F200.000000
G1 X44.389000 F200.000000
G1 Y70.551000 F200.000000
G1 X44.744600 F200.000000
G1 Y68.173772 F200.000000
G1 X44.605000 Y68.072347 F200.000000
G1 X44.452500 Y67.603000 F200.000000
G1 X44.605000 Y67.133653 F200.000000
G1 X45.004250 Y66.843581 F200.000000
G1 X45.497750 F200.000000
G1 X45.897000 Y67.133653 F200.000000
G1 X46.049500 Y67.603000 F200.000000
G1 X45.897000 Y68.072347 F200.000000
G1 X45.757400 Y68.173772 F200.000000
G1 Y70.551000 F200.000000
G1 X46.113000 F200.000000
G1 Y71.558842 F200.000000
G1 X49.673079 Y75.118921 F200.000000
G1 X49.718280 Y75.190858 F200.000000
G1 X49.771251 Y75.257281 F200.000000
G1 X49.777659 Y75.285360 F200.000000
G1 X49.792983 Y75.309747 F200.000000
G1 X49.802495 Y75.394171 F200.000000
G0 Z0.500000
G0 X42.254749 Y73.410719
G1 Z-0.040000 F60.000000
G1 X42.248341 Y73.382640 F200.000000
G1 X42.233017 Y73.358253 F200.000000
G1 X42.223505 Y73.273829 F200.000000
G1 X42.204600 Y73.191000 F200.000000
G1 Y72.058421 F200.000000
G1 X42.013627 Y71.919671 F200.000000
G1 X41.849000 Y71.413000 F200.000000
G1 X42.013627 Y70.906329 F200.000000
G1 X42.204600 Y70.767579 F200.000000
G1 Y68.173772 F200.000000
G1 X42.065000 Y68.072347 F200.000000
G1 X41.912500 Y67.603000 F200.000000
G1 X42.065000 Y67.133653 F200.000000
G1 X42.464250 Y66.843581 F200.000000
G1 X42.957750 F200.000000
G1 X43.357000 Y67.133653 F200.000000
G1 X43.509500 Y67.603000 F200.000000
G1 X43.357000 Y68.072347 F200.000000
G1 X43.217400 Y68.173772 F200.000000
G1 Y70.767579 F200.000000
G1 X43.408373 Y70.906329 F200.000000
G1 X43.573000 Y71.413000 F200.000000
G1 X43.408373 Y71.919671 F200.000000
G1 X43.217400 Y72.058421 F200.000000
G1 Y72.981242 F200.000000
G1 X44.593079 Y74.356921 F200.000000
G1 X44.638280 Y74.428858 F200.000000
G1 X44.691251 Y74.495281 F200.000000
G1 X44.697659 Y74.523360 F200.000000
G0 Z0.500000
G0 X38.698749 Y74.495281
G1 Z-0.040000 F60.000000
G1 X38.751720 Y74.428858 F200.000000
G1 X38.796921 Y74.356921 F200.000000
G1 X39.664600 Y73.489242 F200.000000
G1 Y72.058421 F200.000000
G1 X39.473627 Y71.919671 F200.000000
G1 X39.309000 Y71.413000 F200.000000
G1 X39.473627 Y70.906329 F200.000000
G1 X39.664600 Y70.767579 F200.000000
G1 Y68.173772 F200.000000
G1 X39.525000 Y68.072347 F200.000000
G1 X39.372500 Y67.603000 F200.000000
G1 X39.525000 Y67.133653 F200.000000
G1 X39.924250 Y66.843581 F200.000000
G1 X40.417750 F200.000000
G1 X40.817000 Y67.133653 F200.000000
G1 X40.969500 Y67.603000 F200.000000
G1 X40.817000 Y68.072347 F200.000000
G1 X40.677400 Y68.173772 F200.000000
G1 Y70.767579 F200.000000
G1 X40.868373 Y70.906329 F200.000000
G1 X41.033000 Y71.413000 F200.000000
G1 X40.868373 Y71.919671 F200.000000
G1 X40.677400 Y72.058421 F200.000000
G1 Y73.699000 F200.000000
G1 X40.658495 Y73.781829 F200.000000
G1 X40.648983 Y73.866253 F200.000000
G1 X40.633659 Y73.890640 F200.000000
G1 X40.627251 Y73.918719 F200.000000
G1 X40.574280 Y73.985142 F200.000000
G1 X40.529079 Y74.057079 F200.000000
G1 X39.661400 Y74.924758 F200.000000
G0 Z0.500000
G0 X35.597400 Y64.807400
G1 Z-0.040000 F60.000000
G1 Y65.825000 F200.000000
G1 Y65.825000 F200.000000
G1 Y65.825000 F200.000000
G1 Y67.032228 F200.000000
G1 X35.737000 Y67.133653 F200.000000
G1 X35.889500 Y67.603000 F200.000000
G1 X35.737000 Y68.072347 F200.000000
G1 X35.337750 Y68.362419 F200.000000
G1 X34.844250 F200.000000
G1 X34.445000 Y68.072347 F200.000000
G1 X34.292500 Y67.603000 F200.000000
G1 X34.445000 Y67.133653 F200.000000
G1 X34.584600 Y67.032228 F200.000000
G1 Y65.825000 F200.000000
G1 Y65.825000 F200.000000
G1 Y64.301000 F200.000000
G1 Y62.015000 F200.000000
G1 Y62.015000 F200.000000
G1 Y61.940837 F200.000000
G1 X34.344472 Y61.732765 F200.000000
G1 X34.203600 Y61.253000 F200.000000
G1 X34.344472 Y60.773235 F200.000000
G1 X34.722361 Y60.445793 F200.000000
G1 X35.217290 Y60.374632 F200.000000
G1 X35.672123 Y60.582348 F200.000000
G1 X35.942454 Y61.002991 F200.000000
G1 Y61.503009 F200.000000
G1 X35.672123 Y61.923652 F200.000000
G1 X35.597400 Y61.957777 F200.000000
G1 Y62.015000 F200.000000
G1 Y63.794600 F200.000000
G0 Z0.500000
G0 X32.804296 Y68.357663
G1 Z-0.040000 F60.000000
G1 X32.797750 Y68.362419 F200.000000
G1 X32.507739 F200.000000
G1 X32.233988 Y68.636170 F200.000000
G1 X32.395352 Y68.692188 F200.000000
G1 X32.830748 Y68.668711 F200.000000
G1 X33.032767 Y68.586134 F200.000000
G1 X32.804296 Y68.357663 F200.000000
G0 Z0.500000
G0 X83.213000 Y55.372347
G1 Z-0.040000 F60.000000
G1 X83.060500 Y54.903000 F200.000000
G1 X83.213000 Y54.433653 F200.000000
G1 X83.612250 Y54.143581 F200.000000
G1 X84.105750 F200.000000
G1 X84.454000 Y54.396600 F200.000000
G1 X85.804000 Y54.396600 F200.000000
G1 X86.152250 Y54.143581 F200.000000
G1 X86.645750 F200.000000
G1 X87.045000 Y54.433653 F200.000000
G1 X87.197500 Y54.903000 F200.000000
G1 X87.045000 Y55.372347 F200.000000
G1 X86.645750 Y55.662419 F200.000000
G1 X86.152250 F200.000000
G1 X85.804000 Y55.409400 F200.000000
G1 X84.454000 Y55.409400 F200.000000
G1 X84.105750 Y55.662419 F200.000000
G1 X83.612250 F200.000000
G1 X83.213000 Y55.372347 F200.000000
G0 Z0.500000
G0 X77.558200 Y36.768832
G1 Z-0.040000 F60.000000
G1 Y45.633410 F200.000000
G1 X81.533395 Y49.608605 F200.000000
G1 X81.560458 Y49.651676 F200.000000
G1 X81.592174 Y49.691446 F200.000000
G1 X81.596011 Y49.708258 F200.000000
G1 X81.605185 Y49.722859 F200.000000
G1 X81.610881 Y49.773407 F200.000000
G1 X81.622200 Y49.823000 F200.000000
G1 Y54.184595 F200.000000
G1 X81.965000 Y54.433653 F200.000000
G1 X82.117500 Y54.903000 F200.000000
G1 X81.965000 Y55.372347 F200.000000
G1 X81.565750 Y55.662419 F200.000000
G1 X81.072250 F200.000000
G1 X80.673000 Y55.372347 F200.000000
G1 X80.520500 Y54.903000 F200.000000
G1 X80.673000 Y54.433653 F200.000000
G1 X81.015800 Y54.184595 F200.000000
G1 Y49.948590 F200.000000
G1 X77.040605 Y45.973395 F200.000000
G1 X77.013542 Y45.930324 F200.000000
G1 X76.981826 Y45.890554 F200.000000
G1 X76.977989 Y45.873742 F200.000000
G1 X76.968815 Y45.859141 F200.000000
G1 X76.963119 Y45.808593 F200.000000
G1 X76.951800 Y45.759000 F200.000000
G1 Y36.768832 F200.000000
G0 Z0.500000
G0 X71.544554 Y50.311826
G1 Z-0.040000 F60.000000
G1 X71.584324 Y50.343542 F200.000000
G1 X71.627395 Y50.370605 F200.000000
G1 X73.659395 Y52.402605 F200.000000
G1 X73.686458 Y52.445676 F200.000000
G1 X73.718174 Y52.485446 F200.000000
G1 X73.722011 Y52.502258 F200.000000
G1 X73.731185 Y52.516859 F200.000000
G1 X73.736881 Y52.567407 F200.000000
G1 X73.748200 Y52.617000 F200.000000
G1 Y54.104500 F200.000000
G1 X74.243500 F200.000000
G1 Y55.272710 F200.000000
G1 X75.689668 Y56.718878 F200.000000
G1 X75.738250 Y56.683581 F200.000000
G1 X76.231750 F200.000000
G1 X76.631000 Y56.973653 F200.000000
G1 X76.783500 Y57.443000 F200.000000
G1 X76.631000 Y57.912347 F200.000000
G1 X76.231750 Y58.202419 F200.000000
G1 X75.738250 F200.000000
G1 X75.339000 Y57.912347 F200.000000
G0 Z0.500000
G0 X65.775800 Y59.729000
G1 Z-0.040000 F60.000000
G1 X65.787119 Y59.679407 F200.000000
G1 X65.792815 Y59.628859 F200.000000
G1 X65.801989 Y59.614258 F200.000000
G1 X65.805826 Y59.597446 F200.000000
G1 X65.837542 Y59.557676 F200.000000
G1 X65.864605 Y59.514605 F200.000000
G1 X70.197167 Y55.182044 F200.000000
G1 X70.106500 Y54.903000 F200.000000
G1 X70.259000 Y54.433653 F200.000000
G1 X70.601800 Y54.184595 F200.000000
G1 Y53.250590 F200.000000
G1 X69.763410 Y52.412200 F200.000000
G0 Z0.500000
G0 X60.099000 Y55.372347
G1 Z-0.040000 F60.000000
G1 X59.946500 Y54.903000 F200.000000
G1 X60.099000 Y54.433653 F200.000000
G1 X60.498250 Y54.143581 F200.000000
G1 X60.991750 F200.000000
G1 X61.340000 Y54.396600 F200.000000
G1 X62.690000 Y54.396600 F200.000000
G1 X63.038250 Y54.143581 F200.000000
G1 X63.531750 F200.000000
G1 X63.931000 Y54.433653 F200.000000
G1 X64.083500 Y54.903000 F200.000000
G1 X63.931000 Y55.372347 F200.000000
G1 X63.531750 Y55.662419 F200.000000
G1 X63.038250 F200.000000
G1 X62.690000 Y55.409400 F200.000000
G1 X61.340000 Y55.409400 F200.000000
G1 X60.991750 Y55.662419 F200.000000
G1 X60.498250 F200.000000
G1 X60.099000 Y55.372347 F200.000000
G0 Z0.500000
G0 X107.532701 Y33.156543
G1 Z-0.040000 F60.000000
G1 X107.818739 Y33.442581 F200.000000
G1 X108.108750 F200.000000
G1 X108.115296 Y33.447337 F200.000000
G1 X108.338454 Y33.224180 F200.000000
G1 X108.017648 Y33.112812 F200.000000
G1 X107.582252 Y33.136289 F200.000000
G1 X107.532701 Y33.156543 F200.000000
G0 Z0.500000
G0 X70.935017 Y13.841747
G1 Z-0.040000 F60.000000
G1 X70.950341 Y13.817360 F200.000000
G1 X70.956749 Y13.789281 F200.000000
G1 X71.009720 Y13.722858 F200.000000
G1 X71.054921 Y13.650921 F200.000000
G1 X71.922600 Y12.783242 F200.000000
G1 Y10.007772 F200.000000
G1 X71.783000 Y9.906347 F200.000000
G1 X71.630500 Y9.437000 F200.000000
G1 X71.783000 Y8.967653 F200.000000
G1 X72.182250 Y8.677581 F200.000000
G1 X72.675750 F200.000000
G1 X73.075000 Y8.967653 F200.000000
G1 X73.227500 Y9.437000 F200.000000
G1 X73.075000 Y9.906347 F200.000000
G1 X72.935400 Y10.007772 F200.000000
G1 Y12.486600 F200.000000
G1 X73.001539 F200.000000
G1 X73.001627 Y12.486329 F200.000000
G1 X73.432627 Y12.173189 F200.000000
G1 X73.965373 F200.000000
G1 X74.396373 Y12.486329 F200.000000
G1 X74.561000 Y12.993000 F200.000000
G1 X74.396373 Y13.499671 F200.000000
G1 X73.965373 Y13.812811 F200.000000
G1 X73.432627 F200.000000
G1 X73.001627 Y13.499671 F200.000000
G1 X73.001539 Y13.499400 F200.000000
G1 X72.638758 Y13.499400 F200.000000
G1 X71.919400 Y14.218758 F200.000000
G1 Y17.311000 F200.000000
G1 X71.900495 Y17.393829 F200.000000
G1 X71.890983 Y17.478253 F200.000000
G1 X71.875659 Y17.502640 F200.000000
G1 X71.869251 Y17.530719 F200.000000
G1 X71.816280 Y17.597142 F200.000000
G1 X71.771079 Y17.669079 F200.000000
G1 X70.149320 Y19.290838 F200.000000
G0 Z0.500000
G0 X107.380233 Y24.963866
G1 Z-0.040000 F60.000000
G1 X107.608704 Y25.192337 F200.000000
G1 X107.615250 Y25.187581 F200.000000
G1 X108.108750 F200.000000
G1 X108.115296 Y25.192337 F200.000000
G1 X108.338454 Y24.969180 F200.000000
G1 X108.017648 Y24.857812 F200.000000
G1 X107.582252 Y24.881289 F200.000000
G1 X107.380233 Y24.963866 F200.000000
G0 Z0.500000
G0 X108.587632 Y25.722735
G1 Z-0.040000 F60.000000
G1 X108.660500 Y25.947000 F200.000000
G1 X108.587632 Y26.171265 F200.000000
G1 X108.839820 Y26.423454 F200.000000
G1 X108.951188 Y26.102648 F200.000000
G1 X108.927711 Y25.667252 F200.000000
G1 X108.845134 Y25.465233 F200.000000
G1 X108.587632 Y25.722735 F200.000000
G0 Z0.500000
G0 X108.343767 Y26.930134
G1 Z-0.040000 F60.000000
G1 X108.115296 Y26.701663 F200.000000
G1 X108.108750 Y26.706419 F200.000000
G1 X107.615250 F200.000000
G1 X107.608704 Y26.701663 F200.000000
G1 X107.385546 Y26.924820 F200.000000
G1 X107.706352 Y27.036188 F200.000000
G1 X108.141748 Y27.012711 F200.000000
G1 X108.343767 Y26.930134 F200.000000
G0 Z0.500000
G0 X94.292174 Y52.231446
G1 Z-0.040000 F60.000000
G1 X94.296011 Y52.248258 F200.000000
G1 X94.305185 Y52.262859 F200.000000
G1 X94.310881 Y52.313407 F200.000000
G1 X94.322200 Y52.363000 F200.000000
G1 Y54.184595 F200.000000
G1 X94.665000 Y54.433653 F200.000000
G1 X94.817500 Y54.903000 F200.000000
G1 X94.665000 Y55.372347 F200.000000
G1 X94.265750 Y55.662419 F200.000000
G1 X93.772250 F200.000000
G1 X93.576553 Y55.520237 F200.000000
G1 X89.242200 Y59.854590 F200.000000
G1 Y60.645000 F200.000000
G1 X89.801000 F200.000000
G1 Y62.369000 F200.000000
G1 X88.077000 F200.000000
G1 Y60.645000 F200.000000
G1 X88.635800 F200.000000
G1 Y59.729000 F200.000000
G1 X88.647119 Y59.679407 F200.000000
G1 X88.652815 Y59.628859 F200.000000
G1 X88.661989 Y59.614258 F200.000000
G1 X88.665826 Y59.597446 F200.000000
G1 X88.697542 Y59.557676 F200.000000
G1 X88.724605 Y59.514605 F200.000000
G1 X93.248877 Y54.990334 F200.000000
G1 X93.220500 Y54.903000 F200.000000
G1 X93.373000 Y54.433653 F200.000000
G1 X93.715800 Y54.184595 F200.000000
G1 Y52.488590 F200.000000
G1 X91.012332 Y49.785122 F200.000000
G1 X90.963750 Y49.820419 F200.000000
G1 X90.470250 F200.000000
G1 X90.071000 Y49.530347 F200.000000
G1 X89.918500 Y49.061000 F200.000000
G1 X90.071000 Y48.591653 F200.000000
G1 X90.470250 Y48.301581 F200.000000
G1 X90.963750 F200.000000
G1 X91.363000 Y48.591653 F200.000000
G1 X91.515500 Y49.061000 F200.000000
G1 X91.424833 Y49.340044 F200.000000
G1 X94.233395 Y52.148605 F200.000000
G1 X94.260458 Y52.191676 F200.000000
G1 X94.292174 Y52.231446 F200.000000
G0 Z0.500000
G0 X97.353866 Y49.542767
G1 Z-0.040000 F60.000000
G1 X97.611368 Y49.285265 F200.000000
G1 X97.538500 Y49.061000 F200.000000
G1 X97.611368 Y48.836735 F200.000000
G1 X97.359180 Y48.584546 F200.000000
G1 X97.247812 Y48.905352 F200.000000
G1 X97.271289 Y49.340748 F200.000000
G1 X97.353866 Y49.542767 F200.000000
G0 Z0.500000
G0 X66.359233 Y43.505866
G1 Z-0.040000 F60.000000
G1 X66.587704 Y43.734337 F200.000000
G1 X66.594250 Y43.729581 F200.000000
G1 X67.087750 F200.000000
G1 X67.094296 Y43.734337 F200.000000
G1 X67.317454 Y43.511180 F200.000000
G1 X66.996648 Y43.399812 F200.000000
G1 X66.561252 Y43.423289 F200.000000
G1 X66.359233 Y43.505866 F200.000000
G0 Z0.500000
G0 X67.322767 Y45.472134
G1 Z-0.040000 F60.000000
G1 X67.094296 Y45.243663 F200.000000
G1 X67.087750 Y45.248419 F200.000000
G1 X66.594250 F200.000000
G1 X66.587704 Y45.243663 F200.000000
G1 X66.364546 Y45.466820 F200.000000
G1 X66.685352 Y45.578188 F200.000000
G1 X67.120748 Y45.554711 F200.000000
G1 X67.322767 Y45.472134 F200.000000
G0 Z0.500000
G0 X45.379410 Y50.888200
G1 Z-0.040000 F60.000000
G1 X39.854984 Y50.888200 F200.000000
G1 X39.801000 Y51.054347 F200.000000
G1 X39.401750 Y51.344419 F200.000000
G1 X38.908250 F200.000000
G1 X38.509000 Y51.054347 F200.000000
G1 X38.356500 Y50.585000 F200.000000
G1 X38.509000 Y50.115653 F200.000000
G1 X38.908250 Y49.825581 F200.000000
G1 X39.401750 F200.000000
G1 X39.801000 Y50.115653 F200.000000
G1 X39.854984 Y50.281800 F200.000000
G1 X45.505000 Y50.281800 F200.000000
G1 X45.554593 Y50.293119 F200.000000
G1 X45.605141 Y50.298815 F200.000000
G1 X45.619742 Y50.307989 F200.000000
G0 Z0.500000
G0 X38.673233 Y41.981866
G1 Z-0.040000 F60.000000
G1 X38.901704 Y42.210337 F200.000000
G1 X38.908250 Y42.205581 F200.000000
G1 X39.401750 F200.000000
G1 X39.408296 Y42.210337 F200.000000
G1 X39.631454 Y41.987180 F200.000000
G1 X39.310648 Y41.875812 F200.000000
G1 X38.875252 Y41.899289 F200.000000
G1 X38.673233 Y41.981866 F200.000000
G0 Z0.500000
G0 X39.880632 Y42.740735
G1 Z-0.040000 F60.000000
G1 X39.953500 Y42.965000 F200.000000
G1 X39.880632 Y43.189265 F200.000000
G1 X40.132820 Y43.441454 F200.000000
G1 X40.244188 Y43.120648 F200.000000
G1 X40.220711 Y42.685252 F200.000000
G1 X40.138134 Y42.483233 F200.000000
G1 X39.880632 Y42.740735 F200.000000
G0 Z0.500000
G0 X79.552214 Y12.719745
G1 Z-0.040000 F60.000000
G1 X79.641000 Y12.993000 F200.000000
G1 X79.552214 Y13.266255 F200.000000
G1 X79.803484 Y13.518344 F200.000000
G1 X79.929212 Y13.160640 F200.000000
G1 X79.905567 Y12.702786 F200.000000
G1 X79.809339 Y12.467028 F200.000000
G1 X79.805274 Y12.465860 F200.000000
G1 X79.552214 Y12.719745 F200.000000
G0 Z0.500000
G0 X45.619742 Y50.307989
G1 Z-0.040000 F60.000000
G1 X45.636554 Y50.311826 F200.000000
G1 X45.676324 Y50.343542 F200.000000
G1 X45.719395 Y50.370605 F200.000000
G1 X48.005395 Y52.656605 F200.000000
G1 X48.032458 Y52.699676 F200.000000
G1 X48.064174 Y52.739446 F200.000000
G1 X48.068011 Y52.756258 F200.000000
G1 X48.077185 Y52.770859 F200.000000
G1 X48.082881 Y52.821407 F200.000000
G1 X48.094200 Y52.871000 F200.000000
G1 Y54.184595 F200.000000
G1 X48.437000 Y54.433653 F200.000000
G1 X48.589500 Y54.903000 F200.000000
G1 X48.437000 Y55.372347 F200.000000
G1 X48.094200 Y55.621405 F200.000000
G1 Y55.665000 F200.000000
G1 X48.082881 Y55.714593 F200.000000
G1 X48.077185 Y55.765141 F200.000000
G1 X48.068011 Y55.779742 F200.000000
G1 X48.064174 Y55.796554 F200.000000
G1 X48.032458 Y55.836324 F200.000000
G1 X48.005395 Y55.879395 F200.000000
G1 X44.030200 Y59.854590 F200.000000
G1 Y60.899000 F200.000000
G1 X44.589000 F200.000000
G1 Y62.623000 F200.000000
G1 X42.865000 F200.000000
G1 Y60.899000 F200.000000
G1 X43.423800 F200.000000
G1 Y59.729000 F200.000000
G1 X43.435119 Y59.679407 F200.000000
G1 X43.440815 Y59.628859 F200.000000
G0 Z0.500000
G0 X45.982983 Y63.452253
G1 Z-0.040000 F60.000000
G1 X45.967659 Y63.476640 F200.000000
G1 X45.961251 Y63.504719 F200.000000
G1 X45.908280 Y63.571142 F200.000000
G1 X45.863079 Y63.643079 F200.000000
G1 X44.847079 Y64.659079 F200.000000
G1 X44.775142 Y64.704280 F200.000000
G1 X44.708719 Y64.757251 F200.000000
G1 X44.680640 Y64.763659 F200.000000
G1 X44.656253 Y64.778983 F200.000000
G1 X44.571829 Y64.788495 F200.000000
G1 X44.489000 Y64.807400 F200.000000
G1 X44.424461 Y64.807400 F200.000000
G1 X44.424373 Y64.807671 F200.000000
G1 X43.993373 Y65.120811 F200.000000
G1 X43.460627 F200.000000
G1 X43.029627 Y64.807671 F200.000000
G1 X43.029539 Y64.807400 F200.000000
G1 X41.884461 F200.000000
G1 X41.884373 Y64.807671 F200.000000
G1 X41.453373 Y65.120811 F200.000000
G1 X40.920627 F200.000000
G1 X40.489627 Y64.807671 F200.000000
G1 X40.489539 Y64.807400 F200.000000
G1 X39.344461 F200.000000
G1 X39.344373 Y64.807671 F200.000000
G1 X38.913373 Y65.120811 F200.000000
G1 X38.380627 F200.000000
G1 X37.949627 Y64.807671 F200.000000
G1 X37.949539 Y64.807400 F200.000000
G1 X36.615000 F200.000000
G1 X35.597400 F200.000000
G0 Z0.500000
G0 X40.489627 Y62.267671
G1 Z-0.040000 F60.000000
G1 X40.325000 Y61.761000 F200.000000
G1 X40.489627 Y61.254329 F200.000000
G1 X40.883800 Y60.967946 F200.000000
G1 Y59.221000 F200.000000
G1 X40.895119 Y59.171407 F200.000000
G1 X40.900815 Y59.120859 F200.000000
G1 X40.909989 Y59.106258 F200.000000
G1 X40.913826 Y59.089446 F200.000000
G1 X40.945542 Y59.049676 F200.000000
G1 X40.972605 Y59.006605 F200.000000
G1 X44.606080 Y55.373131 F200.000000
G1 X44.605000 Y55.372347 F200.000000
G1 X44.452500 Y54.903000 F200.000000
G1 X44.605000 Y54.433653 F200.000000
G1 X45.004250 Y54.143581 F200.000000
G1 X45.497750 F200.000000
G1 X45.897000 Y54.433653 F200.000000
G1 X46.049500 Y54.903000 F200.000000
G1 X45.897000 Y55.372347 F200.000000
G1 X45.497750 Y55.662419 F200.000000
G1 X45.174371 F200.000000
G1 X41.490200 Y59.346590 F200.000000
G1 Y60.967946 F200.000000
G1 X41.884373 Y61.254329 F200.000000
G1 X42.049000 Y61.761000 F200.000000
G1 X41.884373 Y62.267671 F200.000000
G1 X41.453373 Y62.580811 F200.000000
G1 X40.920627 F200.000000
G1 X40.489627 Y62.267671 F200.000000
G0 Z0.500000
G0 X37.949627
G1 Z-0.040000 F60.000000
G1 X37.785000 Y61.761000 F200.000000
G1 X37.949627 Y61.254329 F200.000000
G1 X38.343800 Y60.967946 F200.000000
G1 Y58.967000 F200.000000
G1 X38.355119 Y58.917407 F200.000000
G1 X38.360815 Y58.866859 F200.000000
G1 X38.369989 Y58.852258 F200.000000
G1 X38.373826 Y58.835446 F200.000000
G1 X38.405542 Y58.795676 F200.000000
G1 X38.432605 Y58.752605 F200.000000
G1 X42.003167 Y55.182044 F200.000000
G1 X41.912500 Y54.903000 F200.000000
G1 X42.065000 Y54.433653 F200.000000
G1 X42.464250 Y54.143581 F200.000000
G1 X42.957750 F200.000000
G1 X43.357000 Y54.433653 F200.000000
G1 X43.509500 Y54.903000 F200.000000
G1 X43.357000 Y55.372347 F200.000000
G1 X42.957750 Y55.662419 F200.000000
G1 X42.464250 F200.000000
G1 X42.415668 Y55.627122 F200.000000
G1 X38.950200 Y59.092590 F200.000000
G1 Y60.967946 F200.000000
G1 X39.344373 Y61.254329 F200.000000
G1 X39.509000 Y61.761000 F200.000000
G1 X39.344373 Y62.267671 F200.000000
G1 X38.913373 Y62.580811 F200.000000
G1 X38.380627 F200.000000
G1 X37.949627 Y62.267671 F200.000000
G0 Z0.500000
G0 X76.491400 Y63.791400
G1 Z-0.040000 F60.000000
G1 Y64.492228 F200.000000
G1 X76.631000 Y64.593653 F200.000000
G1 X76.783500 Y65.063000 F200.000000
G1 X76.631000 Y65.532347 F200.000000
G1 X76.231750 Y65.822419 F200.000000
G1 X75.738250 F200.000000
G1 X75.339000 Y65.532347 F200.000000
G1 X75.186500 Y65.063000 F200.000000
G1 X75.339000 Y64.593653 F200.000000
G1 X75.478600 Y64.492228 F200.000000
G1 Y63.285000 F200.000000
G1 Y63.285000 F200.000000
G1 Y60.700758 F200.000000
G1 X73.997242 Y59.219400 F200.000000
G1 X69.844758 Y59.219400 F200.000000
G1 X68.617400 Y60.446758 F200.000000
G1 Y62.269000 F200.000000
G1 X68.598495 Y62.351829 F200.000000
G1 X68.588983 Y62.436253 F200.000000
G1 X68.573659 Y62.460640 F200.000000
G1 X68.567251 Y62.488719 F200.000000
G1 X68.514280 Y62.555142 F200.000000
G1 X68.469079 Y62.627079 F200.000000
G1 X66.905234 Y64.190924 F200.000000
G1 X66.941000 Y64.301000 F200.000000
G1 X66.776373 Y64.807671 F200.000000
G1 X66.345373 Y65.120811 F200.000000
G1 X65.812627 F200.000000
G1 X65.381627 Y64.807671 F200.000000
G1 X65.381539 Y64.807400 F200.000000
G1 X64.236461 F200.000000
G1 X64.236373 Y64.807671 F200.000000
G1 X63.805373 Y65.120811 F200.000000
G1 X63.272627 F200.000000
G1 X62.841627 Y64.807671 F200.000000
G1 X62.841539 Y64.807400 F200.000000
G1 X61.696461 F200.000000
G0 Z0.500000
G0 X62.841627 Y62.267671
G1 Z-0.040000 F60.000000
G1 X62.677000 Y61.761000 F200.000000
G1 X62.841627 Y61.254329 F200.000000
G1 X63.235800 Y60.967946 F200.000000
G1 Y59.729000 F200.000000
G1 X63.247119 Y59.679407 F200.000000
G1 X63.252815 Y59.628859 F200.000000
G1 X63.261989 Y59.614258 F200.000000
G1 X63.265826 Y59.597446 F200.000000
G1 X63.297542 Y59.557676 F200.000000
G1 X63.324605 Y59.514605 F200.000000
G1 X67.657167 Y55.182044 F200.000000
G1 X67.566500 Y54.903000 F200.000000
G1 X67.719000 Y54.433653 F200.000000
G1 X68.118250 Y54.143581 F200.000000
G1 X68.611750 F200.000000
G1 X69.011000 Y54.433653 F200.000000
G1 X69.163500 Y54.903000 F200.000000
G1 X69.011000 Y55.372347 F200.000000
G1 X68.611750 Y55.662419 F200.000000
G1 X68.118250 F200.000000
G1 X68.069668 Y55.627122 F200.000000
G1 X63.842200 Y59.854590 F200.000000
G1 Y60.967946 F200.000000
G1 X64.236373 Y61.254329 F200.000000
G1 X64.401000 Y61.761000 F200.000000
G1 X64.236373 Y62.267671 F200.000000
G1 X63.805373 Y62.580811 F200.000000
G1 X63.272627 F200.000000
G1 X62.841627 Y62.267671 F200.000000
G0 Z0.500000
G0 X60.301627
G1 Z-0.040000 F60.000000
G1 X60.137000 Y61.761000 F200.000000
G1 X60.301627 Y61.254329 F200.000000
G1 X60.695800 Y60.967946 F200.000000
G1 Y59.729000 F200.000000
G1 X60.707119 Y59.679407 F200.000000
G1 X60.712815 Y59.628859 F200.000000
G1 X60.721989 Y59.614258 F200.000000
G1 X60.725826 Y59.597446 F200.000000
G1 X60.757542 Y59.557676 F200.000000
G1 X60.784605 Y59.514605 F200.000000
G1 X65.117167 Y55.182044 F200.000000
G1 X65.026500 Y54.903000 F200.000000
G1 X65.179000 Y54.433653 F200.000000
G1 X65.578250 Y54.143581 F200.000000
G1 X66.071750 F200.000000
G1 X66.471000 Y54.433653 F200.000000
G1 X66.623500 Y54.903000 F200.000000
G1 X66.471000 Y55.372347 F200.000000
G1 X66.071750 Y55.662419 F200.000000
G1 X65.578250 F200.000000
G1 X65.529668 Y55.627122 F200.000000
G1 X61.302200 Y59.854590 F200.000000
G1 Y60.967946 F200.000000
G1 X61.696373 Y61.254329 F200.000000
G1 X61.861000 Y61.761000 F200.000000
G1 X61.696373 Y62.267671 F200.000000
G1 X61.265373 Y62.580811 F200.000000
G1 X60.732627 F200.000000
G1 X60.301627 Y62.267671 F200.000000
G0 Z0.500000
G0 X85.701627 Y62.013671
G1 Z-0.040000 F60.000000
G1 X85.537000 Y61.507000 F200.000000
G1 X85.701627 Y61.000329 F200.000000
G1 X86.095800 Y60.713946 F200.000000
G1 Y59.983000 F200.000000
G1 X86.107119 Y59.933407 F200.000000
G1 X86.112815 Y59.882859 F200.000000
G1 X86.121989 Y59.868258 F200.000000
G1 X86.125826 Y59.851446 F200.000000
G1 X86.157542 Y59.811676 F200.000000
G1 X86.184605 Y59.768605 F200.000000
G1 X90.771167 Y55.182044 F200.000000
G1 X90.680500 Y54.903000 F200.000000
G1 X90.833000 Y54.433653 F200.000000
G1 X91.232250 Y54.143581 F200.000000
G1 X91.725750 F200.000000
G1 X92.125000 Y54.433653 F200.000000
G1 X92.277500 Y54.903000 F200.000000
G1 X92.125000 Y55.372347 F200.000000
G1 X91.725750 Y55.662419 F200.000000
G1 X91.232250 F200.000000
G1 X91.183668 Y55.627122 F200.000000
G1 X86.702200 Y60.108590 F200.000000
G1 Y60.713946 F200.000000
G1 X87.096373 Y61.000329 F200.000000
G1 X87.261000 Y61.507000 F200.000000
G1 X87.096373 Y62.013671 F200.000000
G1 X86.665373 Y62.326811 F200.000000
G1 X86.132627 F200.000000
G1 X85.701627 Y62.013671 F200.000000
G0 Z0.500000
G0 X83.572815 Y59.882859
G1 Z-0.040000 F60.000000
G1 X83.581989 Y59.868258 F200.000000
G1 X83.585826 Y59.851446 F200.000000
G1 X83.617542 Y59.811676 F200.000000
G1 X83.644605 Y59.768605 F200.000000
G1 X88.231167 Y55.182044 F200.000000
G1 X88.140500 Y54.903000 F200.000000
G1 X88.293000 Y54.433653 F200.000000
G1 X88.692250 Y54.143581 F200.000000
G1 X89.185750 F200.000000
G1 X89.585000 Y54.433653 F200.000000
G1 X89.737500 Y54.903000 F200.000000
G1 X89.585000 Y55.372347 F200.000000
G1 X89.185750 Y55.662419 F200.000000
G1 X88.692250 F200.000000
G1 X88.643668 Y55.627122 F200.000000
G1 X84.162200 Y60.108590 F200.000000
G1 Y60.713946 F200.000000
G1 X84.556373 Y61.000329 F200.000000
G1 X84.721000 Y61.507000 F200.000000
G1 X84.556373 Y62.013671 F200.000000
G1 X84.125373 Y62.326811 F200.000000
G1 X83.592627 F200.000000
G1 X83.161627 Y62.013671 F200.000000
G1 X82.997000 Y61.507000 F200.000000
G1 X83.161627 Y61.000329 F200.000000
G1 X83.555800 Y60.713946 F200.000000
G1 Y59.983000 F200.000000
G1 X83.567119 Y59.933407 F200.000000
G1 X83.572815 Y59.882859 F200.000000
G0 Z0.500000
G0 X95.055505 Y63.113829
G1 Z-0.040000 F60.000000
G1 X95.036600 Y63.031000 F200.000000
G1 Y62.115000 F200.000000
G1 X94.681000 F200.000000
G1 Y60.391000 F200.000000
G1 X96.405000 F200.000000
G1 Y62.115000 F200.000000
G1 X96.049400 F200.000000
G1 Y62.821242 F200.000000
G1 X96.917079 Y63.688921 F200.000000
G1 X96.962280 Y63.760858 F200.000000
G1 X97.015251 Y63.827281 F200.000000
G0 Z0.500000
G0 X48.961000 Y60.645000
G1 Z-0.040000 F60.000000
G1 X50.685000 F200.000000
G1 Y62.369000 F200.000000
G1 X50.329400 F200.000000
G1 Y63.583242 F200.000000
G1 X50.689079 Y63.942921 F200.000000
G1 X50.734280 Y64.014858 F200.000000
G1 X50.787251 Y64.081281 F200.000000
G1 X50.793659 Y64.109360 F200.000000
G1 X50.808983 Y64.133747 F200.000000
G1 X50.818495 Y64.218171 F200.000000
G1 X50.837400 Y64.301000 F200.000000
G1 Y66.804500 F200.000000
G1 X51.129500 F200.000000
G1 Y68.401500 F200.000000
G1 X50.837400 F200.000000
G1 Y70.073223 F200.000000
G1 X50.912123 Y70.107348 F200.000000
G1 X51.182454 Y70.527991 F200.000000
G1 Y71.028009 F200.000000
G1 X50.912123 Y71.448652 F200.000000
G1 X50.457290 Y71.656368 F200.000000
G1 X49.962361 Y71.585207 F200.000000
G1 X49.584472 Y71.257765 F200.000000
G1 X49.443600 Y70.778000 F200.000000
G1 X49.584472 Y70.298235 F200.000000
G1 X49.824600 Y70.090163 F200.000000
G1 Y68.401500 F200.000000
G1 X49.532500 F200.000000
G1 Y66.804500 F200.000000
G1 X49.824600 F200.000000
G1 Y64.510758 F200.000000
G1 X49.464921 Y64.151079 F200.000000
G1 X49.419720 Y64.079142 F200.000000
G1 X49.366749 Y64.012719 F200.000000
G1 X49.360341 Y63.984640 F200.000000
G1 X49.345017 Y63.960253 F200.000000
G1 X49.335505 Y63.875829 F200.000000
G1 X49.316600 Y63.793000 F200.000000
G1 Y62.369000 F200.000000
G1 X48.961000 F200.000000
G1 Y60.645000 F200.000000
G0 Z0.500000
G0 X48.789771 Y67.160213
G1 Z-0.040000 F60.000000
G1 X48.773978 Y67.121389 F200.000000
G1 X48.516632 Y67.378735 F200.000000
G1 X48.589500 Y67.603000 F200.000000
G1 X48.516632 Y67.827265 F200.000000
G1 X48.768884 Y68.079517 F200.000000
G1 X48.785639 Y68.031346 F200.000000
G1 X48.792600 Y68.020222 F200.000000
G1 X48.795520 Y68.007428 F200.000000
G1 X48.819136 Y67.977815 F200.000000
G1 X48.839228 Y67.945706 F200.000000
G1 X48.850326 Y67.938704 F200.000000
G1 X48.858508 Y67.928444 F200.000000
G1 X48.892634 Y67.912010 F200.000000
G1 X48.924668 Y67.891798 F200.000000
G1 X48.937705 Y67.890305 F200.000000
G1 X48.949528 Y67.884611 F200.000000
G1 X48.987405 F200.000000
G1 X49.025036 Y67.880300 F200.000000
G1 X49.037430 Y67.884611 F200.000000
G1 X49.050552 F200.000000
G1 X49.084678 Y67.901046 F200.000000
G1 X49.120453 Y67.913489 F200.000000
G1 X49.129749 Y67.922751 F200.000000
G1 X49.141572 Y67.928444 F200.000000
G1 X49.165188 Y67.958058 F200.000000
G1 X49.192021 Y67.984791 F200.000000
G1 X49.196378 Y67.997169 F200.000000
G1 X49.204560 Y68.007428 F200.000000
G1 X49.212988 Y68.044356 F200.000000
G1 X49.225565 Y68.080084 F200.000000
G1 X49.224120 Y68.093127 F200.000000
G1 X49.227040 Y68.105920 F200.000000
G1 Y68.380925 F200.000000
G1 X49.289085 Y68.531138 F200.000000
G1 X49.420327 Y68.662381 F200.000000
G1 X49.431132 Y68.667584 F200.000000
G1 X49.448116 Y68.688881 F200.000000
G1 X49.469158 Y68.706179 F200.000000
G1 X49.479211 Y68.727874 F200.000000
G1 X49.494120 Y68.746568 F200.000000
G1 X49.500181 Y68.773125 F200.000000
G1 X49.511634 Y68.797839 F200.000000
G1 X49.511279 Y68.821748 F200.000000
G1 X49.516600 Y68.845060 F200.000000
G1 Y69.812800 F200.000000
G1 X49.507931 Y69.850781 F200.000000
G1 X49.503265 Y69.889458 F200.000000
G1 X49.496793 Y69.899579 F200.000000
G1 X49.494120 Y69.911292 F200.000000
G1 X49.469830 Y69.941750 F200.000000
G1 X49.448844 Y69.974572 F200.000000
G1 X49.319240 Y70.102151 F200.000000
G1 X49.138140 Y70.541053 F200.000000
G1 Y71.014745 F200.000000
G1 X49.319595 Y71.452371 F200.000000
G1 X49.654638 Y71.789548 F200.000000
G1 X50.094053 Y71.970860 F200.000000
G1 X50.567745 F200.000000
G1 X51.005371 Y71.789405 F200.000000
G1 X51.342548 Y71.454362 F200.000000
G1 X51.523860 Y71.014947 F200.000000
G1 Y70.541255 F200.000000
G1 X51.342549 Y70.103975 F200.000000
G1 X51.211887 Y69.973313 F200.000000
G1 X51.191625 Y69.941067 F200.000000
G1 X51.167880 Y69.911292 F200.000000
G1 X51.165007 Y69.898705 F200.000000
G1 X51.158138 Y69.887773 F200.000000
G1 X51.153874 Y69.849929 F200.000000
G1 X51.145400 Y69.812800 F200.000000
G1 Y68.845060 F200.000000
G1 X51.150721 Y68.821748 F200.000000
G1 X51.150366 Y68.797839 F200.000000
G1 X51.161819 Y68.773125 F200.000000
G1 X51.167880 Y68.746568 F200.000000
G1 X51.182789 Y68.727874 F200.000000
G1 X51.192842 Y68.706179 F200.000000
G1 X51.213884 Y68.688881 F200.000000
G1 X51.230868 Y68.667584 F200.000000
G1 X51.241673 Y68.662381 F200.000000
G1 X51.373238 Y68.530815 F200.000000
G1 X51.434960 Y68.383008 F200.000000
G1 Y68.177040 F200.000000
G1 Y68.177040 F200.000000
G1 Y68.177040 F200.000000
G1 Y66.825075 F200.000000
G1 X51.372915 Y66.674862 F200.000000
G1 X51.246572 Y66.548518 F200.000000
G1 X51.230868 Y66.540956 F200.000000
G1 X51.223874 Y66.532185 F200.000000
G1 X51.214288 Y66.526359 F200.000000
G1 X51.192652 Y66.493035 F200.000000
G1 X51.167880 Y66.461972 F200.000000
G1 X51.165384 Y66.451035 F200.000000
G1 X51.159275 Y66.441626 F200.000000
G1 X51.154241 Y66.402215 F200.000000
G1 X51.145400 Y66.363480 F200.000000
G1 Y64.323197 F200.000000
G1 X51.079754 Y63.990733 F200.000000
G1 X50.891333 Y63.709160 F200.000000
G1 X50.703887 Y63.521713 F200.000000
G1 X50.683625 Y63.489467 F200.000000
G1 X50.659880 Y63.459692 F200.000000
G1 X50.657007 Y63.447105 F200.000000
G1 X50.650138 Y63.436173 F200.000000
G1 X50.645874 Y63.398329 F200.000000
G1 X50.637400 Y63.361200 F200.000000
G1 Y62.837960 F200.000000
G1 X50.644378 Y62.807389 F200.000000
G1 X50.645999 Y62.776074 F200.000000
G1 X50.655482 Y62.758736 F200.000000
G1 X50.659880 Y62.739468 F200.000000
G1 X50.679431 Y62.714953 F200.000000
G1 X50.694478 Y62.687442 F200.000000
G1 X50.710546 Y62.675935 F200.000000
G1 X50.722868 Y62.660484 F200.000000
G1 X50.751119 Y62.646879 F200.000000
G1 X50.776613 Y62.628622 F200.000000
G1 X50.814190 Y62.612864 F200.000000
G1 X50.928738 Y62.498315 F200.000000
G1 X50.990460 Y62.350508 F200.000000
G1 Y62.144540 F200.000000
G1 Y62.144540 F200.000000
G1 Y62.144540 F200.000000
G1 Y60.665575 F200.000000
G1 X50.928415 Y60.515362 F200.000000
G1 X50.814315 Y60.401262 F200.000000
G1 X50.666508 Y60.339540 F200.000000
G1 X48.981575 F200.000000
G1 X48.831362 Y60.401585 F200.000000
G1 X48.717262 Y60.515685 F200.000000
G1 X48.655540 Y60.663492 F200.000000
G1 Y60.778020 F200.000000
G1 X48.654106 Y60.784305 F200.000000
G1 X48.655188 Y60.790659 F200.000000
G1 X48.642928 Y60.833277 F200.000000
G1 X48.633060 Y60.876512 F200.000000
G1 X48.629041 Y60.881551 F200.000000
G1 X48.627259 Y60.887746 F200.000000
G1 X48.597722 Y60.920824 F200.000000
G1 X48.570072 Y60.955496 F200.000000
G1 X48.564264 Y60.958293 F200.000000
G1 X48.559971 Y60.963101 F200.000000
G1 X48.519007 Y60.980088 F200.000000
G1 X48.479052 Y60.999329 F200.000000
G1 X48.472606 F200.000000
G1 X48.466651 Y61.001798 F200.000000
G1 X48.422374 Y60.999329 F200.000000
G1 X48.378028 F200.000000
G1 X48.372220 Y60.996532 F200.000000
G1 X48.365784 Y60.996173 F200.000000
G1 X48.309230 Y60.979904 F200.000000
G1 X48.056214 Y61.233745 F200.000000
G1 X48.145000 Y61.507000 F200.000000
G1 X48.056214 Y61.780255 F200.000000
G1 X48.310598 Y62.035468 F200.000000
G1 X48.368559 Y62.019588 F200.000000
G1 X48.373538 Y62.019374 F200.000000
G1 X48.378028 Y62.017211 F200.000000
G1 X48.423780 F200.000000
G1 X48.469490 Y62.015244 F200.000000
G1 X48.474069 Y62.017211 F200.000000
G1 X48.479052 Y62.017211 F200.000000
G1 X48.520273 Y62.037062 F200.000000
G1 X48.562310 Y62.055123 F200.000000
G1 X48.565582 Y62.058882 F200.000000
G1 X48.570072 Y62.061044 F200.000000
G1 X48.598598 Y62.096815 F200.000000
G1 X48.628636 Y62.131326 F200.000000
G1 X48.629953 Y62.136132 F200.000000
G1 X48.633060 Y62.140028 F200.000000
G1 X48.643241 Y62.184633 F200.000000
G1 X48.655330 Y62.228759 F200.000000
G1 X48.654431 Y62.233661 F200.000000
G1 X48.655540 Y62.238520 F200.000000
G1 Y62.348425 F200.000000
G1 X48.717585 Y62.498638 F200.000000
G1 X48.831810 Y62.612864 F200.000000
G1 X48.869387 Y62.628622 F200.000000
G1 X48.894881 Y62.646879 F200.000000
G1 X48.923132 Y62.660484 F200.000000
G1 X48.935454 Y62.675935 F200.000000
G1 X48.951522 Y62.687442 F200.000000
G1 X48.966569 Y62.714953 F200.000000
G1 X48.986120 Y62.739468 F200.000000
G1 X48.990518 Y62.758736 F200.000000
G1 X49.000001 Y62.776074 F200.000000
G1 X49.001622 Y62.807389 F200.000000
G1 X49.008600 Y62.837960 F200.000000
G1 Y63.770230 F200.000000
G1 X49.020805 Y63.824281 F200.000000
G1 X49.020796 Y63.828038 F200.000000
G1 X49.022308 Y63.831478 F200.000000
G1 X49.074287 Y64.102200 F200.000000
G1 X49.262807 Y64.384981 F200.000000
G1 X49.450113 Y64.572287 F200.000000
G1 X49.470375 Y64.604533 F200.000000
G1 X49.494120 Y64.634308 F200.000000
G1 X49.496993 Y64.646895 F200.000000
G1 X49.503862 Y64.657827 F200.000000
G1 X49.508126 Y64.695671 F200.000000
G1 X49.516600 Y64.732800 F200.000000
G1 Y66.363480 F200.000000
G1 X49.507759 Y66.402215 F200.000000
G1 X49.502725 Y66.441626 F200.000000
G1 X49.496616 Y66.451035 F200.000000
G1 X49.494120 Y66.461972 F200.000000
G1 X49.469348 Y66.493035 F200.000000
G1 X49.447712 Y66.526359 F200.000000
G1 X49.438126 Y66.532185 F200.000000
G1 X49.431132 Y66.540956 F200.000000
G1 X49.415428 Y66.548518 F200.000000
G1 X49.288762 Y66.675185 F200.000000
G1 X49.227040 Y66.822992 F200.000000
G1 Y67.028960 F200.000000
G1 Y67.074680 F200.000000
G1 X49.225433 Y67.081722 F200.000000
G1 X49.226597 Y67.088850 F200.000000
G1 X49.214261 Y67.130666 F200.000000
G1 X49.204560 Y67.173172 F200.000000
G1 X49.200057 Y67.178818 F200.000000
G1 X49.198013 Y67.185746 F200.000000
G1 X49.168755 Y67.218069 F200.000000
G1 X49.141572 Y67.252156 F200.000000
G1 X49.135065 Y67.255290 F200.000000
G1 X49.130218 Y67.260644 F200.000000
G1 X49.089833 Y67.277072 F200.000000
G1 X49.050552 Y67.295989 F200.000000
G1 X49.043330 F200.000000
G1 X49.036639 Y67.298710 F200.000000
G1 X48.993126 Y67.295989 F200.000000
G1 X48.949528 F200.000000
G1 X48.943020 Y67.292855 F200.000000
G1 X48.935812 Y67.292404 F200.000000
G1 X48.897789 Y67.271072 F200.000000
G1 X48.858508 Y67.252156 F200.000000
G1 X48.854005 Y67.246509 F200.000000
G1 X48.847706 Y67.242975 F200.000000
G1 X48.822703 Y67.207258 F200.000000
G1 X48.795520 Y67.173172 F200.000000
G1 X48.793913 Y67.166130 F200.000000
G1 X48.789771 Y67.160213 F200.000000
G0 Z0.500000
G0 X71.966341 Y64.492640
G1 Z-0.040000 F60.000000
G1 X71.951017 Y64.468253 F200.000000
G1 X71.941505 Y64.383829 F200.000000
G1 X71.922600 Y64.301000 F200.000000
G1 Y62.115000 F200.000000
G1 X71.567000 F200.000000
G1 Y60.391000 F200.000000
G1 X73.291000 F200.000000
G1 Y62.115000 F200.000000
G1 X72.935400 F200.000000
G1 Y64.091242 F200.000000
G1 X73.803079 Y64.958921 F200.000000
G1 X73.848280 Y65.030858 F200.000000
G1 X73.901251 Y65.097281 F200.000000
G0 Z0.500000
G0 X71.903771 Y67.160213
G1 Z-0.040000 F60.000000
G1 X71.887978 Y67.121389 F200.000000
G1 X71.630632 Y67.378735 F200.000000
G1 X71.703500 Y67.603000 F200.000000
G1 X71.630632 Y67.827265 F200.000000
G1 X71.882884 Y68.079517 F200.000000
G1 X71.899639 Y68.031346 F200.000000
G1 X71.906600 Y68.020222 F200.000000
G1 X71.909520 Y68.007428 F200.000000
G1 X71.933136 Y67.977815 F200.000000
G1 X71.953228 Y67.945706 F200.000000
G1 X71.964326 Y67.938704 F200.000000
G1 X71.972508 Y67.928444 F200.000000
G1 X72.006634 Y67.912010 F200.000000
G1 X72.038668 Y67.891798 F200.000000
G1 X72.051705 Y67.890305 F200.000000
G1 X72.063528 Y67.884611 F200.000000
G1 X72.101405 F200.000000
G1 X72.139036 Y67.880300 F200.000000
G1 X72.151430 Y67.884611 F200.000000
G1 X72.164552 F200.000000
G1 X72.198678 Y67.901046 F200.000000
G1 X72.234453 Y67.913489 F200.000000
G1 X72.243749 Y67.922751 F200.000000
G1 X72.255572 Y67.928444 F200.000000
G1 X72.279188 Y67.958058 F200.000000
G1 X72.306021 Y67.984791 F200.000000
G1 X72.310378 Y67.997169 F200.000000
G1 X72.318560 Y68.007428 F200.000000
G1 X72.326988 Y68.044356 F200.000000
G1 X72.339565 Y68.080084 F200.000000
G1 X72.338120 Y68.093127 F200.000000
G1 X72.341040 Y68.105920 F200.000000
G1 Y68.380925 F200.000000
G1 X72.403085 Y68.531138 F200.000000
G1 X72.534327 Y68.662381 F200.000000
G1 X72.545132 Y68.667584 F200.000000
G1 X72.562116 Y68.688881 F200.000000
G1 X72.583158 Y68.706179 F200.000000
G1 X72.593211 Y68.727874 F200.000000
G1 X72.608120 Y68.746568 F200.000000
G1 X72.614181 Y68.773125 F200.000000
G1 X72.625634 Y68.797839 F200.000000
G1 X72.625279 Y68.821748 F200.000000
G1 X72.630600 Y68.845060 F200.000000
G1 Y69.508000 F200.000000
G1 Y69.508000 F200.000000
G1 Y69.939800 F200.000000
G1 X72.621931 Y69.977781 F200.000000
G1 X72.617265 Y70.016458 F200.000000
G1 X72.610793 Y70.026579 F200.000000
G1 X72.608120 Y70.038292 F200.000000
G1 X72.583830 Y70.068750 F200.000000
G1 X72.562844 Y70.101572 F200.000000
G1 X72.433240 Y70.229151 F200.000000
G1 X72.252140 Y70.668053 F200.000000
G1 Y71.141745 F200.000000
G1 X72.433595 Y71.579371 F200.000000
G1 X72.768638 Y71.916548 F200.000000
G1 X73.208053 Y72.097860 F200.000000
G1 X73.681745 F200.000000
G1 X74.120649 Y71.915875 F200.000000
G1 X74.175900 Y71.862249 F200.000000
G1 X74.196327 Y71.849836 F200.000000
G1 X74.213229 Y71.832934 F200.000000
G1 X74.238947 Y71.823934 F200.000000
G1 X74.262233 Y71.809783 F200.000000
G1 X74.286022 Y71.807462 F200.000000
G1 X74.308584 Y71.799567 F200.000000
G1 X74.335661 Y71.802618 F200.000000
G1 X74.362779 Y71.799972 F200.000000
G1 X74.385221 Y71.808202 F200.000000
G1 X74.408973 Y71.810878 F200.000000
G1 X74.432045 Y71.825375 F200.000000
G1 X74.457626 Y71.834757 F200.000000
G1 X74.474274 Y71.851910 F200.000000
G1 X74.494513 Y71.864627 F200.000000
G1 X74.546292 Y71.916405 F200.000000
G1 X74.986053 Y72.097860 F200.000000
G1 X75.459745 F200.000000
G1 X75.897371 Y71.916405 F200.000000
G1 X76.234548 Y71.581362 F200.000000
G1 X76.415860 Y71.141947 F200.000000
G1 Y70.668255 F200.000000
G1 X76.234549 Y70.230975 F200.000000
G1 X76.086107 Y70.082533 F200.000000
G1 X76.077606 Y70.069004 F200.000000
G1 X76.065387 Y70.058709 F200.000000
G1 X76.051024 Y70.026700 F200.000000
G1 X76.032358 Y69.996993 F200.000000
G1 X76.030570 Y69.981116 F200.000000
G1 X76.024028 Y69.966538 F200.000000
G1 X75.971915 Y69.705973 F200.000000
G1 X75.783333 Y69.424160 F200.000000
G1 X75.306981 Y68.947807 F200.000000
G1 X75.024200 Y68.759287 F200.000000
G1 X74.753478 Y68.707308 F200.000000
G1 X74.752657 Y68.706948 F200.000000
G1 X74.751762 Y68.706972 F200.000000
G1 X74.713662 Y68.699352 F200.000000
G1 X74.674525 Y68.681790 F200.000000
G1 X74.634275 Y68.666961 F200.000000
G1 X74.628745 Y68.661248 F200.000000
G1 X74.621491 Y68.657993 F200.000000
G1 X74.593851 Y68.625190 F200.000000
G1 X74.564020 Y68.594365 F200.000000
G1 X74.561517 Y68.586818 F200.000000
G1 X74.556394 Y68.580738 F200.000000
G1 X74.545723 Y68.539191 F200.000000
G1 X74.532221 Y68.498475 F200.000000
G1 X74.533241 Y68.490590 F200.000000
G1 X74.531263 Y68.482889 F200.000000
G1 X74.539675 Y68.440826 F200.000000
G1 X74.545176 Y68.398285 F200.000000
G1 X74.548960 Y68.388014 F200.000000
G1 Y68.177040 F200.000000
G1 Y68.177040 F200.000000
G1 Y66.825075 F200.000000
G1 X74.486915 Y66.674862 F200.000000
G1 X74.360572 Y66.548518 F200.000000
G1 X74.344868 Y66.540956 F200.000000
G1 X74.337874 Y66.532185 F200.000000
G1 X74.328288 Y66.526359 F200.000000
G1 X74.306652 Y66.493035 F200.000000
G1 X74.281880 Y66.461972 F200.000000
G1 X74.279384 Y66.451035 F200.000000
G1 X74.273275 Y66.441626 F200.000000
G1 X74.268241 Y66.402215 F200.000000
G1 X74.259400 Y66.363480 F200.000000
G1 Y65.339197 F200.000000
G1 X74.193754 Y65.006733 F200.000000
G1 X74.005447 Y64.725330 F200.000000
G1 X73.310174 Y64.032540 F200.000000
G1 X73.289749 Y64.000162 F200.000000
G1 X73.265880 Y63.970232 F200.000000
G1 X73.263053 Y63.957843 F200.000000
G1 X73.256273 Y63.947097 F200.000000
G1 X73.251919 Y63.909063 F200.000000
G1 X73.243400 Y63.871740 F200.000000
G1 Y62.583960 F200.000000
G1 X73.250378 Y62.553389 F200.000000
G1 X73.251999 Y62.522074 F200.000000
G1 X73.261482 Y62.504736 F200.000000
G1 X73.265880 Y62.485468 F200.000000
G1 X73.285431 Y62.460953 F200.000000
G1 X73.300478 Y62.433442 F200.000000
G1 X73.316546 Y62.421935 F200.000000
G1 X73.328868 Y62.406484 F200.000000
G1 X73.357119 Y62.392879 F200.000000
G1 X73.382613 Y62.374622 F200.000000
G1 X73.420190 Y62.358864 F200.000000
G1 X73.534738 Y62.244315 F200.000000
G1 X73.596460 Y62.096508 F200.000000
G1 Y61.890540 F200.000000
G1 Y61.890540 F200.000000
G1 Y61.890540 F200.000000
G1 Y60.411575 F200.000000
G1 X73.534415 Y60.261362 F200.000000
G1 X73.420315 Y60.147262 F200.000000
G1 X73.272508 Y60.085540 F200.000000
G1 X71.587575 F200.000000
G1 X71.437362 Y60.147585 F200.000000
G1 X71.323262 Y60.261685 F200.000000
G1 X71.261540 Y60.409492 F200.000000
G1 Y60.524020 F200.000000
G1 X71.260106 Y60.530305 F200.000000
G1 X71.261188 Y60.536659 F200.000000
G1 X71.248928 Y60.579277 F200.000000
G1 X71.239060 Y60.622512 F200.000000
G1 X71.235041 Y60.627551 F200.000000
G1 X71.233259 Y60.633746 F200.000000
G1 X71.203722 Y60.666824 F200.000000
G1 X71.176072 Y60.701496 F200.000000
G1 X71.170264 Y60.704293 F200.000000
G1 X71.165971 Y60.709101 F200.000000
G1 X71.125007 Y60.726088 F200.000000
G1 X71.085052 Y60.745329 F200.000000
G1 X71.078606 F200.000000
G1 X71.072651 Y60.747798 F200.000000
G1 X71.028374 Y60.745329 F200.000000
G1 X70.984028 F200.000000
G1 X70.978220 Y60.742532 F200.000000
G1 X70.971784 Y60.742173 F200.000000
G1 X70.915230 Y60.725904 F200.000000
G1 X70.662214 Y60.979745 F200.000000
G1 X70.751000 Y61.253000 F200.000000
G1 X70.662214 Y61.526255 F200.000000
G1 X70.916598 Y61.781468 F200.000000
G1 X70.974559 Y61.765588 F200.000000
G1 X70.979538 Y61.765374 F200.000000
G1 X70.984028 Y61.763211 F200.000000
G1 X71.029780 F200.000000
G1 X71.075490 Y61.761244 F200.000000
G1 X71.080069 Y61.763211 F200.000000
G1 X71.085052 F200.000000
G1 X71.126273 Y61.783062 F200.000000
G1 X71.168310 Y61.801123 F200.000000
G1 X71.171582 Y61.804882 F200.000000
G1 X71.176072 Y61.807044 F200.000000
G1 X71.204598 Y61.842815 F200.000000
G1 X71.234636 Y61.877326 F200.000000
G1 X71.235953 Y61.882132 F200.000000
G1 X71.239060 Y61.886028 F200.000000
G1 X71.249241 Y61.930633 F200.000000
G1 X71.261330 Y61.974759 F200.000000
G1 X71.260431 Y61.979661 F200.000000
G1 X71.261540 Y61.984520 F200.000000
G1 Y62.094425 F200.000000
G1 X71.323585 Y62.244638 F200.000000
G1 X71.437810 Y62.358864 F200.000000
G1 X71.475387 Y62.374622 F200.000000
G1 X71.500881 Y62.392879 F200.000000
G1 X71.529132 Y62.406484 F200.000000
G1 X71.541454 Y62.421935 F200.000000
G1 X71.557522 Y62.433442 F200.000000
G1 X71.572569 Y62.460953 F200.000000
G1 X71.592120 Y62.485468 F200.000000
G1 X71.596518 Y62.504736 F200.000000
G1 X71.606001 Y62.522074 F200.000000
G1 X71.607622 Y62.553389 F200.000000
G1 X71.614600 Y62.583960 F200.000000
G1 Y64.278803 F200.000000
G1 X71.680246 Y64.611267 F200.000000
G1 X71.863531 Y64.885166 F200.000000
G1 X72.564403 Y65.588577 F200.000000
G1 X72.584500 Y65.620690 F200.000000
G1 X72.608120 Y65.650308 F200.000000
G1 X72.611039 Y65.663096 F200.000000
G1 X72.617997 Y65.674214 F200.000000
G1 X72.622170 Y65.711867 F200.000000
G1 X72.630600 Y65.748800 F200.000000
G1 Y66.363480 F200.000000
G1 X72.621759 Y66.402215 F200.000000
G1 X72.616725 Y66.441626 F200.000000
G1 X72.610616 Y66.451035 F200.000000
G1 X72.608120 Y66.461972 F200.000000
G1 X72.583348 Y66.493035 F200.000000
G1 X72.561712 Y66.526359 F200.000000
G1 X72.552126 Y66.532185 F200.000000
G1 X72.545132 Y66.540956 F200.000000
G1 X72.529428 Y66.548518 F200.000000
G1 X72.402762 Y66.675185 F200.000000
G1 X72.341040 Y66.822992 F200.000000
G1 Y67.028960 F200.000000
G1 Y67.074680 F200.000000
G1 X72.339433 Y67.081722 F200.000000
G1 X72.340597 Y67.088850 F200.000000
G1 X72.328261 Y67.130666 F200.000000
G1 X72.318560 Y67.173172 F200.000000
G1 X72.314057 Y67.178818 F200.000000
G1 X72.312013 Y67.185746 F200.000000
G1 X72.282755 Y67.218069 F200.000000
G1 X72.255572 Y67.252156 F200.000000
G1 X72.249065 Y67.255290 F200.000000
G1 X72.244218 Y67.260644 F200.000000
G1 X72.203833 Y67.277072 F200.000000
G1 X72.164552 Y67.295989 F200.000000
G1 X72.157330 F200.000000
G1 X72.150639 Y67.298710 F200.000000
G1 X72.107126 Y67.295989 F200.000000
G1 X72.063528 F200.000000
G1 X72.057020 Y67.292855 F200.000000
G1 X72.049812 Y67.292404 F200.000000
G1 X72.011789 Y67.271072 F200.000000
G1 X71.972508 Y67.252156 F200.000000
G1 X71.968005 Y67.246509 F200.000000
G1 X71.961706 Y67.242975 F200.000000
G1 X71.936703 Y67.207258 F200.000000
G1 X71.909520 Y67.173172 F200.000000
G1 X71.907913 Y67.166130 F200.000000
G1 X71.903771 Y67.160213 F200.000000
G0 Z0.500000
G0 X21.147233 Y52.903866
G1 Z-0.040000 F60.000000
G1 X21.375704 Y53.132337 F200.000000
G1 X21.382250 Y53.127581 F200.000000
G1 X21.875750 F200.000000
G1 X21.882296 Y53.132337 F200.000000
G1 X22.105454 Y52.909180 F200.000000
G1 X21.784648 Y52.797812 F200.000000
G1 X21.349252 Y52.821289 F200.000000
G1 X21.147233 Y52.903866 F200.000000
G0 Z0.500000
G0 X22.354632 Y53.662735
G1 Z-0.040000 F60.000000
G1 X22.427500 Y53.887000 F200.000000
G1 X22.354632 Y54.111265 F200.000000
G1 X22.606820 Y54.363454 F200.000000
G1 X22.718188 Y54.042648 F200.000000
G1 X22.694711 Y53.607252 F200.000000
G1 X22.612134 Y53.405233 F200.000000
G1 X22.354632 Y53.662735 F200.000000
G0 Z0.500000
G0 X71.668600 Y47.827500
G1 Z-0.040000 F60.000000
G1 X71.376500 F200.000000
G1 Y46.230500 F200.000000
G1 X71.668600 F200.000000
G0 Z0.500000
G0 X68.651866 Y47.510767
G1 Z-0.040000 F60.000000
G1 X68.909368 Y47.253265 F200.000000
G1 X68.836500 Y47.029000 F200.000000
G1 X68.909368 Y46.804735 F200.000000
G1 X68.657180 Y46.552546 F200.000000
G1 X68.545812 Y46.873352 F200.000000
G1 X68.569289 Y47.308748 F200.000000
G1 X68.651866 Y47.510767 F200.000000
G0 Z0.500000
G0 X20.893233 Y48.331866
G1 Z-0.040000 F60.000000
G1 X21.121704 Y48.560337 F200.000000
G1 X21.128250 Y48.555581 F200.000000
G1 X21.621750 F200.000000
G1 X21.628296 Y48.560337 F200.000000
G1 X21.851454 Y48.337180 F200.000000
G1 X21.530648 Y48.225812 F200.000000
G1 X21.095252 Y48.249289 F200.000000
G1 X20.893233 Y48.331866 F200.000000
G0 Z0.500000
G0 X21.856767 Y50.298134
G1 Z-0.040000 F60.000000
G1 X21.628296 Y50.069663 F200.000000
G1 X21.621750 Y50.074419 F200.000000
G1 X21.128250 F200.000000
G1 X21.121704 Y50.069663 F200.000000
G1 X20.898217 Y50.293149 F200.000000
G1 X20.966957 Y50.317253 F200.000000
G1 X21.219108 Y50.404201 F200.000000
G1 X21.654748 Y50.380711 F200.000000
G1 X21.856767 Y50.298134 F200.000000
G0 Z0.500000
G0 X64.251800 Y19.189168
G1 Z-0.040000 F60.000000
G1 Y16.803000 F200.000000
G1 X64.263119 Y16.753407 F200.000000
G1 X64.268815 Y16.702859 F200.000000
G1 X64.277989 Y16.688258 F200.000000
G1 X64.281826 Y16.671446 F200.000000
G1 X64.313542 Y16.631676 F200.000000
G1 X64.340605 Y16.588605 F200.000000
G1 X65.208386 Y15.720824 F200.000000
G1 X65.090000 Y15.279000 F200.000000
G1 X65.222501 Y14.784500 F200.000000
G1 X65.584500 Y14.422501 F200.000000
G1 X65.775800 Y14.371242 F200.000000
G1 Y10.917405 F200.000000
G1 X65.433000 Y10.668347 F200.000000
G1 X65.280500 Y10.199000 F200.000000
G1 X65.433000 Y9.729653 F200.000000
G1 X65.832250 Y9.439581 F200.000000
G1 X66.325750 F200.000000
G1 X66.725000 Y9.729653 F200.000000
G1 X66.877500 Y10.199000 F200.000000
G1 X66.725000 Y10.668347 F200.000000
G1 X66.382200 Y10.917405 F200.000000
G1 Y14.371242 F200.000000
G1 X66.573500 Y14.422501 F200.000000
G1 X66.935499 Y14.784500 F200.000000
G1 X67.068000 Y15.279000 F200.000000
G1 X66.935499 Y15.773500 F200.000000
G1 X66.573500 Y16.135499 F200.000000
G1 X66.079000 Y16.268000 F200.000000
G1 X65.637176 Y16.149614 F200.000000
G1 X64.858200 Y16.928590 F200.000000
G1 Y19.189168 F200.000000
G0 Z0.500000
G0 X69.344632 Y9.974735
G1 Z-0.040000 F60.000000
G1 X69.417500 Y10.199000 F200.000000
G1 X69.344632 Y10.423265 F200.000000
G1 X69.596820 Y10.675454 F200.000000
G1 X69.708188 Y10.354648 F200.000000
G1 X69.684711 Y9.919252 F200.000000
G1 X69.602134 Y9.717233 F200.000000
G1 X69.344632 Y9.974735 F200.000000
G0 Z0.500000
G0 X24.449233 Y48.331866
G1 Z-0.040000 F60.000000
G1 X24.677704 Y48.560337 F200.000000
G1 X24.684250 Y48.555581 F200.000000
G1 X25.177750 F200.000000
G1 X25.184296 Y48.560337 F200.000000
G1 X25.407454 Y48.337180 F200.000000
G1 X25.086648 Y48.225812 F200.000000
G1 X24.651252 Y48.249289 F200.000000
G1 X24.449233 Y48.331866 F200.000000
G0 Z0.500000
G0 X61.711800 Y19.189168
G1 Z-0.040000 F60.000000
G1 Y16.420590 F200.000000
G1 X61.440824 Y16.149614 F200.000000
G1 X60.999000 Y16.268000 F200.000000
G1 X60.504500 Y16.135499 F200.000000
G1 X60.142501 Y15.773500 F200.000000
G1 X60.010000 Y15.279000 F200.000000
G1 X60.142501 Y14.784500 F200.000000
G1 X60.504500 Y14.422501 F200.000000
G1 X60.695800 Y14.371242 F200.000000
G1 Y10.917405 F200.000000
G1 X60.353000 Y10.668347 F200.000000
G1 X60.200500 Y10.199000 F200.000000
G1 X60.353000 Y9.729653 F200.000000
G1 X60.752250 Y9.439581 F200.000000
G1 X61.245750 F200.000000
G1 X61.645000 Y9.729653 F200.000000
G1 X61.797500 Y10.199000 F200.000000
G1 X61.645000 Y10.668347 F200.000000
G1 X61.302200 Y10.917405 F200.000000
G1 Y14.371242 F200.000000
G1 X61.493500 Y14.422501 F200.000000
G1 X61.855499 Y14.784500 F200.000000
G1 X61.988000 Y15.279000 F200.000000
G1 X61.869614 Y15.720824 F200.000000
G1 X62.229395 Y16.080605 F200.000000
G1 X62.256458 Y16.123676 F200.000000
G1 X62.288174 Y16.163446 F200.000000
G1 X62.292011 Y16.180258 F200.000000
G1 X62.301185 Y16.194859 F200.000000
G1 X62.306881 Y16.245407 F200.000000
G1 X62.318200 Y16.295000 F200.000000
G1 Y19.189168 F200.000000
G0 Z0.500000
G0 X57.475866 Y10.680767
G1 Z-0.040000 F60.000000
G1 X57.733368 Y10.423265 F200.000000
G1 X57.660500 Y10.199000 F200.000000
G1 X57.733368 Y9.974735 F200.000000
G1 X57.481180 Y9.722546 F200.000000
G1 X57.369812 Y10.043352 F200.000000
G1 X57.393289 Y10.478748 F200.000000
G1 X57.475866 Y10.680767 F200.000000
G0 Z0.500000
G0 X58.940767 Y11.182134
G1 Z-0.040000 F60.000000
G1 X58.712296 Y10.953663 F200.000000
G1 X58.705750 Y10.958419 F200.000000
G1 X58.212250 F200.000000
G1 X58.205704 Y10.953663 F200.000000
G1 X57.982546 Y11.176820 F200.000000
G1 X58.303352 Y11.288188 F200.000000
G1 X58.738748 Y11.264711 F200.000000
G1 X58.940767 Y11.182134 F200.000000
G0 Z0.500000
G0 X71.668600 Y42.265772
G1 Z-0.040000 F60.000000
G1 X71.529000 Y42.164347 F200.000000
G1 X71.376500 Y41.695000 F200.000000
G1 X71.529000 Y41.225653 F200.000000
G1 X71.668600 Y41.124228 F200.000000
G1 Y36.670976 F200.000000
G0 Z0.500000
G0 X72.681400
G1 Z-0.040000 F60.000000
G1 Y41.124228 F200.000000
G1 X72.821000 Y41.225653 F200.000000
G1 X72.973500 Y41.695000 F200.000000
G1 X72.821000 Y42.164347 F200.000000
G1 X72.681400 Y42.265772 F200.000000
G1 Y46.230500 F200.000000
G0 Z0.500000
G0 X68.651866 Y42.176767
G1 Z-0.040000 F60.000000
G1 X68.909368 Y41.919265 F200.000000
G1 X68.836500 Y41.695000 F200.000000
G1 X68.909368 Y41.470735 F200.000000
G1 X68.657180 Y41.218546 F200.000000
G1 X68.545812 Y41.539352 F200.000000
G1 X68.569289 Y41.974748 F200.000000
G1 X68.651866 Y42.176767 F200.000000
G0 Z0.500000
G0 X21.255466 Y35.090167
G1 Z-0.040000 F60.000000
G1 X21.512968 Y34.832665 F200.000000
G1 X21.440100 Y34.608400 F200.000000
G1 X21.512968 Y34.384135 F200.000000
G1 X21.260780 Y34.131946 F200.000000
G1 X21.149412 Y34.452752 F200.000000
G1 X21.172889 Y34.888148 F200.000000
G1 X21.255466 Y35.090167 F200.000000
G0 Z0.500000
G0 X21.255466 Y40.195567
G1 Z-0.040000 F60.000000
G1 X21.512968 Y39.938065 F200.000000
G1 X21.440100 Y39.713800 F200.000000
G1 X21.512968 Y39.489535 F200.000000
G1 X21.260780 Y39.237346 F200.000000
G1 X21.149412 Y39.558152 F200.000000
G1 X21.172889 Y39.993548 F200.000000
G1 X21.255466 Y40.195567 F200.000000
G0 Z0.500000
G0 X32.430226 Y10.787754
G1 Z-0.040000 F60.000000
G1 X32.425425 Y10.766717 F200.000000
G1 X32.414471 Y10.748126 F200.000000
G1 X32.410576 Y10.701660 F200.000000
G1 X32.400200 Y10.656200 F200.000000
G1 Y10.612605 F200.000000
G1 X32.057400 Y10.363547 F200.000000
G1 X31.904900 Y9.894200 F200.000000
G1 X32.057400 Y9.424853 F200.000000
G1 X32.456650 Y9.134781 F200.000000
G1 X32.950150 F200.000000
G1 X33.349400 Y9.424853 F200.000000
G1 X33.501900 Y9.894200 F200.000000
G1 X33.349400 Y10.363547 F200.000000
G1 X33.049701 Y10.581291 F200.000000
G1 X33.787430 Y11.362416 F200.000000
G1 X33.811101 Y11.402590 F200.000000
G1 X33.840174 Y11.439046 F200.000000
G1 X33.844975 Y11.460083 F200.000000
G0 Z0.500000
G0 X24.554554 Y28.074374
G1 Z-0.040000 F60.000000
G1 X24.537742 Y28.078211 F200.000000
G1 X24.523141 Y28.087385 F200.000000
G1 X24.472593 Y28.093081 F200.000000
G1 X24.423000 Y28.104400 F200.000000
G1 X23.268784 Y28.104400 F200.000000
G1 X23.214800 Y28.270547 F200.000000
G1 X22.815550 Y28.560619 F200.000000
G1 X22.322050 F200.000000
G1 X21.922800 Y28.270547 F200.000000
G1 X21.770300 Y27.801200 F200.000000
G1 X21.922800 Y27.331853 F200.000000
G1 X22.322050 Y27.041781 F200.000000
G1 X22.815550 F200.000000
G1 X23.214800 Y27.331853 F200.000000
G1 X23.268784 Y27.498000 F200.000000
G1 X24.297410 Y27.498000 F200.000000
G1 X25.415200 Y26.380210 F200.000000
G1 Y21.348190 F200.000000
G1 X24.818205 Y20.751195 F200.000000
G1 X24.810166 Y20.738400 F200.000000
G0 Z0.500000
G0 X19.045666 Y28.282967
G1 Z-0.040000 F60.000000
G1 X19.303168 Y28.025465 F200.000000
G1 X19.230300 Y27.801200 F200.000000
G1 X19.303168 Y27.576935 F200.000000
G1 X19.050980 Y27.324746 F200.000000
G1 X18.939612 Y27.645552 F200.000000
G1 X18.963089 Y28.080948 F200.000000
G1 X19.045666 Y28.282967 F200.000000
G0 Z0.500000
G0 X19.547033 Y26.818066
G1 Z-0.040000 F60.000000
G1 X19.775504 Y27.046537 F200.000000
G1 X19.782050 Y27.041781 F200.000000
G1 X20.275550 F200.000000
G1 X20.282096 Y27.046537 F200.000000
G1 X20.505254 Y26.823380 F200.000000
G1 X20.184448 Y26.712012 F200.000000
G1 X19.749052 Y26.735489 F200.000000
G1 X19.547033 Y26.818066 F200.000000
G0 Z0.500000
G0 X9.625862 Y26.888113
G1 Z-0.040000 F60.000000
G1 X9.618993 Y26.899045 F200.000000
G1 X9.616120 Y26.911632 F200.000000
G1 X9.592375 Y26.941407 F200.000000
G1 X9.572113 Y26.973653 F200.000000
G1 X9.474445 Y27.071321 F200.000000
G1 X9.298240 Y27.495912 F200.000000
G1 Y27.954973 F200.000000
G1 X9.474389 Y28.378623 F200.000000
G1 X9.799697 Y28.703930 F200.000000
G1 X9.933893 Y28.760332 F200.000000
G1 X9.969426 Y28.785821 F200.000000
G1 X10.006453 Y28.809087 F200.000000
G1 X10.164250 Y28.966884 F200.000000
G1 X10.190159 Y28.948060 F200.000000
G1 X10.715841 F200.000000
G1 X10.742836 Y28.967673 F200.000000
G1 X10.902422 Y28.808752 F200.000000
G1 X10.938809 Y28.785994 F200.000000
G1 X10.973551 Y28.760796 F200.000000
G1 X11.105867 Y28.704367 F200.000000
G1 X11.308487 Y28.501747 F200.000000
G1 X11.330143 Y28.488139 F200.000000
G1 X11.348229 Y28.470054 F200.000000
G1 X11.372370 Y28.461606 F200.000000
G1 X11.394027 Y28.447998 F200.000000
G1 X11.419443 Y28.445135 F200.000000
G1 X11.443584 Y28.436687 F200.000000
G1 X11.469000 Y28.439551 F200.000000
G1 X11.494416 Y28.436687 F200.000000
G1 X11.518557 Y28.445135 F200.000000
G1 X11.543973 Y28.447998 F200.000000
G1 X11.565630 Y28.461606 F200.000000
G1 X11.589771 Y28.470054 F200.000000
G1 X11.607857 Y28.488139 F200.000000
G1 X11.629513 Y28.501747 F200.000000
G1 X11.708253 Y28.580487 F200.000000
G1 X11.721861 Y28.602143 F200.000000
G1 X11.739946 Y28.620229 F200.000000
G1 X11.748394 Y28.644370 F200.000000
G1 X11.762002 Y28.666027 F200.000000
G1 X11.764865 Y28.691443 F200.000000
G1 X11.773313 Y28.715584 F200.000000
G1 X11.770449 Y28.741000 F200.000000
G1 X11.773313 Y28.766416 F200.000000
G1 X11.764865 Y28.790557 F200.000000
G1 X11.762002 Y28.815973 F200.000000
G1 X11.748394 Y28.837630 F200.000000
G1 X11.739946 Y28.861771 F200.000000
G1 X11.721861 Y28.879857 F200.000000
G1 X11.708253 Y28.901513 F200.000000
G1 X11.507103 Y29.102664 F200.000000
G1 X11.453281 Y29.235296 F200.000000
G1 X11.427316 Y29.272455 F200.000000
G1 X11.403118 Y29.310788 F200.000000
G1 X11.218366 Y29.494770 F200.000000
G1 X11.303570 Y29.757000 F200.000000
G1 X11.217932 Y30.020566 F200.000000
G1 X11.403453 Y30.206087 F200.000000
G1 X11.427147 Y30.243795 F200.000000
G1 X11.452842 Y30.280170 F200.000000
G1 X11.506676 Y30.410909 F200.000000
G1 X11.831515 Y30.735748 F200.000000
G1 X12.190335 Y30.885635 F200.000000
G1 X12.254879 Y30.911760 F200.000000
G1 X12.714088 F200.000000
G1 X13.138679 Y30.735555 F200.000000
G1 X13.236347 Y30.637887 F200.000000
G1 X13.268593 Y30.617625 F200.000000
G1 X13.298368 Y30.593880 F200.000000
G1 X13.310955 Y30.591007 F200.000000
G1 X13.321887 Y30.584138 F200.000000
G1 X13.359731 Y30.579874 F200.000000
G1 X13.396860 Y30.571400 F200.000000
G1 X14.240803 F200.000000
G1 X14.573267 Y30.505754 F200.000000
G1 X14.854840 Y30.317333 F200.000000
G1 X15.737733 Y29.434440 F200.000000
G1 X15.926154 Y29.152867 F200.000000
G1 X15.991800 Y28.820403 F200.000000
G1 Y25.489800 F200.000000
G1 X16.000274 Y25.452671 F200.000000
G1 X16.004538 Y25.414827 F200.000000
G1 X16.011407 Y25.403895 F200.000000
G1 X16.014280 Y25.391308 F200.000000
G1 X16.038025 Y25.361533 F200.000000
G1 X16.058287 Y25.329287 F200.000000
G1 X16.617087 Y24.770487 F200.000000
G1 X16.649333 Y24.750225 F200.000000
G1 X16.679108 Y24.726480 F200.000000
G1 X16.691695 Y24.723607 F200.000000
G1 X16.702627 Y24.716738 F200.000000
G1 X16.740471 Y24.712474 F200.000000
G1 X16.777600 Y24.704000 F200.000000
G1 X21.228774 F200.000000
G1 X21.285453 Y24.693030 F200.000000
G1 X21.558027 Y24.638515 F200.000000
G1 X21.839840 Y24.449933 F200.000000
G1 X23.370433 Y22.919340 F200.000000
G1 X23.559777 Y22.636388 F200.000000
G1 X23.568481 Y22.595357 F200.000000
G1 X23.569231 Y22.593735 F200.000000
G1 Y22.591948 F200.000000
G1 X23.590410 Y22.547971 F200.000000
G1 X23.610909 Y22.503673 F200.000000
G1 X23.612289 Y22.502538 F200.000000
G1 X23.613064 Y22.500928 F200.000000
G1 X23.651226 Y22.470495 F200.000000
G1 X23.688915 Y22.439479 F200.000000
G1 X23.690651 Y22.439054 F200.000000
G1 X23.692048 Y22.437940 F200.000000
G1 X23.739635 Y22.427079 F200.000000
G1 X23.787050 Y22.415487 F200.000000
G1 X23.788798 Y22.415858 F200.000000
G1 X23.790540 Y22.415460 F200.000000
G1 X24.426225 F200.000000
G1 X24.576438 Y22.353415 F200.000000
G1 X24.719687 Y22.210167 F200.000000
G1 X24.730618 Y22.203298 F200.000000
G1 X24.738668 Y22.193204 F200.000000
G1 X24.772980 Y22.176680 F200.000000
G1 X24.805227 Y22.156418 F200.000000
G1 X24.818056 Y22.154973 F200.000000
G1 X24.829688 Y22.149371 F200.000000
G1 X24.867772 F200.000000
G1 X24.905616 Y22.145107 F200.000000
G1 X24.917802 Y22.149371 F200.000000
G1 X24.930712 F200.000000
G1 X24.965025 Y22.165895 F200.000000
G1 X25.000971 Y22.178474 F200.000000
G1 X25.010100 Y22.187603 F200.000000
G1 X25.021732 Y22.193204 F200.000000
G1 X25.045477 Y22.222979 F200.000000
G1 X25.072406 Y22.249909 F200.000000
G1 X25.076670 Y22.262095 F200.000000
G1 X25.084720 Y22.272188 F200.000000
G1 X25.093194 Y22.309317 F200.000000
G1 X25.105773 Y22.345264 F200.000000
G1 X25.104327 Y22.358093 F200.000000
G1 X25.107200 Y22.370680 F200.000000
G1 Y26.160360 F200.000000
G1 X25.098726 Y26.197489 F200.000000
G1 X25.094462 Y26.235333 F200.000000
G1 X25.087593 Y26.246265 F200.000000
G1 X25.084720 Y26.258852 F200.000000
G1 X25.060975 Y26.288627 F200.000000
G1 X25.040713 Y26.320873 F200.000000
G1 X24.238073 Y27.123513 F200.000000
G1 X24.205827 Y27.143775 F200.000000
G1 X24.176052 Y27.167520 F200.000000
G1 X24.163465 Y27.170393 F200.000000
G1 X24.152533 Y27.177262 F200.000000
G1 X24.114689 Y27.181526 F200.000000
G1 X24.077560 Y27.190000 F200.000000
G1 X23.617820 F200.000000
G1 X23.580691 Y27.181526 F200.000000
G1 X23.542847 Y27.177262 F200.000000
G1 X23.531915 Y27.170393 F200.000000
G1 X23.519328 Y27.167520 F200.000000
G1 X23.489553 Y27.143775 F200.000000
G1 X23.457307 Y27.123513 F200.000000
G1 X23.197114 Y26.863320 F200.000000
G1 X22.790317 Y26.694700 F200.000000
G1 X22.349823 F200.000000
G1 X21.942657 Y26.863473 F200.000000
G1 X21.630993 Y27.173031 F200.000000
G1 X21.501113 Y27.488775 F200.000000
G1 X21.493220 Y27.499958 F200.000000
G1 X21.489373 Y27.513093 F200.000000
G1 X21.464379 Y27.540816 F200.000000
G1 X21.442855 Y27.571310 F200.000000
G1 X21.430891 Y27.577960 F200.000000
G1 X21.421726 Y27.588126 F200.000000
G1 X21.387180 Y27.602259 F200.000000
G1 X21.354556 Y27.620394 F200.000000
G1 X21.340892 Y27.621195 F200.000000
G1 X21.328223 Y27.626377 F200.000000
G1 X21.290966 Y27.624121 F200.000000
G1 X21.253704 Y27.626305 F200.000000
G1 X21.241046 Y27.621098 F200.000000
G1 X21.227383 Y27.620271 F200.000000
G1 X21.194795 Y27.602073 F200.000000
G1 X21.160275 Y27.587873 F200.000000
G1 X21.151130 Y27.577690 F200.000000
G1 X21.139179 Y27.571017 F200.000000
G1 X21.117714 Y27.540481 F200.000000
G1 X21.092774 Y27.512710 F200.000000
G1 X21.088952 Y27.499567 F200.000000
G1 X21.081081 Y27.488370 F200.000000
G1 X21.011960 Y27.319407 F200.000000
G1 X20.754432 Y27.576935 F200.000000
G1 X20.827300 Y27.801200 F200.000000
G1 X20.754432 Y28.025465 F200.000000
G1 X21.007439 Y28.278473 F200.000000
G1 X21.069703 Y28.103541 F200.000000
G1 X21.079823 Y28.087624 F200.000000
G1 X21.085077 Y28.069508 F200.000000
G1 X21.106606 Y28.045502 F200.000000
G1 X21.123908 Y28.018290 F200.000000
G1 X21.139933 Y28.008340 F200.000000
G1 X21.152526 Y27.994298 F200.000000
G1 X21.182339 Y27.982010 F200.000000
G1 X21.209734 Y27.965000 F200.000000
G1 X21.228489 Y27.962989 F200.000000
G1 X21.245928 Y27.955801 F200.000000
G1 X21.278120 Y27.957665 F200.000000
G1 X21.310183 Y27.954227 F200.000000
G1 X21.327953 Y27.960552 F200.000000
G1 X21.346784 Y27.961642 F200.000000
G1 X21.374979 Y27.977290 F200.000000
G1 X21.405358 Y27.988103 F200.000000
G1 X21.418624 Y28.001511 F200.000000
G1 X21.435117 Y28.010665 F200.000000
G1 X21.453731 Y28.036996 F200.000000
G1 X21.476410 Y28.059919 F200.000000
G1 X21.482544 Y28.077756 F200.000000
G1 X21.493433 Y28.093158 F200.000000
G1 X21.631968 Y28.429276 F200.000000
G1 X21.664087 Y28.462680 F200.000000
G1 X21.940486 Y28.739080 F200.000000
G1 X22.347283 Y28.907700 F200.000000
G1 X22.787777 F200.000000
G1 X23.195046 Y28.738884 F200.000000
G1 X23.458003 Y28.478193 F200.000000
G1 X23.489929 Y28.458325 F200.000000
G1 X23.519328 Y28.434880 F200.000000
G1 X23.532395 Y28.431898 F200.000000
G1 X23.543775 Y28.424816 F200.000000
G1 X23.581160 Y28.420768 F200.000000
G1 X23.617820 Y28.412400 F200.000000
G1 X24.400731 F200.000000
G1 X24.648126 Y28.363388 F200.000000
G1 X24.648981 Y28.363412 F200.000000
G1 X24.649766 Y28.363069 F200.000000
G1 X24.657429 Y28.361609 F200.000000
G1 X24.872392 Y28.216961 F200.000000
G1 X24.907483 Y28.181870 F200.000000
G0 Z0.500000
G0 X38.275470 Y14.324752
G1 Z-0.040000 F60.000000
G1 X38.269710 Y14.323625 F200.000000
G1 X38.263979 Y14.324893 F200.000000
G1 X37.059469 Y14.316863 F200.000000
G1 X37.007000 Y14.478347 F200.000000
G1 X36.607750 Y14.768419 F200.000000
G1 X36.114250 F200.000000
G1 X35.715000 Y14.478347 F200.000000
G1 X35.628876 Y14.213283 F200.000000
G1 X35.209300 Y14.214820 F200.000000
G1 X34.517450 Y15.452354 F200.000000
G1 X34.500699 Y15.470916 F200.000000
G1 X34.489851 Y15.493442 F200.000000
G1 X34.456030 Y15.520414 F200.000000
G1 X34.427047 Y15.552530 F200.000000
G1 X34.403901 Y15.561985 F200.000000
G1 X34.384354 Y15.577574 F200.000000
G1 X34.342178 Y15.587200 F200.000000
G0 Z0.500000
G0 X37.086632 Y11.244735
G1 Z-0.040000 F60.000000
G1 X37.159500 Y11.469000 F200.000000
G1 X37.086632 Y11.693265 F200.000000
G1 X37.338820 Y11.945454 F200.000000
G1 X37.450188 Y11.624648 F200.000000
G1 X37.426711 Y11.189252 F200.000000
G1 X37.344134 Y10.987233 F200.000000
G1 X37.086632 Y11.244735 F200.000000
G0 Z0.500000
G0 X26.710600 Y65.107242
G1 Z-0.040000 F60.000000
G1 Y62.777000 F200.000000
G1 Y62.777000 F200.000000
G1 Y62.777000 F200.000000
G1 Y61.081599 F200.000000
G1 X26.360501 Y60.731500 F200.000000
G1 X26.228000 Y60.237000 F200.000000
G1 X26.360501 Y59.742500 F200.000000
G1 X26.710600 Y59.392401 F200.000000
G1 Y54.903000 F200.000000
G1 X26.728932 Y54.822681 F200.000000
G1 X26.672500 Y54.649000 F200.000000
G1 X26.825000 Y54.179653 F200.000000
G1 X26.964600 Y54.078228 F200.000000
G1 Y52.860337 F200.000000
G1 X26.724472 Y52.652265 F200.000000
G1 X26.583600 Y52.172500 F200.000000
G1 X26.724472 Y51.692735 F200.000000
G1 X26.964600 Y51.484663 F200.000000
G1 Y49.885772 F200.000000
G1 X26.825000 Y49.784347 F200.000000
G1 X26.672500 Y49.315000 F200.000000
G1 X26.825000 Y48.845653 F200.000000
G1 X27.224250 Y48.555581 F200.000000
G1 X27.717750 F200.000000
G1 X28.117000 Y48.845653 F200.000000
G1 X28.269500 Y49.315000 F200.000000
G1 X28.117000 Y49.784347 F200.000000
G1 X27.977400 Y49.885772 F200.000000
G1 Y51.467723 F200.000000
G1 X28.052123 Y51.501848 F200.000000
G1 X28.322454 Y51.922491 F200.000000
G1 Y52.422509 F200.000000
G1 X28.052123 Y52.843152 F200.000000
G1 X27.977400 Y52.877277 F200.000000
G1 Y54.078228 F200.000000
G1 X28.117000 Y54.179653 F200.000000
G1 X28.269500 Y54.649000 F200.000000
G1 X28.117000 Y55.118347 F200.000000
G1 X27.723400 Y55.404314 F200.000000
G1 Y59.392401 F200.000000
G1 X28.073499 Y59.742500 F200.000000
G1 X28.206000 Y60.237000 F200.000000
G1 X28.073499 Y60.731500 F200.000000
G1 X27.723400 Y61.081599 F200.000000
G1 Y62.777000 F200.000000
G1 Y62.777000 F200.000000
G1 Y62.777000 F200.000000
G1 Y65.317000 F200.000000
G1 X27.704495 Y65.399829 F200.000000
G1 X27.694983 Y65.484253 F200.000000
G1 X27.679659 Y65.508640 F200.000000
G1 X27.673251 Y65.536719 F200.000000
G1 X27.620280 Y65.603142 F200.000000
G0 Z0.500000
G0 X23.947866 Y55.130767
G1 Z-0.040000 F60.000000
G1 X24.170600 Y54.908034 F200.000000
G1 Y54.903000 F200.000000
G1 X24.188932 Y54.822681 F200.000000
G1 X24.132500 Y54.649000 F200.000000
G1 X24.205368 Y54.424735 F200.000000
G1 X23.953180 Y54.172546 F200.000000
G1 X23.841812 Y54.493352 F200.000000
G1 X23.865289 Y54.928748 F200.000000
G1 X23.947866 Y55.130767 F200.000000
G0 Z0.500000
G0 X44.697659 Y74.523360
G1 Z-0.040000 F60.000000
G1 X44.712983 Y74.547747 F200.000000
G1 X44.722495 Y74.632171 F200.000000
G1 X44.741400 Y74.715000 F200.000000
G1 Y75.835981 F200.000000
G1 X45.088687 Y75.948822 F200.000000
G1 X45.513035 Y76.218121 F200.000000
G1 X45.857079 Y76.584491 F200.000000
G1 X46.099202 Y77.024910 F200.000000
G1 X46.224190 Y77.511707 F200.000000
G1 Y78.014293 F200.000000
G1 X46.099202 Y78.501090 F200.000000
G1 X45.857079 Y78.941509 F200.000000
G1 X45.513035 Y79.307879 F200.000000
G1 X45.088687 Y79.577178 F200.000000
G1 X44.610700 Y79.732486 F200.000000
G1 X44.109105 Y79.764044 F200.000000
G1 X43.615421 Y79.669868 F200.000000
G1 X43.160667 Y79.455877 F200.000000
G1 X42.773418 Y79.135517 F200.000000
G1 X42.478005 Y78.728916 F200.000000
G1 X42.292991 Y78.261623 F200.000000
G1 X42.230000 Y77.763000 F200.000000
G1 X42.292991 Y77.264377 F200.000000
G1 X42.478005 Y76.797084 F200.000000
G1 X42.773418 Y76.390483 F200.000000
G1 X43.160667 Y76.070123 F200.000000
G1 X43.615421 Y75.856132 F200.000000
G1 X43.728600 Y75.834542 F200.000000
G1 Y74.924758 F200.000000
G1 X42.352921 Y73.549079 F200.000000
G1 X42.307720 Y73.477142 F200.000000
G1 X42.254749 Y73.410719 F200.000000
G0 Z0.500000
G0 X39.661400 Y74.924758
G1 Z-0.040000 F60.000000
G1 Y75.835981 F200.000000
G1 X40.008687 Y75.948822 F200.000000
G1 X40.433035 Y76.218121 F200.000000
G1 X40.777079 Y76.584491 F200.000000
G1 X41.019202 Y77.024910 F200.000000
G1 X41.144190 Y77.511707 F200.000000
G1 Y78.014293 F200.000000
G1 X41.019202 Y78.501090 F200.000000
G1 X40.777079 Y78.941509 F200.000000
G1 X40.433035 Y79.307879 F200.000000
G1 X40.008687 Y79.577178 F200.000000
G1 X39.530700 Y79.732486 F200.000000
G1 X39.029105 Y79.764044 F200.000000
G1 X38.535421 Y79.669868 F200.000000
G1 X38.080667 Y79.455877 F200.000000
G1 X37.693418 Y79.135517 F200.000000
G1 X37.398005 Y78.728916 F200.000000
G1 X37.212991 Y78.261623 F200.000000
G1 X37.150000 Y77.763000 F200.000000
G1 X37.212991 Y77.264377 F200.000000
G1 X37.398005 Y76.797084 F200.000000
G1 X37.693418 Y76.390483 F200.000000
G1 X38.080667 Y76.070123 F200.000000
G1 X38.535421 Y75.856132 F200.000000
G1 X38.648600 Y75.834542 F200.000000
G1 Y74.715000 F200.000000
G1 X38.667505 Y74.632171 F200.000000
G1 X38.677017 Y74.547747 F200.000000
G1 X38.692341 Y74.523360 F200.000000
G1 X38.698749 Y74.495281 F200.000000
G0 Z0.500000
G0 X33.597017 Y74.801747
G1 Z-0.040000 F60.000000
G1 X33.612341 Y74.777360 F200.000000
G1 X33.618749 Y74.749281 F200.000000
G1 X33.671720 Y74.682858 F200.000000
G1 X33.716921 Y74.610921 F200.000000
G1 X36.804766 Y71.523076 F200.000000
G1 X36.769000 Y71.413000 F200.000000
G1 X36.933627 Y70.906329 F200.000000
G1 X37.124600 Y70.767579 F200.000000
G1 Y68.173772 F200.000000
G1 X36.985000 Y68.072347 F200.000000
G1 X36.832500 Y67.603000 F200.000000
G1 X36.985000 Y67.133653 F200.000000
G1 X37.384250 Y66.843581 F200.000000
G1 X37.877750 F200.000000
G1 X38.277000 Y67.133653 F200.000000
G1 X38.429500 Y67.603000 F200.000000
G1 X38.277000 Y68.072347 F200.000000
G1 X38.137400 Y68.173772 F200.000000
G1 Y70.767579 F200.000000
G1 X38.328373 Y70.906329 F200.000000
G1 X38.493000 Y71.413000 F200.000000
G1 X38.328373 Y71.919671 F200.000000
G1 X37.897373 Y72.232811 F200.000000
G1 X37.527347 F200.000000
G1 X34.581400 Y75.178758 F200.000000
G1 Y75.835981 F200.000000
G1 X34.928687 Y75.948822 F200.000000
G1 X35.353035 Y76.218121 F200.000000
G1 X35.697079 Y76.584491 F200.000000
G1 X35.939202 Y77.024910 F200.000000
G1 X36.064190 Y77.511707 F200.000000
G1 Y78.014293 F200.000000
G1 X35.939202 Y78.501090 F200.000000
G1 X35.697079 Y78.941509 F200.000000
G1 X35.353035 Y79.307879 F200.000000
G1 X34.928687 Y79.577178 F200.000000
G1 X34.450700 Y79.732486 F200.000000
G1 X33.949105 Y79.764044 F200.000000
G1 X33.455421 Y79.669868 F200.000000
G1 X33.000667 Y79.455877 F200.000000
G1 X32.613418 Y79.135517 F200.000000
G1 X32.318005 Y78.728916 F200.000000
G1 X32.132991 Y78.261623 F200.000000
G1 X32.070000 Y77.763000 F200.000000
G1 X32.132991 Y77.264377 F200.000000
G1 X32.318005 Y76.797084 F200.000000
G1 X32.613418 Y76.390483 F200.000000
G1 X33.000667 Y76.070123 F200.000000
G1 X33.455421 Y75.856132 F200.000000
G1 X33.568600 Y75.834542 F200.000000
G1 Y74.969000 F200.000000
G1 X33.587505 Y74.886171 F200.000000
G1 X33.597017 Y74.801747 F200.000000
G0 Z0.500000
G0 X88.774991 Y78.261623
G1 Z-0.040000 F60.000000
G1 X88.712000 Y77.763000 F200.000000
G1 X88.774991 Y77.264377 F200.000000
G1 X88.960005 Y76.797084 F200.000000
G1 X89.255418 Y76.390483 F200.000000
G1 X89.642667 Y76.070123 F200.000000
G1 X90.097421 Y75.856132 F200.000000
G1 X90.210600 Y75.834542 F200.000000
G1 Y74.924758 F200.000000
G1 X88.580921 Y73.295079 F200.000000
G1 X88.535720 Y73.223142 F200.000000
G1 X88.482749 Y73.156719 F200.000000
G1 X88.476341 Y73.128640 F200.000000
G1 X88.461017 Y73.104253 F200.000000
G1 X88.451505 Y73.019829 F200.000000
G1 X88.432600 Y72.937000 F200.000000
G1 Y72.058421 F200.000000
G1 X88.241627 Y71.919671 F200.000000
G1 X88.077000 Y71.413000 F200.000000
G1 X88.241627 Y70.906329 F200.000000
G1 X88.432600 Y70.767579 F200.000000
G1 Y68.173772 F200.000000
G1 X88.293000 Y68.072347 F200.000000
G1 X88.140500 Y67.603000 F200.000000
G1 X88.293000 Y67.133653 F200.000000
G1 X88.692250 Y66.843581 F200.000000
G1 X89.185750 F200.000000
G1 X89.585000 Y67.133653 F200.000000
G1 X89.737500 Y67.603000 F200.000000
G1 X89.585000 Y68.072347 F200.000000
G1 X89.445400 Y68.173772 F200.000000
G1 Y70.767579 F200.000000
G1 X89.636373 Y70.906329 F200.000000
G1 X89.801000 Y71.413000 F200.000000
G1 X89.636373 Y71.919671 F200.000000
G1 X89.445400 Y72.058421 F200.000000
G1 Y72.727242 F200.000000
G1 X91.075079 Y74.356921 F200.000000
G1 X91.120280 Y74.428858 F200.000000
G1 X91.173251 Y74.495281 F200.000000
G1 X91.179659 Y74.523360 F200.000000
G1 X91.194983 Y74.547747 F200.000000
G1 X91.204495 Y74.632171 F200.000000
G1 X91.223400 Y74.715000 F200.000000
G1 Y75.835981 F200.000000
G1 X91.570687 Y75.948822 F200.000000
G1 X91.995035 Y76.218121 F200.000000
G1 X92.339079 Y76.584491 F200.000000
G1 X92.581202 Y77.024910 F200.000000
G1 X92.706190 Y77.511707 F200.000000
G1 Y78.014293 F200.000000
G1 X92.581202 Y78.501090 F200.000000
G1 X92.339079 Y78.941509 F200.000000
G1 X91.995035 Y79.307879 F200.000000
G1 X91.570687 Y79.577178 F200.000000
G1 X91.092700 Y79.732486 F200.000000
G1 X90.591105 Y79.764044 F200.000000
G1 X90.097421 Y79.669868 F200.000000
G1 X89.642667 Y79.455877 F200.000000
G1 X89.255418 Y79.135517 F200.000000
G1 X88.960005 Y78.728916 F200.000000
G1 X88.774991 Y78.261623 F200.000000
G0 Z0.500000
G0 X86.143400 Y74.924758
G1 Z-0.040000 F60.000000
G1 Y75.835981 F200.000000
G1 X86.490687 Y75.948822 F200.000000
G1 X86.915035 Y76.218121 F200.000000
G1 X87.259079 Y76.584491 F200.000000
G1 X87.501202 Y77.024910 F200.000000
G1 X87.626190 Y77.511707 F200.000000
G1 Y78.014293 F200.000000
G1 X87.501202 Y78.501090 F200.000000
G1 X87.259079 Y78.941509 F200.000000
G1 X86.915035 Y79.307879 F200.000000
G1 X86.490687 Y79.577178 F200.000000
G1 X86.012700 Y79.732486 F200.000000
G1 X85.511105 Y79.764044 F200.000000
G1 X85.017421 Y79.669868 F200.000000
G1 X84.562667 Y79.455877 F200.000000
G1 X84.175418 Y79.135517 F200.000000
G1 X83.880005 Y78.728916 F200.000000
G1 X83.694991 Y78.261623 F200.000000
G1 X83.632000 Y77.763000 F200.000000
G1 X83.694991 Y77.264377 F200.000000
G1 X83.880005 Y76.797084 F200.000000
G1 X84.175418 Y76.390483 F200.000000
G1 X84.562667 Y76.070123 F200.000000
G1 X85.017421 Y75.856132 F200.000000
G1 X85.130600 Y75.834542 F200.000000
G1 Y74.715000 F200.000000
G1 X85.149505 Y74.632171 F200.000000
G1 X85.159017 Y74.547747 F200.000000
G1 X85.174341 Y74.523360 F200.000000
G1 X85.180749 Y74.495281 F200.000000
G0 Z0.500000
G0 X78.614991 Y78.261623
G1 Z-0.040000 F60.000000
G1 X78.552000 Y77.763000 F200.000000
G1 X78.614991 Y77.264377 F200.000000
G1 X78.800005 Y76.797084 F200.000000
G1 X79.095418 Y76.390483 F200.000000
G1 X79.482667 Y76.070123 F200.000000
G1 X79.937421 Y75.856132 F200.000000
G1 X80.050600 Y75.834542 F200.000000
G1 Y74.969000 F200.000000
G1 X80.067463 Y74.895119 F200.000000
G1 X80.073155 Y74.819552 F200.000000
G1 X80.092255 Y74.786499 F200.000000
G1 X80.100749 Y74.749281 F200.000000
G1 X80.147998 Y74.690033 F200.000000
G1 X80.185913 Y74.624420 F200.000000
G1 X83.041311 Y71.549376 F200.000000
G1 X82.997000 Y71.413000 F200.000000
G1 X83.161627 Y70.906329 F200.000000
G1 X83.352600 Y70.767579 F200.000000
G1 Y68.173772 F200.000000
G1 X83.213000 Y68.072347 F200.000000
G1 X83.060500 Y67.603000 F200.000000
G1 X83.213000 Y67.133653 F200.000000
G1 X83.612250 Y66.843581 F200.000000
G1 X84.105750 F200.000000
G1 X84.505000 Y67.133653 F200.000000
G1 X84.657500 Y67.603000 F200.000000
G1 X84.505000 Y68.072347 F200.000000
G1 X84.365400 Y68.173772 F200.000000
G1 Y70.767579 F200.000000
G1 X84.556373 Y70.906329 F200.000000
G1 X84.721000 Y71.413000 F200.000000
G1 X84.556373 Y71.919671 F200.000000
G1 X84.125373 Y72.232811 F200.000000
G1 X83.788801 F200.000000
