(Generated by ./pygerber2gcode_cui_MOD.py )
( 2013-11-01 20:43:22 )
(Initialize)

(Start form here)
G0 Z0.500000 F40.000000
G0 X-9999999932.135000 Y-10000000057.992001
G0 Z-2.000000 F40.000000 D0.812800
G0 Z0.500000
G0 X-9999999932.135000 Y-10000000073.232000
G0 Z-2.000000 F40.000000 D0.812800
G0 Z0.500000
G0 X-9999999932.135000 Y-10000000078.312000
G0 Z-2.000000 F40.000000 D0.812800
G0 Z0.500000
G0 X-9999999932.135000 Y-10000000083.392000
G0 Z-2.000000 F40.000000 D0.812800
G0 Z0.500000
G0 X-9999999932.007999 Y-10000000026.622999
G0 Z-2.000000 F40.000000 D0.812800
G0 Z0.500000
G0 X-9999999932.007999 Y-10000000041.863001
G0 Z-2.000000 F40.000000 D0.812800
G0 Z0.500000
G0 X-9999999932.007999 Y-10000000046.943001
G0 Z-2.000000 F40.000000 D0.812800
G0 Z0.500000
G0 X-9999999932.007999 Y-10000000052.023001
G0 Z-2.000000 F40.000000 D0.812800
G0 Z0.500000
G0 X-9999999924.514999 Y-10000000057.992001
G0 Z-2.000000 F40.000000 D0.812800
G0 Z0.500000
G0 X-9999999924.514999 Y-10000000073.232000
G0 Z-2.000000 F40.000000 D0.812800
G0 Z0.500000
G0 X-9999999924.514999 Y-10000000078.312000
G0 Z-2.000000 F40.000000 D0.812800
G0 Z0.500000
G0 X-9999999924.514999 Y-10000000083.392000
G0 Z-2.000000 F40.000000 D0.812800
G0 Z0.500000
G0 X-9999999924.388000 Y-10000000026.622999
G0 Z-2.000000 F40.000000 D0.812800
G0 Z0.500000
G0 X-9999999924.388000 Y-10000000041.863001
G0 Z-2.000000 F40.000000 D0.812800
G0 Z0.500000
G0 X-9999999924.388000 Y-10000000046.943001
G0 Z-2.000000 F40.000000 D0.812800
G0 Z0.500000
G0 X-9999999924.388000 Y-10000000052.023001
G0 Z-2.000000 F40.000000 D0.812800
G0 Z0.500000
G0 X-9999999919.434999 Y-10000000068.025000
G0 Z-2.000000 F40.000000 D0.812800
G0 Z0.500000
G0 X-9999999919.434999 Y-10000000076.280001
G0 Z-2.000000 F40.000000 D0.812800
G0 Z0.500000
G0 X-9999999918.241199 Y-10000000064.469000
G0 Z-2.000000 F40.000000 D0.812800
G0 Z0.500000
G0 X-9999999918.165001 Y-10000000031.195000
G0 Z-2.000000 F40.000000 D0.812800
G0 Z0.500000
G0 X-9999999918.165001 Y-10000000033.735001
G0 Z-2.000000 F40.000000 D0.812800
G0 Z0.500000
G0 X-9999999916.895000 Y-10000000055.325001
G0 Z-2.000000 F40.000000 D0.812800
G0 Z0.500000
G0 X-9999999916.895000 Y-10000000062.945000
G0 Z-2.000000 F40.000000 D0.812800
G0 Z0.500000
G0 X-9999999916.260000 Y-10000000048.975000
G0 Z-2.000000 F40.000000 D0.812800
G0 Z0.500000
G0 X-9999999916.260000 Y-10000000051.514999
G0 Z-2.000000 F40.000000 D0.812800
G0 Z0.500000
G0 X-9999999916.260000 Y-10000000085.805000
G0 Z-2.000000 F40.000000 D0.812800
G0 Z0.500000
G0 X-9999999915.625000 Y-10000000033.735001
G0 Z-2.000000 F40.000000 D0.812800
G0 Z0.500000
G0 X-9999999915.625000 Y-10000000038.180000
G0 Z-2.000000 F40.000000 D0.812800
G0 Z0.500000
G0 X-9999999915.625000 Y-10000000045.799999
G0 Z-2.000000 F40.000000 D0.812800
G0 Z0.500000
G0 X-9999999913.719999 Y-10000000051.514999
G0 Z-2.000000 F40.000000 D0.812800
G0 Z0.500000
G0 X-9999999913.719999 Y-10000000055.325001
G0 Z-2.000000 F40.000000 D0.812800
G0 Z0.500000
G0 X-9999999913.719999 Y-10000000062.945000
G0 Z-2.000000 F40.000000 D0.812800
G0 Z0.500000
G0 X-9999999912.323000 Y-10000000043.895000
G0 Z-2.000000 F40.000000 D0.812800
G0 Z0.500000
G0 X-9999999911.815001 Y-10000000068.025000
G0 Z-2.000000 F40.000000 D0.812800
G0 Z0.500000
G0 X-9999999911.815001 Y-10000000076.280001
G0 Z-2.000000 F40.000000 D0.812800
G0 Z0.500000
G0 X-9999999911.484800 Y-10000000034.344601
G0 Z-2.000000 F40.000000 D0.812800
G0 Z0.500000
G0 X-9999999910.672001 Y-10000000037.417999
G0 Z-2.000000 F40.000000 D0.812800
G0 Z0.500000
G0 X-9999999910.672001 Y-10000000045.038000
G0 Z-2.000000 F40.000000 D0.812800
G0 Z0.500000
G0 X-9999999909.910000 Y-10000000053.166000
G0 Z-2.000000 F40.000000 D0.812800
G0 Z0.500000
G0 X-9999999908.639999 Y-10000000085.805000
G0 Z-2.000000 F40.000000 D0.812800
G0 Z0.500000
G0 X-9999999908.132000 Y-10000000030.559999
G0 Z-2.000000 F40.000000 D0.812800
G0 Z0.500000
G0 X-9999999908.132000 Y-10000000034.624001
G0 Z-2.000000 F40.000000 D0.812800
G0 Z0.500000
G0 X-9999999908.132000 Y-10000000047.323999
G0 Z-2.000000 F40.000000 D0.812800
G0 Z0.500000
G0 X-9999999907.115999 Y-10000000040.974001
G0 Z-2.000000 F40.000000 D0.812800
G0 Z0.500000
G0 X-9999999905.591999 Y-10000000034.624001
G0 Z-2.000000 F40.000000 D0.812800
G0 Z0.500000
G0 X-9999999905.591999 Y-10000000047.323999
G0 Z-2.000000 F40.000000 D0.812800
G0 Z0.500000
G0 X-9999999904.576000 Y-10000000040.974001
G0 Z-2.000000 F40.000000 D0.812800
G0 Z0.500000
G0 X-9999999904.068001 Y-10000000066.628000
G0 Z-2.000000 F40.000000 D0.812800
G0 Z0.500000
G0 X-9999999904.068001 Y-10000000081.868000
G0 Z-2.000000 F40.000000 D0.812800
G0 Z0.500000
G0 X-9999999903.052000 Y-10000000034.624001
G0 Z-2.000000 F40.000000 D0.812800
G0 Z0.500000
G0 X-9999999903.052000 Y-10000000047.323999
G0 Z-2.000000 F40.000000 D0.812800
G0 Z0.500000
G0 X-9999999902.290001 Y-10000000053.166000
G0 Z-2.000000 F40.000000 D0.812800
G0 Z0.500000
G0 X-9999999901.528000 Y-10000000066.628000
G0 Z-2.000000 F40.000000 D0.812800
G0 Z0.500000
G0 X-9999999901.528000 Y-10000000081.868000
G0 Z-2.000000 F40.000000 D0.812800
G0 Z0.500000
G0 X-9999999900.511999 Y-10000000034.624001
G0 Z-2.000000 F40.000000 D0.812800
G0 Z0.500000
G0 X-9999999900.511999 Y-10000000047.323999
G0 Z-2.000000 F40.000000 D0.812800
G0 Z0.500000
G0 X-9999999898.988001 Y-10000000066.628000
G0 Z-2.000000 F40.000000 D0.812800
G0 Z0.500000
G0 X-9999999898.988001 Y-10000000081.868000
G0 Z-2.000000 F40.000000 D0.812800
G0 Z0.500000
G0 X-9999999897.972000 Y-10000000034.624001
G0 Z-2.000000 F40.000000 D0.812800
G0 Z0.500000
G0 X-9999999897.972000 Y-10000000047.323999
G0 Z-2.000000 F40.000000 D0.812800
G0 Z0.500000
G0 X-9999999896.448000 Y-10000000066.628000
G0 Z-2.000000 F40.000000 D0.812800
G0 Z0.500000
G0 X-9999999896.448000 Y-10000000081.868000
G0 Z-2.000000 F40.000000 D0.812800
G0 Z0.500000
G0 X-9999999895.431999 Y-10000000034.624001
G0 Z-2.000000 F40.000000 D0.812800
G0 Z0.500000
G0 X-9999999895.431999 Y-10000000047.323999
G0 Z-2.000000 F40.000000 D0.812800
G0 Z0.500000
G0 X-9999999894.289000 Y-10000000085.576401
G0 Z-2.000000 F40.000000 D0.812800
G0 Z0.500000
G0 X-9999999893.908001 Y-10000000066.628000
G0 Z-2.000000 F40.000000 D0.812800
G0 Z0.500000
G0 X-9999999893.908001 Y-10000000081.868000
G0 Z-2.000000 F40.000000 D0.812800
G0 Z0.500000
G0 X-9999999892.892000 Y-10000000034.624001
G0 Z-2.000000 F40.000000 D0.812800
G0 Z0.500000
G0 X-9999999892.892000 Y-10000000047.323999
G0 Z-2.000000 F40.000000 D0.812800
G0 Z0.500000
G0 X-9999999891.622000 Y-10000000092.790001
G0 Z-2.000000 F40.000000 D0.812800
G0 Z0.500000
G0 X-9999999891.368000 Y-10000000066.628000
G0 Z-2.000000 F40.000000 D0.812800
G0 Z0.500000
G0 X-9999999891.368000 Y-10000000081.868000
G0 Z-2.000000 F40.000000 D0.812800
G0 Z0.500000
G0 X-9999999890.351999 Y-10000000034.624001
G0 Z-2.000000 F40.000000 D0.812800
G0 Z0.500000
G0 X-9999999890.351999 Y-10000000047.323999
G0 Z-2.000000 F40.000000 D0.812800
G0 Z0.500000
G0 X-9999999888.827999 Y-10000000066.628000
G0 Z-2.000000 F40.000000 D0.812800
G0 Z0.500000
G0 X-9999999888.827999 Y-10000000081.868000
G0 Z-2.000000 F40.000000 D0.812800
G0 Z0.500000
G0 X-9999999887.558001 Y-10000000037.164000
G0 Z-2.000000 F40.000000 D0.812800
G0 Z0.500000
G0 X-9999999887.558001 Y-10000000044.784000
G0 Z-2.000000 F40.000000 D0.812800
G0 Z0.500000
G0 X-9999999886.796000 Y-10000000031.322001
G0 Z-2.000000 F40.000000 D0.812800
G0 Z0.500000
G0 X-9999999886.288000 Y-10000000066.628000
G0 Z-2.000000 F40.000000 D0.812800
G0 Z0.500000
G0 X-9999999886.288000 Y-10000000081.868000
G0 Z-2.000000 F40.000000 D0.812800
G0 Z0.500000
G0 X-9999999885.018000 Y-10000000031.322001
G0 Z-2.000000 F40.000000 D0.812800
G0 Z0.500000
G0 X-9999999885.018000 Y-10000000034.624001
G0 Z-2.000000 F40.000000 D0.812800
G0 Z0.500000
G0 X-9999999885.018000 Y-10000000047.323999
G0 Z-2.000000 F40.000000 D0.812800
G0 Z0.500000
G0 X-9999999884.002001 Y-10000000040.974001
G0 Z-2.000000 F40.000000 D0.812800
G0 Z0.500000
G0 X-9999999884.002001 Y-10000000092.790001
G0 Z-2.000000 F40.000000 D0.812800
G0 Z0.500000
G0 X-9999999883.747999 Y-10000000055.198000
G0 Z-2.000000 F40.000000 D0.812800
G0 Z0.500000
G0 X-9999999883.747999 Y-10000000060.532000
G0 Z-2.000000 F40.000000 D0.812800
G0 Z0.500000
G0 X-9999999883.747999 Y-10000000066.628000
G0 Z-2.000000 F40.000000 D0.812800
G0 Z0.500000
G0 X-9999999883.747999 Y-10000000081.868000
G0 Z-2.000000 F40.000000 D0.812800
G0 Z0.500000
G0 X-9999999882.478001 Y-10000000034.624001
G0 Z-2.000000 F40.000000 D0.812800
G0 Z0.500000
G0 X-9999999882.478001 Y-10000000047.323999
G0 Z-2.000000 F40.000000 D0.812800
G0 Z0.500000
G0 X-9999999881.462000 Y-10000000040.974001
G0 Z-2.000000 F40.000000 D0.812800
G0 Z0.500000
G0 X-9999999881.208000 Y-10000000055.198000
G0 Z-2.000000 F40.000000 D0.812800
G0 Z0.500000
G0 X-9999999881.208000 Y-10000000060.532000
G0 Z-2.000000 F40.000000 D0.812800
G0 Z0.500000
G0 X-9999999881.208000 Y-10000000066.628000
G0 Z-2.000000 F40.000000 D0.812800
G0 Z0.500000
G0 X-9999999881.208000 Y-10000000081.868000
G0 Z-2.000000 F40.000000 D0.812800
G0 Z0.500000
G0 X-9999999880.191999 Y-10000000092.028000
G0 Z-2.000000 F40.000000 D0.812800
G0 Z0.500000
G0 X-9999999879.938000 Y-10000000034.624001
G0 Z-2.000000 F40.000000 D0.812800
G0 Z0.500000
G0 X-9999999879.938000 Y-10000000047.323999
G0 Z-2.000000 F40.000000 D0.812800
G0 Z0.500000
G0 X-9999999878.667999 Y-10000000066.628000
G0 Z-2.000000 F40.000000 D0.812800
G0 Z0.500000
G0 X-9999999878.667999 Y-10000000081.868000
G0 Z-2.000000 F40.000000 D0.812800
G0 Z0.500000
G0 X-9999999878.414000 Y-10000000050.118000
G0 Z-2.000000 F40.000000 D0.812800
G0 Z0.500000
G0 X-9999999878.414000 Y-10000000057.738001
G0 Z-2.000000 F40.000000 D0.812800
G0 Z0.500000
G0 X-9999999877.652000 Y-10000000086.948000
G0 Z-2.000000 F40.000000 D0.812800
G0 Z0.500000
G0 X-9999999877.652000 Y-10000000092.028000
G0 Z-2.000000 F40.000000 D0.812800
G0 Z0.500000
G0 X-9999999877.398001 Y-10000000034.624001
G0 Z-2.000000 F40.000000 D0.812800
G0 Z0.500000
G0 X-9999999877.398001 Y-10000000047.323999
G0 Z-2.000000 F40.000000 D0.812800
G0 Z0.500000
G0 X-9999999876.128000 Y-10000000066.628000
G0 Z-2.000000 F40.000000 D0.812800
G0 Z0.500000
G0 X-9999999876.128000 Y-10000000081.868000
G0 Z-2.000000 F40.000000 D0.812800
G0 Z0.500000
G0 X-9999999874.858000 Y-10000000034.624001
G0 Z-2.000000 F40.000000 D0.812800
G0 Z0.500000
G0 X-9999999874.858000 Y-10000000047.323999
G0 Z-2.000000 F40.000000 D0.812800
G0 Z0.500000
G0 X-9999999873.587999 Y-10000000066.628000
G0 Z-2.000000 F40.000000 D0.812800
G0 Z0.500000
G0 X-9999999873.587999 Y-10000000081.868000
G0 Z-2.000000 F40.000000 D0.812800
G0 Z0.500000
G0 X-9999999872.572001 Y-10000000086.948000
G0 Z-2.000000 F40.000000 D0.812800
G0 Z0.500000
G0 X-9999999872.572001 Y-10000000092.028000
G0 Z-2.000000 F40.000000 D0.812800
G0 Z0.500000
G0 X-9999999872.318001 Y-10000000034.624001
G0 Z-2.000000 F40.000000 D0.812800
G0 Z0.500000
G0 X-9999999872.318001 Y-10000000047.323999
G0 Z-2.000000 F40.000000 D0.812800
G0 Z0.500000
G0 X-9999999871.048000 Y-10000000066.628000
G0 Z-2.000000 F40.000000 D0.812800
G0 Z0.500000
G0 X-9999999871.048000 Y-10000000081.868000
G0 Z-2.000000 F40.000000 D0.812800
G0 Z0.500000
G0 X-9999999870.032000 Y-10000000092.028000
G0 Z-2.000000 F40.000000 D0.812800
G0 Z0.500000
G0 X-9999999869.778000 Y-10000000034.624001
G0 Z-2.000000 F40.000000 D0.812800
G0 Z0.500000
G0 X-9999999869.778000 Y-10000000047.323999
G0 Z-2.000000 F40.000000 D0.812800
G0 Z0.500000
G0 X-9999999868.507999 Y-10000000066.628000
G0 Z-2.000000 F40.000000 D0.812800
G0 Z0.500000
G0 X-9999999868.507999 Y-10000000081.868000
G0 Z-2.000000 F40.000000 D0.812800
G0 Z0.500000
G0 X-9999999867.238001 Y-10000000034.624001
G0 Z-2.000000 F40.000000 D0.812800
G0 Z0.500000
G0 X-9999999867.238001 Y-10000000047.323999
G0 Z-2.000000 F40.000000 D0.812800
G0 Z0.500000
G0 X-9999999866.476000 Y-10000000092.028000
G0 Z-2.000000 F40.000000 D0.812800
G0 Z0.500000
G0 X-9999999865.968000 Y-10000000066.628000
G0 Z-2.000000 F40.000000 D0.812800
G0 Z0.500000
G0 X-9999999865.968000 Y-10000000081.868000
G0 Z-2.000000 F40.000000 D0.812800
G0 Z0.500000
G0 X-9999999864.698000 Y-10000000036.910000
G0 Z-2.000000 F40.000000 D0.812800
G0 Z0.500000
G0 X-9999999864.698000 Y-10000000044.530001
G0 Z-2.000000 F40.000000 D0.812800
G0 Z0.500000
G0 X-9999999863.936001 Y-10000000092.028000
G0 Z-2.000000 F40.000000 D0.812800
G0 Z0.500000
G0 X-9999999863.427999 Y-10000000066.628000
G0 Z-2.000000 F40.000000 D0.812800
G0 Z0.500000
G0 X-9999999863.427999 Y-10000000081.868000
G0 Z-2.000000 F40.000000 D0.812800
G0 Z0.500000
G0 X-9999999861.903999 Y-10000000031.448999
G0 Z-2.000000 F40.000000 D0.812800
G0 Z0.500000
G0 X-9999999861.903999 Y-10000000034.624001
G0 Z-2.000000 F40.000000 D0.812800
G0 Z0.500000
G0 X-9999999861.903999 Y-10000000047.323999
G0 Z-2.000000 F40.000000 D0.812800
G0 Z0.500000
G0 X-9999999861.396000 Y-10000000040.719999
G0 Z-2.000000 F40.000000 D0.812800
G0 Z0.500000
G0 X-9999999861.396000 Y-10000000092.028000
G0 Z-2.000000 F40.000000 D0.812800
G0 Z0.500000
G0 X-9999999860.888000 Y-10000000066.628000
G0 Z-2.000000 F40.000000 D0.812800
G0 Z0.500000
G0 X-9999999860.888000 Y-10000000081.868000
G0 Z-2.000000 F40.000000 D0.812800
G0 Z0.500000
G0 X-9999999860.379999 Y-10000000061.040001
G0 Z-2.000000 F40.000000 D0.812800
G0 Z0.500000
G0 X-9999999859.364000 Y-10000000034.624001
G0 Z-2.000000 F40.000000 D0.812800
G0 Z0.500000
G0 X-9999999859.364000 Y-10000000047.323999
G0 Z-2.000000 F40.000000 D0.812800
G0 Z0.500000
G0 X-9999999858.856001 Y-10000000040.719999
G0 Z-2.000000 F40.000000 D0.812800
G0 Z0.500000
G0 X-9999999858.856001 Y-10000000092.028000
G0 Z-2.000000 F40.000000 D0.812800
G0 Z0.500000
G0 X-9999999858.348000 Y-10000000066.628000
G0 Z-2.000000 F40.000000 D0.812800
G0 Z0.500000
G0 X-9999999858.348000 Y-10000000081.868000
G0 Z-2.000000 F40.000000 D0.812800
G0 Z0.500000
G0 X-9999999856.823999 Y-10000000034.624001
G0 Z-2.000000 F40.000000 D0.812800
G0 Z0.500000
G0 X-9999999856.823999 Y-10000000047.323999
G0 Z-2.000000 F40.000000 D0.812800
G0 Z0.500000
G0 X-9999999856.316000 Y-10000000092.028000
G0 Z-2.000000 F40.000000 D0.812800
G0 Z0.500000
G0 X-9999999855.808001 Y-10000000066.628000
G0 Z-2.000000 F40.000000 D0.812800
G0 Z0.500000
G0 X-9999999855.808001 Y-10000000081.868000
G0 Z-2.000000 F40.000000 D0.812800
G0 Z0.500000
G0 X-9999999854.284000 Y-10000000034.624001
G0 Z-2.000000 F40.000000 D0.812800
G0 Z0.500000
G0 X-9999999854.284000 Y-10000000047.323999
G0 Z-2.000000 F40.000000 D0.812800
G0 Z0.500000
G0 X-9999999853.775999 Y-10000000092.028000
G0 Z-2.000000 F40.000000 D0.812800
G0 Z0.500000
G0 X-9999999852.760000 Y-10000000061.040001
G0 Z-2.000000 F40.000000 D0.812800
G0 Z0.500000
G0 X-9999999851.743999 Y-10000000034.624001
G0 Z-2.000000 F40.000000 D0.812800
G0 Z0.500000
G0 X-9999999851.743999 Y-10000000047.323999
G0 Z-2.000000 F40.000000 D0.812800
G0 Z0.500000
G0 X-9999999851.236000 Y-10000000092.028000
G0 Z-2.000000 F40.000000 D0.812800
G0 Z0.500000
G0 X-9999999850.728001 Y-10000000051.642000
G0 Z-2.000000 F40.000000 D0.812800
G0 Z0.500000
G0 X-9999999850.728001 Y-10000000059.261999
G0 Z-2.000000 F40.000000 D0.812800
G0 Z0.500000
G0 X-9999999849.204000 Y-10000000034.624001
G0 Z-2.000000 F40.000000 D0.812800
G0 Z0.500000
G0 X-9999999849.204000 Y-10000000047.323999
G0 Z-2.000000 F40.000000 D0.812800
G0 Z0.500000
G0 X-9999999847.934000 Y-10000000088.218000
G0 Z-2.000000 F40.000000 D0.812800
G0 Z0.500000
G0 X-9999999847.934000 Y-10000000090.757999
G0 Z-2.000000 F40.000000 D0.812800
G0 Z0.500000
G0 X-9999999846.664000 Y-10000000034.624001
G0 Z-2.000000 F40.000000 D0.812800
G0 Z0.500000
G0 X-9999999846.664000 Y-10000000040.974001
G0 Z-2.000000 F40.000000 D0.812800
G0 Z0.500000
G0 X-9999999846.664000 Y-10000000047.323999
G0 Z-2.000000 F40.000000 D0.812800
G0 Z0.500000
G0 X-9999999846.410000 Y-10000000063.834000
G0 Z-2.000000 F40.000000 D0.812800
G0 Z0.500000
G0 X-9999999846.410000 Y-10000000071.454000
G0 Z-2.000000 F40.000000 D0.812800
G0 Z0.500000
G0 X-9999999845.317801 Y-10000000081.334600
G0 Z-2.000000 F40.000000 D0.812800
G0 Z0.500000
G0 X-9999999845.292400 Y-10000000077.448400
G0 Z-2.000000 F40.000000 D0.812800
G0 Z0.500000
G0 X-9999999845.139999 Y-10000000088.903799
G0 Z-2.000000 F40.000000 D0.812800
G0 Z0.500000
G0 X-9999999844.276400 Y-10000000092.332800
G0 Z-2.000000 F40.000000 D0.812800
G0 Z0.500000
G0 X-9999999844.124001 Y-10000000034.624001
G0 Z-2.000000 F40.000000 D0.812800
G0 Z0.500000
G0 X-9999999844.124001 Y-10000000047.323999
G0 Z-2.000000 F40.000000 D0.812800
G0 Z0.500000
G0 X-9999999843.615999 Y-10000000066.374001
G0 Z-2.000000 F40.000000 D0.812800
G0 Z0.500000
G0 X-9999999843.615999 Y-10000000073.993999
G0 Z-2.000000 F40.000000 D0.812800
G0 Z0.500000
G0 X-9999999841.736401 Y-10000000092.332800
G0 Z-2.000000 F40.000000 D0.812800
G0 Z0.500000
G0 X-9999999841.076000 Y-10000000045.546000
G0 Z-2.000000 F40.000000 D0.812800
G0 Z0.500000
G0 X-9999999841.076000 Y-10000000057.230000
G0 Z-2.000000 F40.000000 D0.812800
G0 Z0.500000
G0 X-9999999841.076000 Y-10000000062.309999
G0 Z-2.000000 F40.000000 D0.812800
G0 Z0.500000
G0 X-9999999839.044001 Y-10000000047.577999
G0 Z-2.000000 F40.000000 D0.812800
G0 Z0.500000
G0 X-9999999839.044001 Y-10000000050.041800
G0 Z-2.000000 F40.000000 D0.812800
G0 Z0.500000
G0 X-9999999839.044001 Y-10000000052.912001
G0 Z-2.000000 F40.000000 D0.812800
G0 Z0.500000
G0 X-9999999836.504000 Y-10000000047.577999
G0 Z-2.000000 F40.000000 D0.812800
G0 Z0.500000
G0 X-9999999836.504000 Y-10000000052.912001
G0 Z-2.000000 F40.000000 D0.812800
G0 Z0.500000
G0 X-9999999836.351601 Y-10000000062.513201
G0 Z-2.000000 F40.000000 D0.812800
G0 Z0.500000
G0 X-9999999836.351601 Y-10000000067.618601
G0 Z-2.000000 F40.000000 D0.812800
G0 Z0.500000
G0 X-9999999834.141800 Y-10000000074.425800
G0 Z-2.000000 F40.000000 D0.812800
G0 Z0.500000
G0 X-9999999833.811600 Y-10000000062.513201
G0 Z-2.000000 F40.000000 D0.812800
G0 Z0.500000
G0 X-9999999833.811600 Y-10000000067.618601
G0 Z-2.000000 F40.000000 D0.812800
G0 Z0.500000
G0 X-9999999833.202000 Y-10000000048.340000
G0 Z-2.000000 F40.000000 D0.812800
G0 Z0.500000
G0 X-9999999832.948000 Y-10000000052.912001
G0 Z-2.000000 F40.000000 D0.812800
G0 Z0.500000
G0 X-9999999832.566999 Y-10000000082.299801
G0 Z-2.000000 F40.000000 D0.812800
G0 Z0.500000
G0 X-9999999831.830400 Y-10000000085.576401
G0 Z-2.000000 F40.000000 D0.812800
G0 Z0.500000
G0 X-9999999831.830400 Y-10000000093.196400
G0 Z-2.000000 F40.000000 D0.812800
G0 Z0.500000
G0 X-9999999831.601801 Y-10000000074.425800
G0 Z-2.000000 F40.000000 D0.812800
G0 Z0.500000
G0 X-9999999830.662001 Y-10000000048.340000
G0 Z-2.000000 F40.000000 D0.812800
G0 Z0.500000
G0 X-9999999830.408001 Y-10000000052.912001
G0 Z-2.000000 F40.000000 D0.812800
G0 Z0.500000
G0 X-9999999830.027000 Y-10000000082.299801
G0 Z-2.000000 F40.000000 D0.812800
G0 Z0.500000
G0 X-9999999828.807800 Y-10000000085.500200
G0 Z-2.000000 F40.000000 D0.812800
G0 Z0.500000
G0 X-9999999828.807800 Y-10000000093.120199
G0 Z-2.000000 F40.000000 D0.812800
G0 Z0.500000
G0 X-9999999827.512400 Y-10000000082.325199
G0 Z-2.000000 F40.000000 D0.812800
G0 Z0.500000
G0 X-9999999824.972401 Y-10000000082.325199
G0 Z-2.000000 F40.000000 D0.812800
G0 Z0.500000
G0 X-9999999824.058001 Y-10000000072.469999
G0 Z-2.000000 F40.000000 D0.990600
G0 Z0.500000
G0 X-9999999824.058001 Y-10000000074.502001
G0 Z-2.000000 F40.000000 D0.990600
G0 Z0.500000
G0 X-9999999822.025999 Y-10000000072.469999
G0 Z-2.000000 F40.000000 D0.990600
G0 Z0.500000
G0 X-9999999822.025999 Y-10000000074.502001
G0 Z-2.000000 F40.000000 D0.990600
G0 Z0.500000
G0 X-9999999920.070000 Y-10000000036.910000
G0 Z-2.000000 F40.000000 D1.016000
G0 Z0.500000
G0 X-9999999920.070000 Y-10000000047.070000
G0 Z-2.000000 F40.000000 D1.016000
G0 Z0.500000
G0 X-9999999920.070000 Y-10000000054.055000
G0 Z-2.000000 F40.000000 D1.016000
G0 Z0.500000
G0 X-9999999920.070000 Y-10000000064.215000
G0 Z-2.000000 F40.000000 D1.016000
G0 Z0.500000
G0 X-9999999918.165001 Y-10000000071.834999
G0 Z-2.000000 F40.000000 D1.016000
G0 Z0.500000
G0 X-9999999918.165001 Y-10000000080.090000
G0 Z-2.000000 F40.000000 D1.016000
G0 Z0.500000
G0 X-9999999915.625000 Y-10000000071.834999
G0 Z-2.000000 F40.000000 D1.016000
G0 Z0.500000
G0 X-9999999915.625000 Y-10000000080.090000
G0 Z-2.000000 F40.000000 D1.016000
G0 Z0.500000
G0 X-9999999913.084999 Y-10000000071.834999
G0 Z-2.000000 F40.000000 D1.016000
G0 Z0.500000
G0 X-9999999913.084999 Y-10000000080.090000
G0 Z-2.000000 F40.000000 D1.016000
G0 Z0.500000
G0 X-9999999906.582600 Y-10000000059.160400
G0 Z-2.000000 F40.000000 D1.016000
G0 Z0.500000
G0 X-9999999906.582600 Y-10000000061.700399
G0 Z-2.000000 F40.000000 D1.016000
G0 Z0.500000
G0 X-9999999904.042601 Y-10000000059.160400
G0 Z-2.000000 F40.000000 D1.016000
G0 Z0.500000
G0 X-9999999904.042601 Y-10000000061.700399
G0 Z-2.000000 F40.000000 D1.016000
G0 Z0.500000
G0 X-9999999903.052000 Y-10000000030.813999
G0 Z-2.000000 F40.000000 D1.016000
G0 Z0.500000
G0 X-9999999901.502600 Y-10000000059.160400
G0 Z-2.000000 F40.000000 D1.016000
G0 Z0.500000
G0 X-9999999901.502600 Y-10000000061.700399
G0 Z-2.000000 F40.000000 D1.016000
G0 Z0.500000
G0 X-9999999900.511999 Y-10000000030.813999
G0 Z-2.000000 F40.000000 D1.016000
G0 Z0.500000
G0 X-9999999900.511999 Y-10000000038.180000
G0 Z-2.000000 F40.000000 D1.016000
G0 Z0.500000
G0 X-9999999900.511999 Y-10000000040.719999
G0 Z-2.000000 F40.000000 D1.016000
G0 Z0.500000
G0 X-9999999898.962601 Y-10000000059.160400
G0 Z-2.000000 F40.000000 D1.016000
G0 Z0.500000
G0 X-9999999898.962601 Y-10000000061.700399
G0 Z-2.000000 F40.000000 D1.016000
G0 Z0.500000
G0 X-9999999897.972000 Y-10000000030.813999
G0 Z-2.000000 F40.000000 D1.016000
G0 Z0.500000
G0 X-9999999897.972000 Y-10000000038.180000
G0 Z-2.000000 F40.000000 D1.016000
G0 Z0.500000
G0 X-9999999897.972000 Y-10000000040.719999
G0 Z-2.000000 F40.000000 D1.016000
G0 Z0.500000
G0 X-9999999896.422600 Y-10000000059.160400
G0 Z-2.000000 F40.000000 D1.016000
G0 Z0.500000
G0 X-9999999896.422600 Y-10000000061.700399
G0 Z-2.000000 F40.000000 D1.016000
G0 Z0.500000
G0 X-9999999895.431999 Y-10000000030.813999
G0 Z-2.000000 F40.000000 D1.016000
G0 Z0.500000
G0 X-9999999895.431999 Y-10000000038.180000
G0 Z-2.000000 F40.000000 D1.016000
G0 Z0.500000
G0 X-9999999895.431999 Y-10000000040.719999
G0 Z-2.000000 F40.000000 D1.016000
G0 Z0.500000
G0 X-9999999893.882601 Y-10000000059.160400
G0 Z-2.000000 F40.000000 D1.016000
G0 Z0.500000
G0 X-9999999893.882601 Y-10000000061.700399
G0 Z-2.000000 F40.000000 D1.016000
G0 Z0.500000
G0 X-9999999890.351999 Y-10000000086.694000
G0 Z-2.000000 F40.000000 D1.016000
G0 Z0.500000
G0 X-9999999890.351999 Y-10000000089.233999
G0 Z-2.000000 F40.000000 D1.016000
G0 Z0.500000
G0 X-9999999887.812000 Y-10000000086.694000
G0 Z-2.000000 F40.000000 D1.016000
G0 Z0.500000
G0 X-9999999887.812000 Y-10000000089.233999
G0 Z-2.000000 F40.000000 D1.016000
G0 Z0.500000
G0 X-9999999885.271999 Y-10000000086.694000
G0 Z-2.000000 F40.000000 D1.016000
G0 Z0.500000
G0 X-9999999885.271999 Y-10000000089.233999
G0 Z-2.000000 F40.000000 D1.016000
G0 Z0.500000
G0 X-9999999879.938000 Y-10000000030.559999
G0 Z-2.000000 F40.000000 D1.016000
G0 Z0.500000
G0 X-9999999877.652000 Y-10000000037.926001
G0 Z-2.000000 F40.000000 D1.016000
G0 Z0.500000
G0 X-9999999877.652000 Y-10000000040.466000
G0 Z-2.000000 F40.000000 D1.016000
G0 Z0.500000
G0 X-9999999877.398001 Y-10000000030.559999
G0 Z-2.000000 F40.000000 D1.016000
G0 Z0.500000
G0 X-9999999875.112000 Y-10000000037.926001
G0 Z-2.000000 F40.000000 D1.016000
G0 Z0.500000
G0 X-9999999875.112000 Y-10000000040.466000
G0 Z-2.000000 F40.000000 D1.016000
G0 Z0.500000
G0 X-9999999874.858000 Y-10000000030.559999
G0 Z-2.000000 F40.000000 D1.016000
G0 Z0.500000
G0 X-9999999872.572001 Y-10000000037.926001
G0 Z-2.000000 F40.000000 D1.016000
G0 Z0.500000
G0 X-9999999872.572001 Y-10000000040.466000
G0 Z-2.000000 F40.000000 D1.016000
G0 Z0.500000
G0 X-9999999872.318001 Y-10000000030.559999
G0 Z-2.000000 F40.000000 D1.016000
G0 Z0.500000
G0 X-9999999856.823999 Y-10000000030.813999
G0 Z-2.000000 F40.000000 D1.016000
G0 Z0.500000
G0 X-9999999855.299999 Y-10000000037.926001
G0 Z-2.000000 F40.000000 D1.016000
G0 Z0.500000
G0 X-9999999855.299999 Y-10000000040.466000
G0 Z-2.000000 F40.000000 D1.016000
G0 Z0.500000
G0 X-9999999854.284000 Y-10000000030.813999
G0 Z-2.000000 F40.000000 D1.016000
G0 Z0.500000
G0 X-9999999852.760000 Y-10000000037.926001
G0 Z-2.000000 F40.000000 D1.016000
G0 Z0.500000
G0 X-9999999852.760000 Y-10000000040.466000
G0 Z-2.000000 F40.000000 D1.016000
G0 Z0.500000
G0 X-9999999851.743999 Y-10000000030.813999
G0 Z-2.000000 F40.000000 D1.016000
G0 Z0.500000
G0 X-9999999850.219999 Y-10000000037.926001
G0 Z-2.000000 F40.000000 D1.016000
G0 Z0.500000
G0 X-9999999850.219999 Y-10000000040.466000
G0 Z-2.000000 F40.000000 D1.016000
G0 Z0.500000
G0 X-9999999850.219999 Y-10000000068.914000
G0 Z-2.000000 F40.000000 D1.016000
G0 Z0.500000
G0 X-9999999850.219999 Y-10000000071.454000
G0 Z-2.000000 F40.000000 D1.016000
G0 Z0.500000
G0 X-9999999850.219999 Y-10000000073.993999
G0 Z-2.000000 F40.000000 D1.016000
G0 Z0.500000
G0 X-9999999850.219999 Y-10000000076.534000
G0 Z-2.000000 F40.000000 D1.016000
G0 Z0.500000
G0 X-9999999849.204000 Y-10000000030.813999
G0 Z-2.000000 F40.000000 D1.016000
G0 Z0.500000
G0 X-9999999838.790001 Y-10000000041.990000
G0 Z-2.000000 F40.000000 D1.016000
G0 Z0.500000
G0 X-9999999836.250000 Y-10000000041.990000
G0 Z-2.000000 F40.000000 D1.016000
G0 Z0.500000
G0 X-9999999833.709999 Y-10000000041.990000
G0 Z-2.000000 F40.000000 D1.016000
G0 Z0.500000
G0 X-9999999940.136000 Y-10000000031.830000
G0 Z-2.000000 F40.000000 D1.524000
G0 Z0.500000
G0 X-9999999940.136000 Y-10000000036.910000
G0 Z-2.000000 F40.000000 D1.524000
G0 Z0.500000
G0 X-9999999940.136000 Y-10000000042.243999
G0 Z-2.000000 F40.000000 D1.524000
G0 Z0.500000
G0 X-9999999940.136000 Y-10000000047.323999
G0 Z-2.000000 F40.000000 D1.524000
G0 Z0.500000
G0 X-9999999940.136000 Y-10000000061.294001
G0 Z-2.000000 F40.000000 D1.524000
G0 Z0.500000
G0 X-9999999940.136000 Y-10000000066.374001
G0 Z-2.000000 F40.000000 D1.524000
G0 Z0.500000
G0 X-9999999940.136000 Y-10000000071.708000
G0 Z-2.000000 F40.000000 D1.524000
G0 Z0.500000
G0 X-9999999940.136000 Y-10000000076.788000
G0 Z-2.000000 F40.000000 D1.524000
G0 Z0.500000
G0 X-9999999932.770000 Y-10000000091.520000
G0 Z-2.000000 F40.000000 D1.524000
G0 Z0.500000
G0 X-9999999927.690001 Y-10000000091.520000
G0 Z-2.000000 F40.000000 D1.524000
G0 Z0.500000
G0 X-9999999922.610001 Y-10000000091.520000
G0 Z-2.000000 F40.000000 D1.524000
G0 Z0.500000
G0 X-9999999917.784000 Y-10000000024.464001
G0 Z-2.000000 F40.000000 D1.524000
G0 Z0.500000
G0 X-9999999917.530001 Y-10000000091.520000
G0 Z-2.000000 F40.000000 D1.524000
G0 Z0.500000
G0 X-9999999912.704000 Y-10000000024.464001
G0 Z-2.000000 F40.000000 D1.524000
G0 Z0.500000
G0 X-9999999912.450001 Y-10000000091.520000
G0 Z-2.000000 F40.000000 D1.524000
G0 Z0.500000
G0 X-9999999907.370001 Y-10000000024.464001
G0 Z-2.000000 F40.000000 D1.524000
G0 Z0.500000
G0 X-9999999907.370001 Y-10000000091.520000
G0 Z-2.000000 F40.000000 D1.524000
G0 Z0.500000
G0 X-9999999902.290001 Y-10000000024.464001
G0 Z-2.000000 F40.000000 D1.524000
G0 Z0.500000
G0 X-9999999902.290001 Y-10000000091.520000
G0 Z-2.000000 F40.000000 D1.524000
G0 Z0.500000
G0 X-9999999897.209999 Y-10000000024.464001
G0 Z-2.000000 F40.000000 D1.524000
G0 Z0.500000
G0 X-9999999897.209999 Y-10000000091.520000
G0 Z-2.000000 F40.000000 D1.524000
G0 Z0.500000
G0 X-9999999892.129999 Y-10000000024.464001
G0 Z-2.000000 F40.000000 D1.524000
G0 Z0.500000
G0 X-9999999883.493999 Y-10000000024.464001
G0 Z-2.000000 F40.000000 D1.524000
G0 Z0.500000
G0 X-9999999878.414000 Y-10000000024.464001
G0 Z-2.000000 F40.000000 D1.524000
G0 Z0.500000
G0 X-9999999873.334000 Y-10000000024.464001
G0 Z-2.000000 F40.000000 D1.524000
G0 Z0.500000
G0 X-9999999868.254000 Y-10000000024.464001
G0 Z-2.000000 F40.000000 D1.524000
G0 Z0.500000
G0 X-9999999860.888000 Y-10000000024.464001
G0 Z-2.000000 F40.000000 D1.524000
G0 Z0.500000
G0 X-9999999855.808001 Y-10000000024.464001
G0 Z-2.000000 F40.000000 D1.524000
G0 Z0.500000
G0 X-9999999850.728001 Y-10000000024.464001
G0 Z-2.000000 F40.000000 D1.524000
G0 Z0.500000
G0 X-9999999845.648001 Y-10000000024.464001
G0 Z-2.000000 F40.000000 D1.524000
G0 Z0.500000
G0 X-9999999838.028000 Y-10000000024.718000
G0 Z-2.000000 F40.000000 D1.524000
G0 Z0.500000
G0 X-9999999832.948000 Y-10000000024.718000
G0 Z-2.000000 F40.000000 D1.524000
G0 Z0.500000
G0 X-9999999824.820000 Y-10000000044.530001
G0 Z-2.000000 F40.000000 D1.524000
G0 Z0.500000
G0 X-9999999824.820000 Y-10000000049.610001
G0 Z-2.000000 F40.000000 D1.524000
G0 Z0.500000
G0 X-9999999824.820000 Y-10000000054.690001
G0 Z-2.000000 F40.000000 D1.524000
G0 Z0.500000
G0 X-9999999824.820000 Y-10000000059.770000
G0 Z-2.000000 F40.000000 D1.524000
G0 Z0.500000
G0 X-9999999819.993999 Y-10000000066.882000
G0 Z-2.000000 F40.000000 D2.311400
G0 Z0.500000
G0 X-9999999819.993999 Y-10000000080.090000
G0 Z-2.000000 F40.000000 D2.311400
G0 Z0.500000
G0 X-9999999940.389999 Y-10000000024.209999
G0 Z-2.000000 F40.000000 D3.048000
G0 Z0.500000
G0 X-9999999940.389999 Y-10000000092.790001
G0 Z-2.000000 F40.000000 D3.048000
G0 Z0.500000
G0 X-9999999821.010000 Y-10000000024.209999
G0 Z-2.000000 F40.000000 D3.048000
G0 Z0.500000
G0 X-9999999821.010000 Y-10000000092.790001
G0 Z-2.000000 F40.000000 D3.048000
G0 Z0.500000

(Goto to Initial position)
G0 Z0.500000
G0 X0.000000 Y0.000000
G0 Z0.000000
