(Generated by ./pygerber2gcode_cui_MOD.py )
( 2013-11-01 20:43:22 )
(Initialize)

(Start form here)
G0 Z0.500000
G0 X-9999999944.136499 Y-10000000020.400000
G1 Z-0.850000 F10.000000
G1 Y-10000000096.536501 F20.000000
G1 X-9999999817.263500 F20.000000
G1 Y-10000000020.400000 F20.000000
G1 X-9999999944.136499 F20.000000
G1 Z-1.700000 F10.000000
G1 Y-10000000096.536501 F20.000000
G1 X-9999999817.263500 F20.000000
G1 Y-10000000020.400000 F20.000000
G1 X-9999999944.136499 F20.000000

(Goto to Initial position)
G0 Z0.500000
G0 X0.000000 Y0.000000
G0 Z0.000000
