(Generated by ./pygerber2gcode_cui_MOD.py )
( 2013-06-06 17:09:39 )
(Initialize)

(Start form here)
G0 Z0.500000
G0 X65.689999 Y35.209999
G1 Z-2.000000 F20.000000
G1 Y4.729999 F30.000000
G1 Y3.459999 F30.000000
G1 X3.459999 F30.000000
G1 Y4.729999 F30.000000
G1 Y35.209999 F30.000000
G1 X63.149999 F30.000000
G1 X65.689999 F30.000000

(Goto to Initial position)
G0 Z0.500000
G0 X0.000000 Y0.000000
G0 Z0.000000
