(Generated by ./pygerber2gcode_cui_MOD.py )
( 2013-06-06 17:09:39 )
(Initialize)

(Start form here)
G0 Z0.500000
G0 X56.092893 Y14.327105
G1 Z-0.040000 F60.000000
G1 X52.282893 Y10.517105 F200.000000
G1 X52.193634 Y10.375050 F200.000000
G1 X52.089031 Y10.243882 F200.000000
G1 X52.076375 Y10.188434 F200.000000
G1 X52.072960 Y10.182999 F200.000000
G1 X51.702599 F200.000000
G1 Y9.048068 F200.000000
G0 Z0.500000
G0 Y8.031930
G1 Z-0.040000 F60.000000
G1 Y6.999998 F200.000000
G1 X51.449998 F200.000000
G1 Y7.425298 F200.000000
G0 Z0.500000
G0 X46.818529 Y9.539998
G1 Z-0.040000 F60.000000
G1 X47.107318 Y9.902129 F200.000000
G1 X47.623526 Y10.150721 F200.000000
G1 X48.196472 F200.000000
G1 X48.712680 Y9.902129 F200.000000
G1 X49.069906 Y9.454181 F200.000000
G1 X49.179999 Y8.971833 F200.000000
G1 X49.290092 Y9.454181 F200.000000
G1 X49.647318 Y9.902129 F200.000000
G1 X50.163526 Y10.150721 F200.000000
G1 X50.736472 F200.000000
G1 X51.252680 Y9.902129 F200.000000
G1 X51.609906 Y9.454181 F200.000000
G1 X51.702599 Y9.048068 F200.000000
G0 Z0.500000
G0 Y8.031930
G1 Z-0.040000 F60.000000
G1 X51.609906 Y7.625817 F200.000000
G1 X51.449998 Y7.425298 F200.000000
G0 Z0.500000
G0 X49.450000
G1 Z-0.040000 F60.000000
G1 X49.290092 Y7.625817 F200.000000
G1 X49.179999 Y8.108165 F200.000000
G1 X49.069906 Y7.625817 F200.000000
G1 X48.712680 Y7.177869 F200.000000
G1 X48.196472 Y6.929277 F200.000000
G1 X47.623526 F200.000000
G1 X47.107318 Y7.177869 F200.000000
G1 X46.818529 Y7.540000 F200.000000
G0 Z0.500000
G0 X44.278529 Y9.539998
G1 Z-0.040000 F60.000000
G1 X44.567318 Y9.902129 F200.000000
G1 X45.083526 Y10.150721 F200.000000
G1 X45.656472 F200.000000
G1 X46.172680 Y9.902129 F200.000000
G1 X46.461469 Y9.539998 F200.000000
G0 Z0.500000
G0 Y7.540000
G1 Z-0.040000 F60.000000
G1 X46.172680 Y7.177869 F200.000000
G1 X45.656472 Y6.929277 F200.000000
G1 X45.083526 F200.000000
G1 X44.567318 Y7.177869 F200.000000
G1 X44.278529 Y7.540000 F200.000000
G0 Z0.500000
G0 X41.738529 Y9.539998
G1 Z-0.040000 F60.000000
G1 X42.027318 Y9.902129 F200.000000
G1 X42.543526 Y10.150721 F200.000000
G1 X43.116472 F200.000000
G1 X43.632680 Y9.902129 F200.000000
G1 X43.921469 Y9.539998 F200.000000
G0 Z0.500000
G0 Y7.540000
G1 Z-0.040000 F60.000000
G1 X43.632680 Y7.177869 F200.000000
G1 X43.116472 Y6.929277 F200.000000
G1 X42.543526 F200.000000
G1 X42.027318 Y7.177869 F200.000000
G1 X41.738529 Y7.540000 F200.000000
G0 Z0.500000
G0 X36.462599 Y8.666811
G1 Z-0.040000 F60.000000
G1 Y8.895599 F200.000000
G1 X36.590092 Y9.454181 F200.000000
G1 X36.947318 Y9.902129 F200.000000
G1 X37.463526 Y10.150721 F200.000000
G1 X38.036472 F200.000000
G1 X38.552680 Y9.902129 F200.000000
G1 X38.909906 Y9.454181 F200.000000
G1 X39.019999 Y8.971833 F200.000000
G1 X39.130092 Y9.454181 F200.000000
G1 X39.290000 Y9.654700 F200.000000
G0 Z0.500000
G0 X41.381469 Y7.540000
G1 Z-0.040000 F60.000000
G1 X41.092680 Y7.177869 F200.000000
G1 X40.576472 Y6.929277 F200.000000
G1 X40.003526 F200.000000
G1 X39.487318 Y7.177869 F200.000000
G1 X39.130092 Y7.625817 F200.000000
G1 X39.019999 Y8.108165 F200.000000
G1 X38.909906 Y7.625817 F200.000000
G1 X38.552680 Y7.177869 F200.000000
G1 X38.036472 Y6.929277 F200.000000
G1 X37.553489 F200.000000
G0 Z0.500000
G0 X41.289998 Y9.654700
G1 Z-0.040000 F60.000000
G1 X41.381469 Y9.539998 F200.000000
G0 Z0.500000
G0 X36.462599 Y16.286811
G1 Z-0.040000 F60.000000
G1 Y16.515599 F200.000000
G1 X36.590092 Y17.074181 F200.000000
G1 X36.947318 Y17.522129 F200.000000
G1 X37.463526 Y17.770721 F200.000000
G1 X38.036472 F200.000000
G1 X38.552680 Y17.522129 F200.000000
G1 X38.909906 Y17.074181 F200.000000
G1 X39.019999 Y16.591833 F200.000000
G1 X39.130092 Y17.074181 F200.000000
G1 X39.290000 Y17.274700 F200.000000
G0 Z0.500000
G0 X54.081469 Y15.160000
G1 Z-0.040000 F60.000000
G1 X53.792680 Y14.797869 F200.000000
G1 X53.276472 Y14.549277 F200.000000
G1 X52.703526 F200.000000
G1 X52.187318 Y14.797869 F200.000000
G1 X51.830092 Y15.245817 F200.000000
G1 X51.719999 Y15.728165 F200.000000
G1 X51.609906 Y15.245817 F200.000000
G1 X51.252680 Y14.797869 F200.000000
G1 X50.736472 Y14.549277 F200.000000
G1 X50.163526 F200.000000
G1 X49.647318 Y14.797869 F200.000000
G1 X49.290092 Y15.245817 F200.000000
G1 X49.179999 Y15.728165 F200.000000
G1 X49.069906 Y15.245817 F200.000000
G1 X48.712680 Y14.797869 F200.000000
G1 X48.196472 Y14.549277 F200.000000
G1 X47.623526 F200.000000
G1 X47.107318 Y14.797869 F200.000000
G1 X46.750092 Y15.245817 F200.000000
G1 X46.639999 Y15.728165 F200.000000
G1 X46.529906 Y15.245817 F200.000000
G1 X46.172680 Y14.797869 F200.000000
G1 X45.656472 Y14.549277 F200.000000
G1 X45.083526 F200.000000
G1 X44.567318 Y14.797869 F200.000000
G1 X44.210092 Y15.245817 F200.000000
G1 X44.099999 Y15.728165 F200.000000
G1 X43.989906 Y15.245817 F200.000000
G1 X43.632680 Y14.797869 F200.000000
G1 X43.116472 Y14.549277 F200.000000
G1 X42.543526 F200.000000
G1 X42.027318 Y14.797869 F200.000000
G1 X41.670092 Y15.245817 F200.000000
G1 X41.559999 Y15.728165 F200.000000
G1 X41.449906 Y15.245817 F200.000000
G1 X41.092680 Y14.797869 F200.000000
G1 X40.576472 Y14.549277 F200.000000
G1 X40.003526 F200.000000
G1 X39.487318 Y14.797869 F200.000000
G1 X39.130092 Y15.245817 F200.000000
G1 X39.019999 Y15.728165 F200.000000
G1 X38.909906 Y15.245817 F200.000000
G1 X38.552680 Y14.797869 F200.000000
G1 X38.036472 Y14.549277 F200.000000
G1 X37.553489 F200.000000
G0 Z0.500000
G0 X41.289998 Y17.274700
G1 Z-0.040000 F60.000000
G1 X41.449906 Y17.074181 F200.000000
G1 X41.559999 Y16.591833 F200.000000
G1 X41.670092 Y17.074181 F200.000000
G1 X41.830000 Y17.274700 F200.000000
G0 Z0.500000
G0 X43.829998 Y17.274700
G1 Z-0.040000 F60.000000
G1 X43.989906 Y17.074181 F200.000000
G1 X44.099999 Y16.591833 F200.000000
G1 X44.210092 Y17.074181 F200.000000
G1 X44.567318 Y17.522129 F200.000000
G1 X45.083526 Y17.770721 F200.000000
G1 X45.656472 F200.000000
G1 X46.172680 Y17.522129 F200.000000
G1 X46.529906 Y17.074181 F200.000000
G1 X46.639999 Y16.591833 F200.000000
G1 X46.750092 Y17.074181 F200.000000
G1 X46.910000 Y17.274700 F200.000000
G0 Z0.500000
G0 X49.024869 Y17.130656
G1 Z-0.040000 F60.000000
G1 X49.069906 Y17.074181 F200.000000
G1 X49.179999 Y16.591833 F200.000000
G1 X49.290092 Y17.074181 F200.000000
G1 X49.450000 Y17.274700 F200.000000
G0 Z0.500000
G0 X51.564869 Y17.130656
G1 Z-0.040000 F60.000000
G1 X51.609906 Y17.074181 F200.000000
G1 X51.719999 Y16.591833 F200.000000
G1 X51.830092 Y17.074181 F200.000000
G1 X52.187318 Y17.522129 F200.000000
G1 X52.556671 Y17.700000 F200.000000
G0 Z0.500000
G0 X53.423327
G1 Z-0.040000 F60.000000
G1 X53.792680 Y17.522129 F200.000000
G1 X54.081469 Y17.159998 F200.000000
G0 Z0.500000
G0 X14.633434 Y12.628623
G1 Z-0.040000 F60.000000
G1 X14.585278 Y12.658881 F200.000000
G1 X14.418563 Y12.677666 F200.000000
G1 X14.254999 Y12.714998 F200.000000
G1 X9.181377 Y12.714998 F200.000000
G1 X9.139249 Y12.752930 F200.000000
G1 X8.665276 Y12.906933 F200.000000
G1 X8.169642 Y12.854840 F200.000000
G1 X7.738046 Y12.605658 F200.000000
G1 X7.445115 Y12.202473 F200.000000
G1 X7.341499 Y11.714999 F200.000000
G1 X7.445115 Y11.227525 F200.000000
G1 X7.738046 Y10.824340 F200.000000
G1 X8.169642 Y10.575158 F200.000000
G1 X8.665276 Y10.523065 F200.000000
G1 X9.139249 Y10.677068 F200.000000
G1 X9.181377 Y10.715000 F200.000000
G1 X13.637102 Y10.715000 F200.000000
G1 X13.665397 Y10.572752 F200.000000
G1 X13.952729 Y10.142729 F200.000000
G1 X14.382752 Y9.855397 F200.000000
G1 X14.889999 Y9.754499 F200.000000
G1 X15.397246 Y9.855397 F200.000000
G1 X15.827269 Y10.142729 F200.000000
G1 X16.114601 Y10.572752 F200.000000
G1 X16.215499 Y11.079999 F200.000000
G1 X16.114601 Y11.587246 F200.000000
G1 X15.827269 Y12.017269 F200.000000
G1 X15.397246 Y12.304601 F200.000000
G1 X15.000739 Y12.383472 F200.000000
G1 X14.962105 Y12.422105 F200.000000
G1 X14.820050 Y12.511364 F200.000000
G1 X14.688882 Y12.615967 F200.000000
G1 X14.633434 Y12.628623 F200.000000
G0 Z0.500000
G0 X36.462599 Y8.666811
G1 Z-0.040000 F60.000000
G1 X36.065786 Y8.269998 F200.000000
G1 X30.771377 Y8.269998 F200.000000
G1 X30.729249 Y8.307930 F200.000000
G1 X30.255276 Y8.461933 F200.000000
G1 X29.832027 Y8.417448 F200.000000
G1 X29.859998 Y8.539999 F200.000000
G1 Y8.810000 F200.000000
G1 X33.327428 F200.000000
G1 X33.569642 Y8.670158 F200.000000
G1 X34.065276 Y8.618065 F200.000000
G1 X34.539249 Y8.772068 F200.000000
G1 X34.909606 Y9.105538 F200.000000
G1 X35.112309 Y9.560817 F200.000000
G1 Y10.059181 F200.000000
G1 X34.939998 Y10.446198 F200.000000
G1 Y10.665786 F200.000000
G1 X35.624212 Y11.350000 F200.000000
G1 X38.605786 Y11.350000 F200.000000
G1 X39.290000 Y10.665786 F200.000000
G1 Y9.654700 F200.000000
G0 Z0.500000
G0 X27.411469 Y16.430000
G1 Z-0.040000 F60.000000
G1 X32.940000 F200.000000
G1 Y15.508071 F200.000000
G1 X32.845115 Y15.377473 F200.000000
G1 X32.741499 Y14.889999 F200.000000
G1 X32.845115 Y14.402525 F200.000000
G1 X33.138046 Y13.999340 F200.000000
G1 X33.569642 Y13.750158 F200.000000
G1 X34.065276 Y13.698065 F200.000000
G1 X34.539249 Y13.852068 F200.000000
G1 X34.581377 Y13.890000 F200.000000
G1 X36.479999 F200.000000
G1 X36.643563 Y13.927332 F200.000000
G1 X36.810278 Y13.946117 F200.000000
G1 X36.858434 Y13.976375 F200.000000
G1 X36.913882 Y13.989031 F200.000000
G1 X37.045050 Y14.093634 F200.000000
G1 X37.187105 Y14.182893 F200.000000
G1 X37.553489 Y14.549277 F200.000000
G0 Z0.500000
G0 X40.723882 Y20.870967
G1 Z-0.040000 F60.000000
G1 X40.614034 Y20.896039 F200.000000
G1 X40.512520 Y20.944926 F200.000000
G1 X40.399847 Y20.944926 F200.000000
G1 X40.289999 Y20.969998 F200.000000
G1 X40.019998 F200.000000
G1 Y25.320000 F200.000000
G1 X40.947428 F200.000000
G1 X41.189642 Y25.180158 F200.000000
G1 X41.685276 Y25.128065 F200.000000
G1 X42.159249 Y25.282068 F200.000000
G1 X42.201377 Y25.320000 F200.000000
G1 X46.639999 Y25.320000 F200.000000
G1 X46.803563 Y25.357332 F200.000000
G1 X46.970278 Y25.376117 F200.000000
G1 X47.018434 Y25.406375 F200.000000
G0 Z0.500000
G1 Z-0.040000 F60.000000
G1 X47.073882 Y25.419031 F200.000000
G1 X47.205050 Y25.523634 F200.000000
G1 X47.347105 Y25.612893 F200.000000
G1 X50.497405 Y28.763193 F200.000000
G1 X50.830117 Y28.794023 F200.000000
G1 X51.287059 Y29.021553 F200.000000
G1 X51.630951 Y29.398785 F200.000000
G1 X51.815349 Y29.874771 F200.000000
G1 Y30.385227 F200.000000
G1 X51.630951 Y30.861213 F200.000000
G1 X51.287059 Y31.238445 F200.000000
G1 X50.830117 Y31.465975 F200.000000
G1 X50.321838 Y31.513074 F200.000000
G1 X49.830868 Y31.373381 F200.000000
G1 X49.423516 Y31.065762 F200.000000
G1 X49.154795 Y30.631764 F200.000000
G1 X49.066796 Y30.161008 F200.000000
G1 X46.225786 Y27.319998 F200.000000
G1 X42.201377 F200.000000
G1 X42.159249 Y27.357930 F200.000000
G1 X41.685276 Y27.511933 F200.000000
G1 X41.189642 Y27.459840 F200.000000
G1 X40.947428 Y27.319998 F200.000000
G1 X39.019999 F200.000000
G1 X38.910151 Y27.294926 F200.000000
G1 X38.797478 F200.000000
G1 X38.695964 Y27.246039 F200.000000
G1 X38.586116 Y27.220967 F200.000000
G1 X38.498025 Y27.150717 F200.000000
G1 X38.396510 Y27.101830 F200.000000
G1 X38.326259 Y27.013739 F200.000000
G1 X38.238168 Y26.943488 F200.000000
G1 X38.189281 Y26.841973 F200.000000
G1 X38.119031 Y26.753882 F200.000000
G1 X38.093959 Y26.644034 F200.000000
G1 X38.045072 Y26.542520 F200.000000
G1 Y26.429847 F200.000000
G1 X38.020000 Y26.319999 F200.000000
G1 Y20.969998 F200.000000
G0 Z0.500000
G0 X34.563488 Y18.211830
G1 Z-0.040000 F60.000000
G1 X34.461973 Y18.260717 F200.000000
G1 X34.373882 Y18.330967 F200.000000
G1 X34.264034 Y18.356039 F200.000000
G1 X34.162520 Y18.404926 F200.000000
G1 X34.049847 F200.000000
G1 X33.939999 Y18.429998 F200.000000
G1 X33.669998 F200.000000
G1 Y24.050000 F200.000000
G1 X35.338889 F200.000000
G1 X35.281499 Y23.779999 F200.000000
G1 X35.385115 Y23.292525 F200.000000
G1 X35.678046 Y22.889340 F200.000000
G1 X36.109642 Y22.640158 F200.000000
G1 X36.605276 Y22.588065 F200.000000
G1 X37.079249 Y22.742068 F200.000000
G1 X37.449606 Y23.075538 F200.000000
G1 X37.652309 Y23.530817 F200.000000
G1 Y24.029181 F200.000000
G1 X37.479998 Y24.416198 F200.000000
G1 Y25.049999 F200.000000
G1 X37.479998 Y25.049999 F200.000000
G1 X37.479998 Y25.049999 F200.000000
G1 Y25.683800 F200.000000
G1 X37.652309 Y26.070817 F200.000000
G1 Y26.569181 F200.000000
G1 X37.449606 Y27.024460 F200.000000
G1 X37.079249 Y27.357930 F200.000000
G1 X36.605276 Y27.511933 F200.000000
G1 X36.109642 Y27.459840 F200.000000
G1 X35.678046 Y27.210658 F200.000000
G1 X35.385115 Y26.807473 F200.000000
G1 X35.281499 Y26.319999 F200.000000
G1 X35.338889 Y26.049998 F200.000000
G1 X33.513389 F200.000000
G1 X33.177246 Y26.274601 F200.000000
G1 X32.780739 Y26.353472 F200.000000
G1 X25.757105 Y33.377105 F200.000000
G1 X25.615050 Y33.466364 F200.000000
G1 X25.483882 Y33.570967 F200.000000
G1 X25.428434 Y33.583623 F200.000000
G1 X25.380278 Y33.613881 F200.000000
G1 X25.213563 Y33.632666 F200.000000
G1 X25.049999 Y33.669998 F200.000000
G1 X16.159999 F200.000000
G0 Z0.500000
G0 X43.773881 Y21.570278
G1 Z-0.040000 F60.000000
G1 X43.743623 Y21.618434 F200.000000
G1 X43.730967 Y21.673882 F200.000000
G1 X43.626364 Y21.805050 F200.000000
G1 X43.537105 Y21.947105 F200.000000
G1 X42.559998 Y22.924212 F200.000000
G1 Y23.143800 F200.000000
G1 X42.732309 Y23.530817 F200.000000
G1 Y24.029181 F200.000000
G1 X42.529606 Y24.484460 F200.000000
G1 X42.159249 Y24.817930 F200.000000
G1 X41.685276 Y24.971933 F200.000000
G1 X41.189642 Y24.919840 F200.000000
G1 X40.758046 Y24.670658 F200.000000
G1 X40.465115 Y24.267473 F200.000000
G1 X40.361499 Y23.779999 F200.000000
G1 X40.465115 Y23.292525 F200.000000
G1 X40.560000 Y23.161927 F200.000000
G1 Y22.509999 F200.000000
G1 X40.597332 Y22.346435 F200.000000
G1 X40.616117 Y22.179720 F200.000000
G1 X40.646375 Y22.131564 F200.000000
G1 X40.659031 Y22.076116 F200.000000
G1 X40.763634 Y21.944948 F200.000000
G1 X40.852893 Y21.802893 F200.000000
G1 X41.830000 Y20.825786 F200.000000
G1 Y19.969999 F200.000000
G1 Y19.969999 F200.000000
G1 Y19.969999 F200.000000
G1 Y17.274700 F200.000000
G0 Z0.500000
G0 X17.700000 Y8.695298
G1 Z-0.040000 F60.000000
G1 Y8.269998 F200.000000
G1 X15.733389 Y8.269998 F200.000000
G1 X15.397246 Y8.494601 F200.000000
G1 X14.889999 Y8.595499 F200.000000
G1 X14.382752 Y8.494601 F200.000000
G1 X13.952729 Y8.207269 F200.000000
G1 X13.665397 Y7.777246 F200.000000
G1 X13.564499 Y7.269999 F200.000000
G1 X13.665397 Y6.762752 F200.000000
G1 X13.952729 Y6.332729 F200.000000
G1 X14.382752 Y6.045397 F200.000000
G1 X14.889999 Y5.944499 F200.000000
G1 X15.397246 Y6.045397 F200.000000
G1 X15.733389 Y6.270000 F200.000000
G1 X27.589999 Y6.270000 F200.000000
G1 X27.753563 Y6.307332 F200.000000
G1 X27.920278 Y6.326117 F200.000000
G1 X27.968434 Y6.356375 F200.000000
G1 X28.023882 Y6.369031 F200.000000
G1 X28.155050 Y6.473634 F200.000000
G1 X28.297105 Y6.562893 F200.000000
G1 X28.944245 Y7.210033 F200.000000
G1 X29.035115 Y6.782525 F200.000000
G1 X29.328046 Y6.379340 F200.000000
G1 X29.759642 Y6.130158 F200.000000
G1 X30.255276 Y6.078065 F200.000000
G1 X30.729249 Y6.232068 F200.000000
G1 X30.771377 Y6.270000 F200.000000
G1 X36.479999 F200.000000
G1 X36.643563 Y6.307332 F200.000000
G1 X36.810278 Y6.326117 F200.000000
G1 X36.858434 Y6.356375 F200.000000
G1 X36.913882 Y6.369031 F200.000000
G1 X37.045050 Y6.473634 F200.000000
G1 X37.187105 Y6.562893 F200.000000
G1 X37.553489 Y6.929277 F200.000000
G0 Z0.500000
G0 X24.779998 Y18.544700
G1 Z-0.040000 F60.000000
G1 Y21.666609 F200.000000
G1 X25.004601 Y22.002752 F200.000000
G1 X25.083472 Y22.399259 F200.000000
G1 X25.757105 Y23.072893 F200.000000
G1 X25.846364 Y23.214948 F200.000000
G1 X25.950967 Y23.346116 F200.000000
G1 X25.963623 Y23.401564 F200.000000
G1 X25.993881 Y23.449720 F200.000000
G1 X26.012666 Y23.616435 F200.000000
G1 X26.049998 Y23.779999 F200.000000
G1 Y24.206609 F200.000000
G1 X26.274601 Y24.542752 F200.000000
G1 X26.375499 Y25.049999 F200.000000
G1 X26.274601 Y25.557246 F200.000000
G1 X25.987269 Y25.987269 F200.000000
G1 X25.557246 Y26.274601 F200.000000
G1 X25.049999 Y26.375499 F200.000000
G1 X24.542752 Y26.274601 F200.000000
G1 X24.112729 Y25.987269 F200.000000
G1 X23.825397 Y25.557246 F200.000000
G1 X23.724499 Y25.049999 F200.000000
G1 X23.825397 Y24.542752 F200.000000
G1 X24.050000 Y24.206609 F200.000000
G1 Y24.194212 F200.000000
G1 X23.669259 Y23.813472 F200.000000
G1 X23.272752 Y23.734601 F200.000000
G1 X22.842729 Y23.447269 F200.000000
G1 X22.555397 Y23.017246 F200.000000
G1 X22.454499 Y22.509999 F200.000000
G1 X22.555397 Y22.002752 F200.000000
G1 X22.780000 Y21.666609 F200.000000
G1 Y18.544700 F200.000000
G0 Z0.500000
G0 X38.020000 Y20.969998
G1 Z-0.040000 F60.000000
G1 X37.415921 Y20.969998 F200.000000
G1 X37.317059 Y21.078445 F200.000000
G1 X36.860117 Y21.305975 F200.000000
G1 X36.351838 Y21.353074 F200.000000
G1 X35.860868 Y21.213381 F200.000000
G1 X35.453516 Y20.905762 F200.000000
G1 X35.184795 Y20.471764 F200.000000
G1 X35.090999 Y19.969999 F200.000000
G1 X35.184795 Y19.468234 F200.000000
G1 X35.453516 Y19.034236 F200.000000
G1 X35.860868 Y18.726617 F200.000000
G1 X36.351838 Y18.586924 F200.000000
G1 X36.860117 Y18.634023 F200.000000
G1 X37.317059 Y18.861553 F200.000000
G1 X37.415921 Y18.970000 F200.000000
G1 X39.290000 Y18.970000 F200.000000
G1 Y17.274700 F200.000000
G0 Z0.500000
G0 X43.829998 Y17.274700
G1 Z-0.040000 F60.000000
G1 Y18.970000 F200.000000
G1 X45.698577 Y18.970000 F200.000000
G1 X46.020868 Y18.726617 F200.000000
G1 X46.511838 Y18.586924 F200.000000
G1 X47.020117 Y18.634023 F200.000000
G1 X47.477059 Y18.861553 F200.000000
G1 X47.820951 Y19.238785 F200.000000
G1 X48.005349 Y19.714771 F200.000000
G1 Y20.225227 F200.000000
G1 X47.820951 Y20.701213 F200.000000
G1 X47.675251 Y20.861039 F200.000000
G1 X50.497405 Y23.683193 F200.000000
G1 X50.830117 Y23.714023 F200.000000
G1 X51.287059 Y23.941553 F200.000000
G1 X51.630951 Y24.318785 F200.000000
G1 X51.815349 Y24.794771 F200.000000
G1 Y25.305227 F200.000000
G1 X51.630951 Y25.781213 F200.000000
G1 X51.287059 Y26.158445 F200.000000
G1 X50.830117 Y26.385975 F200.000000
G1 X50.321838 Y26.433074 F200.000000
G1 X49.830868 Y26.293381 F200.000000
G1 X49.423516 Y25.985762 F200.000000
G1 X49.154795 Y25.551764 F200.000000
G1 X49.066796 Y25.081008 F200.000000
G1 X45.932893 Y21.947105 F200.000000
G1 X45.843634 Y21.805050 F200.000000
G1 X45.739031 Y21.673882 F200.000000
G1 X45.726375 Y21.618434 F200.000000
G1 X45.696117 Y21.570278 F200.000000
G1 X45.677332 Y21.403563 F200.000000
G1 X45.640000 Y21.239999 F200.000000
G1 Y20.969998 F200.000000
G1 X43.829998 F200.000000
G1 Y21.239999 F200.000000
G1 X43.792666 Y21.403563 F200.000000
G1 X43.773881 Y21.570278 F200.000000
G0 Z0.500000
G0 X17.429999 Y20.969998
G1 Z-0.040000 F60.000000
G1 X17.266435 Y20.932666 F200.000000
G1 X17.099720 Y20.913881 F200.000000
G1 X17.051564 Y20.883623 F200.000000
G1 X16.996116 Y20.870967 F200.000000
G1 X16.864948 Y20.766364 F200.000000
G1 X16.722893 Y20.677105 F200.000000
G1 X15.745786 Y19.699998 F200.000000
G1 X15.733389 Y19.699998 F200.000000
G1 X15.397246 Y19.924601 F200.000000
G1 X14.889999 Y20.025499 F200.000000
G1 X14.382752 Y19.924601 F200.000000
G1 X13.952729 Y19.637269 F200.000000
G1 X13.665397 Y19.207246 F200.000000
G1 X13.564499 Y18.699999 F200.000000
G1 X13.665397 Y18.192752 F200.000000
G1 X13.952729 Y17.762729 F200.000000
G1 X14.382752 Y17.475397 F200.000000
G1 X14.889999 Y17.374499 F200.000000
G1 X15.397246 Y17.475397 F200.000000
G1 X15.733389 Y17.700000 F200.000000
G1 X16.159999 Y17.700000 F200.000000
G1 X16.323563 Y17.737332 F200.000000
G1 X16.490278 Y17.756117 F200.000000
G1 X16.538434 Y17.786375 F200.000000
G1 X16.593882 Y17.799031 F200.000000
G1 X16.725050 Y17.903634 F200.000000
G1 X16.867105 Y17.992893 F200.000000
G1 X17.412599 Y18.538387 F200.000000
G1 Y15.786999 F200.000000
G1 X17.700000 F200.000000
G1 Y14.889999 F200.000000
G1 X17.737332 Y14.726435 F200.000000
G1 X17.756117 Y14.559720 F200.000000
G1 X17.786375 Y14.511564 F200.000000
G1 X17.799031 Y14.456116 F200.000000
G1 X17.903634 Y14.324948 F200.000000
G1 X17.992893 Y14.182893 F200.000000
G1 X19.262893 Y12.912893 F200.000000
G1 X19.404948 Y12.823634 F200.000000
G1 X19.536116 Y12.719031 F200.000000
G1 X19.591564 Y12.706375 F200.000000
G1 X19.639720 Y12.676117 F200.000000
G1 X19.806435 Y12.657332 F200.000000
G1 X19.969999 Y12.620000 F200.000000
G1 X28.988889 Y12.620000 F200.000000
G1 X28.931499 Y12.349999 F200.000000
G1 X29.035115 Y11.862525 F200.000000
G1 X29.328046 Y11.459340 F200.000000
G1 X29.759642 Y11.210158 F200.000000
G1 X30.255276 Y11.158065 F200.000000
G1 X30.729249 Y11.312068 F200.000000
G1 X31.099606 Y11.645538 F200.000000
G1 X31.302309 Y12.100817 F200.000000
G1 Y12.599181 F200.000000
G1 X31.129998 Y12.986198 F200.000000
G1 Y13.619999 F200.000000
G1 Y14.046609 F200.000000
G1 X31.354601 Y14.382752 F200.000000
G1 X31.455499 Y14.889999 F200.000000
G1 X31.354601 Y15.397246 F200.000000
G1 X31.067269 Y15.827269 F200.000000
G1 X30.637246 Y16.114601 F200.000000
G1 X30.129999 Y16.215499 F200.000000
G1 X29.622752 Y16.114601 F200.000000
G1 X29.192729 Y15.827269 F200.000000
G1 X28.905397 Y15.397246 F200.000000
G1 X28.804499 Y14.889999 F200.000000
G1 X28.858206 Y14.619998 F200.000000
G1 X20.384212 Y14.619998 F200.000000
G1 X19.699998 Y15.304212 F200.000000
G1 Y15.786999 F200.000000
G1 X19.987399 F200.000000
G1 Y16.921930 F200.000000
G0 Z0.500000
G0 Y17.938068
G1 Z-0.040000 F60.000000
G1 Y18.970000 F200.000000
G1 X20.240000 F200.000000
G1 Y18.544700 F200.000000
G0 Z0.500000
G0 X19.987399 Y17.938068
G1 Z-0.040000 F60.000000
G1 X20.080092 Y18.344181 F200.000000
G1 X20.240000 Y18.544700 F200.000000
G0 Z0.500000
G0 X22.239998
G1 Z-0.040000 F60.000000
G1 X22.399906 Y18.344181 F200.000000
G1 X22.509999 Y17.861833 F200.000000
G1 X22.620092 Y18.344181 F200.000000
G1 X22.780000 Y18.544700 F200.000000
G0 Z0.500000
G0 X27.411469 Y16.430000
G1 Z-0.040000 F60.000000
G1 X27.122680 Y16.067869 F200.000000
G1 X26.606472 Y15.819277 F200.000000
G1 X26.033526 F200.000000
G1 X25.517318 Y16.067869 F200.000000
G1 X25.160092 Y16.515817 F200.000000
G1 X25.049999 Y16.998165 F200.000000
G1 X24.939906 Y16.515817 F200.000000
G1 X24.582680 Y16.067869 F200.000000
G1 X24.066472 Y15.819277 F200.000000
G1 X23.493526 F200.000000
G1 X22.977318 Y16.067869 F200.000000
G1 X22.620092 Y16.515817 F200.000000
G1 X22.509999 Y16.998165 F200.000000
G1 X22.399906 Y16.515817 F200.000000
G1 X22.042680 Y16.067869 F200.000000
G1 X21.526472 Y15.819277 F200.000000
G1 X20.953526 F200.000000
G1 X20.437318 Y16.067869 F200.000000
G1 X20.080092 Y16.515817 F200.000000
G1 X19.987399 Y16.921930 F200.000000
G0 Z0.500000
G0 X24.779998 Y18.544700
G1 Z-0.040000 F60.000000
G1 X24.939906 Y18.344181 F200.000000
G1 X25.049999 Y17.861833 F200.000000
G1 X25.160092 Y18.344181 F200.000000
G1 X25.517318 Y18.792129 F200.000000
G1 X26.033526 Y19.040721 F200.000000
G1 X26.606472 F200.000000
G1 X27.122680 Y18.792129 F200.000000
G1 X27.411469 Y18.429998 F200.000000
G0 Z0.500000
G0 X19.699998 Y10.924700
G1 Z-0.040000 F60.000000
G1 X19.859906 Y10.724181 F200.000000
G1 X19.969999 Y10.241833 F200.000000
G1 X20.080092 Y10.724181 F200.000000
G1 X20.437318 Y11.172129 F200.000000
G1 X20.953526 Y11.420721 F200.000000
G1 X21.526472 F200.000000
G1 X22.042680 Y11.172129 F200.000000
G1 X22.399906 Y10.724181 F200.000000
G1 X22.509999 Y10.241833 F200.000000
G1 X22.620092 Y10.724181 F200.000000
G1 X22.977318 Y11.172129 F200.000000
G1 X23.493526 Y11.420721 F200.000000
G1 X24.066472 F200.000000
G1 X24.582680 Y11.172129 F200.000000
G1 X24.939906 Y10.724181 F200.000000
G1 X25.049999 Y10.241833 F200.000000
G1 X25.160092 Y10.724181 F200.000000
G1 X25.517318 Y11.172129 F200.000000
G1 X26.033526 Y11.420721 F200.000000
G1 X26.606472 F200.000000
G1 X27.122680 Y11.172129 F200.000000
G1 X27.479906 Y10.724181 F200.000000
G1 X27.607399 Y10.165599 F200.000000
G1 Y9.454399 F200.000000
G1 X27.479906 Y8.895817 F200.000000
G1 X27.122680 Y8.447869 F200.000000
G1 X26.753327 Y8.269998 F200.000000
G0 Z0.500000
G0 X25.886671
G1 Z-0.040000 F60.000000
G1 X25.517318 Y8.447869 F200.000000
G1 X25.160092 Y8.895817 F200.000000
G1 X25.049999 Y9.378165 F200.000000
G1 X24.939906 Y8.895817 F200.000000
G1 X24.582680 Y8.447869 F200.000000
G1 X24.213327 Y8.269998 F200.000000
G0 Z0.500000
G0 X23.346671
G1 Z-0.040000 F60.000000
G1 X22.977318 Y8.447869 F200.000000
G1 X22.620092 Y8.895817 F200.000000
G1 X22.509999 Y9.378165 F200.000000
G1 X22.399906 Y8.895817 F200.000000
G1 X22.042680 Y8.447869 F200.000000
G1 X21.673327 Y8.269998 F200.000000
G0 Z0.500000
G0 X20.806671
G1 Z-0.040000 F60.000000
G1 X20.437318 Y8.447869 F200.000000
G1 X20.080092 Y8.895817 F200.000000
G1 X19.969999 Y9.378165 F200.000000
G1 X19.859906 Y8.895817 F200.000000
G1 X19.699998 Y8.695298 F200.000000
G0 Z0.500000
G0 X17.700000 Y8.695298
G1 Z-0.040000 F60.000000
G1 X17.540092 Y8.895817 F200.000000
G1 X17.412599 Y9.454399 F200.000000
G1 Y10.165599 F200.000000
G1 X17.540092 Y10.724181 F200.000000
G1 X17.585129 Y10.780656 F200.000000
G0 Z0.500000
G0 X16.159999 Y33.669998
G1 Z-0.040000 F60.000000
G1 X15.996435 Y33.632666 F200.000000
G1 X15.829720 Y33.613881 F200.000000
G1 X15.781564 Y33.583623 F200.000000
G1 X15.726116 Y33.570967 F200.000000
G1 X15.594948 Y33.466364 F200.000000
G1 X15.452893 Y33.377105 F200.000000
G1 X14.182893 Y32.107105 F200.000000
G1 X14.093634 Y31.965050 F200.000000
G1 X13.989031 Y31.833882 F200.000000
G1 X13.976375 Y31.778434 F200.000000
G1 X13.946117 Y31.730278 F200.000000
G1 X13.927332 Y31.563563 F200.000000
G1 X13.890000 Y31.399999 F200.000000
G1 Y30.299926 F200.000000
G1 X13.730896 Y30.197676 F200.000000
G1 X13.400980 Y29.816933 F200.000000
G1 X13.191696 Y29.358666 F200.000000
G1 X13.119999 Y28.859999 F200.000000
G1 X13.164723 Y28.548935 F200.000000
G1 X9.657787 Y25.041999 F200.000000
G1 X7.277999 Y25.041999 F200.000000
G1 Y22.517999 F200.000000
G1 X9.801999 F200.000000
G1 Y22.780000 F200.000000
G1 X9.809999 F200.000000
G1 X9.973563 Y22.817332 F200.000000
G1 X10.140278 Y22.836117 F200.000000
G1 X10.188434 Y22.866375 F200.000000
G1 X10.243882 Y22.879031 F200.000000
G1 X10.375050 Y22.983634 F200.000000
G1 X10.517105 Y23.072893 F200.000000
G1 X14.571719 Y27.127507 F200.000000
G1 X14.638102 Y27.108015 F200.000000
G1 X15.141896 F200.000000
G1 X15.625284 Y27.249950 F200.000000
G1 X16.049102 Y27.522322 F200.000000
G1 X16.379018 Y27.903065 F200.000000
G1 X16.588302 Y28.361332 F200.000000
G1 X16.659999 Y28.859999 F200.000000
G1 X16.588302 Y29.358666 F200.000000
G1 X16.379018 Y29.816933 F200.000000
G1 X16.049102 Y30.197676 F200.000000
G1 X15.889998 Y30.299926 F200.000000
G1 Y30.985786 F200.000000
G1 X16.574212 Y31.670000 F200.000000
G1 X24.635786 F200.000000
G1 X31.366526 Y24.939259 F200.000000
G1 X31.445397 Y24.542752 F200.000000
G1 X31.670000 Y24.206609 F200.000000
G1 Y18.429998 F200.000000
G1 X27.411469 F200.000000
G0 Z0.500000
G0 X54.081469 Y15.160000
G1 Z-0.040000 F60.000000
G1 X58.603204 Y15.160000 F200.000000
G1 X58.950020 Y14.959766 F200.000000
G1 X59.471914 Y14.904912 F200.000000
G1 X59.970999 Y15.067075 F200.000000
G1 X60.360978 Y15.418214 F200.000000
G1 X60.574421 Y15.897614 F200.000000
G1 Y16.422384 F200.000000
G1 X60.360978 Y16.901784 F200.000000
G1 X59.970999 Y17.252923 F200.000000
G1 X59.471914 Y17.415086 F200.000000
G1 X58.950020 Y17.360232 F200.000000
G1 X58.603204 Y17.159998 F200.000000
G1 X54.081469 Y17.159998 F200.000000
G0 Z0.500000
G0 X41.289998 Y9.654700
G1 Z-0.040000 F60.000000
G1 Y11.079999 F200.000000
G1 X41.252666 Y11.243563 F200.000000
G1 X41.233881 Y11.410278 F200.000000
G1 X41.203623 Y11.458434 F200.000000
G1 X41.190967 Y11.513882 F200.000000
G1 X41.086364 Y11.645050 F200.000000
G1 X40.997105 Y11.787105 F200.000000
G1 X39.727105 Y13.057105 F200.000000
G1 X39.585050 Y13.146364 F200.000000
G1 X39.453882 Y13.250967 F200.000000
G1 X39.398434 Y13.263623 F200.000000
G1 X39.350278 Y13.293881 F200.000000
G1 X39.183563 Y13.312666 F200.000000
G1 X39.019999 Y13.349998 F200.000000
G1 X35.209999 F200.000000
G1 X35.046435 Y13.312666 F200.000000
G1 X34.879720 Y13.293881 F200.000000
G1 X34.831564 Y13.263623 F200.000000
G1 X34.776116 Y13.250967 F200.000000
G1 X34.644948 Y13.146364 F200.000000
G1 X34.502893 Y13.057105 F200.000000
G1 X33.232893 Y11.787105 F200.000000
G1 X33.143634 Y11.645050 F200.000000
G1 X33.039031 Y11.513882 F200.000000
G1 X33.026375 Y11.458434 F200.000000
G1 X32.996117 Y11.410278 F200.000000
G1 X32.977332 Y11.243563 F200.000000
G1 X32.940000 Y11.079999 F200.000000
G1 Y10.809998 F200.000000
G1 X28.859999 F200.000000
G1 X28.750151 Y10.784926 F200.000000
G1 X28.637478 F200.000000
G1 X28.535964 Y10.736039 F200.000000
G1 X28.426116 Y10.710967 F200.000000
G1 X28.338025 Y10.640717 F200.000000
G1 X28.236510 Y10.591830 F200.000000
G1 X28.166259 Y10.503739 F200.000000
G1 X28.078168 Y10.433488 F200.000000
G1 X28.029281 Y10.331973 F200.000000
G1 X27.959031 Y10.243882 F200.000000
G1 X27.933959 Y10.134034 F200.000000
G1 X27.885072 Y10.032520 F200.000000
G1 Y9.919847 F200.000000
G1 X27.860000 Y9.809999 F200.000000
G1 Y8.954212 F200.000000
G1 X27.175786 Y8.269998 F200.000000
G1 X26.753327 F200.000000
G0 Z0.500000
G0 X25.886671
G1 Z-0.040000 F60.000000
G1 X24.213327 F200.000000
G0 Z0.500000
G0 X23.346671
G1 Z-0.040000 F60.000000
G1 X21.673327 F200.000000
G0 Z0.500000
G0 X20.806671
G1 Z-0.040000 F60.000000
G1 X19.699998 F200.000000
G1 Y8.695298 F200.000000
G0 Z0.500000
G0 Y10.924700
G1 Z-0.040000 F60.000000
G1 Y11.079999 F200.000000
G1 X19.662666 Y11.243563 F200.000000
G1 X19.643881 Y11.410278 F200.000000
G1 X19.613623 Y11.458434 F200.000000
G1 X19.600967 Y11.513882 F200.000000
G1 X19.496364 Y11.645050 F200.000000
G1 X19.407105 Y11.787105 F200.000000
G1 X13.349998 Y17.844212 F200.000000
G1 Y19.555786 F200.000000
G1 X15.304212 Y21.510000 F200.000000
G1 X15.316609 F200.000000
G1 X15.652752 Y21.285397 F200.000000
G1 X16.159999 Y21.184499 F200.000000
G1 X16.667246 Y21.285397 F200.000000
G1 X17.097269 Y21.572729 F200.000000
G1 X17.384601 Y22.002752 F200.000000
G1 X17.485499 Y22.509999 F200.000000
G1 X17.384601 Y23.017246 F200.000000
G1 X17.159998 Y23.353389 F200.000000
G1 Y24.635786 F200.000000
G1 X19.614211 Y27.089999 F200.000000
G1 X21.739999 F200.000000
G1 Y30.629999 F200.000000
G1 X18.199999 F200.000000
G1 Y28.504211 F200.000000
G1 X15.452893 Y25.757105 F200.000000
G1 X15.363634 Y25.615050 F200.000000
G1 X15.259031 Y25.483882 F200.000000
G1 X15.246375 Y25.428434 F200.000000
G1 X15.216117 Y25.380278 F200.000000
G1 X15.197332 Y25.213563 F200.000000
G1 X15.160000 Y25.049999 F200.000000
G1 Y23.509998 F200.000000
G1 X14.889999 F200.000000
G1 X14.726435 Y23.472666 F200.000000
G1 X14.559720 Y23.453881 F200.000000
G1 X14.511564 Y23.423623 F200.000000
G1 X14.456116 Y23.410967 F200.000000
G1 X14.324948 Y23.306364 F200.000000
G1 X14.182893 Y23.217105 F200.000000
G1 X11.642893 Y20.677105 F200.000000
G1 X11.553634 Y20.535050 F200.000000
G1 X11.449031 Y20.403882 F200.000000
G1 X11.436375 Y20.348434 F200.000000
G1 X11.406117 Y20.300278 F200.000000
G1 X11.387332 Y20.133563 F200.000000
G1 X11.350000 Y19.969999 F200.000000
G1 Y17.429999 F200.000000
G1 X11.387332 Y17.266435 F200.000000
G1 X11.406117 Y17.099720 F200.000000
G1 X11.436375 Y17.051564 F200.000000
G1 X11.449031 Y16.996116 F200.000000
G1 X11.553634 Y16.864948 F200.000000
G1 X11.642893 Y16.722893 F200.000000
G1 X17.585129 Y10.780656 F200.000000
G0 Z0.500000
G0 X46.818529 Y9.539998
G1 Z-0.040000 F60.000000
G1 X46.461469 F200.000000
G0 Z0.500000
G0 Y7.540000
G1 Z-0.040000 F60.000000
G1 X46.818529 F200.000000
G0 Z0.500000
G0 X44.278529 Y9.539998
G1 Z-0.040000 F60.000000
G1 X43.921469 F200.000000
G0 Z0.500000
G0 Y7.540000
G1 Z-0.040000 F60.000000
G1 X44.278529 F200.000000
G0 Z0.500000
G0 X41.738529 Y9.539998
G1 Z-0.040000 F60.000000
G1 X41.381469 F200.000000
G0 Z0.500000
G0 Y7.540000
G1 Z-0.040000 F60.000000
G1 X41.738529 F200.000000
G0 Z0.500000
G0 X36.462599 Y16.286811
G1 Z-0.040000 F60.000000
G1 X36.065786 Y15.889998 F200.000000
G1 X34.939998 F200.000000
G1 Y17.429999 F200.000000
G1 X34.914926 Y17.539847 F200.000000
G1 Y17.652520 F200.000000
G1 X34.866039 Y17.754034 F200.000000
G1 X34.840967 Y17.863882 F200.000000
G1 X34.770717 Y17.951973 F200.000000
G1 X34.721830 Y18.053488 F200.000000
G1 X34.633739 Y18.123739 F200.000000
G1 X34.563488 Y18.211830 F200.000000
G0 Z0.500000
G0 X53.423327 Y17.700000
G1 Z-0.040000 F60.000000
G1 X58.603204 F200.000000
G1 X58.950020 Y17.499766 F200.000000
G1 X59.471914 Y17.444912 F200.000000
G1 X59.970999 Y17.607075 F200.000000
G1 X60.360978 Y17.958214 F200.000000
G1 X60.574421 Y18.437614 F200.000000
G1 Y18.962384 F200.000000
G1 X60.360978 Y19.441784 F200.000000
G1 X59.970999 Y19.792923 F200.000000
G1 X59.471914 Y19.955086 F200.000000
G1 X58.950020 Y19.900232 F200.000000
G1 X58.603204 Y19.699998 F200.000000
G1 X51.719999 Y19.699998 F200.000000
G1 X51.557009 Y19.662797 F200.000000
G1 X52.134212 Y20.240000 F200.000000
G1 X58.603204 Y20.240000 F200.000000
G1 X58.950020 Y20.039766 F200.000000
G1 X59.471914 Y19.984912 F200.000000
G1 X59.970999 Y20.147075 F200.000000
G1 X60.360978 Y20.498214 F200.000000
G1 X60.574421 Y20.977614 F200.000000
G1 Y21.502384 F200.000000
G1 X60.360978 Y21.981784 F200.000000
G1 X59.970999 Y22.332923 F200.000000
G1 X59.471914 Y22.495086 F200.000000
G1 X58.950020 Y22.440232 F200.000000
G1 X58.603204 Y22.239998 F200.000000
G1 X51.719999 Y22.239998 F200.000000
G1 X51.556435 Y22.202666 F200.000000
G1 X51.389720 Y22.183881 F200.000000
G1 X51.341564 Y22.153623 F200.000000
G1 X51.286116 Y22.140967 F200.000000
G1 X51.154948 Y22.036364 F200.000000
G1 X51.012893 Y21.947105 F200.000000
G1 X47.202893 Y18.137105 F200.000000
G1 X47.113634 Y17.995050 F200.000000
G1 X47.009031 Y17.863882 F200.000000
G1 X46.996375 Y17.808434 F200.000000
G1 X46.966117 Y17.760278 F200.000000
G1 X46.947332 Y17.593563 F200.000000
G1 X46.910000 Y17.429999 F200.000000
G1 Y17.274700 F200.000000
G0 Z0.500000
G0 X49.024869 Y17.130656
G1 Z-0.040000 F60.000000
G1 X49.487201 Y17.592989 F200.000000
G1 X49.450000 Y17.429999 F200.000000
G1 Y17.274700 F200.000000
G0 Z0.500000
G0 X5.292893 Y14.327105
G1 Z-0.040000 F60.000000
G1 X5.203634 Y14.185050 F200.000000
G1 X5.099031 Y14.053882 F200.000000
G1 X5.086375 Y13.998434 F200.000000
G1 X5.056117 Y13.950278 F200.000000
G1 X5.037332 Y13.783563 F200.000000
G1 X5.000000 Y13.619999 F200.000000
G1 Y8.539999 F200.000000
G1 X5.037332 Y8.376435 F200.000000
G1 X5.056117 Y8.209720 F200.000000
G1 X5.086375 Y8.161564 F200.000000
G1 X5.099031 Y8.106116 F200.000000
G1 X5.203634 Y7.974948 F200.000000
G1 X5.292893 Y7.832893 F200.000000
G1 X5.966526 Y7.159259 F200.000000
G1 X6.045397 Y6.762752 F200.000000
G1 X6.332729 Y6.332729 F200.000000
G1 X6.762752 Y6.045397 F200.000000
G1 X7.269999 Y5.944499 F200.000000
G1 X7.777246 Y6.045397 F200.000000
G1 X8.207269 Y6.332729 F200.000000
G1 X8.494601 Y6.762752 F200.000000
G1 X8.595499 Y7.269999 F200.000000
G1 X8.494601 Y7.777246 F200.000000
G1 X8.207269 Y8.207269 F200.000000
G1 X7.777246 Y8.494601 F200.000000
G1 X7.380739 Y8.573472 F200.000000
G1 X6.999998 Y8.954212 F200.000000
G1 Y13.205786 F200.000000
G1 X8.120711 Y14.326499 F200.000000
G1 X9.738499 F200.000000
G1 Y16.723499 F200.000000
G1 X9.539998 F200.000000
G1 Y20.479323 F200.000000
G1 X9.560978 Y20.498214 F200.000000
G1 X9.774421 Y20.977614 F200.000000
G1 Y21.502384 F200.000000
G1 X9.560978 Y21.981784 F200.000000
G1 X9.170999 Y22.332923 F200.000000
G1 X8.671914 Y22.495086 F200.000000
G1 X8.150020 Y22.440232 F200.000000
G1 X7.695556 Y22.177848 F200.000000
G1 X7.387105 Y21.753301 F200.000000
G1 X7.277999 Y21.239999 F200.000000
G1 X7.387105 Y20.726697 F200.000000
G1 X7.540000 Y20.516255 F200.000000
G1 Y16.723499 F200.000000
G1 X7.341499 F200.000000
G1 Y16.322601 F200.000000
G1 X7.339948 Y16.321364 F200.000000
G1 X7.197893 Y16.232105 F200.000000
G1 X5.292893 Y14.327105 F200.000000
G0 Z0.500000
G0 X31.129998 Y13.619999
G1 Z-0.040000 F60.000000
G1 Y13.619999 F200.000000
G1 Y13.619999 F200.000000
G0 Z0.500000
G0 X22.239998 Y18.544700
G1 Z-0.040000 F60.000000
G1 Y19.969999 F200.000000
G1 X22.214926 Y20.079847 F200.000000
G1 Y20.192520 F200.000000
G1 X22.166039 Y20.294034 F200.000000
G1 X22.140967 Y20.403882 F200.000000
G1 X22.070717 Y20.491973 F200.000000
G1 X22.021830 Y20.593488 F200.000000
G1 X21.933739 Y20.663739 F200.000000
G1 X21.863488 Y20.751830 F200.000000
G1 X21.761973 Y20.800717 F200.000000
G1 X21.673882 Y20.870967 F200.000000
G1 X21.564034 Y20.896039 F200.000000
G1 X21.462520 Y20.944926 F200.000000
G1 X21.349847 F200.000000
G1 X21.239999 Y20.969998 F200.000000
G1 X20.969998 F200.000000
G1 Y23.365786 F200.000000
G1 X24.194212 Y26.590000 F200.000000
G1 X25.905786 F200.000000
G1 X29.130000 Y23.365786 F200.000000
G1 Y23.353389 F200.000000
G1 X28.905397 Y23.017246 F200.000000
G1 X28.804499 Y22.509999 F200.000000
G1 X28.905397 Y22.002752 F200.000000
G1 X29.192729 Y21.572729 F200.000000
G1 X29.622752 Y21.285397 F200.000000
G1 X30.129999 Y21.184499 F200.000000
G1 X30.637246 Y21.285397 F200.000000
G1 X31.067269 Y21.572729 F200.000000
G1 X31.354601 Y22.002752 F200.000000
G1 X31.455499 Y22.509999 F200.000000
G1 X31.354601 Y23.017246 F200.000000
G1 X31.129998 Y23.353389 F200.000000
G1 Y23.779999 F200.000000
G1 X31.092666 Y23.943563 F200.000000
G1 X31.073881 Y24.110278 F200.000000
G1 X31.043623 Y24.158434 F200.000000
G1 X31.030967 Y24.213882 F200.000000
G1 X30.926364 Y24.345050 F200.000000
G1 X30.837105 Y24.487105 F200.000000
G1 X27.027105 Y28.297105 F200.000000
G1 X26.885050 Y28.386364 F200.000000
G1 X26.753882 Y28.490967 F200.000000
G1 X26.698434 Y28.503623 F200.000000
G1 X26.650278 Y28.533881 F200.000000
G1 X26.483563 Y28.552666 F200.000000
G1 X26.319999 Y28.589998 F200.000000
G1 X23.779999 F200.000000
G1 X23.616435 Y28.552666 F200.000000
G1 X23.449720 Y28.533881 F200.000000
G1 X23.401564 Y28.503623 F200.000000
G1 X23.346116 Y28.490967 F200.000000
G1 X23.214948 Y28.386364 F200.000000
G1 X23.072893 Y28.297105 F200.000000
G1 X19.262893 Y24.487105 F200.000000
G1 X19.173634 Y24.345050 F200.000000
G1 X19.069031 Y24.213882 F200.000000
G1 X19.056375 Y24.158434 F200.000000
G1 X19.026117 Y24.110278 F200.000000
G1 X19.007332 Y23.943563 F200.000000
G1 X18.970000 Y23.779999 F200.000000
G1 Y20.969998 F200.000000
G1 X17.429999 F200.000000
G0 Z0.500000
G0 X41.289998 Y17.274700
G1 Z-0.040000 F60.000000
G1 Y19.969999 F200.000000
G1 X41.264926 Y20.079847 F200.000000
G1 Y20.192520 F200.000000
G1 X41.216039 Y20.294034 F200.000000
G1 X41.190967 Y20.403882 F200.000000
G1 X41.120717 Y20.491973 F200.000000
G1 X41.071830 Y20.593488 F200.000000
G1 X40.983739 Y20.663739 F200.000000
G1 X40.913488 Y20.751830 F200.000000
G1 X40.811973 Y20.800717 F200.000000
G1 X40.723882 Y20.870967 F200.000000
G0 Z0.500000
G0 X51.564869 Y17.130656
G1 Z-0.040000 F60.000000
G1 X52.134212 Y17.700000 F200.000000
G1 X52.556671 F200.000000
G0 Z0.500000
G0 X49.450000 Y7.425298
G1 Z-0.040000 F60.000000
G1 Y5.999999 F200.000000
G1 X49.475072 Y5.890151 F200.000000
G1 Y5.777478 F200.000000
G1 X49.523959 Y5.675964 F200.000000
G1 X49.549031 Y5.566116 F200.000000
G1 X49.619281 Y5.478025 F200.000000
G1 X49.668168 Y5.376510 F200.000000
G1 X49.756259 Y5.306259 F200.000000
G1 X49.826510 Y5.218168 F200.000000
G1 X49.928025 Y5.169281 F200.000000
G1 X50.016116 Y5.099031 F200.000000
G1 X50.125964 Y5.073959 F200.000000
G1 X50.227478 Y5.025072 F200.000000
G1 X50.340151 F200.000000
G1 X50.449999 Y5.000000 F200.000000
G1 X55.529999 F200.000000
G1 X55.693563 Y5.037332 F200.000000
G1 X55.860278 Y5.056117 F200.000000
G1 X55.908434 Y5.086375 F200.000000
G1 X55.963882 Y5.099031 F200.000000
G1 X56.095050 Y5.203634 F200.000000
G1 X56.237105 Y5.292893 F200.000000
G1 X60.047105 Y9.102893 F200.000000
G1 X60.136364 Y9.244948 F200.000000
G1 X60.240967 Y9.376116 F200.000000
G1 X60.253623 Y9.431564 F200.000000
G1 X60.283881 Y9.479720 F200.000000
G1 X60.302666 Y9.646435 F200.000000
G1 X60.339998 Y9.809999 F200.000000
G1 Y9.817999 F200.000000
G1 X60.601999 F200.000000
G1 Y12.341999 F200.000000
G1 X58.077999 F200.000000
G1 Y9.962211 F200.000000
G1 X55.115786 Y6.999998 F200.000000
G1 X54.277399 F200.000000
G1 Y9.683187 F200.000000
G1 X57.214212 Y12.620000 F200.000000
G1 X58.603204 F200.000000
G1 X58.950020 Y12.419766 F200.000000
G1 X59.471914 Y12.364912 F200.000000
G1 X59.970999 Y12.527075 F200.000000
G1 X60.360978 Y12.878214 F200.000000
G1 X60.574421 Y13.357614 F200.000000
G1 Y13.882384 F200.000000
G1 X60.360978 Y14.361784 F200.000000
G1 X59.970999 Y14.712923 F200.000000
G1 X59.471914 Y14.875086 F200.000000
G1 X58.950020 Y14.820232 F200.000000
G1 X58.603204 Y14.619998 F200.000000
G1 X56.799999 F200.000000
G1 X56.636435 Y14.582666 F200.000000
G1 X56.469720 Y14.563881 F200.000000
G1 X56.421564 Y14.533623 F200.000000
G1 X56.366116 Y14.520967 F200.000000
G1 X56.234948 Y14.416364 F200.000000
G1 X56.092893 Y14.327105 F200.000000

(Goto to Initial position)
G0 Z0.500000
G0 X0.000000 Y0.000000
G0 Z0.000000
