(Generated by ./pygerber2gcode_cui_MOD.py )
( 2013-06-17 21:41:04 )
(Initialize)

(Start form here)
G0 Z0.500000
G0 X83.994999 Y47.266499
G1 Z-2.000000 F20.000000
G1 Y33.423499 F30.000000
G1 X100.060499 F30.000000
G1 X100.441499 F30.000000
G1 Y46.948999 F30.000000
G1 Y47.139499 F30.000000
G1 Y47.266499 F30.000000
G1 X83.994999 F30.000000
G1 Y46.504499 F30.000000

(Goto to Initial position)
G0 Z0.500000
G0 X0.000000 Y0.000000
G0 Z0.000000
