(Generated by ./pygerber2gcode_cui_MOD.py )
( 2013-06-17 21:41:04 )
(Initialize)

(Start form here)
G0 Z0.500000 F40.000000
G0 X94.154999 Y39.074999
G0 Z-2.000000 F40.000000 D0.635000
G0 Z0.500000
G0 X94.154999 Y36.534999
G0 Z-2.000000 F40.000000 D0.635000
G0 Z0.500000
G0 X91.614999 Y39.074999
G0 Z-2.000000 F40.000000 D0.635000
G0 Z0.500000
G0 X91.614999 Y36.534999
G0 Z-2.000000 F40.000000 D0.635000
G0 Z0.500000
G0 X97.964999 Y43.519999
G0 Z-2.000000 F40.000000 D0.812800
G0 Z0.500000
G0 X97.964999 Y35.899999
G0 Z-2.000000 F40.000000 D0.812800
G0 Z0.500000
G0 X87.804999 Y43.519999
G0 Z-2.000000 F40.000000 D0.812800
G0 Z0.500000
G0 X87.804999 Y35.899999
G0 Z-2.000000 F40.000000 D0.812800
G0 Z0.500000
G0 X95.424999 Y43.519999
G0 Z-2.000000 F40.000000 D1.016000
G0 Z0.500000
G0 X92.884999 Y43.519999
G0 Z-2.000000 F40.000000 D1.016000
G0 Z0.500000
G0 X90.344999 Y43.519999
G0 Z-2.000000 F40.000000 D1.016000
G0 Z0.500000

(Goto to Initial position)
G0 Z0.500000
G0 X0.000000 Y0.000000
G0 Z0.000000
