(Generated by ./pygerber2gcode_cui_MOD.py )
( 2013-06-17 21:41:04 )
(Initialize)

(Start form here)
G0 Z0.500000
G0 X89.273166 Y35.333670
G1 Z-0.040000 F60.000000
G1 X89.302060 Y35.351825 F200.000000
G1 X89.335329 Y35.359419 F200.000000
G1 X89.414030 Y35.422180 F200.000000
G1 X89.499263 Y35.475736 F200.000000
G1 X89.958527 Y35.935000 F200.000000
G1 X90.784531 Y35.935000 F200.000000
G1 X91.018532 Y35.670868 F200.000000
G1 X91.488436 Y35.492657 F200.000000
G1 X91.987334 Y35.553234 F200.000000
G1 X92.400934 Y35.838722 F200.000000
G1 X92.634486 Y36.283718 F200.000000
G1 Y36.786280 F200.000000
G1 X92.400934 Y37.231277 F200.000000
G1 X91.987334 Y37.516765 F200.000000
G1 X91.488436 Y37.577342 F200.000000
G1 X91.018532 Y37.399131 F200.000000
G1 X90.784531 Y37.134998 F200.000000
G1 X89.709999 F200.000000
G1 X89.611861 Y37.112599 F200.000000
G1 X89.511832 Y37.101328 F200.000000
G1 X89.482938 Y37.083173 F200.000000
G1 X89.449669 Y37.075580 F200.000000
G1 X89.370969 Y37.012818 F200.000000
G0 Z0.500000
G0 X96.626328 Y40.543166
G1 Z-0.040000 F60.000000
G1 X96.608173 Y40.572060 F200.000000
G1 X96.600580 Y40.605329 F200.000000
G1 X96.537818 Y40.684030 F200.000000
G1 X96.484263 Y40.769263 F200.000000
G1 X96.024998 Y41.228527 F200.000000
G1 Y42.557999 F200.000000
G1 X96.386999 F200.000000
G1 Y44.481999 F200.000000
G1 X94.462999 F200.000000
G1 Y42.557999 F200.000000
G1 X94.825000 F200.000000
G1 Y40.979999 F200.000000
G1 X94.847399 Y40.881861 F200.000000
G1 X94.858670 Y40.781832 F200.000000
G1 X94.876825 Y40.752938 F200.000000
G1 X94.884419 Y40.719669 F200.000000
G1 X94.947180 Y40.640969 F200.000000
G1 X95.000736 Y40.555736 F200.000000
G1 X95.460000 Y40.096471 F200.000000
G1 Y37.134998 F200.000000
G1 X94.991465 F200.000000
G1 X94.940934 Y37.231277 F200.000000
G1 X94.527334 Y37.516765 F200.000000
G1 X94.028436 Y37.577342 F200.000000
G1 X93.558532 Y37.399131 F200.000000
G1 X93.225272 Y37.022958 F200.000000
G1 X93.105001 Y36.534999 F200.000000
G1 X93.225272 Y36.047041 F200.000000
G1 X93.558532 Y35.670868 F200.000000
G1 X94.028436 Y35.492657 F200.000000
G1 X94.527334 Y35.553234 F200.000000
G1 X94.940934 Y35.838722 F200.000000
G1 X94.991465 Y35.935000 F200.000000
G1 X95.811471 F200.000000
G1 X96.270736 Y35.475736 F200.000000
G1 X96.355969 Y35.422180 F200.000000
G1 X96.434669 Y35.359419 F200.000000
G1 X96.467938 Y35.351825 F200.000000
G1 X96.496832 Y35.333670 F200.000000
G1 X96.596861 Y35.322399 F200.000000
G1 X96.694999 Y35.300000 F200.000000
G1 X97.164139 F200.000000
G1 X97.452249 Y35.011890 F200.000000
G1 X97.964999 Y34.874499 F200.000000
G1 X98.477749 Y35.011890 F200.000000
G1 X98.853108 Y35.387249 F200.000000
G1 X98.990499 Y35.899999 F200.000000
G1 X98.853108 Y36.412749 F200.000000
G1 X98.477749 Y36.788108 F200.000000
G1 X97.964999 Y36.925499 F200.000000
G1 X97.452249 Y36.788108 F200.000000
G1 X97.164139 Y36.499998 F200.000000
G1 X96.943527 F200.000000
G1 X96.659998 Y36.783527 F200.000000
G1 Y40.344999 F200.000000
G1 X96.637599 Y40.443137 F200.000000
G1 X96.626328 Y40.543166 F200.000000
G0 Z0.500000
G0 X89.370969 Y37.012818
G1 Z-0.040000 F60.000000
G1 X89.285736 Y36.959263 F200.000000
G1 X88.826471 Y36.499998 F200.000000
G1 X88.605859 Y36.499998 F200.000000
G1 X88.317749 Y36.788108 F200.000000
G1 X87.804999 Y36.925499 F200.000000
G1 X87.292249 Y36.788108 F200.000000
G1 X86.916890 Y36.412749 F200.000000
G1 X86.779499 Y35.899999 F200.000000
G1 X86.916890 Y35.387249 F200.000000
G1 X87.292249 Y35.011890 F200.000000
G1 X87.804999 Y34.874499 F200.000000
G1 X88.317749 Y35.011890 F200.000000
G1 X88.605859 Y35.300000 F200.000000
G1 X89.074999 F200.000000
G1 X89.173137 Y35.322399 F200.000000
G1 X89.273166 Y35.333670 F200.000000
G0 Z0.500000
G0 X89.285736 Y40.555736
G1 Z-0.040000 F60.000000
G1 X89.370969 Y40.502180 F200.000000
G1 X89.449669 Y40.439419 F200.000000
G1 X89.482938 Y40.431825 F200.000000
G1 X89.511832 Y40.413670 F200.000000
G1 X89.611861 Y40.402399 F200.000000
G1 X89.709999 Y40.380000 F200.000000
G1 X92.636471 F200.000000
G1 X93.332490 Y39.683982 F200.000000
G1 X93.225272 Y39.562958 F200.000000
G1 X93.105001 Y39.074999 F200.000000
G1 X93.225272 Y38.587041 F200.000000
G1 X93.558532 Y38.210868 F200.000000
G1 X94.028436 Y38.032657 F200.000000
G1 X94.527334 Y38.093234 F200.000000
G1 X94.940934 Y38.378722 F200.000000
G1 X95.174486 Y38.823718 F200.000000
G1 Y39.326280 F200.000000
G1 X94.940934 Y39.771277 F200.000000
G1 X94.705025 Y39.934113 F200.000000
G1 X94.703173 Y39.937060 F200.000000
G1 X94.695580 Y39.970329 F200.000000
G1 X94.632818 Y40.049030 F200.000000
G1 X94.579263 Y40.134263 F200.000000
G1 X93.484998 Y41.228527 F200.000000
G1 Y42.805882 F200.000000
G1 X93.718116 Y43.038999 F200.000000
G1 X93.846999 Y43.519999 F200.000000
G1 X93.718116 Y44.000999 F200.000000
G1 X93.365999 Y44.353116 F200.000000
G1 X92.884999 Y44.481999 F200.000000
G1 X92.403999 Y44.353116 F200.000000
G1 X92.051883 Y44.000999 F200.000000
G1 X91.922999 Y43.519999 F200.000000
G1 X92.051883 Y43.038999 F200.000000
G1 X92.285000 Y42.805882 F200.000000
G1 Y41.579998 F200.000000
G1 X89.958527 F200.000000
G1 X88.612192 Y42.926333 F200.000000
G1 X88.693108 Y43.007249 F200.000000
G1 X88.830499 Y43.519999 F200.000000
G1 X88.693108 Y44.032749 F200.000000
G1 X88.317749 Y44.408108 F200.000000
G1 X87.804999 Y44.545499 F200.000000
G1 X87.292249 Y44.408108 F200.000000
G1 X86.916890 Y44.032749 F200.000000
G1 X86.779499 Y43.519999 F200.000000
G1 X86.916890 Y43.007249 F200.000000
G1 X87.240974 Y42.683166 F200.000000
G1 X87.256825 Y42.657938 F200.000000
G1 X87.264419 Y42.624669 F200.000000
G1 X87.327180 Y42.545969 F200.000000
G1 X87.380736 Y42.460736 F200.000000
G1 X89.285736 Y40.555736 F200.000000
G0 Z0.500000
G0 X96.893166 Y45.991328
G1 Z-0.040000 F60.000000
G1 X96.793137 Y46.002599 F200.000000
G1 X96.694999 Y46.024998 F200.000000
G1 X90.979999 F200.000000
G1 X90.881861 Y46.002599 F200.000000
G1 X90.781832 Y45.991328 F200.000000
G1 X90.752938 Y45.973173 F200.000000
G1 X90.719669 Y45.965580 F200.000000
G1 X90.640969 Y45.902818 F200.000000
G1 X90.555736 Y45.849263 F200.000000
G1 X90.344999 Y45.638526 F200.000000
G1 X90.134263 Y45.849263 F200.000000
G1 X90.049030 Y45.902818 F200.000000
G1 X89.970329 Y45.965580 F200.000000
G1 X89.937060 Y45.973173 F200.000000
G1 X89.908166 Y45.991328 F200.000000
G1 X89.808137 Y46.002599 F200.000000
G1 X89.709999 Y46.024998 F200.000000
G1 X87.169999 F200.000000
G1 X87.071861 Y46.002599 F200.000000
G1 X86.971832 Y45.991328 F200.000000
G1 X86.942938 Y45.973173 F200.000000
G1 X86.909669 Y45.965580 F200.000000
G1 X86.830969 Y45.902818 F200.000000
G1 X86.745736 Y45.849263 F200.000000
G1 X85.475736 Y44.579263 F200.000000
G1 X85.422180 Y44.494030 F200.000000
G1 X85.359419 Y44.415329 F200.000000
G1 X85.351825 Y44.382060 F200.000000
G1 X85.333670 Y44.353166 F200.000000
G1 X85.322399 Y44.253137 F200.000000
G1 X85.300000 Y44.154999 F200.000000
G1 Y42.249999 F200.000000
G1 X85.322399 Y42.151861 F200.000000
G1 X85.333670 Y42.051832 F200.000000
G1 X85.351825 Y42.022938 F200.000000
G1 X85.359419 Y41.989669 F200.000000
G1 X85.422180 Y41.910969 F200.000000
G1 X85.475736 Y41.825736 F200.000000
G1 X88.650736 Y38.650736 F200.000000
G1 X88.735969 Y38.597180 F200.000000
G1 X88.814669 Y38.534419 F200.000000
G1 X88.847938 Y38.526825 F200.000000
G1 X88.876832 Y38.508670 F200.000000
G1 X88.976861 Y38.497399 F200.000000
G1 X89.074999 Y38.475000 F200.000000
G1 X90.784531 F200.000000
G1 X91.018532 Y38.210868 F200.000000
G1 X91.488436 Y38.032657 F200.000000
G1 X91.987334 Y38.093234 F200.000000
G1 X92.400934 Y38.378722 F200.000000
G1 X92.634486 Y38.823718 F200.000000
G1 Y39.326280 F200.000000
G1 X92.400934 Y39.771277 F200.000000
G1 X91.987334 Y40.056765 F200.000000
G1 X91.488436 Y40.117342 F200.000000
G1 X91.018532 Y39.939131 F200.000000
G1 X90.784531 Y39.674998 F200.000000
G1 X89.323527 F200.000000
G1 X86.499998 Y42.498527 F200.000000
G1 Y43.906471 F200.000000
G1 X87.418527 Y44.825000 F200.000000
G1 X89.461471 F200.000000
G1 X89.745000 Y44.541471 F200.000000
G1 Y44.234116 F200.000000
G1 X89.511883 Y44.000999 F200.000000
G1 X89.382999 Y43.519999 F200.000000
G1 X89.511883 Y43.038999 F200.000000
G1 X89.863999 Y42.686883 F200.000000
G1 X90.344999 Y42.557999 F200.000000
G1 X90.825999 Y42.686883 F200.000000
G1 X91.178116 Y43.038999 F200.000000
G1 X91.306999 Y43.519999 F200.000000
G1 X91.178116 Y44.000999 F200.000000
G1 X90.944998 Y44.234116 F200.000000
G1 Y44.541471 F200.000000
G1 X91.228527 Y44.825000 F200.000000
G1 X96.446471 F200.000000
G1 X97.157806 Y44.113665 F200.000000
G1 X97.076890 Y44.032749 F200.000000
G1 X96.939499 Y43.519999 F200.000000
G1 X97.076890 Y43.007249 F200.000000
G1 X97.452249 Y42.631890 F200.000000
G1 X97.964999 Y42.494499 F200.000000
G1 X98.477749 Y42.631890 F200.000000
G1 X98.853108 Y43.007249 F200.000000
G1 X98.990499 Y43.519999 F200.000000
G1 X98.853108 Y44.032749 F200.000000
G1 X98.529025 Y44.356833 F200.000000
G1 X98.513173 Y44.382060 F200.000000
G1 X98.505580 Y44.415329 F200.000000
G1 X98.442818 Y44.494030 F200.000000
G1 X98.389263 Y44.579263 F200.000000
G1 X97.119263 Y45.849263 F200.000000
G1 X97.034030 Y45.902818 F200.000000
G1 X96.955329 Y45.965580 F200.000000
G1 X96.922060 Y45.973173 F200.000000
G1 X96.893166 Y45.991328 F200.000000

(Goto to Initial position)
G0 Z0.500000
G0 X0.000000 Y0.000000
G0 Z0.000000
