(Generated by ./pygerber2gcode_cui_MOD.py )
( 2013-06-17 21:41:04 )
(Initialize)

(Start form here)
G0 Z0.500000
G0 X89.306194 Y35.239282
G1 Z-0.040000 F60.000000
G1 X89.339904 Y35.260463 F200.000000
G1 X89.378717 Y35.269322 F200.000000
G1 X89.470535 Y35.342544 F200.000000
G1 X89.569973 Y35.405025 F200.000000
G1 X89.999948 Y35.835000 F200.000000
G1 X90.739206 F200.000000
G1 X90.897987 Y35.635894 F200.000000
G1 X91.359101 Y35.413834 F200.000000
G1 X91.870898 F200.000000
G1 X92.332011 Y35.635894 F200.000000
G1 X92.651112 Y36.036034 F200.000000
G1 X92.764997 Y36.534999 F200.000000
G1 X92.651112 Y37.033965 F200.000000
G1 X92.332011 Y37.434104 F200.000000
G1 X91.870898 Y37.656165 F200.000000
G1 X91.359101 F200.000000
G1 X90.897987 Y37.434104 F200.000000
G1 X90.739206 Y37.234998 F200.000000
G1 X89.709999 Y37.234998 F200.000000
G1 X89.595505 Y37.208866 F200.000000
G1 X89.478804 Y37.195717 F200.000000
G1 X89.445095 Y37.174536 F200.000000
G1 X89.406281 Y37.165677 F200.000000
G1 X89.314463 Y37.092455 F200.000000
G0 Z0.500000
G0 X96.720717 Y40.576194
G1 Z-0.040000 F60.000000
G1 X96.699536 Y40.609904 F200.000000
G1 X96.690677 Y40.648717 F200.000000
G1 X96.617455 Y40.740535 F200.000000
G1 X96.554973 Y40.839973 F200.000000
G1 X96.124998 Y41.269948 F200.000000
G1 Y42.457999 F200.000000
G1 X96.486999 F200.000000
G1 Y44.581999 F200.000000
G1 X94.362999 F200.000000
G1 Y42.457999 F200.000000
G1 X94.725000 F200.000000
G1 Y40.979999 F200.000000
G1 X94.751133 Y40.865505 F200.000000
G1 X94.764282 Y40.748804 F200.000000
G1 X94.785463 Y40.715095 F200.000000
G1 X94.794322 Y40.676281 F200.000000
G1 X94.867544 Y40.584463 F200.000000
G1 X94.930025 Y40.485025 F200.000000
G1 X95.360000 Y40.055050 F200.000000
G1 Y37.234998 F200.000000
G1 X95.030793 F200.000000
G1 X94.872011 Y37.434104 F200.000000
G1 X94.410898 Y37.656165 F200.000000
G1 X93.899101 F200.000000
G1 X93.437987 Y37.434104 F200.000000
G1 X93.118887 Y37.033965 F200.000000
G1 X93.005001 Y36.534999 F200.000000
G1 X93.118887 Y36.036034 F200.000000
G1 X93.437987 Y35.635894 F200.000000
G1 X93.899101 Y35.413834 F200.000000
G1 X94.410898 F200.000000
G1 X94.872011 Y35.635894 F200.000000
G1 X95.030793 Y35.835000 F200.000000
G1 X95.770050 Y35.835000 F200.000000
G1 X96.200025 Y35.405025 F200.000000
G1 X96.299463 Y35.342544 F200.000000
G1 X96.391281 Y35.269322 F200.000000
G1 X96.430095 Y35.260463 F200.000000
G1 X96.463804 Y35.239282 F200.000000
G1 X96.580505 Y35.226133 F200.000000
G1 X96.694999 Y35.200000 F200.000000
G1 X97.119754 F200.000000
G1 X97.263261 Y35.020048 F200.000000
G1 X97.714552 Y34.802718 F200.000000
G1 X98.215447 F200.000000
G1 X98.666737 Y35.020048 F200.000000
G1 X98.979040 Y35.411663 F200.000000
G1 X99.090499 Y35.899999 F200.000000
G1 X98.979040 Y36.388335 F200.000000
G1 X98.666737 Y36.779951 F200.000000
G1 X98.215447 Y36.997281 F200.000000
G1 X97.714552 F200.000000
G1 X97.263261 Y36.779951 F200.000000
G1 X97.119754 Y36.599998 F200.000000
G1 X96.984948 F200.000000
G1 X96.759998 Y36.824948 F200.000000
G1 Y40.344999 F200.000000
G1 X96.733866 Y40.459494 F200.000000
G1 X96.720717 Y40.576194 F200.000000
G0 Z0.500000
G0 X89.314463 Y37.092455
G1 Z-0.040000 F60.000000
G1 X89.215025 Y37.029973 F200.000000
G1 X88.785050 Y36.599998 F200.000000
G1 X88.650244 F200.000000
G1 X88.506737 Y36.779951 F200.000000
G1 X88.055447 Y36.997281 F200.000000
G1 X87.554552 F200.000000
G1 X87.103261 Y36.779951 F200.000000
G1 X86.790959 Y36.388335 F200.000000
G1 X86.679499 Y35.899999 F200.000000
G1 X86.790959 Y35.411663 F200.000000
G1 X87.103261 Y35.020048 F200.000000
G1 X87.554552 Y34.802718 F200.000000
G1 X88.055447 F200.000000
G1 X88.506737 Y35.020048 F200.000000
G1 X88.650244 Y35.200000 F200.000000
G1 X89.074999 F200.000000
G1 X89.189494 Y35.226133 F200.000000
G1 X89.306194 Y35.239282 F200.000000
G0 Z0.500000
G0 X85.405025 Y44.649973
G1 Z-0.040000 F60.000000
G1 X85.342544 Y44.550535 F200.000000
G1 X85.269322 Y44.458717 F200.000000
G1 X85.260463 Y44.419904 F200.000000
G1 X85.239282 Y44.386194 F200.000000
G1 X85.226133 Y44.269494 F200.000000
G1 X85.200000 Y44.154999 F200.000000
G1 Y42.249999 F200.000000
G1 X85.226133 Y42.135505 F200.000000
G1 X85.239282 Y42.018804 F200.000000
G1 X85.260463 Y41.985095 F200.000000
G1 X85.269322 Y41.946281 F200.000000
G1 X85.342544 Y41.854463 F200.000000
G1 X85.405025 Y41.755025 F200.000000
G1 X88.580025 Y38.580025 F200.000000
G1 X88.679463 Y38.517544 F200.000000
G1 X88.771281 Y38.444322 F200.000000
G1 X88.810095 Y38.435463 F200.000000
G1 X88.843804 Y38.414282 F200.000000
G1 X88.960505 Y38.401133 F200.000000
G1 X89.074999 Y38.375000 F200.000000
G1 X90.739206 F200.000000
G1 X90.897987 Y38.175894 F200.000000
G1 X91.359101 Y37.953834 F200.000000
G1 X91.870898 F200.000000
G1 X92.332011 Y38.175894 F200.000000
G1 X92.651112 Y38.576034 F200.000000
G1 X92.764997 Y39.074999 F200.000000
G1 X92.651112 Y39.573965 F200.000000
G1 X92.332011 Y39.974104 F200.000000
G1 X91.870898 Y40.196165 F200.000000
G1 X91.359101 F200.000000
G1 X90.897987 Y39.974104 F200.000000
G1 X90.739206 Y39.774998 F200.000000
G1 X89.364948 F200.000000
G1 X86.599998 Y42.539948 F200.000000
G1 Y43.865050 F200.000000
G1 X86.978685 Y44.243737 F200.000000
G1 X86.790959 Y44.008335 F200.000000
G1 X86.679499 Y43.519999 F200.000000
G1 X86.790959 Y43.031663 F200.000000
G1 X87.103261 Y42.640048 F200.000000
G1 X87.168027 Y42.608858 F200.000000
G1 X87.174322 Y42.581281 F200.000000
G1 X87.247544 Y42.489463 F200.000000
G1 X87.310025 Y42.390025 F200.000000
G1 X89.215025 Y40.485025 F200.000000
G1 X89.314463 Y40.422544 F200.000000
G1 X89.406281 Y40.349322 F200.000000
G1 X89.445095 Y40.340463 F200.000000
G1 X89.478804 Y40.319282 F200.000000
G1 X89.595505 Y40.306133 F200.000000
G1 X89.709999 Y40.280000 F200.000000
G1 X92.595050 F200.000000
G1 X93.199721 Y39.675329 F200.000000
G1 X93.118887 Y39.573965 F200.000000
G1 X93.005001 Y39.074999 F200.000000
G1 X93.118887 Y38.576034 F200.000000
G1 X93.437987 Y38.175894 F200.000000
G1 X93.899101 Y37.953834 F200.000000
G1 X94.410898 F200.000000
G1 X94.872011 Y38.175894 F200.000000
G1 X95.191112 Y38.576034 F200.000000
G1 X95.304998 Y39.074999 F200.000000
G1 X95.191112 Y39.573965 F200.000000
G1 X94.872011 Y39.974104 F200.000000
G1 X94.783135 Y40.016905 F200.000000
G1 X94.712455 Y40.105535 F200.000000
G1 X94.649973 Y40.204973 F200.000000
G1 X93.584998 Y41.269948 F200.000000
G1 Y42.750245 F200.000000
G1 X93.679918 Y42.815763 F200.000000
G1 X93.916139 Y43.265846 F200.000000
G1 Y43.774152 F200.000000
G1 X93.679918 Y44.224235 F200.000000
G1 X93.261590 Y44.512986 F200.000000
G1 X92.756989 Y44.574256 F200.000000
G1 X92.281714 Y44.394008 F200.000000
G1 X91.944645 Y44.013535 F200.000000
G1 X91.822999 Y43.519999 F200.000000
G1 X91.944645 Y43.026463 F200.000000
G1 X92.185000 Y42.755158 F200.000000
G1 Y41.679998 F200.000000
G1 X89.999948 F200.000000
G1 X88.743281 Y42.936665 F200.000000
G1 X88.819040 Y43.031663 F200.000000
G1 X88.930499 Y43.519999 F200.000000
G1 X88.819040 Y44.008335 F200.000000
G1 X88.506737 Y44.399951 F200.000000
G1 X88.055447 Y44.617281 F200.000000
G1 X87.554552 F200.000000
G1 X87.164288 Y44.429339 F200.000000
G1 X87.459948 Y44.725000 F200.000000
G1 X89.420050 Y44.725000 F200.000000
G1 X89.645000 Y44.500050 F200.000000
G1 Y44.284840 F200.000000
G1 X89.404645 Y44.013535 F200.000000
G1 X89.282999 Y43.519999 F200.000000
G1 X89.404645 Y43.026463 F200.000000
G1 X89.741714 Y42.645990 F200.000000
G1 X90.216989 Y42.465742 F200.000000
G1 X90.721590 Y42.527012 F200.000000
G1 X91.139918 Y42.815763 F200.000000
G1 X91.376139 Y43.265846 F200.000000
G1 Y43.774152 F200.000000
G1 X91.139918 Y44.224235 F200.000000
G1 X91.044998 Y44.289753 F200.000000
G1 Y44.500050 F200.000000
G1 X91.269948 Y44.725000 F200.000000
G1 X96.405050 F200.000000
G1 X97.026717 Y44.103333 F200.000000
G1 X96.950959 Y44.008335 F200.000000
G1 X96.839499 Y43.519999 F200.000000
G1 X96.950959 Y43.031663 F200.000000
G1 X97.263261 Y42.640048 F200.000000
G1 X97.714552 Y42.422718 F200.000000
G1 X98.215447 F200.000000
G1 X98.666737 Y42.640048 F200.000000
G1 X98.979040 Y43.031663 F200.000000
G1 X99.090499 Y43.519999 F200.000000
G1 X98.979040 Y44.008335 F200.000000
G1 X98.666737 Y44.399951 F200.000000
G1 X98.601971 Y44.431140 F200.000000
G1 X98.595677 Y44.458717 F200.000000
G1 X98.522455 Y44.550535 F200.000000
G1 X98.459973 Y44.649973 F200.000000
G1 X97.189973 Y45.919973 F200.000000
G1 X97.090535 Y45.982455 F200.000000
G1 X96.998717 Y46.055677 F200.000000
G1 X96.959904 Y46.064536 F200.000000
G1 X96.926194 Y46.085717 F200.000000
G1 X96.809494 Y46.098866 F200.000000
G1 X96.694999 Y46.124998 F200.000000
G1 X90.979999 F200.000000
G1 X90.865505 Y46.098866 F200.000000
G1 X90.748804 Y46.085717 F200.000000
G1 X90.715095 Y46.064536 F200.000000
G1 X90.676281 Y46.055677 F200.000000
G1 X90.584463 Y45.982455 F200.000000
G1 X90.485025 Y45.919973 F200.000000
G1 X90.344999 Y45.779948 F200.000000
G1 X90.204973 Y45.919973 F200.000000
G1 X90.105535 Y45.982455 F200.000000
G1 X90.013717 Y46.055677 F200.000000
G1 X89.974904 Y46.064536 F200.000000
G1 X89.941194 Y46.085717 F200.000000
G1 X89.824494 Y46.098866 F200.000000
G1 X89.709999 Y46.124998 F200.000000
G1 X87.169999 F200.000000
G1 X87.055505 Y46.098866 F200.000000
G1 X86.938804 Y46.085717 F200.000000
G1 X86.905095 Y46.064536 F200.000000
G1 X86.866281 Y46.055677 F200.000000
G1 X86.774463 Y45.982455 F200.000000
G1 X86.675025 Y45.919973 F200.000000
G1 X85.405025 Y44.649973 F200.000000

(Goto to Initial position)
G0 Z0.500000
G0 X0.000000 Y0.000000
G0 Z0.000000
