(Generated by ./pygerber2gcode_cui_MOD.py )
( 2013-10-19 10:59:36 )
(Initialize)

(Start form here)
G0 Z0.500000
G0 X79.682330 Y49.848568
G1 Z-0.040000 F60.000000
G1 X79.595387 Y49.986937 F200.000000
G1 X79.509763 Y50.126126 F200.000000
G1 X79.506690 Y50.128098 F200.000000
G1 X79.504748 Y50.131189 F200.000000
G1 X79.416273 Y50.219664 F200.000000
G1 X79.417791 Y50.220647 F200.000000
G1 X79.511771 Y50.317167 F200.000000
G1 X79.597941 Y50.458452 F200.000000
G1 X79.684652 Y50.599407 F200.000000
G1 X79.781172 Y50.883887 F200.000000
G1 X79.793714 Y51.005584 F200.000000
G1 X79.820938 Y51.124859 F200.000000
G1 Y51.315359 F200.000000
G1 X79.793934 Y51.433669 F200.000000
G1 X79.781819 Y51.554416 F200.000000
G1 X79.685299 Y51.841436 F200.000000
G1 X79.682855 Y51.845433 F200.000000
G1 X79.682330 Y51.850088 F200.000000
G1 X79.595912 Y51.987623 F200.000000
G1 X79.511177 Y52.126201 F200.000000
G1 X79.507241 Y52.128742 F200.000000
G1 X79.504748 Y52.132709 F200.000000
G1 X79.314248 Y52.323209 F200.000000
G1 X79.210658 Y52.388299 F200.000000
G1 X79.115736 Y52.465483 F200.000000
G1 X78.925236 Y52.559463 F200.000000
G1 X78.848156 Y52.577828 F200.000000
G1 X78.777600 Y52.613892 F200.000000
G1 X78.396600 Y52.710412 F200.000000
G1 X78.303353 Y52.712623 F200.000000
G1 X78.212418 Y52.733379 F200.000000
G1 X77.927938 F200.000000
G1 X77.837004 Y52.712623 F200.000000
G1 X77.743757 Y52.710412 F200.000000
G1 X77.362757 Y52.613892 F200.000000
G1 X77.292201 Y52.577828 F200.000000
G1 X77.215120 Y52.559463 F200.000000
G1 X77.024620 Y52.465483 F200.000000
G1 X76.929699 Y52.388299 F200.000000
G1 X76.826109 Y52.323209 F200.000000
G1 X76.635609 Y52.132709 F200.000000
G1 X76.633116 Y52.128742 F200.000000
G1 X76.629180 Y52.126201 F200.000000
G1 X76.544445 Y51.987623 F200.000000
G1 X76.458026 Y51.850088 F200.000000
G1 X76.457502 Y51.845433 F200.000000
G1 X76.455058 Y51.841436 F200.000000
G1 X76.358538 Y51.554416 F200.000000
G1 X76.346423 Y51.433669 F200.000000
G1 X76.319419 Y51.315359 F200.000000
G1 Y51.124859 F200.000000
G1 X76.346643 Y51.005584 F200.000000
G1 X76.359185 Y50.883887 F200.000000
G1 X76.455705 Y50.599407 F200.000000
G1 X76.542415 Y50.458452 F200.000000
G1 X76.628585 Y50.317167 F200.000000
G1 X76.722565 Y50.220647 F200.000000
G1 X76.724084 Y50.219664 F200.000000
G1 X76.635609 Y50.131189 F200.000000
G1 X76.633666 Y50.128098 F200.000000
G1 X76.630594 Y50.126126 F200.000000
G1 X76.544969 Y49.986937 F200.000000
G1 X76.458026 Y49.848568 F200.000000
G1 X76.457618 Y49.844940 F200.000000
G1 X76.455705 Y49.841831 F200.000000
G1 X76.359185 Y49.557351 F200.000000
G1 X76.346643 Y49.435654 F200.000000
G1 X76.319419 Y49.316379 F200.000000
G1 Y49.125879 F200.000000
G1 X76.346423 Y49.007569 F200.000000
G1 X76.358538 Y48.886822 F200.000000
G1 X76.455058 Y48.599802 F200.000000
G1 X76.457502 Y48.595805 F200.000000
G1 X76.458026 Y48.591150 F200.000000
G1 X76.544445 Y48.453615 F200.000000
G1 X76.570583 Y48.410869 F200.000000
G1 X76.455058 Y48.221936 F200.000000
G1 X76.358538 Y47.934916 F200.000000
G1 X76.346423 Y47.814169 F200.000000
G1 X76.319419 Y47.695859 F200.000000
G1 Y47.220879 F200.000000
G1 X76.321141 Y47.213333 F200.000000
G1 X76.319571 Y47.205754 F200.000000
G1 X76.358196 Y47.050984 F200.000000
G1 X76.393692 Y46.895466 F200.000000
G1 X76.398518 Y46.889415 F200.000000
G1 X76.400392 Y46.881906 F200.000000
G1 X76.496912 Y46.691406 F200.000000
G1 X76.569472 Y46.604091 F200.000000
G1 X76.628585 Y46.507167 F200.000000
G1 X76.722565 Y46.410647 F200.000000
G1 X76.829384 Y46.341525 F200.000000
G1 X76.928100 Y46.261255 F200.000000
G1 X77.118600 Y46.167275 F200.000000
G1 X77.122152 Y46.166429 F200.000000
G1 X77.125006 Y46.164153 F200.000000
G1 X77.284326 Y46.127789 F200.000000
G1 X77.443293 Y46.089913 F200.000000
G1 X77.446859 Y46.090692 F200.000000
G1 X77.450418 Y46.089880 F200.000000
G1 X77.640918 F200.000000
G1 X77.644478 Y46.090692 F200.000000
G1 X77.648044 Y46.089913 F200.000000
G1 X77.807011 Y46.127789 F200.000000
G1 X77.966331 Y46.164153 F200.000000
G1 X77.969185 Y46.166429 F200.000000
G1 X77.972736 Y46.167275 F200.000000
G1 X78.163236 Y46.261255 F200.000000
G1 X78.258158 Y46.338439 F200.000000
G1 X78.361748 Y46.403529 F200.000000
G1 X78.368364 Y46.410145 F200.000000
G1 X78.581446 Y46.201074 F200.000000
G1 X78.897530 Y46.093831 F200.000000
G1 X79.228842 Y46.134352 F200.000000
G1 X79.509763 Y46.314612 F200.000000
G1 X79.684652 Y46.598907 F200.000000
G0 Z0.500000
G0 X78.144464 Y50.731859
G1 Z-0.040000 F60.000000
G1 X77.995892 Y50.731859 F200.000000
G1 X77.971070 Y50.982108 F200.000000
G1 X77.845073 Y51.188695 F200.000000
G1 X78.021461 Y51.233380 F200.000000
G1 X78.118896 F200.000000
G1 X78.295284 Y51.188695 F200.000000
G1 X78.169287 Y50.982108 F200.000000
G1 X78.144464 Y50.731859 F200.000000
G0 Z0.500000
G0 X79.684652 Y46.598907
G1 Z-0.040000 F60.000000
G1 X79.781172 Y46.883387 F200.000000
G1 X79.793714 Y47.005084 F200.000000
G1 X79.820938 Y47.124359 F200.000000
G1 Y47.601879 F200.000000
G1 X79.819216 Y47.609425 F200.000000
G1 X79.820785 Y47.617004 F200.000000
G1 X79.782161 Y47.771774 F200.000000
G1 X79.746665 Y47.927292 F200.000000
G1 X79.741839 Y47.933343 F200.000000
G1 X79.739965 Y47.940852 F200.000000
G1 X79.643445 Y48.131352 F200.000000
G1 X79.567755 Y48.222434 F200.000000
G1 X79.504748 Y48.322709 F200.000000
G1 X79.500084 Y48.327372 F200.000000
G1 X79.643445 Y48.499886 F200.000000
G1 X79.739965 Y48.690386 F200.000000
G1 X79.741839 Y48.697895 F200.000000
G1 X79.746665 Y48.703946 F200.000000
G1 X79.782161 Y48.859464 F200.000000
G1 X79.820785 Y49.014234 F200.000000
G1 X79.819216 Y49.021813 F200.000000
G1 X79.820938 Y49.029359 F200.000000
G1 Y49.316379 F200.000000
G1 X79.793714 Y49.435654 F200.000000
G1 X79.781172 Y49.557351 F200.000000
G1 X79.684652 Y49.841831 F200.000000
G1 X79.682739 Y49.844940 F200.000000
G1 X79.682330 Y49.848568 F200.000000
G0 Z0.500000
G0 X79.818086 Y40.237727
G1 Z-0.040000 F60.000000
G1 X79.802134 Y40.287245 F200.000000
G1 Y40.339270 F200.000000
G1 X79.751514 Y40.444383 F200.000000
G1 X79.715742 Y40.555430 F200.000000
G1 X79.679884 Y40.593124 F200.000000
G1 X79.657312 Y40.639996 F200.000000
G1 X79.566098 Y40.712737 F200.000000
G1 X79.485686 Y40.797266 F200.000000
G1 X79.261188 Y40.946269 F200.000000
G1 X79.211265 Y40.996192 F200.000000
G1 X79.200515 Y41.017983 F200.000000
G1 X79.212256 Y41.023775 F200.000000
G1 X79.310973 Y41.104045 F200.000000
G1 X79.417791 Y41.173167 F200.000000
G1 X79.511771 Y41.269687 F200.000000
G1 X79.570885 Y41.366611 F200.000000
G1 X79.643445 Y41.453926 F200.000000
G1 X79.739965 Y41.644426 F200.000000
G1 X79.741839 Y41.651935 F200.000000
G1 X79.746665 Y41.657986 F200.000000
G1 X79.782161 Y41.813504 F200.000000
G1 X79.820785 Y41.968274 F200.000000
G1 X79.819216 Y41.975853 F200.000000
G1 X79.820938 Y41.983399 F200.000000
G1 Y42.173899 F200.000000
G1 X79.819216 Y42.181445 F200.000000
G1 X79.820785 Y42.189024 F200.000000
G1 X79.782161 Y42.343794 F200.000000
G1 X79.746665 Y42.499312 F200.000000
G1 X79.741839 Y42.505363 F200.000000
G1 X79.739965 Y42.512872 F200.000000
G1 X79.643445 Y42.703372 F200.000000
G1 X79.567755 Y42.794454 F200.000000
G1 X79.504748 Y42.894729 F200.000000
G1 X79.416588 Y42.982889 F200.000000
G1 X79.504748 Y43.071049 F200.000000
G1 X79.567755 Y43.171324 F200.000000
G1 X79.643445 Y43.262406 F200.000000
G1 X79.739965 Y43.452906 F200.000000
G1 X79.741839 Y43.460415 F200.000000
G1 X79.746665 Y43.466466 F200.000000
G1 X79.782161 Y43.621984 F200.000000
G1 X79.820785 Y43.776754 F200.000000
G1 X79.819216 Y43.784333 F200.000000
G1 X79.820938 Y43.791879 F200.000000
G1 Y44.269399 F200.000000
G1 X79.819216 Y44.276945 F200.000000
G1 X79.820785 Y44.284524 F200.000000
G1 X79.782161 Y44.439294 F200.000000
G1 X79.746665 Y44.594812 F200.000000
G1 X79.741839 Y44.600863 F200.000000
G1 X79.739965 Y44.608372 F200.000000
G1 X79.643445 Y44.798872 F200.000000
G1 X79.567755 Y44.889954 F200.000000
G1 X79.504748 Y44.990229 F200.000000
G1 X79.410768 Y45.084209 F200.000000
G1 X79.128148 Y45.261791 F200.000000
G1 X78.796465 Y45.299163 F200.000000
G1 X78.481415 Y45.188922 F200.000000
G1 X78.245396 Y44.952903 F200.000000
G1 X78.137091 Y44.643386 F200.000000
G1 X77.599748 Y45.180729 F200.000000
G1 X77.563631 Y45.203423 F200.000000
G1 X77.537035 Y45.236772 F200.000000
G1 X77.423669 Y45.291367 F200.000000
G1 X77.317128 Y45.358311 F200.000000
G1 X77.274740 Y45.363087 F200.000000
G1 X77.236309 Y45.381594 F200.000000
G1 X77.110481 F200.000000
G1 X76.985445 Y45.395683 F200.000000
G1 X76.945183 Y45.381594 F200.000000
G1 X76.902528 F200.000000
G1 X76.789161 Y45.327000 F200.000000
G1 X76.670395 Y45.285442 F200.000000
G1 X76.640233 Y45.255280 F200.000000
G1 X76.601801 Y45.236772 F200.000000
G1 X76.523349 Y45.138396 F200.000000
G1 X76.434376 Y45.049423 F200.000000
G1 X76.420287 Y45.009161 F200.000000
G1 X76.393692 Y44.975812 F200.000000
G1 X76.365693 Y44.853139 F200.000000
G1 X76.324135 Y44.734372 F200.000000
G1 X76.328911 Y44.691985 F200.000000
G1 X76.319419 Y44.650399 F200.000000
G1 Y43.410879 F200.000000
G1 X76.393692 Y43.085466 F200.000000
G1 X76.596031 Y42.831741 F200.000000
G1 X76.572602 Y42.794454 F200.000000
G1 X76.496912 Y42.703372 F200.000000
G1 X76.400392 Y42.512872 F200.000000
G1 X76.398518 Y42.505363 F200.000000
G1 X76.393692 Y42.499312 F200.000000
G1 X76.358196 Y42.343794 F200.000000
G1 X76.319571 Y42.189024 F200.000000
G1 X76.321141 Y42.181445 F200.000000
G1 X76.319419 Y42.173899 F200.000000
G1 Y41.983399 F200.000000
G1 X76.321141 Y41.975853 F200.000000
G1 X76.319571 Y41.968274 F200.000000
G1 X76.358196 Y41.813504 F200.000000
G1 X76.393692 Y41.657986 F200.000000
G1 X76.398518 Y41.651935 F200.000000
G1 X76.400392 Y41.644426 F200.000000
G1 X76.496912 Y41.453926 F200.000000
G1 X76.569472 Y41.366611 F200.000000
G1 X76.596047 Y41.323037 F200.000000
G1 X76.393692 Y41.069292 F200.000000
G1 X76.319419 Y40.743879 F200.000000
G1 Y39.600879 F200.000000
G1 X76.393692 Y39.275466 F200.000000
G1 X76.487054 Y39.158395 F200.000000
G1 X76.400392 Y38.987352 F200.000000
G1 X76.398518 Y38.979843 F200.000000
G1 X76.393692 Y38.973792 F200.000000
G1 X76.358196 Y38.818274 F200.000000
G0 Z0.500000
G0 X79.730781 Y37.339359
G1 Z-0.040000 F60.000000
G1 X79.735552 Y37.356532 F200.000000
G1 X79.746665 Y37.370466 F200.000000
G1 X79.780012 Y37.516569 F200.000000
G1 X79.820125 Y37.660961 F200.000000
G1 X79.816972 Y37.678503 F200.000000
G1 X79.820938 Y37.695879 F200.000000
G1 Y38.935399 F200.000000
G1 X79.746665 Y39.260812 F200.000000
G1 X79.538555 Y39.521772 F200.000000
G1 X79.469532 Y39.555012 F200.000000
G1 X79.487565 Y39.569393 F200.000000
G1 X79.587868 Y39.628979 F200.000000
G1 X79.616637 Y39.672325 F200.000000
G1 X79.657312 Y39.704762 F200.000000
G1 X79.707932 Y39.809875 F200.000000
G1 X79.772448 Y39.907080 F200.000000
G1 X79.779561 Y39.958616 F200.000000
G1 X79.802134 Y40.005488 F200.000000
G1 Y40.122155 F200.000000
G1 X79.818086 Y40.237727 F200.000000
G0 Z0.500000
G0 X77.889585 Y39.342854
G1 Z-0.040000 F60.000000
G1 X77.807910 Y39.422380 F200.000000
G1 X78.524058 F200.000000
G1 X78.395212 Y39.260812 F200.000000
G1 X78.357388 Y39.095094 F200.000000
G1 X78.325969 Y39.095094 F200.000000
G1 X78.176272 Y39.102072 F200.000000
G1 X78.159871 Y39.095094 F200.000000
G1 X78.142048 F200.000000
G1 X78.007029 Y39.030073 F200.000000
G1 X78.003963 Y39.028769 F200.000000
G1 X78.004016 Y39.029301 F200.000000
G1 X77.889585 Y39.342854 F200.000000
G0 Z0.500000
G0 X76.358196 Y38.818274
G1 Z-0.040000 F60.000000
G1 X76.319571 Y38.663504 F200.000000
G1 X76.321141 Y38.655925 F200.000000
G1 X76.319419 Y38.648379 F200.000000
G1 Y38.076879 F200.000000
G1 X76.321141 Y38.069333 F200.000000
G1 X76.319571 Y38.061754 F200.000000
G1 X76.358196 Y37.906984 F200.000000
G1 X76.393692 Y37.751466 F200.000000
G1 X76.398518 Y37.745415 F200.000000
G1 X76.400392 Y37.737906 F200.000000
G1 X76.496912 Y37.547406 F200.000000
G1 X76.572602 Y37.456324 F200.000000
G1 X76.635609 Y37.356049 F200.000000
G1 X76.729589 Y37.262069 F200.000000
G1 X76.829863 Y37.199063 F200.000000
G1 X76.920945 Y37.123373 F200.000000
G1 X77.111445 Y37.026853 F200.000000
G1 X77.118955 Y37.024979 F200.000000
G1 X77.125006 Y37.020153 F200.000000
G1 X77.280523 Y36.984657 F200.000000
G1 X77.435294 Y36.946032 F200.000000
G1 X77.442873 Y36.947602 F200.000000
G1 X77.450418 Y36.945880 F200.000000
G1 X77.927938 F200.000000
G1 X77.935484 Y36.947602 F200.000000
G1 X77.943063 Y36.946032 F200.000000
G1 X78.097833 Y36.984657 F200.000000
G1 X78.253351 Y37.020153 F200.000000
G1 X78.259402 Y37.024979 F200.000000
G1 X78.266912 Y37.026853 F200.000000
G1 X78.457412 Y37.123373 F200.000000
G1 X78.523563 Y37.178345 F200.000000
G1 X78.576528 Y37.131913 F200.000000
G1 X78.592209 Y37.123441 F200.000000
G1 X78.603321 Y37.109506 F200.000000
G1 X78.738340 Y37.044484 F200.000000
G1 X78.870186 Y36.973247 F200.000000
G1 X78.887990 Y36.972417 F200.000000
G1 X78.904048 Y36.964684 F200.000000
G1 X79.053908 F200.000000
G1 X79.203605 Y36.957706 F200.000000
G1 X79.220006 Y36.964684 F200.000000
G1 X79.237829 F200.000000
G1 X79.372848 Y37.029705 F200.000000
G1 X79.510748 Y37.088370 F200.000000
G1 X79.522497 Y37.101773 F200.000000
G1 X79.538555 Y37.109506 F200.000000
G1 X79.631992 Y37.226671 F200.000000
G1 X79.730781 Y37.339359 F200.000000
G0 Z0.500000
G0 X14.899568 Y21.063134
G1 Z-0.040000 F60.000000
G1 Y21.144178 F200.000000
G1 X14.917104 Y21.223302 F200.000000
G1 X14.917070 Y21.223449 F200.000000
G1 X14.917102 Y21.223596 F200.000000
G1 X14.899568 Y21.298112 F200.000000
G1 Y21.374664 F200.000000
G1 X14.895587 Y21.382930 F200.000000
G1 X14.930858 Y21.374879 F200.000000
G1 X15.527758 F200.000000
G1 X15.594845 Y21.390191 F200.000000
G1 X15.663627 Y21.388192 F200.000000
G1 X16.138607 Y21.482172 F200.000000
G1 X16.199384 Y21.509294 F200.000000
G1 X16.265091 Y21.519882 F200.000000
G1 X16.503851 Y21.616402 F200.000000
G1 X16.585052 Y21.672983 F200.000000
G1 X16.674490 Y21.715363 F200.000000
G1 X16.793870 Y21.809343 F200.000000
G1 X16.871350 Y21.905255 F200.000000
G1 X16.957585 Y21.993379 F200.000000
G1 X17.074425 Y22.183879 F200.000000
G1 X17.085947 Y22.217991 F200.000000
G1 X17.108396 Y22.246141 F200.000000
G1 X17.124960 Y22.318713 F200.000000
G1 X17.131456 Y22.300076 F200.000000
G1 X17.157681 Y22.185181 F200.000000
G1 X17.182240 Y22.154384 F200.000000
G1 X17.195205 Y22.117189 F200.000000
G1 X17.314585 Y21.926689 F200.000000
G1 X17.396195 Y21.844883 F200.000000
G1 X17.457247 Y21.767262 F200.000000
G1 X17.389787 Y21.720256 F200.000000
G1 X17.358940 Y21.665551 F200.000000
G1 X17.314585 Y21.621089 F200.000000
G1 X17.195205 Y21.430589 F200.000000
G1 X17.182240 Y21.393394 F200.000000
G1 X17.157681 Y21.362597 F200.000000
G1 X17.131456 Y21.247702 F200.000000
G0 Z0.500000
G0 X16.357132 Y20.732089
G1 Z-0.040000 F60.000000
G1 X16.137113 Y20.952638 F200.000000
G1 X15.843189 Y21.055882 F200.000000
G1 X15.533577 Y21.021374 F200.000000
G1 X15.269599 Y20.855948 F200.000000
G1 X15.103539 Y20.592368 F200.000000
G1 X15.091752 Y20.488879 F200.000000
G1 X14.649029 Y20.488879 F200.000000
G1 X14.614528 Y20.640038 F200.000000
G1 X14.656995 Y20.674374 F200.000000
G1 X14.657224 Y20.674558 F200.000000
G1 X14.704550 Y20.734727 F200.000000
G1 X14.764400 Y20.782456 F200.000000
G1 X14.799564 Y20.855474 F200.000000
G1 X14.849694 Y20.919154 F200.000000
G1 X14.849727 Y20.919301 F200.000000
G1 X14.849820 Y20.919420 F200.000000
G1 X14.866353 Y20.994164 F200.000000
G1 X14.899568 Y21.063134 F200.000000
G0 Z0.500000
G0 X17.131456 Y21.247702
G1 Z-0.040000 F60.000000
G1 X17.092667 Y21.136418 F200.000000
G1 X17.097124 Y21.097281 F200.000000
G1 X17.088359 Y21.058879 F200.000000
G1 Y20.583899 F200.000000
G1 X17.097124 Y20.545497 F200.000000
G1 X17.092667 Y20.506360 F200.000000
G1 X17.105909 Y20.468368 F200.000000
G1 Y20.237634 F200.000000
G1 X17.241077 Y19.956956 F200.000000
G1 X17.290994 Y19.917149 F200.000000
G1 X17.241077 Y19.877342 F200.000000
G1 X17.160168 Y19.709332 F200.000000
G1 Y19.774201 F200.000000
G1 X17.166234 Y19.915156 F200.000000
G1 X17.160168 Y19.929276 F200.000000
G1 Y19.944644 F200.000000
G1 X17.098953 Y20.071758 F200.000000
G1 X17.043260 Y20.201387 F200.000000
G1 X17.031668 Y20.211476 F200.000000
G1 X17.025000 Y20.225322 F200.000000
G1 X16.914695 Y20.313287 F200.000000
G1 X16.808273 Y20.405915 F200.000000
G1 X16.508865 Y20.566312 F200.000000
G1 X16.413173 Y20.642662 F200.000000
G1 X16.357132 Y20.732089 F200.000000
G0 Z0.500000
G0 X20.843567 Y27.580358
G1 Z-0.040000 F60.000000
G1 X20.838089 Y27.584907 F200.000000
G1 X20.835000 Y27.591322 F200.000000
G1 X20.718521 Y27.684210 F200.000000
G1 X20.714715 Y27.687372 F200.000000
G1 X20.767585 Y27.741399 F200.000000
G1 X20.884425 Y27.931899 F200.000000
G1 X20.895947 Y27.966011 F200.000000
G1 X20.918396 Y27.994161 F200.000000
G1 X20.945354 Y28.112269 F200.000000
G1 X20.984125 Y28.227044 F200.000000
G1 X20.979706 Y28.262777 F200.000000
G1 X20.987718 Y28.297879 F200.000000
G1 Y28.582359 F200.000000
G1 X20.957782 Y28.713518 F200.000000
G1 X20.936057 Y28.846284 F200.000000
G1 X20.819217 Y29.133304 F200.000000
G1 X20.806542 Y29.151402 F200.000000
G1 X20.801630 Y29.172944 F200.000000
G1 X20.717725 Y29.278211 F200.000000
G1 X20.640498 Y29.388471 F200.000000
G1 X20.621226 Y29.399277 F200.000000
G1 X20.607454 Y29.416554 F200.000000
G1 X20.368694 Y29.607054 F200.000000
G1 X20.274676 Y29.652360 F200.000000
G1 X20.188504 Y29.711236 F200.000000
G1 X19.949744 Y29.805216 F200.000000
G1 X19.888860 Y29.814455 F200.000000
G1 X19.832755 Y29.839839 F200.000000
G1 X19.357775 Y29.936359 F200.000000
G1 X19.287202 Y29.934670 F200.000000
G1 X19.218378 Y29.950379 F200.000000
G1 X18.860238 F200.000000
G1 X18.791415 Y29.934670 F200.000000
G1 X18.720842 Y29.936359 F200.000000
G1 X18.245862 Y29.839839 F200.000000
G1 X18.189756 Y29.814455 F200.000000
G1 X18.128873 Y29.805216 F200.000000
G1 X17.890113 Y29.711236 F200.000000
G1 X17.803941 Y29.652360 F200.000000
G1 X17.709922 Y29.607054 F200.000000
G1 X17.471162 Y29.416554 F200.000000
G1 X17.459063 Y29.401375 F200.000000
G1 X17.442060 Y29.392010 F200.000000
G1 X17.362503 Y29.280232 F200.000000
G1 X17.276987 Y29.172944 F200.000000
G1 X17.272672 Y29.154018 F200.000000
G1 X17.261416 Y29.138203 F200.000000
G1 X17.142036 Y28.851183 F200.000000
G1 X17.118870 Y28.716038 F200.000000
G1 X17.088359 Y28.582359 F200.000000
G1 Y28.391859 F200.000000
G1 X17.119110 Y28.257128 F200.000000
G1 X17.142889 Y28.120992 F200.000000
G1 X17.262269 Y27.836512 F200.000000
G1 X17.271583 Y27.823513 F200.000000
G1 X17.275037 Y27.807900 F200.000000
G1 X17.361890 Y27.697477 F200.000000
G1 X17.366363 Y27.691234 F200.000000
G1 X17.241077 Y27.591322 F200.000000
G1 X17.105909 Y27.310644 F200.000000
G1 Y26.999114 F200.000000
G1 X17.241077 Y26.718436 F200.000000
G1 X17.410433 Y26.583379 F200.000000
G1 X17.368161 Y26.549668 F200.000000
G1 X17.249859 Y26.459113 F200.000000
G1 X17.246643 Y26.452761 F200.000000
G1 X17.241077 Y26.448322 F200.000000
G1 X17.176436 Y26.314094 F200.000000
G1 X17.109140 Y26.181177 F200.000000
G1 X17.108998 Y26.174058 F200.000000
G1 X17.105909 Y26.167644 F200.000000
G1 Y26.018662 F200.000000
G1 X17.102948 Y25.869709 F200.000000
G1 X17.105909 Y25.863234 F200.000000
G1 Y25.856114 F200.000000
G1 X17.170550 Y25.721886 F200.000000
G1 X17.232510 Y25.586400 F200.000000
G1 X17.237988 Y25.581851 F200.000000
G1 X17.241077 Y25.575436 F200.000000
G1 X17.290994 Y25.535629 F200.000000
G1 X17.241077 Y25.495822 F200.000000
G1 X17.206856 Y25.424761 F200.000000
G1 X17.157681 Y25.363097 F200.000000
G1 X17.140130 Y25.286204 F200.000000
G0 Z0.500000
G0 X19.544659 Y28.460115
G1 Z-0.040000 F60.000000
G1 X19.566760 Y28.451416 F200.000000
G1 X19.554756 Y28.415879 F200.000000
G1 X19.544659 Y28.460115 F200.000000
G0 Z0.500000
G0 X20.051305 Y21.424859
G1 Z-0.040000 F60.000000
G1 X19.934465 Y21.615359 F200.000000
G1 X19.787165 Y21.765884 F200.000000
G1 X19.851340 Y21.847474 F200.000000
G1 X19.934465 Y21.932419 F200.000000
G1 X20.051305 Y22.122919 F200.000000
G1 X20.062827 Y22.157031 F200.000000
G1 X20.085276 Y22.185181 F200.000000
G1 X20.112234 Y22.303289 F200.000000
G1 X20.151005 Y22.418064 F200.000000
G1 X20.146586 Y22.453797 F200.000000
G1 X20.154598 Y22.488899 F200.000000
G1 Y22.773379 F200.000000
G1 X20.146586 Y22.808481 F200.000000
G1 X20.151005 Y22.844214 F200.000000
G1 X20.112234 Y22.958989 F200.000000
G1 X20.085276 Y23.077097 F200.000000
G1 X20.062827 Y23.105247 F200.000000
G1 X20.051305 Y23.139359 F200.000000
G1 X19.934465 Y23.329859 F200.000000
G1 X19.927838 Y23.336630 F200.000000
G1 X19.943090 Y23.340111 F200.000000
G1 X20.075091 Y23.361382 F200.000000
G1 X20.313851 Y23.457902 F200.000000
G1 X20.395052 Y23.514483 F200.000000
G1 X20.484490 Y23.556863 F200.000000
G1 X20.603870 Y23.650843 F200.000000
G1 X20.681350 Y23.746755 F200.000000
G1 X20.767585 Y23.834879 F200.000000
G1 X20.884425 Y24.025379 F200.000000
G1 X20.895947 Y24.059491 F200.000000
G1 X20.918396 Y24.087641 F200.000000
G1 X20.945354 Y24.205749 F200.000000
G1 X20.984125 Y24.320524 F200.000000
G1 X20.979706 Y24.356257 F200.000000
G1 X20.987718 Y24.391359 F200.000000
G1 Y25.059379 F200.000000
G1 X20.970168 Y25.136273 F200.000000
G1 Y25.215144 F200.000000
G1 X20.935947 Y25.286204 F200.000000
G1 X20.918396 Y25.363097 F200.000000
G1 X20.869221 Y25.424761 F200.000000
G1 X20.835000 Y25.495822 F200.000000
G1 X20.785083 Y25.535629 F200.000000
G1 X20.835000 Y25.575436 F200.000000
G1 X20.970168 Y25.856114 F200.000000
G1 Y26.167644 F200.000000
G1 X20.835000 Y26.448322 F200.000000
G1 X20.665644 Y26.583379 F200.000000
G1 X20.707916 Y26.617090 F200.000000
G1 X20.826218 Y26.707645 F200.000000
G1 X20.829434 Y26.713997 F200.000000
G1 X20.835000 Y26.718436 F200.000000
G1 X20.899641 Y26.852664 F200.000000
G1 X20.966937 Y26.985581 F200.000000
G1 X20.967078 Y26.992700 F200.000000
G1 X20.970168 Y26.999114 F200.000000
G1 Y27.148096 F200.000000
G1 X20.973129 Y27.297049 F200.000000
G1 X20.970168 Y27.303524 F200.000000
G1 Y27.310644 F200.000000
G1 X20.905527 Y27.444872 F200.000000
G1 X20.843567 Y27.580358 F200.000000
G0 Z0.500000
G0 X17.140130 Y25.286204
G1 Z-0.040000 F60.000000
G1 X17.105909 Y25.215144 F200.000000
G1 Y25.136273 F200.000000
G1 X17.088359 Y25.059379 F200.000000
G1 Y24.297379 F200.000000
G1 X17.097124 Y24.258977 F200.000000
G1 X17.092667 Y24.219840 F200.000000
G1 X17.131456 Y24.108556 F200.000000
G1 X17.157681 Y23.993661 F200.000000
G1 X17.182240 Y23.962864 F200.000000
G1 X17.195205 Y23.925669 F200.000000
G1 X17.314585 Y23.735169 F200.000000
G1 X17.396195 Y23.653363 F200.000000
G1 X17.467633 Y23.562538 F200.000000
G1 X17.501225 Y23.535379 F200.000000
G1 X17.467633 Y23.508220 F200.000000
G1 X17.396195 Y23.417395 F200.000000
G1 X17.314585 Y23.335589 F200.000000
G1 X17.195205 Y23.145089 F200.000000
G1 X17.182240 Y23.107894 F200.000000
G1 X17.157681 Y23.077097 F200.000000
G1 X17.131456 Y22.962202 F200.000000
G1 X17.128814 Y22.954621 F200.000000
G1 X17.108396 Y23.044077 F200.000000
G1 X17.085947 Y23.072227 F200.000000
G1 X17.074425 Y23.106339 F200.000000
G1 X16.957585 Y23.296839 F200.000000
G1 X16.874460 Y23.381784 F200.000000
G1 X16.800984 Y23.475200 F200.000000
G1 X16.681604 Y23.571720 F200.000000
G1 X16.585888 Y23.618608 F200.000000
G1 X16.497884 Y23.678736 F200.000000
G1 X16.316355 Y23.750189 F200.000000
G1 X16.343551 Y23.845084 F200.000000
G1 X16.290940 Y24.152139 F200.000000
G1 X16.143211 Y24.359729 F200.000000
G1 X16.290560 Y24.566169 F200.000000
G1 X16.343604 Y24.873149 F200.000000
G1 X16.258201 Y25.172743 F200.000000
G1 X16.051267 Y25.405613 F200.000000
G1 X15.763787 Y25.525637 F200.000000
G1 X15.452700 Y25.509041 F200.000000
G1 X13.786460 Y25.034061 F200.000000
G1 X13.682257 Y24.976851 F200.000000
G1 X13.572493 Y24.931206 F200.000000
G1 X13.546987 Y24.902584 F200.000000
G1 X13.513381 Y24.884134 F200.000000
G1 X13.444320 Y24.787377 F200.000000
G1 X13.365231 Y24.698627 F200.000000
G1 X13.354669 Y24.661774 F200.000000
G1 X13.332397 Y24.630569 F200.000000
G1 X13.312156 Y24.513429 F200.000000
G1 X13.279406 Y24.399154 F200.000000
G1 X13.285880 Y24.361367 F200.000000
G1 X13.279353 Y24.323589 F200.000000
G1 X13.311941 Y24.209268 F200.000000
G1 X13.332017 Y24.092099 F200.000000
G1 X13.354246 Y24.060864 F200.000000
G1 X13.364755 Y24.023995 F200.000000
G1 X13.443719 Y23.935134 F200.000000
G1 X13.512644 Y23.838280 F200.000000
G1 X13.546224 Y23.819782 F200.000000
G1 X13.571690 Y23.791125 F200.000000
G1 X13.681389 Y23.745325 F200.000000
G1 X13.785512 Y23.687968 F200.000000
G1 X13.918474 Y23.649863 F200.000000
G1 X13.872729 Y23.618608 F200.000000
G1 X13.777013 Y23.571720 F200.000000
G1 X13.657633 Y23.475200 F200.000000
G1 X13.586195 Y23.384375 F200.000000
G1 X13.504585 Y23.302569 F200.000000
G1 X13.385205 Y23.112069 F200.000000
G1 X13.372240 Y23.074874 F200.000000
G1 X13.347681 Y23.044077 F200.000000
G1 X13.321456 Y22.929182 F200.000000
G1 X13.282667 Y22.817898 F200.000000
G1 X13.287124 Y22.778761 F200.000000
G1 X13.278359 Y22.740359 F200.000000
G1 Y22.549859 F200.000000
G1 X13.287124 Y22.511457 F200.000000
G1 X13.282667 Y22.472320 F200.000000
G1 X13.321456 Y22.361036 F200.000000
G1 X13.347681 Y22.246141 F200.000000
G1 X13.372240 Y22.215344 F200.000000
G1 X13.385205 Y22.178149 F200.000000
G1 X13.504585 Y21.987649 F200.000000
G1 X13.589338 Y21.902692 F200.000000
G1 X13.638303 Y21.842078 F200.000000
G1 X13.545598 Y21.769097 F200.000000
G1 X13.545367 Y21.768915 F200.000000
G1 X13.494439 Y21.705872 F200.000000
G1 X13.431077 Y21.655342 F200.000000
G1 X13.397862 Y21.586371 F200.000000
G1 X13.349733 Y21.526843 F200.000000
G1 X13.349698 Y21.526696 F200.000000
G1 X13.349604 Y21.526579 F200.000000
G1 X13.331073 Y21.447682 F200.000000
G1 X13.295909 Y21.374664 F200.000000
G1 Y21.298112 F200.000000
G1 X13.278375 Y21.223596 F200.000000
G1 X13.278407 Y21.223449 F200.000000
G1 X13.278373 Y21.223302 F200.000000
G1 X13.295909 Y21.144178 F200.000000
G1 Y21.063134 F200.000000
G1 X13.329124 Y20.994164 F200.000000
G1 X13.345657 Y20.919420 F200.000000
G1 X13.345750 Y20.919301 F200.000000
G1 X13.345783 Y20.919154 F200.000000
G1 X13.395913 Y20.855474 F200.000000
G1 X13.431077 Y20.782456 F200.000000
G1 X13.437796 Y20.777098 F200.000000
G1 X13.347681 Y20.664097 F200.000000
G1 X13.278359 Y20.360379 F200.000000
G1 Y19.217379 F200.000000
G1 X13.347681 Y18.913661 F200.000000
G1 X13.541916 Y18.670097 F200.000000
G1 X13.822594 Y18.534930 F200.000000
G1 X14.134123 F200.000000
G1 X14.414801 Y18.670097 F200.000000
G1 X14.609036 Y18.913661 F200.000000
G1 X14.649029 Y19.088879 F200.000000
G1 X16.477718 Y19.088879 F200.000000
G1 X16.615267 Y19.120274 F200.000000
G1 X16.754039 Y19.145725 F200.000000
G1 X16.766455 Y19.154782 F200.000000
G1 X16.781437 Y19.158201 F200.000000
G1 X16.891742 Y19.246167 F200.000000
G1 X17.005728 Y19.329309 F200.000000
G1 X17.012985 Y19.342855 F200.000000
G1 X17.025000 Y19.352436 F200.000000
G1 X17.086215 Y19.479551 F200.000000
G1 X17.105909 Y19.516313 F200.000000
G1 Y19.285134 F200.000000
G1 X17.241077 Y19.004456 F200.000000
G1 X17.484640 Y18.810221 F200.000000
G1 X17.642320 Y18.774232 F200.000000
G1 X17.594127 Y18.751395 F200.000000
G1 X17.474747 Y18.657415 F200.000000
G1 X17.399338 Y18.564066 F200.000000
G1 X17.314585 Y18.479109 F200.000000
G1 X17.195205 Y18.288609 F200.000000
G1 X17.182240 Y18.251414 F200.000000
G1 X17.157681 Y18.220617 F200.000000
G1 X17.131456 Y18.105722 F200.000000
G1 X17.092667 Y17.994438 F200.000000
G1 X17.097124 Y17.955301 F200.000000
G1 X17.088359 Y17.916899 F200.000000
G1 Y17.535899 F200.000000
G1 X17.097124 Y17.497497 F200.000000
G1 X17.092667 Y17.458360 F200.000000
G1 X17.105909 Y17.420368 F200.000000
G1 Y17.189634 F200.000000
G1 X17.241077 Y16.908956 F200.000000
G1 X17.484640 Y16.714721 F200.000000
G1 X17.788358 Y16.645399 F200.000000
G1 X20.287718 F200.000000
G1 X20.591437 Y16.714721 F200.000000
G1 X20.835000 Y16.908956 F200.000000
G1 X20.970168 Y17.189634 F200.000000
G1 Y17.501164 F200.000000
G1 X20.835000 Y17.781842 F200.000000
G1 X20.591437 Y17.976077 F200.000000
G1 X20.287718 Y18.045399 F200.000000
G1 X20.131526 F200.000000
G1 X20.112234 Y18.102509 F200.000000
G0 Z0.500000
G1 Z-0.040000 F60.000000
G1 X20.085276 Y18.220617 F200.000000
G1 X20.062827 Y18.248767 F200.000000
G1 X20.051305 Y18.282879 F200.000000
G1 X19.968028 Y18.418656 F200.000000
G1 X20.085276 Y18.565681 F200.000000
G1 X20.154598 Y18.869399 F200.000000
G1 Y19.059899 F200.000000
G1 X20.146586 Y19.095001 F200.000000
G1 X20.151005 Y19.130734 F200.000000
G1 X20.114597 Y19.238514 F200.000000
G1 X20.137048 Y19.285134 F200.000000
G1 Y19.596664 F200.000000
G1 X20.001880 Y19.877342 F200.000000
G1 X19.841645 Y20.005125 F200.000000
G1 X19.851367 Y20.011768 F200.000000
G1 X19.885973 Y20.071846 F200.000000
G1 X19.934465 Y20.121399 F200.000000
G1 X20.051305 Y20.311899 F200.000000
G1 X20.062827 Y20.346011 F200.000000
G1 X20.085276 Y20.374161 F200.000000
G1 X20.112234 Y20.492269 F200.000000
G1 X20.151005 Y20.607044 F200.000000
G1 X20.146586 Y20.642777 F200.000000
G1 X20.154598 Y20.677879 F200.000000
G1 Y21.058879 F200.000000
G1 X20.146586 Y21.093981 F200.000000
G1 X20.151005 Y21.129714 F200.000000
G1 X20.112234 Y21.244489 F200.000000
G1 X20.085276 Y21.362597 F200.000000
G1 X20.062827 Y21.390747 F200.000000
G1 X20.051305 Y21.424859 F200.000000
G0 Z0.500000
G0 X76.392236 Y22.799702
G1 Z-0.040000 F60.000000
G1 X75.981008 F200.000000
G1 X75.479797 Y23.041072 F200.000000
G1 X75.159984 Y23.442104 F200.000000
G1 X75.039540 Y23.291071 F200.000000
G1 X74.538329 Y23.049701 F200.000000
G1 X73.982028 F200.000000
G1 X73.480817 Y23.291071 F200.000000
G1 X73.259418 Y23.568697 F200.000000
G1 X73.038020 Y23.291071 F200.000000
G1 X72.536809 Y23.049701 F200.000000
G1 X71.980508 F200.000000
G1 X71.479297 Y23.291071 F200.000000
G1 X71.259168 Y23.567104 F200.000000
G1 X71.039040 Y23.291071 F200.000000
G1 X70.537829 Y23.049701 F200.000000
G1 X69.981528 F200.000000
G1 X69.480317 Y23.291071 F200.000000
G1 X69.359872 Y23.442104 F200.000000
G1 X69.040060 Y23.041072 F200.000000
G1 X68.602451 Y22.830331 F200.000000
G0 Z0.500000
G0 X67.010700 Y24.422082
G1 Z-0.040000 F60.000000
G1 Y25.018358 F200.000000
G1 X67.134489 Y25.560712 F200.000000
G1 X67.481337 Y25.995646 F200.000000
G1 X67.982548 Y26.237016 F200.000000
G1 X68.538849 F200.000000
G1 X69.040060 Y25.995646 F200.000000
G1 X69.359872 Y25.594614 F200.000000
G1 X69.480317 Y25.745647 F200.000000
G1 X69.981528 Y25.987017 F200.000000
G1 X70.373660 F200.000000
G0 Z0.500000
G0 X75.510177 Y26.010276
G1 Z-0.040000 F60.000000
G1 X75.981008 Y26.237016 F200.000000
G1 X76.537309 F200.000000
G1 X77.038520 Y25.995646 F200.000000
G1 X77.358660 Y25.594203 F200.000000
G0 Z0.500000
G0 X58.649657 Y26.917118
G1 Z-0.040000 F60.000000
G1 Y30.888361 F200.000000
G1 X59.078661 F200.000000
G1 Y27.848362 F200.000000
G1 X59.578660 F200.000000
G1 Y26.917118 F200.000000
G0 Z0.500000
G0 X62.078657 Y26.917118
G1 Z-0.040000 F60.000000
G1 Y27.848362 F200.000000
G1 X62.578656 F200.000000
G1 Y28.348361 F200.000000
G1 X65.908658 F200.000000
G1 X66.451012 Y28.472149 F200.000000
G1 X66.885947 Y28.818998 F200.000000
G1 X67.127317 Y29.320208 F200.000000
G1 Y29.876510 F200.000000
G1 X66.885947 Y30.377720 F200.000000
G1 X66.451012 Y30.724569 F200.000000
G1 X65.908658 Y30.848358 F200.000000
G1 X62.578656 F200.000000
G1 Y30.888361 F200.000000
G1 X66.660892 F200.000000
G1 X68.834776 Y28.714477 F200.000000
G1 X68.835138 Y28.714249 F200.000000
G1 X68.835366 Y28.713887 F200.000000
G1 X70.373660 Y27.177644 F200.000000
G1 Y25.987017 F200.000000
G0 Z0.500000
G0 X32.024176 Y53.320050
G1 Z-0.040000 F60.000000
G1 X31.899480 Y53.260000 F200.000000
G1 X31.337837 F200.000000
G1 X30.831814 Y53.503688 F200.000000
G1 X30.481636 Y53.942798 F200.000000
G1 X30.356658 Y54.490359 F200.000000
G1 Y55.506359 F200.000000
G1 X30.481636 Y56.053920 F200.000000
G1 X30.831814 Y56.493030 F200.000000
G1 X31.337837 Y56.736718 F200.000000
G1 X31.899480 F200.000000
G1 X32.405503 Y56.493030 F200.000000
G1 X32.755681 Y56.053920 F200.000000
G1 X32.880658 Y55.506359 F200.000000
G1 Y55.009150 F200.000000
G0 Z0.500000
G0 X28.205129 Y53.612388
G1 Z-0.040000 F60.000000
G1 X27.941636 Y53.942798 F200.000000
G1 X27.816658 Y54.490359 F200.000000
G1 Y55.506359 F200.000000
G1 X27.941636 Y56.053920 F200.000000
G1 X28.291814 Y56.493030 F200.000000
G1 X28.797837 Y56.736718 F200.000000
G1 X29.359480 F200.000000
G1 X29.865503 Y56.493030 F200.000000
G1 X30.215681 Y56.053920 F200.000000
G1 X30.340658 Y55.506359 F200.000000
G1 Y54.490359 F200.000000
G1 X30.215681 Y53.942798 F200.000000
G1 X30.180778 Y53.899031 F200.000000
G0 Z0.500000
G0 X25.665129 Y53.612388
G1 Z-0.040000 F60.000000
G1 X25.401636 Y53.942798 F200.000000
G1 X25.276658 Y54.490359 F200.000000
G1 Y55.506359 F200.000000
G1 X25.401636 Y56.053920 F200.000000
G1 X25.751814 Y56.493030 F200.000000
G1 X26.257837 Y56.736718 F200.000000
G1 X26.819480 F200.000000
G1 X27.325503 Y56.493030 F200.000000
G1 X27.675681 Y56.053920 F200.000000
G1 X27.800658 Y55.506359 F200.000000
G1 Y54.490359 F200.000000
G1 X27.675681 Y53.942798 F200.000000
G1 X27.640778 Y53.899031 F200.000000
G0 Z0.500000
G0 X23.125129 Y53.612388
G1 Z-0.040000 F60.000000
G1 X22.861636 Y53.942798 F200.000000
G1 X22.736658 Y54.490359 F200.000000
G1 Y55.506359 F200.000000
G1 X22.861636 Y56.053920 F200.000000
G1 X23.211814 Y56.493030 F200.000000
G1 X23.717837 Y56.736718 F200.000000
G1 X24.279480 F200.000000
G1 X24.785503 Y56.493030 F200.000000
G1 X25.135681 Y56.053920 F200.000000
G1 X25.260658 Y55.506359 F200.000000
G1 Y54.490359 F200.000000
G1 X25.135681 Y53.942798 F200.000000
G1 X25.100778 Y53.899031 F200.000000
G0 Z0.500000
G0 X20.585129 Y53.612388
G1 Z-0.040000 F60.000000
G1 X20.321636 Y53.942798 F200.000000
G1 X20.196658 Y54.490359 F200.000000
G1 Y55.506359 F200.000000
G1 X20.321636 Y56.053920 F200.000000
G1 X20.671814 Y56.493030 F200.000000
G1 X21.177837 Y56.736718 F200.000000
G1 X21.739480 F200.000000
G1 X22.245503 Y56.493030 F200.000000
G1 X22.595681 Y56.053920 F200.000000
G1 X22.720658 Y55.506359 F200.000000
G1 Y54.490359 F200.000000
G1 X22.595681 Y53.942798 F200.000000
G1 X22.560778 Y53.899031 F200.000000
G0 Z0.500000
G0 X18.045129 Y53.612388
G1 Z-0.040000 F60.000000
G1 X17.781636 Y53.942798 F200.000000
G1 X17.656658 Y54.490359 F200.000000
G1 Y55.506359 F200.000000
G1 X17.781636 Y56.053920 F200.000000
G1 X18.131814 Y56.493030 F200.000000
G1 X18.637837 Y56.736718 F200.000000
G1 X19.199480 F200.000000
G1 X19.705503 Y56.493030 F200.000000
G1 X20.055681 Y56.053920 F200.000000
G1 X20.180658 Y55.506359 F200.000000
G1 Y54.490359 F200.000000
G1 X20.055681 Y53.942798 F200.000000
G1 X20.020778 Y53.899031 F200.000000
G0 Z0.500000
G0 X15.478659 Y53.645580
G1 Z-0.040000 F60.000000
G1 X15.241636 Y53.942798 F200.000000
G1 X15.116658 Y54.490359 F200.000000
G1 Y55.506359 F200.000000
G1 X15.241636 Y56.053920 F200.000000
G1 X15.591814 Y56.493030 F200.000000
G1 X16.097837 Y56.736718 F200.000000
G1 X16.659480 F200.000000
G1 X17.165503 Y56.493030 F200.000000
G1 X17.515681 Y56.053920 F200.000000
G1 X17.640658 Y55.506359 F200.000000
G1 Y54.490359 F200.000000
G1 X17.515681 Y53.942798 F200.000000
G1 X17.278658 Y53.645580 F200.000000
G0 Z0.500000
G0 X12.938659
G1 Z-0.040000 F60.000000
G1 X12.701636 Y53.942798 F200.000000
G1 X12.576658 Y54.490359 F200.000000
G1 Y55.506359 F200.000000
G1 X12.701636 Y56.053920 F200.000000
G1 X13.051814 Y56.493030 F200.000000
G1 X13.557837 Y56.736718 F200.000000
G1 X14.119480 F200.000000
G1 X14.625503 Y56.493030 F200.000000
G1 X14.975681 Y56.053920 F200.000000
G1 X15.100658 Y55.506359 F200.000000
G1 Y54.490359 F200.000000
G1 X14.975681 Y53.942798 F200.000000
G1 X14.738658 Y53.645580 F200.000000
G0 Z0.500000
G0 X7.496658 Y7.246359
G1 Z-0.040000 F60.000000
G1 X7.621636 Y7.793920 F200.000000
G1 X7.971814 Y8.233030 F200.000000
G1 X8.477837 Y8.476718 F200.000000
G1 X9.039480 F200.000000
G1 X9.545503 Y8.233030 F200.000000
G1 X9.895681 Y7.793920 F200.000000
G1 X10.020658 Y7.246359 F200.000000
G1 Y6.230359 F200.000000
G1 X9.895681 Y5.682798 F200.000000
G1 X9.545503 Y5.243688 F200.000000
G1 X9.039480 Y5.000000 F200.000000
G1 X8.477837 F200.000000
G1 X7.971814 Y5.243688 F200.000000
G1 X7.621636 Y5.682798 F200.000000
G1 X7.496658 Y6.230359 F200.000000
G1 Y7.246359 F200.000000
G0 Z0.500000
G0 X10.036658
G1 Z-0.040000 F60.000000
G1 X10.161636 Y7.793920 F200.000000
G1 X10.511814 Y8.233030 F200.000000
G1 X11.017837 Y8.476718 F200.000000
G1 X11.579480 F200.000000
G1 X12.085503 Y8.233030 F200.000000
G1 X12.435681 Y7.793920 F200.000000
G1 X12.560658 Y7.246359 F200.000000
G1 Y6.230359 F200.000000
G1 X12.435681 Y5.682798 F200.000000
G1 X12.085503 Y5.243688 F200.000000
G1 X11.579480 Y5.000000 F200.000000
G1 X11.017837 F200.000000
G1 X10.511814 Y5.243688 F200.000000
G1 X10.161636 Y5.682798 F200.000000
G1 X10.036658 Y6.230359 F200.000000
G1 Y7.246359 F200.000000
G0 Z0.500000
G0 X12.576658
G1 Z-0.040000 F60.000000
G1 X12.701636 Y7.793920 F200.000000
G1 X13.051814 Y8.233030 F200.000000
G1 X13.557837 Y8.476718 F200.000000
G1 X14.119480 F200.000000
G1 X14.625503 Y8.233030 F200.000000
G1 X14.975681 Y7.793920 F200.000000
G1 X15.100658 Y7.246359 F200.000000
G1 Y6.230359 F200.000000
G1 X14.975681 Y5.682798 F200.000000
G1 X14.625503 Y5.243688 F200.000000
G1 X14.119480 Y5.000000 F200.000000
G1 X13.557837 F200.000000
G1 X13.051814 Y5.243688 F200.000000
G1 X12.701636 Y5.682798 F200.000000
G1 X12.576658 Y6.230359 F200.000000
G1 Y7.246359 F200.000000
G0 Z0.500000
G0 X15.116658
G1 Z-0.040000 F60.000000
G1 X15.241636 Y7.793920 F200.000000
G1 X15.591814 Y8.233030 F200.000000
G1 X16.097837 Y8.476718 F200.000000
G1 X16.659480 F200.000000
G1 X17.165503 Y8.233030 F200.000000
G1 X17.515681 Y7.793920 F200.000000
G1 X17.640658 Y7.246359 F200.000000
G1 Y6.230359 F200.000000
G1 X17.515681 Y5.682798 F200.000000
G1 X17.165503 Y5.243688 F200.000000
G1 X16.659480 Y5.000000 F200.000000
G1 X16.097837 F200.000000
G1 X15.591814 Y5.243688 F200.000000
G1 X15.241636 Y5.682798 F200.000000
G1 X15.116658 Y6.230359 F200.000000
G1 Y7.246359 F200.000000
G0 Z0.500000
G0 X27.800658 Y6.727568
G1 Z-0.040000 F60.000000
G1 Y6.230359 F200.000000
G1 X27.675681 Y5.682798 F200.000000
G1 X27.325503 Y5.243688 F200.000000
G1 X26.819480 Y5.000000 F200.000000
G1 X26.257837 F200.000000
G1 X25.751814 Y5.243688 F200.000000
G1 X25.401636 Y5.682798 F200.000000
G1 X25.276658 Y6.230359 F200.000000
G1 Y7.246359 F200.000000
G1 X25.401636 Y7.793920 F200.000000
G1 X25.751814 Y8.233030 F200.000000
G1 X26.257837 Y8.476718 F200.000000
G1 X26.273659 F200.000000
G0 Z0.500000
G0 X31.213141 Y8.416668
G1 Z-0.040000 F60.000000
G1 X31.337837 Y8.476718 F200.000000
G1 X31.899480 F200.000000
G1 X32.405503 Y8.233030 F200.000000
G1 X32.755681 Y7.793920 F200.000000
G1 X32.880658 Y7.246359 F200.000000
G1 Y6.230359 F200.000000
G1 X32.755681 Y5.682798 F200.000000
G1 X32.405503 Y5.243688 F200.000000
G1 X31.899480 Y5.000000 F200.000000
G1 X31.337837 F200.000000
G1 X30.831814 Y5.243688 F200.000000
G1 X30.481636 Y5.682798 F200.000000
G1 X30.356658 Y6.230359 F200.000000
G1 Y6.727568 F200.000000
G0 Z0.500000
G0 X35.032188 Y8.124330
G1 Z-0.040000 F60.000000
G1 X35.295681 Y7.793920 F200.000000
G1 X35.420658 Y7.246359 F200.000000
G1 Y6.230359 F200.000000
G1 X35.295681 Y5.682798 F200.000000
G1 X34.945503 Y5.243688 F200.000000
G1 X34.439480 Y5.000000 F200.000000
G1 X33.877837 F200.000000
G1 X33.371814 Y5.243688 F200.000000
G1 X33.021636 Y5.682798 F200.000000
G1 X32.896658 Y6.230359 F200.000000
G1 Y7.246359 F200.000000
G1 X33.021636 Y7.793920 F200.000000
G1 X33.056539 Y7.837687 F200.000000
G0 Z0.500000
G0 X24.898658 Y8.091138
G1 Z-0.040000 F60.000000
G1 X25.135681 Y7.793920 F200.000000
G1 X25.260658 Y7.246359 F200.000000
G1 Y6.230359 F200.000000
G1 X25.135681 Y5.682798 F200.000000
G1 X24.785503 Y5.243688 F200.000000
G1 X24.279480 Y5.000000 F200.000000
G1 X23.717837 F200.000000
G1 X23.211814 Y5.243688 F200.000000
G1 X22.861636 Y5.682798 F200.000000
G1 X22.736658 Y6.230359 F200.000000
G1 Y7.246359 F200.000000
G1 X22.861636 Y7.793920 F200.000000
G1 X23.098659 Y8.091138 F200.000000
G0 Z0.500000
G0 X20.196658 Y7.246359
G1 Z-0.040000 F60.000000
G1 X20.321636 Y7.793920 F200.000000
G1 X20.671814 Y8.233030 F200.000000
G1 X21.177837 Y8.476718 F200.000000
G1 X21.739480 F200.000000
G1 X22.245503 Y8.233030 F200.000000
G1 X22.595681 Y7.793920 F200.000000
G1 X22.720658 Y7.246359 F200.000000
G1 Y6.230359 F200.000000
G1 X22.595681 Y5.682798 F200.000000
G1 X22.245503 Y5.243688 F200.000000
G1 X21.739480 Y5.000000 F200.000000
G1 X21.177837 F200.000000
G1 X20.671814 Y5.243688 F200.000000
G1 X20.321636 Y5.682798 F200.000000
G1 X20.196658 Y6.230359 F200.000000
G1 Y7.246359 F200.000000
G0 Z0.500000
G0 X17.656658
G1 Z-0.040000 F60.000000
G1 X17.781636 Y7.793920 F200.000000
G1 X18.131814 Y8.233030 F200.000000
G1 X18.637837 Y8.476718 F200.000000
G1 X19.199480 F200.000000
G1 X19.705503 Y8.233030 F200.000000
G1 X20.055681 Y7.793920 F200.000000
G1 X20.180658 Y7.246359 F200.000000
G1 Y6.230359 F200.000000
G1 X20.055681 Y5.682798 F200.000000
G1 X19.705503 Y5.243688 F200.000000
G1 X19.199480 Y5.000000 F200.000000
G1 X18.637837 F200.000000
G1 X18.131814 Y5.243688 F200.000000
G1 X17.781636 Y5.682798 F200.000000
G1 X17.656658 Y6.230359 F200.000000
G1 Y7.246359 F200.000000
G0 Z0.500000
G0 X37.598658 Y8.091138
G1 Z-0.040000 F60.000000
G1 X37.835681 Y7.793920 F200.000000
G1 X37.960658 Y7.246359 F200.000000
G1 Y6.230359 F200.000000
G1 X37.835681 Y5.682798 F200.000000
G1 X37.485503 Y5.243688 F200.000000
G1 X36.979480 Y5.000000 F200.000000
G1 X36.417837 F200.000000
G1 X35.911814 Y5.243688 F200.000000
G1 X35.561636 Y5.682798 F200.000000
G1 X35.436658 Y6.230359 F200.000000
G1 Y7.246359 F200.000000
G1 X35.561636 Y7.793920 F200.000000
G1 X35.798659 Y8.091138 F200.000000
G0 Z0.500000
G0 X40.138658 Y8.091138
G1 Z-0.040000 F60.000000
G1 X40.375681 Y7.793920 F200.000000
G1 X40.500658 Y7.246359 F200.000000
G1 Y6.230359 F200.000000
G1 X40.375681 Y5.682798 F200.000000
G1 X40.025503 Y5.243688 F200.000000
G1 X39.519480 Y5.000000 F200.000000
G1 X38.957837 F200.000000
G1 X38.451814 Y5.243688 F200.000000
G1 X38.101636 Y5.682798 F200.000000
G1 X37.976658 Y6.230359 F200.000000
G1 Y7.246359 F200.000000
G1 X38.101636 Y7.793920 F200.000000
G1 X38.338659 Y8.091138 F200.000000
G0 Z0.500000
G0 X42.678658
G1 Z-0.040000 F60.000000
G1 X42.915681 Y7.793920 F200.000000
G1 X43.040658 Y7.246359 F200.000000
G1 Y6.230359 F200.000000
G1 X42.915681 Y5.682798 F200.000000
G1 X42.565503 Y5.243688 F200.000000
G1 X42.059480 Y5.000000 F200.000000
G1 X41.497837 F200.000000
G1 X40.991814 Y5.243688 F200.000000
G1 X40.641636 Y5.682798 F200.000000
G1 X40.516658 Y6.230359 F200.000000
G1 Y7.246359 F200.000000
G1 X40.641636 Y7.793920 F200.000000
G1 X40.878659 Y8.091138 F200.000000
G0 Z0.500000
G0 X50.298658 Y8.091138
G1 Z-0.040000 F60.000000
G1 X50.535681 Y7.793920 F200.000000
G1 X50.660658 Y7.246359 F200.000000
G1 Y6.230359 F200.000000
G1 X50.535681 Y5.682798 F200.000000
G1 X50.185503 Y5.243688 F200.000000
G1 X49.679480 Y5.000000 F200.000000
G1 X49.117837 F200.000000
G1 X48.611814 Y5.243688 F200.000000
G1 X48.261636 Y5.682798 F200.000000
G1 X48.136658 Y6.230359 F200.000000
G1 Y7.246359 F200.000000
G1 X48.261636 Y7.793920 F200.000000
G1 X48.498659 Y8.091138 F200.000000
G0 Z0.500000
G0 X47.758658
G1 Z-0.040000 F60.000000
G1 X47.995681 Y7.793920 F200.000000
G1 X48.120658 Y7.246359 F200.000000
G1 Y6.230359 F200.000000
G1 X47.995681 Y5.682798 F200.000000
G1 X47.645503 Y5.243688 F200.000000
G1 X47.139480 Y5.000000 F200.000000
G1 X46.577837 F200.000000
G1 X46.071814 Y5.243688 F200.000000
G1 X45.721636 Y5.682798 F200.000000
G1 X45.596658 Y6.230359 F200.000000
G1 Y7.246359 F200.000000
G1 X45.721636 Y7.793920 F200.000000
G1 X45.958659 Y8.091138 F200.000000
G0 Z0.500000
G0 X45.218658
G1 Z-0.040000 F60.000000
G1 X45.455681 Y7.793920 F200.000000
G1 X45.580658 Y7.246359 F200.000000
G1 Y6.230359 F200.000000
G1 X45.455681 Y5.682798 F200.000000
G1 X45.105503 Y5.243688 F200.000000
G1 X44.599480 Y5.000000 F200.000000
G1 X44.037837 F200.000000
G1 X43.531814 Y5.243688 F200.000000
G1 X43.181636 Y5.682798 F200.000000
G1 X43.056658 Y6.230359 F200.000000
G1 Y7.246359 F200.000000
G1 X43.181636 Y7.793920 F200.000000
G1 X43.418659 Y8.091138 F200.000000
G0 Z0.500000
G0 X53.216658 Y7.246359
G1 Z-0.040000 F60.000000
G1 X53.341636 Y7.793920 F200.000000
G1 X53.691814 Y8.233030 F200.000000
G1 X54.197837 Y8.476718 F200.000000
G1 X54.759480 F200.000000
G1 X55.265503 Y8.233030 F200.000000
G1 X55.615681 Y7.793920 F200.000000
G1 X55.740658 Y7.246359 F200.000000
G1 Y6.230359 F200.000000
G1 X55.615681 Y5.682798 F200.000000
G1 X55.265503 Y5.243688 F200.000000
G1 X54.759480 Y5.000000 F200.000000
G1 X54.197837 F200.000000
G1 X53.691814 Y5.243688 F200.000000
G1 X53.341636 Y5.682798 F200.000000
G1 X53.216658 Y6.230359 F200.000000
G1 Y7.246359 F200.000000
G0 Z0.500000
G0 X58.000623 Y5.488361
G1 Z-0.040000 F60.000000
G1 X57.805503 Y5.243688 F200.000000
G1 X57.299480 Y5.000000 F200.000000
G1 X56.737837 F200.000000
G1 X56.231814 Y5.243688 F200.000000
G1 X55.881636 Y5.682798 F200.000000
G1 X55.756658 Y6.230359 F200.000000
G1 Y7.246359 F200.000000
G1 X55.881636 Y7.793920 F200.000000
G1 X56.231814 Y8.233030 F200.000000
G1 X56.737837 Y8.476718 F200.000000
G1 X57.038660 F200.000000
G0 Z0.500000
G0 X59.538657
G1 Z-0.040000 F60.000000
G1 X59.839480 F200.000000
G1 X60.345503 Y8.233030 F200.000000
G1 X60.695681 Y7.793920 F200.000000
G1 X60.820658 Y7.246359 F200.000000
G1 Y6.230359 F200.000000
G1 X60.695681 Y5.682798 F200.000000
G1 X60.345503 Y5.243688 F200.000000
G1 X59.839480 Y5.000000 F200.000000
G1 X59.277837 F200.000000
G1 X58.771814 Y5.243688 F200.000000
G1 X58.576694 Y5.488361 F200.000000
G0 Z0.500000
G0 X63.376658 Y7.246359
G1 Z-0.040000 F60.000000
G1 X63.501636 Y7.793920 F200.000000
G1 X63.851814 Y8.233030 F200.000000
G1 X64.357837 Y8.476718 F200.000000
G1 X64.919480 F200.000000
G1 X65.425503 Y8.233030 F200.000000
G1 X65.775681 Y7.793920 F200.000000
G1 X65.900658 Y7.246359 F200.000000
G1 Y6.230359 F200.000000
G1 X65.775681 Y5.682798 F200.000000
G1 X65.425503 Y5.243688 F200.000000
G1 X64.919480 Y5.000000 F200.000000
G1 X64.357837 F200.000000
G1 X63.851814 Y5.243688 F200.000000
G1 X63.501636 Y5.682798 F200.000000
G1 X63.376658 Y6.230359 F200.000000
G1 Y7.246359 F200.000000
G0 Z0.500000
G0 X68.440658 Y6.727568
G1 Z-0.040000 F60.000000
G1 Y6.230359 F200.000000
G1 X68.315681 Y5.682798 F200.000000
G1 X67.965503 Y5.243688 F200.000000
G1 X67.459480 Y5.000000 F200.000000
G1 X66.897837 F200.000000
G1 X66.391814 Y5.243688 F200.000000
G1 X66.041636 Y5.682798 F200.000000
G1 X65.916658 Y6.230359 F200.000000
G1 Y7.246359 F200.000000
G1 X66.041636 Y7.793920 F200.000000
G1 X66.391814 Y8.233030 F200.000000
G1 X66.897837 Y8.476718 F200.000000
G1 X67.459480 F200.000000
G1 X67.584176 Y8.416668 F200.000000
G0 Z0.500000
G0 X40.676539 Y53.899031
G1 Z-0.040000 F60.000000
G1 X40.641636 Y53.942798 F200.000000
G1 X40.516658 Y54.490359 F200.000000
G1 Y55.506359 F200.000000
G1 X40.641636 Y56.053920 F200.000000
G1 X40.991814 Y56.493030 F200.000000
G1 X41.497837 Y56.736718 F200.000000
G1 X42.059480 F200.000000
G1 X42.565503 Y56.493030 F200.000000
G1 X42.915681 Y56.053920 F200.000000
G1 X43.040658 Y55.506359 F200.000000
G1 Y54.490359 F200.000000
G1 X42.915681 Y53.942798 F200.000000
G1 X42.652188 Y53.612388 F200.000000
G0 Z0.500000
G0 X43.216539 Y53.899031
G1 Z-0.040000 F60.000000
G1 X43.181636 Y53.942798 F200.000000
G1 X43.056658 Y54.490359 F200.000000
G1 Y55.506359 F200.000000
G1 X43.181636 Y56.053920 F200.000000
G1 X43.531814 Y56.493030 F200.000000
G1 X44.037837 Y56.736718 F200.000000
G1 X44.599480 F200.000000
G1 X45.105503 Y56.493030 F200.000000
G1 X45.455681 Y56.053920 F200.000000
G1 X45.580658 Y55.506359 F200.000000
G1 Y54.490359 F200.000000
G1 X45.455681 Y53.942798 F200.000000
G1 X45.192188 Y53.612388 F200.000000
G0 Z0.500000
G0 X45.756539 Y53.899031
G1 Z-0.040000 F60.000000
G1 X45.721636 Y53.942798 F200.000000
G1 X45.596658 Y54.490359 F200.000000
G1 Y55.506359 F200.000000
G1 X45.721636 Y56.053920 F200.000000
G1 X46.071814 Y56.493030 F200.000000
G1 X46.577837 Y56.736718 F200.000000
G1 X47.139480 F200.000000
G1 X47.645503 Y56.493030 F200.000000
G1 X47.995681 Y56.053920 F200.000000
G1 X48.120658 Y55.506359 F200.000000
G1 Y54.490359 F200.000000
G1 X47.995681 Y53.942798 F200.000000
G1 X47.732188 Y53.612388 F200.000000
G0 Z0.500000
G0 X48.296539 Y53.899031
G1 Z-0.040000 F60.000000
G1 X48.261636 Y53.942798 F200.000000
G1 X48.136658 Y54.490359 F200.000000
G1 Y55.506359 F200.000000
G1 X48.261636 Y56.053920 F200.000000
G1 X48.611814 Y56.493030 F200.000000
G1 X49.117837 Y56.736718 F200.000000
G1 X49.679480 F200.000000
G1 X50.185503 Y56.493030 F200.000000
G1 X50.535681 Y56.053920 F200.000000
G1 X50.660658 Y55.506359 F200.000000
G1 Y54.490359 F200.000000
G1 X50.535681 Y53.942798 F200.000000
G1 X50.272188 Y53.612388 F200.000000
G0 Z0.500000
G0 X50.836539 Y53.899031
G1 Z-0.040000 F60.000000
G1 X50.801636 Y53.942798 F200.000000
G1 X50.676658 Y54.490359 F200.000000
G1 Y55.506359 F200.000000
G1 X50.801636 Y56.053920 F200.000000
G1 X51.151814 Y56.493030 F200.000000
G1 X51.657837 Y56.736718 F200.000000
G1 X52.219480 F200.000000
G1 X52.725503 Y56.493030 F200.000000
G1 X53.075681 Y56.053920 F200.000000
G1 X53.200658 Y55.506359 F200.000000
G1 Y54.490359 F200.000000
G1 X53.075681 Y53.942798 F200.000000
G1 X52.812188 Y53.612388 F200.000000
G0 Z0.500000
G0 X53.578659 Y53.645580
G1 Z-0.040000 F60.000000
G1 X53.341636 Y53.942798 F200.000000
G1 X53.216658 Y54.490359 F200.000000
G1 Y55.506359 F200.000000
G1 X53.341636 Y56.053920 F200.000000
G1 X53.691814 Y56.493030 F200.000000
G1 X54.197837 Y56.736718 F200.000000
G1 X54.759480 F200.000000
G1 X55.265503 Y56.493030 F200.000000
G1 X55.615681 Y56.053920 F200.000000
G1 X55.740658 Y55.506359 F200.000000
G1 Y54.490359 F200.000000
G1 X55.615681 Y53.942798 F200.000000
G1 X55.378658 Y53.645580 F200.000000
G0 Z0.500000
G0 X57.542659 Y53.770975
G1 Z-0.040000 F60.000000
G1 X57.405636 Y53.942798 F200.000000
G1 X57.280658 Y54.490359 F200.000000
G1 Y55.506359 F200.000000
G1 X57.405636 Y56.053920 F200.000000
G1 X57.755814 Y56.493030 F200.000000
G1 X58.261837 Y56.736718 F200.000000
G1 X58.823480 F200.000000
G1 X59.329503 Y56.493030 F200.000000
G1 X59.679681 Y56.053920 F200.000000
G1 X59.804658 Y55.506359 F200.000000
G1 Y54.490359 F200.000000
G1 X59.679681 Y53.942798 F200.000000
G1 X59.542657 Y53.770975 F200.000000
G0 Z0.500000
G0 X60.182659 Y53.645580
G1 Z-0.040000 F60.000000
G1 X59.945636 Y53.942798 F200.000000
G1 X59.820658 Y54.490359 F200.000000
G1 Y55.506359 F200.000000
G1 X59.945636 Y56.053920 F200.000000
G1 X60.295814 Y56.493030 F200.000000
G1 X60.801837 Y56.736718 F200.000000
G1 X61.363480 F200.000000
G1 X61.869503 Y56.493030 F200.000000
G1 X62.219681 Y56.053920 F200.000000
G1 X62.344658 Y55.506359 F200.000000
G1 Y54.490359 F200.000000
G1 X62.219681 Y53.942798 F200.000000
G1 X61.982658 Y53.645580 F200.000000
G0 Z0.500000
G0 X62.722659
G1 Z-0.040000 F60.000000
G1 X62.485636 Y53.942798 F200.000000
G1 X62.360658 Y54.490359 F200.000000
G1 Y55.506359 F200.000000
G1 X62.485636 Y56.053920 F200.000000
G1 X62.835814 Y56.493030 F200.000000
G1 X63.341837 Y56.736718 F200.000000
G1 X63.903480 F200.000000
G1 X64.409503 Y56.493030 F200.000000
G1 X64.759681 Y56.053920 F200.000000
G1 X64.884658 Y55.506359 F200.000000
G1 Y54.490359 F200.000000
G1 X64.759681 Y53.942798 F200.000000
G1 X64.522658 Y53.645580 F200.000000
G0 Z0.500000
G0 X65.262659
G1 Z-0.040000 F60.000000
G1 X65.025636 Y53.942798 F200.000000
G1 X64.900658 Y54.490359 F200.000000
G1 Y55.506359 F200.000000
G1 X65.025636 Y56.053920 F200.000000
G1 X65.375814 Y56.493030 F200.000000
G1 X65.881837 Y56.736718 F200.000000
G1 X66.443480 F200.000000
G1 X66.949503 Y56.493030 F200.000000
G1 X67.299681 Y56.053920 F200.000000
G1 X67.424658 Y55.506359 F200.000000
G1 Y54.490359 F200.000000
G1 X67.299681 Y53.942798 F200.000000
G1 X67.062658 Y53.645580 F200.000000
G0 Z0.500000
G0 X67.802659
G1 Z-0.040000 F60.000000
G1 X67.565636 Y53.942798 F200.000000
G1 X67.440658 Y54.490359 F200.000000
G1 Y55.506359 F200.000000
G1 X67.565636 Y56.053920 F200.000000
G1 X67.915814 Y56.493030 F200.000000
G1 X68.421837 Y56.736718 F200.000000
G1 X68.983480 F200.000000
G1 X69.489503 Y56.493030 F200.000000
G1 X69.839681 Y56.053920 F200.000000
G1 X69.964658 Y55.506359 F200.000000
G1 Y54.490359 F200.000000
G1 X69.839681 Y53.942798 F200.000000
G1 X69.602658 Y53.645580 F200.000000
G0 Z0.500000
G0 X69.980658 Y55.506359
G1 Z-0.040000 F60.000000
G1 X70.105636 Y56.053920 F200.000000
G1 X70.455814 Y56.493030 F200.000000
G1 X70.961837 Y56.736718 F200.000000
G1 X71.523480 F200.000000
G1 X72.029503 Y56.493030 F200.000000
G1 X72.379681 Y56.053920 F200.000000
G1 X72.504658 Y55.506359 F200.000000
G1 Y54.490359 F200.000000
G1 X72.379681 Y53.942798 F200.000000
G1 X72.029503 Y53.503688 F200.000000
G1 X71.523480 Y53.260000 F200.000000
G1 X70.961837 F200.000000
G1 X70.455814 Y53.503688 F200.000000
G1 X70.105636 Y53.942798 F200.000000
G1 X69.980658 Y54.490359 F200.000000
G1 Y55.506359 F200.000000
G0 Z0.500000
G0 X72.532660 Y54.437777
G1 Z-0.040000 F60.000000
G1 X72.520658 Y54.490359 F200.000000
G1 Y55.506359 F200.000000
G1 X72.645636 Y56.053920 F200.000000
G1 X72.995814 Y56.493030 F200.000000
G1 X73.501837 Y56.736718 F200.000000
G1 X74.063480 F200.000000
G1 X74.569503 Y56.493030 F200.000000
G1 X74.919681 Y56.053920 F200.000000
G1 X75.044658 Y55.506359 F200.000000
G1 Y54.490359 F200.000000
G1 X75.032657 Y54.437777 F200.000000
G0 Z0.500000
G0 X75.060658 Y55.506359
G1 Z-0.040000 F60.000000
G1 X75.185636 Y56.053920 F200.000000
G1 X75.535814 Y56.493030 F200.000000
G1 X76.041837 Y56.736718 F200.000000
G1 X76.603480 F200.000000
G1 X77.109503 Y56.493030 F200.000000
G1 X77.459681 Y56.053920 F200.000000
G1 X77.584658 Y55.506359 F200.000000
G1 Y54.490359 F200.000000
G1 X77.459681 Y53.942798 F200.000000
G1 X77.109503 Y53.503688 F200.000000
G1 X76.603480 Y53.260000 F200.000000
G1 X76.041837 F200.000000
G1 X75.535814 Y53.503688 F200.000000
G1 X75.185636 Y53.942798 F200.000000
G1 X75.060658 Y54.490359 F200.000000
G1 Y55.506359 F200.000000
G0 Z0.500000
G0 X63.348657 Y7.298941
G1 Z-0.040000 F60.000000
G1 X63.360658 Y7.246359 F200.000000
G1 Y6.230359 F200.000000
G1 X63.235681 Y5.682798 F200.000000
G1 X62.885503 Y5.243688 F200.000000
G1 X62.379480 Y5.000000 F200.000000
G1 X61.817837 F200.000000
G1 X61.311814 Y5.243688 F200.000000
G1 X60.961636 Y5.682798 F200.000000
G1 X60.836658 Y6.230359 F200.000000
G1 Y7.246359 F200.000000
G1 X60.848660 Y7.298941 F200.000000
G0 Z0.500000
G0 X9.144776 Y31.117241
G1 Z-0.040000 F60.000000
G1 X9.033202 Y30.939673 F200.000000
G1 X8.902449 Y30.775713 F200.000000
G1 X8.886629 Y30.706403 F200.000000
G1 X8.848806 Y30.646207 F200.000000
G1 X8.825325 Y30.437814 F200.000000
G1 X8.778660 Y30.233359 F200.000000
G1 Y16.146125 F200.000000
G1 X7.874776 Y15.242241 F200.000000
G1 X7.763202 Y15.064673 F200.000000
G1 X7.632449 Y14.900713 F200.000000
G1 X7.616629 Y14.831403 F200.000000
G1 X7.578806 Y14.771207 F200.000000
G1 X7.555325 Y14.562814 F200.000000
G1 X7.508660 Y14.358359 F200.000000
G1 Y13.343244 F200.000000
G1 X7.493504 Y13.359383 F200.000000
G1 X7.070216 Y13.628010 F200.000000
G1 X6.593420 Y13.782931 F200.000000
G1 X6.093078 Y13.814409 F200.000000
G1 X5.600625 Y13.720469 F200.000000
G1 X5.147006 Y13.507012 F200.000000
G1 X4.760723 Y13.187451 F200.000000
G1 X4.466048 Y12.781865 F200.000000
G1 X4.281495 Y12.315738 F200.000000
G1 X4.218661 Y11.818359 F200.000000
G1 X4.281495 Y11.320980 F200.000000
G1 X4.466048 Y10.854853 F200.000000
G1 X4.760723 Y10.449267 F200.000000
G1 X5.147006 Y10.129706 F200.000000
G1 X5.600625 Y9.916249 F200.000000
G1 X6.093078 Y9.822309 F200.000000
G1 X6.593420 Y9.853787 F200.000000
G1 X7.070216 Y10.008708 F200.000000
G1 X7.493504 Y10.277335 F200.000000
G1 X7.766796 Y10.568361 F200.000000
G1 X8.123658 F200.000000
G1 X8.328113 Y10.615026 F200.000000
G1 X8.536507 Y10.638506 F200.000000
G1 X8.596702 Y10.676330 F200.000000
G1 X8.666012 Y10.692149 F200.000000
G1 X8.829972 Y10.822903 F200.000000
G1 X9.007541 Y10.934477 F200.000000
G1 X9.642541 Y11.569477 F200.000000
G1 X9.754115 Y11.747045 F200.000000
G1 X9.884868 Y11.911005 F200.000000
G1 X9.900688 Y11.980315 F200.000000
G1 X9.938511 Y12.040511 F200.000000
G1 X9.961992 Y12.248905 F200.000000
G1 X10.008657 Y12.453359 F200.000000
G1 Y13.840593 F200.000000
G1 X10.912541 Y14.744477 F200.000000
G1 X11.024115 Y14.922045 F200.000000
G1 X11.154868 Y15.086005 F200.000000
G1 X11.170688 Y15.155315 F200.000000
G1 X11.208511 Y15.215511 F200.000000
G1 X11.231992 Y15.423905 F200.000000
G1 X11.278657 Y15.628359 F200.000000
G1 Y29.715593 F200.000000
G0 Z0.500000
G0 X57.746304 Y13.232149
G1 Z-0.040000 F60.000000
G1 X57.815614 Y13.216330 F200.000000
G1 X57.875810 Y13.178506 F200.000000
G1 X58.084204 Y13.155026 F200.000000
G1 X58.288658 Y13.108361 F200.000000
G1 X59.320990 F200.000000
G1 X59.165599 Y12.839215 F200.000000
G1 X59.075168 Y12.326359 F200.000000
G1 X59.165599 Y11.813503 F200.000000
G1 X59.425982 Y11.362505 F200.000000
G1 X59.824913 Y11.027763 F200.000000
G1 X60.266051 Y10.867202 F200.000000
G1 X60.848660 Y10.284593 F200.000000
G1 Y7.298941 F200.000000
G0 Z0.500000
G0 X57.736255 Y22.720358
G1 Z-0.040000 F60.000000
G1 X57.793492 Y22.971129 F200.000000
G1 X58.079163 Y23.329349 F200.000000
G1 X57.710153 Y23.151643 F200.000000
G1 X57.089164 F200.000000
G1 X56.529672 Y23.421080 F200.000000
G1 X56.142492 Y23.906589 F200.000000
G1 X56.004308 Y24.512009 F200.000000
G1 X56.004308 Y26.302709 F200.000000
G1 X56.004308 F200.000000
G1 X56.142492 Y26.908129 F200.000000
G1 X56.149660 Y26.917118 F200.000000
G0 Z0.500000
G0 X58.649657 Y26.917118
G1 Z-0.040000 F60.000000
G1 X58.656825 Y26.908129 F200.000000
G1 X58.795008 Y26.302709 F200.000000
G1 Y24.512009 F200.000000
G1 X58.656825 Y23.906589 F200.000000
G1 X58.371154 Y23.548369 F200.000000
G1 X58.740164 Y23.726075 F200.000000
G1 X59.361153 F200.000000
G1 X59.920645 Y23.456638 F200.000000
G1 X60.307825 Y22.971129 F200.000000
G1 X60.446008 Y22.365709 F200.000000
G1 Y20.575009 F200.000000
G1 X60.307825 Y19.969589 F200.000000
G1 X60.300657 Y19.960600 F200.000000
G0 Z0.500000
G0 X57.800660 Y19.960600
G1 Z-0.040000 F60.000000
G1 X57.793492 Y19.969589 F200.000000
G1 X57.736255 Y20.220361 F200.000000
G0 Z0.500000
G0 X62.143062 Y24.157361
G1 Z-0.040000 F60.000000
G1 X62.085825 Y23.906589 F200.000000
G1 X61.698645 Y23.421080 F200.000000
G1 X61.139153 Y23.151643 F200.000000
G1 X60.518164 F200.000000
G1 X59.958672 Y23.421080 F200.000000
G1 X59.571492 Y23.906589 F200.000000
G1 X59.433308 Y24.512009 F200.000000
G1 X59.433308 Y26.302709 F200.000000
G1 X59.433308 F200.000000
G1 X59.571492 Y26.908129 F200.000000
G1 X59.578660 Y26.917118 F200.000000
G0 Z0.500000
G0 X62.078657 Y26.917118
G1 Z-0.040000 F60.000000
G1 X62.085825 Y26.908129 F200.000000
G1 X62.143062 Y26.657358 F200.000000
G0 Z0.500000
G0 X63.036928 Y19.272324
G1 Z-0.040000 F60.000000
G1 X62.917153 Y19.214643 F200.000000
G1 X62.296164 F200.000000
G1 X61.736672 Y19.484080 F200.000000
G1 X61.349492 Y19.969589 F200.000000
G1 X61.211308 Y20.575009 F200.000000
G1 X61.211308 Y22.365709 F200.000000
G1 X61.211308 F200.000000
G1 X61.349492 Y22.971129 F200.000000
G1 X61.736672 Y23.456638 F200.000000
G1 X62.296164 Y23.726075 F200.000000
G1 X62.917153 F200.000000
G1 X63.286163 Y23.548369 F200.000000
G1 X63.000492 Y23.906589 F200.000000
G1 X62.943255 Y24.157361 F200.000000
G0 Z0.500000
G0 X64.687928 Y23.209324
G1 Z-0.040000 F60.000000
G1 X64.568153 Y23.151643 F200.000000
G1 X63.947164 F200.000000
G1 X63.578154 Y23.329349 F200.000000
G1 X63.863825 Y22.971129 F200.000000
G1 X64.002008 Y22.365709 F200.000000
G1 Y21.842774 F200.000000
G0 Z0.500000
G0 X62.943255 Y26.657358
G1 Z-0.040000 F60.000000
G1 X63.000492 Y26.908129 F200.000000
G1 X63.387672 Y27.393638 F200.000000
G1 X63.947164 Y27.663075 F200.000000
G1 X64.568153 F200.000000
G1 X65.127645 Y27.393638 F200.000000
G1 X65.514825 Y26.908129 F200.000000
G1 X65.653008 Y26.302709 F200.000000
G1 Y25.779774 F200.000000
G0 Z0.500000
G0 X39.966304 Y44.982149
G1 Z-0.040000 F60.000000
G1 X40.006263 Y44.973029 F200.000000
G1 X40.118679 Y44.908126 F200.000000
G1 X40.437384 Y44.874628 F200.000000
G1 X40.508658 Y44.858361 F200.000000
G1 X40.592163 F200.000000
G1 X40.640573 Y44.853272 F200.000000
G1 X40.656233 Y44.858361 F200.000000
G1 X43.132163 F200.000000
G1 X43.180573 Y44.853272 F200.000000
G1 X43.196233 Y44.858361 F200.000000
G1 X45.672163 F200.000000
G1 X45.720573 Y44.853272 F200.000000
G1 X45.736233 Y44.858361 F200.000000
G1 X48.212163 F200.000000
G1 X48.260573 Y44.853272 F200.000000
G1 X48.276233 Y44.858361 F200.000000
G1 X50.668658 F200.000000
G1 X50.668658 F200.000000
G1 X50.752163 F200.000000
G1 X50.800573 Y44.853272 F200.000000
G1 X50.816233 Y44.858361 F200.000000
G1 X53.292163 F200.000000
G1 X53.340573 Y44.853272 F200.000000
G1 X53.356233 Y44.858361 F200.000000
G1 X60.650195 F200.000000
G1 X60.321412 Y44.792961 F200.000000
G1 X59.891388 Y44.505629 F200.000000
G1 X59.604056 Y44.075606 F200.000000
G1 X59.503158 Y43.568359 F200.000000
G1 X59.604056 Y43.061112 F200.000000
G1 X59.828659 Y42.724970 F200.000000
G1 Y39.212103 F200.000000
G1 X59.675764 Y39.001661 F200.000000
G1 X59.566658 Y38.488359 F200.000000
G1 X59.675764 Y37.975057 F200.000000
G1 X59.984216 Y37.550510 F200.000000
G1 X60.438679 Y37.288126 F200.000000
G1 X60.960573 Y37.233272 F200.000000
G1 X61.459658 Y37.395435 F200.000000
G1 X61.849638 Y37.746574 F200.000000
G1 X62.063081 Y38.225974 F200.000000
G1 Y38.750744 F200.000000
G1 X61.849638 Y39.230144 F200.000000
G1 X61.828657 Y39.249035 F200.000000
G1 Y42.724970 F200.000000
G1 X62.053261 Y43.061112 F200.000000
G1 X62.098658 Y43.289342 F200.000000
G1 X62.144056 Y43.061112 F200.000000
G1 X62.368659 Y42.724970 F200.000000
G1 Y42.298359 F200.000000
G1 X62.405992 Y42.134795 F200.000000
G1 X62.424776 Y41.968080 F200.000000
G1 X62.455035 Y41.919924 F200.000000
G1 X62.467690 Y41.864476 F200.000000
G1 X62.572293 Y41.733308 F200.000000
G1 X62.661552 Y41.591253 F200.000000
G1 X64.908659 Y39.344146 F200.000000
G1 Y39.212103 F200.000000
G1 X64.755764 Y39.001661 F200.000000
G1 X64.646658 Y38.488359 F200.000000
G1 X64.755764 Y37.975057 F200.000000
G1 X65.064216 Y37.550510 F200.000000
G1 X65.518679 Y37.288126 F200.000000
G1 X66.040573 Y37.233272 F200.000000
G1 X66.539658 Y37.395435 F200.000000
G1 X66.929638 Y37.746574 F200.000000
G1 X67.143081 Y38.225974 F200.000000
G1 Y38.750744 F200.000000
G1 X66.929638 Y39.230144 F200.000000
G1 X66.908657 Y39.249035 F200.000000
G1 Y39.758359 F200.000000
G1 X66.871456 Y39.921349 F200.000000
G1 X67.448659 Y39.344146 F200.000000
G1 Y39.212103 F200.000000
G1 X67.295764 Y39.001661 F200.000000
G1 X67.186658 Y38.488359 F200.000000
G1 X67.295764 Y37.975057 F200.000000
G1 X67.604216 Y37.550510 F200.000000
G1 X68.058679 Y37.288126 F200.000000
G1 X68.580573 Y37.233272 F200.000000
G1 X69.079658 Y37.395435 F200.000000
G1 X69.469638 Y37.746574 F200.000000
G1 X69.683081 Y38.225974 F200.000000
G1 Y38.750744 F200.000000
G1 X69.469638 Y39.230144 F200.000000
G1 X69.448657 Y39.249035 F200.000000
G1 Y39.758359 F200.000000
G1 X69.411325 Y39.921923 F200.000000
G1 X69.392541 Y40.088638 F200.000000
G1 X69.362282 Y40.136794 F200.000000
G1 X69.349626 Y40.192242 F200.000000
G1 X69.245024 Y40.323410 F200.000000
G0 Z0.500000
G0 X75.510177 Y26.010276
G1 Z-0.040000 F60.000000
G1 Y30.139379 F200.000000
G1 X75.463275 Y30.344870 F200.000000
G1 X75.439311 Y30.554279 F200.000000
G1 X75.401965 Y30.613486 F200.000000
G1 X75.386388 Y30.681733 F200.000000
G1 X75.298658 Y30.791743 F200.000000
G1 Y32.638359 F200.000000
G1 X71.758658 F200.000000
G1 Y29.327666 F200.000000
G1 X70.602246 Y30.482536 F200.000000
G1 X68.062541 Y33.022241 F200.000000
G1 X67.884972 Y33.133815 F200.000000
G1 X67.721012 Y33.264569 F200.000000
G1 X67.651702 Y33.280388 F200.000000
G1 X67.591507 Y33.318212 F200.000000
G1 X67.383113 Y33.341692 F200.000000
G1 X67.178658 Y33.388358 F200.000000
G1 X58.073598 F200.000000
G0 Z0.500000
G0 X72.618860 Y28.402532
G1 Z-0.040000 F60.000000
G1 X72.506951 Y28.580371 F200.000000
G1 X71.988271 Y29.098359 F200.000000
G1 X73.010180 F200.000000
G1 Y25.789778 F200.000000
G1 X72.965765 Y25.860465 F200.000000
G1 X72.873657 Y25.952573 F200.000000
G1 Y27.695899 F200.000000
G1 X72.826901 Y27.900751 F200.000000
G1 X72.803235 Y28.109534 F200.000000
G1 X72.765595 Y28.169351 F200.000000
G1 X72.749868 Y28.238253 F200.000000
G1 X72.618860 Y28.402532 F200.000000
G0 Z0.500000
G0 X58.073598 Y33.388358
G1 Z-0.040000 F60.000000
G1 Y33.563785 F200.000000
G1 X58.110868 Y33.588689 F200.000000
G1 X58.398201 Y34.018712 F200.000000
G1 X58.499098 Y34.525959 F200.000000
G1 X58.398201 Y35.033206 F200.000000
G1 X58.110868 Y35.463229 F200.000000
G1 X57.680845 Y35.750561 F200.000000
G1 X57.173598 Y35.851459 F200.000000
G1 X56.666352 Y35.750561 F200.000000
G1 X56.236328 Y35.463229 F200.000000
G1 X55.948996 Y35.033206 F200.000000
G1 X55.848098 Y34.525959 F200.000000
G1 X55.948996 Y34.018712 F200.000000
G1 X56.236328 Y33.588689 F200.000000
G1 X56.273599 Y33.563785 F200.000000
G1 Y32.299902 F200.000000
G1 X56.273449 Y32.299713 F200.000000
G1 X56.257629 Y32.230403 F200.000000
G1 X56.219806 Y32.170207 F200.000000
G1 X56.196325 Y31.961814 F200.000000
G1 X56.149660 Y31.757359 F200.000000
G1 Y31.249359 F200.000000
G1 Y26.917118 F200.000000
G0 Z0.500000
G0 X60.182659 Y53.645580
G1 Z-0.040000 F60.000000
G1 Y52.320250 F200.000000
G1 X59.891388 Y52.125629 F200.000000
G1 X59.604056 Y51.695606 F200.000000
G1 X59.503158 Y51.188359 F200.000000
G1 X59.604056 Y50.681112 F200.000000
G1 X59.891388 Y50.251089 F200.000000
G1 X60.321412 Y49.963757 F200.000000
G1 X60.828658 Y49.862859 F200.000000
G1 X61.335905 Y49.963757 F200.000000
G1 X61.765928 Y50.251089 F200.000000
G1 X62.053261 Y50.681112 F200.000000
G1 X62.098658 Y50.909342 F200.000000
G1 X62.144056 Y50.681112 F200.000000
G1 X62.431388 Y50.251089 F200.000000
G1 X62.861412 Y49.963757 F200.000000
G1 X63.368658 Y49.862859 F200.000000
G1 X63.875905 Y49.963757 F200.000000
G1 X64.305928 Y50.251089 F200.000000
G1 X64.593261 Y50.681112 F200.000000
G1 X64.638658 Y50.909342 F200.000000
G1 X64.684056 Y50.681112 F200.000000
G1 X64.971388 Y50.251089 F200.000000
G1 X65.401412 Y49.963757 F200.000000
G1 X65.908658 Y49.862859 F200.000000
G1 X66.415905 Y49.963757 F200.000000
G1 X66.845928 Y50.251089 F200.000000
G1 X67.133261 Y50.681112 F200.000000
G1 X67.234158 Y51.188359 F200.000000
G1 X67.133261 Y51.695606 F200.000000
G1 X67.062658 Y51.801271 F200.000000
G1 Y53.645580 F200.000000
G0 Z0.500000
G0 X62.722659
G1 Z-0.040000 F60.000000
G1 Y52.320250 F200.000000
G1 X62.431388 Y52.125629 F200.000000
G1 X62.144056 Y51.695606 F200.000000
G1 X62.098658 Y51.467376 F200.000000
G1 X62.053261 Y51.695606 F200.000000
G1 X61.982658 Y51.801271 F200.000000
G1 Y53.645580 F200.000000
G0 Z0.500000
G0 X62.144056 Y44.075606
G1 Z-0.040000 F60.000000
G1 X62.098658 Y43.847376 F200.000000
G1 X62.053261 Y44.075606 F200.000000
G1 X61.765928 Y44.505629 F200.000000
G1 X61.335905 Y44.792961 F200.000000
G1 X61.007121 Y44.858361 F200.000000
G1 X63.190195 F200.000000
G1 X62.861412 Y44.792961 F200.000000
G1 X62.431388 Y44.505629 F200.000000
G1 X62.144056 Y44.075606 F200.000000
G0 Z0.500000
G0 X65.262659 Y53.645580
G1 Z-0.040000 F60.000000
G1 Y52.320250 F200.000000
G1 X64.971388 Y52.125629 F200.000000
G1 X64.684056 Y51.695606 F200.000000
G1 X64.638658 Y51.467376 F200.000000
G1 X64.593261 Y51.695606 F200.000000
G1 X64.522658 Y51.801271 F200.000000
G1 Y53.645580 F200.000000
G0 Z0.500000
G0 X64.945861 Y42.135369
G1 Z-0.040000 F60.000000
G1 X64.368657 Y42.712572 F200.000000
G1 Y42.724970 F200.000000
G1 X64.593261 Y43.061112 F200.000000
G1 X64.638658 Y43.289342 F200.000000
G1 X64.684056 Y43.061112 F200.000000
G1 X64.908659 Y42.724970 F200.000000
G1 Y42.298359 F200.000000
G1 X64.945861 Y42.135369 F200.000000
G0 Z0.500000
G0 X64.684056 Y44.075606
G1 Z-0.040000 F60.000000
G1 X64.638658 Y43.847376 F200.000000
G1 X64.593261 Y44.075606 F200.000000
G1 X64.305928 Y44.505629 F200.000000
G1 X63.875905 Y44.792961 F200.000000
G1 X63.547121 Y44.858361 F200.000000
G1 X65.730195 F200.000000
G1 X65.401412 Y44.792961 F200.000000
G1 X64.971388 Y44.505629 F200.000000
G1 X64.684056 Y44.075606 F200.000000
G0 Z0.500000
G0 X69.245024 Y40.323410
G1 Z-0.040000 F60.000000
G1 X69.155765 Y40.465465 F200.000000
G1 X66.908657 Y42.712572 F200.000000
G1 Y42.724970 F200.000000
G1 X67.133261 Y43.061112 F200.000000
G1 X67.234158 Y43.568359 F200.000000
G1 X67.133261 Y44.075606 F200.000000
G1 X66.845928 Y44.505629 F200.000000
G1 X66.415905 Y44.792961 F200.000000
G1 X66.087121 Y44.858361 F200.000000
G1 X72.278660 F200.000000
G1 Y42.298359 F200.000000
G1 Y42.298359 F200.000000
G1 Y42.298359 F200.000000
G1 Y37.198358 F200.000000
G1 X64.618657 F200.000000
G1 Y38.488359 F200.000000
G1 X64.603081 Y38.556603 F200.000000
G1 Y38.750744 F200.000000
G1 X64.512159 Y38.954957 F200.000000
G1 X64.494868 Y39.030713 F200.000000
G1 X64.457653 Y39.077379 F200.000000
G1 X64.389638 Y39.230144 F200.000000
G1 X64.198787 Y39.401986 F200.000000
G1 X64.148020 Y39.465647 F200.000000
G1 X64.105164 Y39.486285 F200.000000
G1 X63.999658 Y39.581283 F200.000000
G1 X63.717581 Y39.672936 F200.000000
G1 X63.646809 Y39.707017 F200.000000
G1 X63.612688 F200.000000
G1 X63.500573 Y39.743446 F200.000000
G1 X63.153982 Y39.707017 F200.000000
G1 X63.090508 F200.000000
G1 X63.072787 Y39.698483 F200.000000
G1 X62.978679 Y39.688592 F200.000000
G1 X62.608765 Y39.475023 F200.000000
G1 X62.589297 Y39.465647 F200.000000
G1 X62.586541 Y39.462192 F200.000000
G1 X62.524216 Y39.426208 F200.000000
G1 X62.215764 Y39.001661 F200.000000
G1 X62.106658 Y38.488359 F200.000000
G1 X62.118660 Y38.431896 F200.000000
G1 Y36.695958 F200.000000
G1 X60.675772 Y36.695958 F200.000000
G1 X60.650868 Y36.733229 F200.000000
G1 X60.220845 Y37.020561 F200.000000
G1 X59.713598 Y37.121459 F200.000000
G1 X59.206352 Y37.020561 F200.000000
G1 X58.776328 Y36.733229 F200.000000
G1 X58.488996 Y36.303206 F200.000000
G1 X58.388098 Y35.795959 F200.000000
G1 X58.488996 Y35.288712 F200.000000
G1 X58.776328 Y34.858689 F200.000000
G1 X59.206352 Y34.571357 F200.000000
G1 X59.713598 Y34.470459 F200.000000
G1 X60.220845 Y34.571357 F200.000000
G1 X60.650868 Y34.858689 F200.000000
G1 X60.675772 Y34.895960 F200.000000
G1 X62.733749 Y34.895960 F200.000000
G1 X62.826304 Y34.822149 F200.000000
G1 X62.963614 Y34.790809 F200.000000
G1 X63.090508 Y34.729701 F200.000000
G1 X63.231349 F200.000000
G1 X63.368658 Y34.698361 F200.000000
G1 X72.293581 Y34.698361 F200.000000
G1 X72.369555 Y34.610682 F200.000000
G1 X72.793374 Y34.338310 F200.000000
G1 X73.276761 Y34.196375 F200.000000
G1 X73.780556 F200.000000
G1 X74.263943 Y34.338310 F200.000000
G1 X74.687762 Y34.610682 F200.000000
G1 X74.763736 Y34.698361 F200.000000
G1 X75.550892 F200.000000
G1 X77.358660 Y32.890593 F200.000000
G1 Y25.594203 F200.000000
G0 Z0.500000
G0 X43.068660 Y28.846125
G1 Z-0.040000 F60.000000
G1 X41.260892 Y27.038358 F200.000000
G1 X41.026425 Y27.038358 F200.000000
G1 X40.500658 Y27.564124 F200.000000
G1 Y28.320359 F200.000000
G1 X37.976658 F200.000000
G1 Y25.796359 F200.000000
G1 X38.732894 F200.000000
G1 X39.624776 Y24.904477 F200.000000
G1 X39.802345 Y24.792903 F200.000000
G1 X39.966304 Y24.662149 F200.000000
G1 X40.035614 Y24.646330 F200.000000
G0 Z0.500000
G0 X41.399087 Y30.888361
G1 Z-0.040000 F60.000000
G1 X41.499641 Y30.868359 F200.000000
G1 X41.399087 Y30.848358 F200.000000
G1 X39.386233 F200.000000
G1 X39.370573 Y30.853446 F200.000000
G1 X39.322163 Y30.848358 F200.000000
G1 X39.238658 F200.000000
G1 X39.167384 Y30.832090 F200.000000
G1 X38.848679 Y30.798592 F200.000000
G1 X38.736263 Y30.733689 F200.000000
G1 X38.696304 Y30.724569 F200.000000
G1 X38.632931 Y30.674030 F200.000000
G1 X38.394216 Y30.536208 F200.000000
G1 X38.366716 Y30.498358 F200.000000
G1 X37.968658 Y30.498358 F200.000000
G1 X37.821451 Y30.464759 F200.000000
G1 X37.671408 Y30.447853 F200.000000
G1 X37.628067 Y30.420620 F200.000000
G1 X37.578163 Y30.409230 F200.000000
G1 X37.460112 Y30.315088 F200.000000
G1 X37.347282 Y30.244192 F200.000000
G1 X38.341450 Y31.238360 F200.000000
G1 X38.366716 F200.000000
G1 X38.394216 Y31.200510 F200.000000
G1 X38.632931 Y31.062688 F200.000000
G1 X38.696304 Y31.012149 F200.000000
G1 X38.736263 Y31.003029 F200.000000
G1 X38.848679 Y30.938126 F200.000000
G1 X39.167384 Y30.904628 F200.000000
G1 X39.238658 Y30.888361 F200.000000
G1 X39.322163 F200.000000
G1 X39.370573 Y30.883272 F200.000000
G1 X39.386233 Y30.888361 F200.000000
G1 X41.399087 F200.000000
G0 Z0.500000
G0 Y33.428361
G1 Z-0.040000 F60.000000
G1 X41.499641 Y33.408359 F200.000000
G1 X41.399087 Y33.388358 F200.000000
G1 X39.386233 F200.000000
G1 X39.370573 Y33.393446 F200.000000
G1 X39.322163 Y33.388358 F200.000000
G1 X39.238658 F200.000000
G1 X39.167384 Y33.372090 F200.000000
G1 X38.848679 Y33.338592 F200.000000
G1 X38.736263 Y33.273689 F200.000000
G1 X38.696304 Y33.264569 F200.000000
G1 X38.632931 Y33.214030 F200.000000
G1 X38.394216 Y33.076208 F200.000000
G1 X38.366716 Y33.038358 F200.000000
G1 X37.968658 F200.000000
G1 X37.821451 Y33.004759 F200.000000
G1 X37.671408 Y32.987853 F200.000000
G1 X37.628067 Y32.960620 F200.000000
G1 X37.578163 Y32.949230 F200.000000
G1 X37.460112 Y32.855088 F200.000000
G1 X37.347282 Y32.784192 F200.000000
G1 X38.341450 Y33.778360 F200.000000
G1 X38.366716 F200.000000
G1 X38.394216 Y33.740510 F200.000000
G1 X38.632931 Y33.602688 F200.000000
G1 X38.696304 Y33.552149 F200.000000
G1 X38.736263 Y33.543029 F200.000000
G1 X38.848679 Y33.478126 F200.000000
G1 X39.167384 Y33.444628 F200.000000
G1 X39.238658 Y33.428361 F200.000000
G1 X39.322163 F200.000000
G1 X39.370573 Y33.423272 F200.000000
G1 X39.386233 Y33.428361 F200.000000
G1 X41.399087 F200.000000
G0 Z0.500000
G0 X41.399087 Y35.968361
G1 Z-0.040000 F60.000000
G1 X41.499641 Y35.948359 F200.000000
G1 X41.399087 Y35.928358 F200.000000
G1 X39.386233 F200.000000
G1 X39.370573 Y35.933446 F200.000000
G1 X39.322163 Y35.928358 F200.000000
G1 X39.238658 F200.000000
G1 X39.167384 Y35.912090 F200.000000
G1 X38.848679 Y35.878592 F200.000000
G1 X38.736263 Y35.813689 F200.000000
G1 X38.696304 Y35.804569 F200.000000
G1 X38.632931 Y35.754030 F200.000000
G1 X38.394216 Y35.616208 F200.000000
G1 X38.366716 Y35.578358 F200.000000
G1 X37.968658 F200.000000
G1 X37.821451 Y35.544759 F200.000000
G1 X37.671408 Y35.527853 F200.000000
G1 X37.628067 Y35.500620 F200.000000
G1 X37.578163 Y35.489230 F200.000000
G1 X37.460112 Y35.395088 F200.000000
G1 X37.347282 Y35.324192 F200.000000
G1 X38.341450 Y36.318360 F200.000000
G1 X38.366716 Y36.318360 F200.000000
G1 X38.394216 Y36.280510 F200.000000
G1 X38.632931 Y36.142688 F200.000000
G1 X38.696304 Y36.092149 F200.000000
G1 X38.736263 Y36.083029 F200.000000
G1 X38.848679 Y36.018126 F200.000000
G1 X39.167384 Y35.984628 F200.000000
G1 X39.238658 Y35.968361 F200.000000
G1 X39.322163 F200.000000
G1 X39.370573 Y35.963272 F200.000000
G1 X39.386233 Y35.968361 F200.000000
G1 X41.399087 F200.000000
G0 Z0.500000
G0 X32.252263 Y32.774755
G1 Z-0.040000 F60.000000
G1 X32.233657 Y32.745143 F200.000000
G1 Y33.525593 F200.000000
G1 X37.216425 Y38.508361 F200.000000
G1 X41.600195 F200.000000
G1 X41.399087 Y38.468358 F200.000000
G1 X39.386233 F200.000000
G1 X39.370573 Y38.473446 F200.000000
G1 X39.322163 Y38.468358 F200.000000
G1 X39.238658 F200.000000
G1 X39.167384 Y38.452090 F200.000000
G1 X38.848679 Y38.418592 F200.000000
G1 X38.736263 Y38.353689 F200.000000
G1 X38.696304 Y38.344569 F200.000000
G1 X38.632931 Y38.294030 F200.000000
G1 X38.394216 Y38.156208 F200.000000
G1 X38.366716 Y38.118358 F200.000000
G1 X37.968658 Y38.118358 F200.000000
G1 X37.821451 Y38.084759 F200.000000
G1 X37.671408 Y38.067853 F200.000000
G1 X37.628067 Y38.040620 F200.000000
G1 X37.578163 Y38.029230 F200.000000
G1 X37.460112 Y37.935088 F200.000000
G1 X37.332263 Y37.854755 F200.000000
G1 X32.252263 Y32.774755 F200.000000
G0 Z0.500000
G0 X42.285905 Y35.902961
G1 Z-0.040000 F60.000000
G1 X42.057676 Y35.948359 F200.000000
G1 X42.285905 Y35.993757 F200.000000
G1 X42.715928 Y36.281089 F200.000000
G1 X43.003261 Y36.711112 F200.000000
G1 X43.068660 Y37.039896 F200.000000
G1 Y34.856822 F200.000000
G1 X43.003261 Y35.185606 F200.000000
G1 X42.715928 Y35.615629 F200.000000
G1 X42.285905 Y35.902961 F200.000000
G0 Z0.500000
G0 X42.530892 Y38.508361
G1 Z-0.040000 F60.000000
G1 X43.068660 Y37.970593 F200.000000
G1 Y37.396822 F200.000000
G1 X43.003261 Y37.725606 F200.000000
G1 X42.715928 Y38.155629 F200.000000
G1 X42.285905 Y38.442961 F200.000000
G1 X41.957121 Y38.508361 F200.000000
G1 X42.530892 F200.000000
G0 Z0.500000
G0 X42.285905 Y33.362961
G1 Z-0.040000 F60.000000
G1 X42.057676 Y33.408359 F200.000000
G1 X42.285905 Y33.453757 F200.000000
G1 X42.715928 Y33.741089 F200.000000
G1 X43.003261 Y34.171112 F200.000000
G1 X43.068660 Y34.499896 F200.000000
G1 Y32.316822 F200.000000
G1 X43.003261 Y32.645606 F200.000000
G1 X42.715928 Y33.075629 F200.000000
G1 X42.285905 Y33.362961 F200.000000
G0 Z0.500000
G0 Y30.822961
G1 Z-0.040000 F60.000000
G1 X42.057676 Y30.868359 F200.000000
G1 X42.285905 Y30.913757 F200.000000
G1 X42.715928 Y31.201089 F200.000000
G1 X43.003261 Y31.631112 F200.000000
G1 X43.068660 Y31.959896 F200.000000
G1 Y29.776822 F200.000000
G1 X43.003261 Y30.105606 F200.000000
G1 X42.715928 Y30.535629 F200.000000
G1 X42.285905 Y30.822961 F200.000000
G0 Z0.500000
G0 X35.032188 Y8.124330
G1 Z-0.040000 F60.000000
G1 X35.025059 Y8.155566 F200.000000
G1 X35.008153 Y8.305610 F200.000000
G1 X34.980920 Y8.348951 F200.000000
G1 X34.969530 Y8.398854 F200.000000
G1 X34.875387 Y8.516905 F200.000000
G1 X34.795054 Y8.644755 F200.000000
G1 X34.153450 Y9.286359 F200.000000
G1 X35.798659 F200.000000
G1 Y8.091138 F200.000000
G0 Z0.500000
G0 X27.173658 Y11.838361
G1 Z-0.040000 F60.000000
G1 X27.257163 F200.000000
G1 X27.305573 Y11.833272 F200.000000
G1 X27.321233 Y11.838361 F200.000000
G1 X29.797163 F200.000000
G1 X29.845573 Y11.833272 F200.000000
G1 X29.861233 Y11.838361 F200.000000
G1 X32.337163 F200.000000
G1 X32.385573 Y11.833272 F200.000000
G1 X32.401233 Y11.838361 F200.000000
G1 X34.877163 F200.000000
G1 X34.925573 Y11.833272 F200.000000
G1 X34.941233 Y11.838361 F200.000000
G1 X36.063658 F200.000000
G1 X36.268113 Y11.885026 F200.000000
G1 X36.476507 Y11.908506 F200.000000
G1 X36.536702 Y11.946330 F200.000000
G1 X36.606012 Y11.962149 F200.000000
G1 X36.769972 Y12.092903 F200.000000
G1 X36.947541 Y12.204477 F200.000000
G1 X38.217541 Y13.474477 F200.000000
G1 X38.329115 Y13.652045 F200.000000
G1 X38.338659 Y13.664014 F200.000000
G1 Y8.091138 F200.000000
G0 Z0.500000
G0 X57.542659 Y53.770975
G1 Z-0.040000 F60.000000
G1 Y53.126572 F200.000000
G1 X56.866446 Y52.450359 F200.000000
G1 X55.756658 F200.000000
G1 Y49.926359 F200.000000
G1 X58.280658 F200.000000
G1 Y51.036147 F200.000000
G1 X59.249765 Y52.005253 F200.000000
G1 X59.339024 Y52.147308 F200.000000
G1 X59.443626 Y52.278476 F200.000000
G1 X59.456282 Y52.333924 F200.000000
G1 X59.486541 Y52.382080 F200.000000
G1 X59.505325 Y52.548795 F200.000000
G1 X59.542657 Y52.712359 F200.000000
G1 Y53.770975 F200.000000
G0 Z0.500000
G0 X53.578659 Y53.645580
G1 Z-0.040000 F60.000000
G1 Y52.831151 F200.000000
G1 X53.197867 Y52.450359 F200.000000
G1 X51.946658 F200.000000
G1 Y49.926359 F200.000000
G1 X54.470658 F200.000000
G1 Y51.177568 F200.000000
G1 X55.115054 Y51.821963 F200.000000
G1 X55.195387 Y51.949813 F200.000000
G1 X55.289530 Y52.067864 F200.000000
G1 X55.300920 Y52.117767 F200.000000
G1 X55.328153 Y52.161108 F200.000000
G1 X55.345059 Y52.311152 F200.000000
G1 X55.378658 Y52.458359 F200.000000
G1 Y53.645580 F200.000000
G0 Z0.500000
G0 X40.676539 Y53.899031
G1 Z-0.040000 F60.000000
G1 X39.872263 Y53.094755 F200.000000
G1 X39.791930 Y52.966905 F200.000000
G1 X39.697787 Y52.848854 F200.000000
G1 X39.686397 Y52.798951 F200.000000
G1 X39.659164 Y52.755610 F200.000000
G1 X39.642258 Y52.605566 F200.000000
G1 X39.608659 Y52.458359 F200.000000
G1 Y52.450359 F200.000000
G1 X39.246658 F200.000000
G1 Y49.926359 F200.000000
G1 X41.770658 F200.000000
G1 Y52.447568 F200.000000
G1 X42.402825 Y53.079735 F200.000000
G1 X42.331930 Y52.966905 F200.000000
G1 X42.237787 Y52.848854 F200.000000
G1 X42.226397 Y52.798951 F200.000000
G1 X42.199164 Y52.755610 F200.000000
G1 X42.182258 Y52.605566 F200.000000
G1 X42.148659 Y52.458359 F200.000000
G1 Y52.450359 F200.000000
G1 X41.786658 F200.000000
G1 Y49.926359 F200.000000
G1 X44.310658 F200.000000
G1 Y52.447568 F200.000000
G1 X44.942825 Y53.079735 F200.000000
G1 X44.871930 Y52.966905 F200.000000
G1 X44.777787 Y52.848854 F200.000000
G1 X44.766397 Y52.798951 F200.000000
G1 X44.739164 Y52.755610 F200.000000
G1 X44.722258 Y52.605566 F200.000000
G1 X44.688659 Y52.458359 F200.000000
G1 Y52.450359 F200.000000
G1 X44.326658 F200.000000
G1 Y49.926359 F200.000000
G1 X46.850658 F200.000000
G1 Y52.447568 F200.000000
G1 X47.482825 Y53.079735 F200.000000
G1 X47.411930 Y52.966905 F200.000000
G1 X47.317787 Y52.848854 F200.000000
G1 X47.306397 Y52.798951 F200.000000
G1 X47.279164 Y52.755610 F200.000000
G1 X47.262258 Y52.605566 F200.000000
G1 X47.228659 Y52.458359 F200.000000
G1 Y52.450359 F200.000000
G1 X46.866658 F200.000000
G1 Y49.926359 F200.000000
G1 X49.390658 F200.000000
G1 Y52.447568 F200.000000
G1 X50.022825 Y53.079735 F200.000000
G1 X49.951930 Y52.966905 F200.000000
G1 X49.857787 Y52.848854 F200.000000
G1 X49.846397 Y52.798951 F200.000000
G1 X49.819164 Y52.755610 F200.000000
G1 X49.802258 Y52.605566 F200.000000
G1 X49.768659 Y52.458359 F200.000000
G1 Y52.450359 F200.000000
G1 X49.406658 F200.000000
G1 Y49.926359 F200.000000
G1 X51.930658 F200.000000
G1 Y52.447568 F200.000000
G1 X52.575054 Y53.091963 F200.000000
G1 X52.655387 Y53.219813 F200.000000
G1 X52.749530 Y53.337864 F200.000000
G1 X52.760920 Y53.387767 F200.000000
G1 X52.788153 Y53.431108 F200.000000
G1 X52.805059 Y53.581152 F200.000000
G1 X52.812188 Y53.612388 F200.000000
G0 Z0.500000
G0 X31.213141 Y8.416668
G1 Z-0.040000 F60.000000
G1 X30.613658 Y9.016151 F200.000000
G1 Y9.286359 F200.000000
G1 X30.975658 F200.000000
G1 Y11.810359 F200.000000
G1 X28.451658 F200.000000
G1 Y9.286359 F200.000000
G1 X28.813659 F200.000000
G1 Y8.643359 F200.000000
G1 X28.847258 Y8.496152 F200.000000
G1 X28.864164 Y8.346108 F200.000000
G1 X28.891397 Y8.302767 F200.000000
G1 X28.902787 Y8.252864 F200.000000
G1 X28.996930 Y8.134813 F200.000000
G1 X29.077263 Y8.006963 F200.000000
G1 X30.356658 Y6.727568 F200.000000
G0 Z0.500000
G0 X27.800658 Y6.727568
G1 Z-0.040000 F60.000000
G1 X27.810054 Y6.736963 F200.000000
G1 X27.890387 Y6.864813 F200.000000
G1 X27.984530 Y6.982864 F200.000000
G1 X27.995920 Y7.032767 F200.000000
G1 X28.023153 Y7.076108 F200.000000
G1 X28.040059 Y7.226152 F200.000000
G1 X28.073658 Y7.373359 F200.000000
G1 Y9.286359 F200.000000
G1 X28.435658 F200.000000
G1 Y11.810359 F200.000000
G1 X25.911658 F200.000000
G1 Y9.286359 F200.000000
G1 X26.273659 F200.000000
G1 Y8.476718 F200.000000
G0 Z0.500000
G0 X23.660909 Y11.603865
G1 Z-0.040000 F60.000000
G1 X23.704250 Y11.631098 F200.000000
G1 X23.754153 Y11.642488 F200.000000
G1 X23.872205 Y11.736630 F200.000000
G1 X24.000054 Y11.816963 F200.000000
G1 X24.371450 Y12.188360 F200.000000
G1 X26.301716 F200.000000
G1 X26.329216 Y12.150510 F200.000000
G1 X26.567931 Y12.012688 F200.000000
G1 X26.631304 Y11.962149 F200.000000
G1 X26.671263 Y11.953029 F200.000000
G1 X26.783679 Y11.888126 F200.000000
G1 X27.102384 Y11.854628 F200.000000
G1 X27.173658 Y11.838361 F200.000000
G0 Z0.500000
G0 X15.789056 Y47.885606
G1 Z-0.040000 F60.000000
G1 X15.688158 Y47.378359 F200.000000
G1 X15.789056 Y46.871112 F200.000000
G1 X16.076388 Y46.441089 F200.000000
G1 X16.506412 Y46.153757 F200.000000
G1 X16.734641 Y46.108359 F200.000000
G1 X16.506412 Y46.062961 F200.000000
G1 X16.076388 Y45.775629 F200.000000
G1 X16.051485 Y45.738358 F200.000000
G1 X15.373658 Y45.738358 F200.000000
G1 Y46.743359 F200.000000
G1 Y46.743359 F200.000000
G1 Y49.702643 F200.000000
G1 X15.494638 Y49.811574 F200.000000
G1 X15.708081 Y50.290974 F200.000000
G1 Y50.606364 F200.000000
G1 X15.742263 Y50.551963 F200.000000
G1 X15.754571 Y50.539655 F200.000000
G1 X15.860764 Y50.040057 F200.000000
G1 X16.113659 Y49.691977 F200.000000
G1 Y48.340533 F200.000000
G1 X16.076388 Y48.315629 F200.000000
G1 X15.789056 Y47.885606 F200.000000
G0 Z0.500000
G0 X19.846370 Y46.887720
G1 Z-0.040000 F60.000000
G1 X19.811579 Y46.815476 F200.000000
G1 X19.670764 Y46.621661 F200.000000
G1 X19.633250 Y46.445172 F200.000000
G1 X19.605000 Y46.386510 F200.000000
G1 Y46.312265 F200.000000
G1 X19.561658 Y46.108359 F200.000000
G1 X19.564586 Y46.094584 F200.000000
G1 X19.555054 Y46.109755 F200.000000
G1 X18.330413 Y47.334395 F200.000000
G1 X18.339158 Y47.378359 F200.000000
G1 X18.238261 Y47.885606 F200.000000
G1 X17.950928 Y48.315629 F200.000000
G1 X17.913658 Y48.340533 F200.000000
G1 Y49.702643 F200.000000
G1 X18.034638 Y49.811574 F200.000000
G1 X18.248081 Y50.290974 F200.000000
G1 Y50.815744 F200.000000
G1 X18.034638 Y51.295144 F200.000000
G1 X17.644658 Y51.646283 F200.000000
G1 X17.278658 Y51.765204 F200.000000
G1 Y53.645580 F200.000000
G0 Z0.500000
G0 X20.823658 Y44.858361
G1 Z-0.040000 F60.000000
G1 X20.907163 F200.000000
G1 X20.955573 Y44.853272 F200.000000
G1 X20.971233 Y44.858361 F200.000000
G1 X23.447163 F200.000000
G1 X23.495573 Y44.853272 F200.000000
G1 X23.511233 Y44.858361 F200.000000
G1 X25.425895 Y44.858361 F200.000000
G1 X20.305892 Y39.738358 F200.000000
G1 X14.356425 Y39.738358 F200.000000
G1 X13.183657 Y40.911125 F200.000000
G1 Y41.663359 F200.000000
G1 Y41.663359 F200.000000
G1 Y41.663359 F200.000000
G1 Y50.553359 F200.000000
G1 X13.168081 Y50.621603 F200.000000
G1 Y50.815744 F200.000000
G1 X13.077159 Y51.019957 F200.000000
G1 X13.059868 Y51.095713 F200.000000
G1 X13.022653 Y51.142379 F200.000000
G1 X12.954638 Y51.295144 F200.000000
G1 X12.763787 Y51.466986 F200.000000
G1 X12.713020 Y51.530647 F200.000000
G1 X12.670164 Y51.551285 F200.000000
G1 X12.564658 Y51.646283 F200.000000
G1 X12.282581 Y51.737936 F200.000000
G1 X12.211809 Y51.772017 F200.000000
G1 X12.177688 F200.000000
G1 X12.065573 Y51.808446 F200.000000
G1 X11.718982 Y51.772017 F200.000000
G1 X11.655508 F200.000000
G1 X11.637787 Y51.763483 F200.000000
G1 X11.543679 Y51.753592 F200.000000
G1 X11.173765 Y51.540023 F200.000000
G1 X11.154297 Y51.530647 F200.000000
G1 X11.151541 Y51.527192 F200.000000
G1 X11.089216 Y51.491208 F200.000000
G1 X10.780764 Y51.066661 F200.000000
G1 X10.671658 Y50.553359 F200.000000
G1 X10.683660 Y50.496896 F200.000000
G1 Y47.556822 F200.000000
G1 X10.643657 Y47.757931 F200.000000
G1 Y49.291359 F200.000000
G1 X10.655658 F200.000000
G1 Y51.815359 F200.000000
G1 X10.643657 F200.000000
G1 Y53.728359 F200.000000
G1 X10.596992 Y53.932814 F200.000000
G1 X10.573511 Y54.141207 F200.000000
G1 X10.535688 Y54.201403 F200.000000
G1 X10.519868 Y54.270713 F200.000000
G1 X10.389115 Y54.434673 F200.000000
G1 X10.277541 Y54.612241 F200.000000
G1 X9.007541 Y55.882241 F200.000000
G1 X8.829972 Y55.993815 F200.000000
G1 X8.666012 Y56.124569 F200.000000
G1 X8.596702 Y56.140388 F200.000000
G1 X8.536507 Y56.178212 F200.000000
G1 X8.328113 Y56.201692 F200.000000
G1 X8.123658 Y56.248358 F200.000000
G1 X7.766796 Y56.248358 F200.000000
G1 X7.493504 Y56.539383 F200.000000
G1 X7.070216 Y56.808010 F200.000000
G1 X6.593420 Y56.962931 F200.000000
G1 X6.093078 Y56.994409 F200.000000
G1 X5.600625 Y56.900469 F200.000000
G1 X5.147006 Y56.687012 F200.000000
G1 X4.760723 Y56.367451 F200.000000
G1 X4.466048 Y55.961865 F200.000000
G1 X4.281495 Y55.495738 F200.000000
G1 X4.218661 Y54.998359 F200.000000
G1 X4.281495 Y54.500980 F200.000000
G1 X4.466048 Y54.034853 F200.000000
G1 X4.760723 Y53.629267 F200.000000
G1 X5.147006 Y53.309706 F200.000000
G1 X5.600625 Y53.096249 F200.000000
G1 X6.093078 Y53.002309 F200.000000
G1 X6.593420 Y53.033787 F200.000000
G1 X7.070216 Y53.188708 F200.000000
G1 X7.493504 Y53.457335 F200.000000
G1 X7.688872 Y53.665380 F200.000000
G1 X8.143660 Y53.210593 F200.000000
G1 Y51.815359 F200.000000
G1 X8.131658 F200.000000
G1 Y49.291359 F200.000000
G1 X8.143660 F200.000000
G1 Y47.757931 F200.000000
G1 X8.068158 Y47.378359 F200.000000
G1 X8.143660 Y46.998787 F200.000000
G1 Y45.217931 F200.000000
G1 X8.068158 Y44.838359 F200.000000
G1 X8.143660 Y44.458787 F200.000000
G1 Y42.925359 F200.000000
G1 X8.131658 F200.000000
G1 Y40.401359 F200.000000
G1 X8.143660 F200.000000
G1 Y37.210359 F200.000000
G1 X8.131658 F200.000000
G1 Y34.686359 F200.000000
G0 Z0.500000
G0 X10.683660 Y47.199896
G1 Z-0.040000 F60.000000
G1 Y45.016822 F200.000000
G1 X10.643657 Y45.217931 F200.000000
G1 Y46.998787 F200.000000
G1 X10.683660 Y47.199896 F200.000000
G0 Z0.500000
G0 X24.898658 Y8.091138
G1 Z-0.040000 F60.000000
G1 Y8.643359 F200.000000
G1 X24.865059 Y8.790566 F200.000000
G1 X24.848153 Y8.940610 F200.000000
G1 X24.820920 Y8.983951 F200.000000
G1 X24.809530 Y9.033854 F200.000000
G1 X24.715387 Y9.151905 F200.000000
G1 X24.635054 Y9.279755 F200.000000
G1 X24.045413 Y9.869395 F200.000000
G1 X24.054158 Y9.913359 F200.000000
G1 X23.953261 Y10.420606 F200.000000
G1 X23.665928 Y10.850629 F200.000000
G1 X23.235905 Y11.137961 F200.000000
G1 X22.728658 Y11.238859 F200.000000
G1 X22.221412 Y11.137961 F200.000000
G1 X21.791388 Y10.850629 F200.000000
G1 X21.766485 Y10.813358 F200.000000
G1 X15.481450 F200.000000
G1 X15.373658 Y10.921151 F200.000000
G1 Y11.602643 F200.000000
G1 X15.494638 Y11.711574 F200.000000
G1 X15.708081 Y12.190974 F200.000000
G1 Y12.715744 F200.000000
G1 X15.494638 Y13.195144 F200.000000
G1 X15.104658 Y13.546283 F200.000000
G1 X14.605573 Y13.708446 F200.000000
G1 X14.083679 Y13.653592 F200.000000
G1 X13.629216 Y13.391208 F200.000000
G1 X13.320764 Y12.966661 F200.000000
G1 X13.211658 Y12.453359 F200.000000
G1 X13.320764 Y11.940057 F200.000000
G1 X13.573659 Y11.591977 F200.000000
G1 Y10.548359 F200.000000
G1 X13.607258 Y10.401152 F200.000000
G1 X13.624164 Y10.251108 F200.000000
G1 X13.651397 Y10.207767 F200.000000
G1 X13.662787 Y10.157864 F200.000000
G1 X13.756930 Y10.039813 F200.000000
G1 X13.837263 Y9.911963 F200.000000
G1 X14.472263 Y9.276963 F200.000000
G0 Z0.500000
G0 X15.751658 Y12.453359
G1 Z-0.040000 F60.000000
G1 X15.860764 Y11.940057 F200.000000
G1 X16.169216 Y11.515510 F200.000000
G1 X16.623679 Y11.253126 F200.000000
G1 X17.145573 Y11.198272 F200.000000
G1 X17.644658 Y11.360435 F200.000000
G1 X18.034638 Y11.711574 F200.000000
G1 X18.248081 Y12.190974 F200.000000
G1 Y12.715744 F200.000000
G1 X18.034638 Y13.195144 F200.000000
G1 X17.644658 Y13.546283 F200.000000
G1 X17.145573 Y13.708446 F200.000000
G1 X16.623679 Y13.653592 F200.000000
G1 X16.169216 Y13.391208 F200.000000
G1 X15.860764 Y12.966661 F200.000000
G1 X15.751658 Y12.453359 F200.000000
G0 Z0.500000
G0 X25.993806 Y18.390511
G1 Z-0.040000 F60.000000
G1 X26.031629 Y18.330315 F200.000000
G1 X26.047449 Y18.261005 F200.000000
G1 X26.178202 Y18.097045 F200.000000
G1 X26.289776 Y17.919477 F200.000000
G1 X27.330895 Y16.878358 F200.000000
G1 X27.321233 Y16.878358 F200.000000
G1 X27.305573 Y16.883446 F200.000000
G1 X27.257163 Y16.878358 F200.000000
G1 X27.173658 F200.000000
G1 X27.102384 Y16.862090 F200.000000
G1 X26.783679 Y16.828592 F200.000000
G1 X26.671263 Y16.763689 F200.000000
G1 X26.631304 Y16.754569 F200.000000
G1 X26.567931 Y16.704030 F200.000000
G1 X26.329216 Y16.566208 F200.000000
G1 X26.301716 Y16.528358 F200.000000
G1 X24.371450 Y16.528358 F200.000000
G1 X23.921392 Y16.978417 F200.000000
G1 X23.953261 Y17.026112 F200.000000
G1 X24.054158 Y17.533359 F200.000000
G1 X23.953261 Y18.040606 F200.000000
G1 X23.665928 Y18.470629 F200.000000
G1 X23.235905 Y18.757961 F200.000000
G1 X22.728658 Y18.858859 F200.000000
G1 X22.221412 Y18.757961 F200.000000
G1 X21.791388 Y18.470629 F200.000000
G1 X21.504056 Y18.040606 F200.000000
G1 X21.403158 Y17.533359 F200.000000
G1 X21.504056 Y17.026112 F200.000000
G1 X21.791388 Y16.596089 F200.000000
G1 X21.916772 Y16.512310 F200.000000
G1 X21.917787 Y16.507864 F200.000000
G1 X22.011930 Y16.389813 F200.000000
G1 X22.092263 Y16.261963 F200.000000
G1 X22.460868 Y15.893358 F200.000000
G1 X13.203658 F200.000000
G1 X13.056451 Y15.859759 F200.000000
G1 X12.906408 Y15.842853 F200.000000
G1 X12.863067 Y15.815620 F200.000000
G1 X12.813163 Y15.804230 F200.000000
G1 X12.695112 Y15.710088 F200.000000
G1 X12.567263 Y15.629755 F200.000000
G1 X11.297263 Y14.359755 F200.000000
G1 X11.216930 Y14.231905 F200.000000
G1 X11.122787 Y14.113854 F200.000000
G1 X11.111397 Y14.063951 F200.000000
G1 X11.084164 Y14.020610 F200.000000
G1 X11.067258 Y13.870566 F200.000000
G1 X11.033659 Y13.723359 F200.000000
G1 Y13.715359 F200.000000
G1 X10.671658 F200.000000
G1 Y11.191359 F200.000000
G1 X13.195658 F200.000000
G1 Y13.712568 F200.000000
G1 X13.576450 Y14.093360 F200.000000
G1 X23.363658 Y14.093360 F200.000000
G1 X23.510866 Y14.126959 F200.000000
G1 X23.660909 Y14.143865 F200.000000
G1 X23.704250 Y14.171098 F200.000000
G1 X23.754153 Y14.182488 F200.000000
G1 X23.872205 Y14.276630 F200.000000
G1 X24.000054 Y14.356963 F200.000000
G1 X24.371450 Y14.728360 F200.000000
G1 X26.301716 Y14.728360 F200.000000
G1 X26.329216 Y14.690510 F200.000000
G1 X26.567931 Y14.552688 F200.000000
G1 X26.631304 Y14.502149 F200.000000
G1 X26.671263 Y14.493029 F200.000000
G1 X26.783679 Y14.428126 F200.000000
G1 X27.102384 Y14.394628 F200.000000
G1 X27.173658 Y14.378361 F200.000000
G1 X27.257163 F200.000000
G1 X27.305573 Y14.373272 F200.000000
G1 X27.321233 Y14.378361 F200.000000
G1 X29.797163 F200.000000
G1 X29.845573 Y14.373272 F200.000000
G1 X29.861233 Y14.378361 F200.000000
G1 X32.337163 F200.000000
G1 X32.385573 Y14.373272 F200.000000
G1 X32.401233 Y14.378361 F200.000000
G1 X34.793658 F200.000000
G1 X34.819987 Y14.384370 F200.000000
G1 X34.925573 Y14.373272 F200.000000
G1 X35.289643 Y14.491566 F200.000000
G1 X35.336012 Y14.502149 F200.000000
G1 X35.345499 Y14.509714 F200.000000
G1 X35.424658 Y14.535435 F200.000000
G1 X35.814638 Y14.886574 F200.000000
G1 X36.028081 Y15.365974 F200.000000
G1 Y15.801172 F200.000000
G1 X36.083660 Y15.745593 F200.000000
G1 Y14.876125 F200.000000
G1 X35.545892 Y14.338358 F200.000000
G1 X34.941233 F200.000000
G1 X34.925573 Y14.343446 F200.000000
G1 X34.877163 Y14.338358 F200.000000
G1 X32.401233 F200.000000
G1 X32.385573 Y14.343446 F200.000000
G1 X32.337163 Y14.338358 F200.000000
G1 X29.861233 F200.000000
G1 X29.845573 Y14.343446 F200.000000
G1 X29.797163 Y14.338358 F200.000000
G1 X27.321233 F200.000000
G1 X27.305573 Y14.343446 F200.000000
G1 X27.257163 Y14.338358 F200.000000
G1 X27.173658 F200.000000
G1 X27.102384 Y14.322090 F200.000000
G1 X26.783679 Y14.288592 F200.000000
G1 X26.671263 Y14.223689 F200.000000
G1 X26.631304 Y14.214569 F200.000000
G1 X26.567931 Y14.164030 F200.000000
G1 X26.329216 Y14.026208 F200.000000
G1 X26.301716 Y13.988358 F200.000000
G1 X23.998658 F200.000000
G1 X23.851451 Y13.954759 F200.000000
G1 X23.701408 Y13.937853 F200.000000
G1 X23.658067 Y13.910620 F200.000000
G1 X23.608163 Y13.899230 F200.000000
G1 X23.490112 Y13.805088 F200.000000
G1 X23.362263 Y13.724755 F200.000000
G1 X22.990867 Y13.353358 F200.000000
G1 X20.398923 F200.000000
G1 X20.184658 Y13.546283 F200.000000
G1 X19.685573 Y13.708446 F200.000000
G1 X19.163679 Y13.653592 F200.000000
G1 X18.709216 Y13.391208 F200.000000
G1 X18.400764 Y12.966661 F200.000000
G1 X18.291658 Y12.453359 F200.000000
G1 X18.400764 Y11.940057 F200.000000
G1 X18.709216 Y11.515510 F200.000000
G1 X19.163679 Y11.253126 F200.000000
G1 X19.685573 Y11.198272 F200.000000
G1 X20.184658 Y11.360435 F200.000000
G1 X20.398923 Y11.553360 F200.000000
G1 X23.363658 Y11.553360 F200.000000
G1 X23.510866 Y11.586959 F200.000000
G1 X23.660909 Y11.603865 F200.000000
G0 Z0.500000
G0 X14.472263 Y9.276963
G1 Z-0.040000 F60.000000
G1 X14.600112 Y9.196630 F200.000000
G1 X14.718163 Y9.102488 F200.000000
G1 X14.768067 Y9.091098 F200.000000
G1 X14.811408 Y9.063865 F200.000000
G1 X14.961451 Y9.046959 F200.000000
G1 X15.108658 Y9.013360 F200.000000
G1 X21.766485 Y9.013360 F200.000000
G1 X21.791388 Y8.976089 F200.000000
G1 X22.221412 Y8.688757 F200.000000
G1 X22.728658 Y8.587859 F200.000000
G1 X22.772622 Y8.596604 F200.000000
G1 X23.098659 Y8.270567 F200.000000
G1 Y8.091138 F200.000000
G0 Z0.500000
G0 X32.024176 Y53.320050
G1 Z-0.040000 F60.000000
G1 X32.623659 Y52.720567 F200.000000
G1 Y52.450359 F200.000000
G1 X32.261658 F200.000000
G1 Y49.926359 F200.000000
G1 X34.785658 F200.000000
G1 Y52.450359 F200.000000
G1 X34.423658 F200.000000
G1 Y53.093359 F200.000000
G1 X34.390059 Y53.240566 F200.000000
G1 X34.373153 Y53.390610 F200.000000
G1 X34.345920 Y53.433951 F200.000000
G1 X34.334530 Y53.483854 F200.000000
G1 X34.240387 Y53.601905 F200.000000
G1 X34.160054 Y53.729755 F200.000000
G1 X32.880658 Y55.009150 F200.000000
G0 Z0.500000
G0 X20.823658 Y47.398361
G1 Z-0.040000 F60.000000
G1 X20.907163 F200.000000
G1 X20.955573 Y47.393272 F200.000000
G1 X20.971233 Y47.398361 F200.000000
G1 X23.447163 F200.000000
G1 X23.495573 Y47.393272 F200.000000
G1 X23.511233 Y47.398361 F200.000000
G1 X25.987163 F200.000000
G1 X26.035573 Y47.393272 F200.000000
G1 X26.051233 Y47.398361 F200.000000
G1 X28.527163 F200.000000
G1 X28.575573 Y47.393272 F200.000000
G1 X28.591233 Y47.398361 F200.000000
G1 X31.067163 F200.000000
G1 X31.115573 Y47.393272 F200.000000
G1 X31.131233 Y47.398361 F200.000000
G1 X33.607163 F200.000000
G1 X33.655573 Y47.393272 F200.000000
G1 X33.671233 Y47.398361 F200.000000
G1 X36.265381 F200.000000
G1 X36.401160 Y47.228099 F200.000000
G1 Y44.403625 F200.000000
G1 X33.640892 Y41.643358 F200.000000
G0 Z0.500000
G0 X27.173658
G1 Z-0.040000 F60.000000
G1 X25.746422 F200.000000
G1 X28.961425 Y44.858361 F200.000000
G1 X31.067163 F200.000000
G1 X31.115573 Y44.853272 F200.000000
G1 X31.131233 Y44.858361 F200.000000
G1 X33.523658 F200.000000
G1 X33.549987 Y44.864370 F200.000000
G1 X33.655573 Y44.853272 F200.000000
G1 X34.019643 Y44.971566 F200.000000
G1 X34.066012 Y44.982149 F200.000000
G1 X34.075499 Y44.989714 F200.000000
G1 X34.154658 Y45.015435 F200.000000
G1 X34.544638 Y45.366574 F200.000000
G1 X34.758081 Y45.845974 F200.000000
G1 Y46.370744 F200.000000
G1 X34.544638 Y46.850144 F200.000000
G1 X34.154658 Y47.201283 F200.000000
G1 X34.075499 Y47.227004 F200.000000
G1 X34.066012 Y47.234569 F200.000000
G1 X34.019643 Y47.245152 F200.000000
G1 X33.655573 Y47.363446 F200.000000
G1 X33.549987 Y47.352348 F200.000000
G1 X33.523658 Y47.358358 F200.000000
G1 X31.131233 F200.000000
G1 X31.115573 Y47.363446 F200.000000
G1 X31.067163 Y47.358358 F200.000000
G1 X28.591233 F200.000000
G1 X28.575573 Y47.363446 F200.000000
G1 X28.527163 Y47.358358 F200.000000
G1 X26.051233 F200.000000
G1 X26.035573 Y47.363446 F200.000000
G1 X25.987163 Y47.358358 F200.000000
G1 X23.511233 F200.000000
G1 X23.495573 Y47.363446 F200.000000
G1 X23.447163 Y47.358358 F200.000000
G1 X20.971233 F200.000000
G1 X20.955573 Y47.363446 F200.000000
G1 X20.907163 Y47.358358 F200.000000
G1 X20.823658 F200.000000
G1 X20.752384 Y47.342090 F200.000000
G1 X20.433679 Y47.308592 F200.000000
G1 X20.321263 Y47.243689 F200.000000
G1 X20.281304 Y47.234569 F200.000000
G1 X20.217931 Y47.184030 F200.000000
G1 X19.979216 Y47.046208 F200.000000
G1 X19.888447 Y46.921275 F200.000000
G1 X19.846370 Y46.887720 F200.000000
G0 Z0.500000
G0 X18.045129 Y53.612388
G1 Z-0.040000 F60.000000
G1 X18.052258 Y53.581152 F200.000000
G1 X18.069164 Y53.431108 F200.000000
G1 X18.096397 Y53.387767 F200.000000
G1 X18.107787 Y53.337864 F200.000000
G1 X18.201930 Y53.219813 F200.000000
G1 X18.282263 Y53.091963 F200.000000
G1 X19.561658 Y51.812568 F200.000000
G1 Y49.926359 F200.000000
G1 X22.085658 F200.000000
G1 Y51.828568 F200.000000
G1 X22.101658 Y51.812568 F200.000000
G1 Y49.926359 F200.000000
G1 X24.625658 F200.000000
G1 Y51.828568 F200.000000
G1 X24.641658 Y51.812568 F200.000000
G1 Y49.926359 F200.000000
G1 X27.165658 F200.000000
G1 Y51.828568 F200.000000
G1 X27.181658 Y51.812568 F200.000000
G1 Y49.926359 F200.000000
G1 X29.705658 F200.000000
G1 Y51.828568 F200.000000
G1 X29.721658 Y51.812568 F200.000000
G1 Y49.926359 F200.000000
G1 X32.245658 F200.000000
G1 Y52.450359 F200.000000
G1 X31.625958 F200.000000
G1 X31.620054 Y52.459755 F200.000000
G1 X30.180778 Y53.899031 F200.000000
G0 Z0.500000
G0 X10.956370 Y36.727720
G1 Z-0.040000 F60.000000
G1 X10.921579 Y36.655476 F200.000000
G1 X10.780764 Y36.461661 F200.000000
G1 X10.743250 Y36.285172 F200.000000
G1 X10.715000 Y36.226510 F200.000000
G1 Y36.152265 F200.000000
G1 X10.671658 Y35.948359 F200.000000
G1 X10.715000 Y35.744453 F200.000000
G1 Y35.670208 F200.000000
G1 X10.743250 Y35.611546 F200.000000
G1 X10.780764 Y35.435057 F200.000000
G1 X10.921579 Y35.241242 F200.000000
G1 X10.956370 Y35.168998 F200.000000
G1 X10.998447 Y35.135443 F200.000000
G1 X11.089216 Y35.010510 F200.000000
G1 X11.327931 Y34.872688 F200.000000
G1 X11.391304 Y34.822149 F200.000000
