(Generated by ./pygerber2gcode_cui_MOD.py )
( 2013-10-19 10:59:36 )
(Initialize)

(Start form here)
G0 Z0.500000
G0 X79.210372 Y50.429932
G1 Z-0.040000 F60.000000
G1 X79.304352 Y50.526452 F200.000000
G1 X79.356054 Y50.611223 F200.000000
G1 X79.408080 Y50.695796 F200.000000
G1 X79.504600 Y50.980276 F200.000000
G1 X79.512125 Y51.053294 F200.000000
G1 X79.528460 Y51.124859 F200.000000
G1 Y51.315359 F200.000000
G1 X79.512257 Y51.386345 F200.000000
G1 X79.504988 Y51.458793 F200.000000
G1 X79.408468 Y51.745813 F200.000000
G1 X79.407002 Y51.748211 F200.000000
G1 X79.406687 Y51.751004 F200.000000
G1 X79.354836 Y51.833525 F200.000000
G1 X79.303995 Y51.916672 F200.000000
G1 X79.301633 Y51.918197 F200.000000
G1 X79.300138 Y51.920577 F200.000000
G1 X79.109638 Y52.111077 F200.000000
G1 X79.047484 Y52.150131 F200.000000
G1 X78.990531 Y52.196441 F200.000000
G1 X78.800031 Y52.290421 F200.000000
G1 X78.753782 Y52.301440 F200.000000
G1 X78.711449 Y52.323078 F200.000000
G1 X78.330449 Y52.419598 F200.000000
G1 X78.274501 Y52.420925 F200.000000
G1 X78.219940 Y52.433379 F200.000000
G1 X77.935460 F200.000000
G1 X77.880899 Y52.420925 F200.000000
G1 X77.824951 Y52.419598 F200.000000
G1 X77.443951 Y52.323078 F200.000000
G1 X77.401618 Y52.301440 F200.000000
G1 X77.355369 Y52.290421 F200.000000
G1 X77.164869 Y52.196441 F200.000000
G1 X77.107916 Y52.150131 F200.000000
G1 X77.045762 Y52.111077 F200.000000
G1 X76.855262 Y51.920577 F200.000000
G1 X76.853767 Y51.918197 F200.000000
G1 X76.851405 Y51.916672 F200.000000
G1 X76.800564 Y51.833525 F200.000000
G1 X76.748713 Y51.751004 F200.000000
G1 X76.748398 Y51.748211 F200.000000
G1 X76.746932 Y51.745813 F200.000000
G1 X76.650412 Y51.458793 F200.000000
G1 X76.643143 Y51.386345 F200.000000
G1 X76.626941 Y51.315359 F200.000000
G1 Y51.124859 F200.000000
G1 X76.643275 Y51.053294 F200.000000
G1 X76.650800 Y50.980276 F200.000000
G1 X76.747320 Y50.695796 F200.000000
G1 X76.799346 Y50.611223 F200.000000
G1 X76.851048 Y50.526452 F200.000000
G1 X76.945028 Y50.429932 F200.000000
G1 X77.113165 Y50.321131 F200.000000
G1 X77.311858 Y50.296057 F200.000000
G1 X77.501753 Y50.359676 F200.000000
G1 X77.645240 Y50.499386 F200.000000
G1 X77.713899 Y50.687518 F200.000000
G1 X77.694131 Y50.886808 F200.000000
G1 X77.589852 Y51.057786 F200.000000
G1 X77.566891 Y51.081367 F200.000000
G1 X77.526940 Y51.199119 F200.000000
G1 Y51.241721 F200.000000
G1 X77.566329 Y51.358852 F200.000000
G1 X77.629648 Y51.422171 F200.000000
G1 X77.710982 Y51.462296 F200.000000
G1 X77.991574 Y51.533380 F200.000000
G1 X78.163826 F200.000000
G1 X78.444418 Y51.462296 F200.000000
G1 X78.525752 Y51.422171 F200.000000
G1 X78.589071 Y51.358852 F200.000000
G1 X78.628461 Y51.241721 F200.000000
G1 Y51.199119 F200.000000
G1 X78.588509 Y51.081367 F200.000000
G1 X78.565548 Y51.057786 F200.000000
G1 X78.461269 Y50.886808 F200.000000
G1 X78.441502 Y50.687518 F200.000000
G1 X78.510160 Y50.499386 F200.000000
G1 X78.653647 Y50.359676 F200.000000
G1 X78.843542 Y50.296057 F200.000000
G1 X79.042235 Y50.321131 F200.000000
G1 X79.210372 Y50.429932 F200.000000
G0 Z0.500000
G0 X78.385460 Y48.744879
G1 Z-0.040000 F60.000000
G1 Y49.125879 F200.000000
G1 X78.340896 Y49.321126 F200.000000
G1 X78.216030 Y49.477703 F200.000000
G1 X78.103573 Y49.531860 F200.000000
G1 X78.165260 F200.000000
G1 X78.443339 Y49.463266 F200.000000
G1 X78.524011 Y49.422393 F200.000000
G1 X78.589524 Y49.356880 F200.000000
G1 X78.628461 Y49.242119 F200.000000
G1 Y49.136854 F200.000000
G1 X78.580524 Y49.042243 F200.000000
G1 X78.532032 Y48.847934 F200.000000
G1 X78.572650 Y48.651827 F200.000000
G1 X78.694332 Y48.492765 F200.000000
G1 X78.872979 Y48.402251 F200.000000
G1 X79.073207 Y48.398212 F200.000000
G1 X79.255358 Y48.481449 F200.000000
G1 X79.383356 Y48.635475 F200.000000
G1 X79.479876 Y48.825975 F200.000000
G1 X79.481000 Y48.830481 F200.000000
G1 X79.483896 Y48.834112 F200.000000
G1 X79.505193 Y48.927422 F200.000000
G1 X79.528368 Y49.020284 F200.000000
G1 X79.527426 Y49.024832 F200.000000
G1 X79.528460 Y49.029359 F200.000000
G1 Y49.316379 F200.000000
G1 X79.512125 Y49.387944 F200.000000
G1 X79.504600 Y49.460962 F200.000000
G1 X79.408080 Y49.745442 F200.000000
G1 X79.406932 Y49.747308 F200.000000
G1 X79.406687 Y49.749484 F200.000000
G1 X79.354521 Y49.832506 F200.000000
G1 X79.303147 Y49.916019 F200.000000
G1 X79.301303 Y49.917202 F200.000000
G1 X79.300138 Y49.919057 F200.000000
G1 X79.109638 Y50.109557 F200.000000
G1 X79.049473 Y50.147361 F200.000000
G1 X78.994824 Y50.192775 F200.000000
G1 X78.804324 Y50.289295 F200.000000
G1 X78.754542 Y50.301718 F200.000000
G1 X78.708710 Y50.324783 F200.000000
G1 X78.327710 Y50.418763 F200.000000
G1 X78.273145 Y50.419715 F200.000000
G1 X78.219940 Y50.431859 F200.000000
G1 X77.935460 F200.000000
G1 X77.882255 Y50.419715 F200.000000
G1 X77.827690 Y50.418763 F200.000000
G1 X77.446690 Y50.324783 F200.000000
G1 X77.400858 Y50.301718 F200.000000
G1 X77.351076 Y50.289295 F200.000000
G1 X77.160576 Y50.192775 F200.000000
G1 X77.105927 Y50.147361 F200.000000
G1 X77.045762 Y50.109557 F200.000000
G1 X76.855262 Y49.919057 F200.000000
G1 X76.854097 Y49.917202 F200.000000
G1 X76.852254 Y49.916019 F200.000000
G1 X76.800879 Y49.832506 F200.000000
G1 X76.748713 Y49.749484 F200.000000
G1 X76.748468 Y49.747308 F200.000000
G1 X76.747320 Y49.745442 F200.000000
G1 X76.650800 Y49.460962 F200.000000
G1 X76.643275 Y49.387944 F200.000000
G1 X76.626941 Y49.316379 F200.000000
G1 Y49.125879 F200.000000
G1 X76.643143 Y49.054893 F200.000000
G1 X76.650412 Y48.982445 F200.000000
G1 X76.746932 Y48.695425 F200.000000
G1 X76.748398 Y48.693027 F200.000000
G1 X76.748713 Y48.690234 F200.000000
G1 X76.800564 Y48.607713 F200.000000
G1 X76.851405 Y48.524566 F200.000000
G1 X76.853767 Y48.523041 F200.000000
G1 X76.855262 Y48.520661 F200.000000
G1 X76.949242 Y48.426681 F200.000000
G1 X77.001335 Y48.393950 F200.000000
G1 X76.851405 Y48.297172 F200.000000
G1 X76.746932 Y48.126313 F200.000000
G1 X76.650412 Y47.839293 F200.000000
G1 X76.643143 Y47.766845 F200.000000
G1 X76.626941 Y47.695859 F200.000000
G1 Y47.220879 F200.000000
G1 X76.627974 Y47.216352 F200.000000
G1 X76.627032 Y47.211804 F200.000000
G1 X76.650207 Y47.118942 F200.000000
G1 X76.671505 Y47.025632 F200.000000
G1 X76.674400 Y47.022001 F200.000000
G1 X76.675524 Y47.017495 F200.000000
G1 X76.772044 Y46.826995 F200.000000
G1 X76.815580 Y46.774606 F200.000000
G1 X76.851048 Y46.716452 F200.000000
G1 X76.945028 Y46.619932 F200.000000
G1 X77.009120 Y46.578459 F200.000000
G1 X77.068349 Y46.530297 F200.000000
G1 X77.258849 Y46.436317 F200.000000
G1 X77.260980 Y46.435809 F200.000000
G1 X77.262693 Y46.434443 F200.000000
G1 X77.358284 Y46.412625 F200.000000
G1 X77.453665 Y46.389900 F200.000000
G1 X77.455805 Y46.390367 F200.000000
G1 X77.457940 Y46.389880 F200.000000
G1 X77.648440 F200.000000
G1 X77.650576 Y46.390367 F200.000000
G1 X77.652715 Y46.389900 F200.000000
G1 X77.748096 Y46.412625 F200.000000
G1 X77.843688 Y46.434443 F200.000000
G1 X77.845400 Y46.435809 F200.000000
G1 X77.847531 Y46.436317 F200.000000
G1 X78.038031 Y46.530297 F200.000000
G1 X78.094984 Y46.576607 F200.000000
G1 X78.157138 Y46.615661 F200.000000
G1 X78.253658 Y46.712181 F200.000000
G1 X78.292712 Y46.774335 F200.000000
G1 X78.339022 Y46.831288 F200.000000
G1 X78.433002 Y47.021788 F200.000000
G1 X78.444021 Y47.068037 F200.000000
G1 X78.465659 Y47.110370 F200.000000
G1 X78.550523 Y47.445357 F200.000000
G1 X78.586784 Y47.518860 F200.000000
G1 X78.602210 Y47.526676 F200.000000
G1 X78.615515 Y47.519934 F200.000000
G1 X78.628461 Y47.494384 F200.000000
G1 Y47.198619 F200.000000
G1 X78.555800 Y46.984462 F200.000000
G1 X78.535269 Y46.785249 F200.000000
G1 X78.603206 Y46.596856 F200.000000
G1 X78.746157 Y46.456596 F200.000000
G1 X78.935807 Y46.392251 F200.000000
G1 X79.134594 Y46.416563 F200.000000
G1 X79.303147 Y46.524719 F200.000000
G1 X79.408080 Y46.695296 F200.000000
G0 Z0.500000
G1 Z-0.040000 F60.000000
G1 X79.504600 Y46.979776 F200.000000
G1 X79.512125 Y47.052794 F200.000000
G1 X79.528460 Y47.124359 F200.000000
G1 Y47.601879 F200.000000
G1 X79.527426 Y47.606406 F200.000000
G1 X79.528368 Y47.610954 F200.000000
G1 X79.505193 Y47.703816 F200.000000
G1 X79.483896 Y47.797126 F200.000000
G1 X79.481000 Y47.800757 F200.000000
G1 X79.479876 Y47.805263 F200.000000
G1 X79.383356 Y47.995763 F200.000000
G1 X79.337942 Y48.050412 F200.000000
G1 X79.300138 Y48.110577 F200.000000
G1 X79.206158 Y48.204557 F200.000000
G1 X79.145993 Y48.242361 F200.000000
G1 X79.091344 Y48.287775 F200.000000
G1 X78.900844 Y48.384295 F200.000000
G1 X78.896338 Y48.385419 F200.000000
G1 X78.892708 Y48.388315 F200.000000
G1 X78.799397 Y48.409612 F200.000000
G1 X78.706535 Y48.432787 F200.000000
G1 X78.701988 Y48.431845 F200.000000
G1 X78.697460 Y48.432879 F200.000000
G1 X78.506960 F200.000000
G1 X78.502433 Y48.431845 F200.000000
G1 X78.497885 Y48.432787 F200.000000
G1 X78.405023 Y48.409612 F200.000000
G1 X78.311713 Y48.388315 F200.000000
G1 X78.308082 Y48.385419 F200.000000
G1 X78.303576 Y48.384295 F200.000000
G1 X78.113076 Y48.287775 F200.000000
G1 X78.060687 Y48.244239 F200.000000
G1 X78.002533 Y48.208771 F200.000000
G1 X77.906013 Y48.114791 F200.000000
G1 X77.864540 Y48.050699 F200.000000
G1 X77.816378 Y47.991470 F200.000000
G1 X77.722398 Y47.800970 F200.000000
G1 X77.711379 Y47.754721 F200.000000
G1 X77.689741 Y47.712388 F200.000000
G1 X77.604877 Y47.377401 F200.000000
G1 X77.567560 Y47.301759 F200.000000
G1 X77.553190 Y47.294669 F200.000000
G1 X77.540959 Y47.300703 F200.000000
G1 X77.526940 Y47.328374 F200.000000
G1 Y47.622221 F200.000000
G1 X77.599988 Y47.839445 F200.000000
G1 X77.619982 Y48.038713 F200.000000
G1 X77.551537 Y48.226922 F200.000000
G1 X77.481902 Y48.294880 F200.000000
G1 X77.935460 F200.000000
G1 X77.984892 Y48.306162 F200.000000
G1 X78.035594 F200.000000
G1 X78.081276 Y48.328161 F200.000000
G1 X78.130708 Y48.339443 F200.000000
G1 X78.170349 Y48.371056 F200.000000
G1 X78.216030 Y48.393055 F200.000000
G1 X78.247643 Y48.432696 F200.000000
G1 X78.287284 Y48.464309 F200.000000
G1 X78.309283 Y48.509991 F200.000000
G1 X78.340896 Y48.549632 F200.000000
G1 X78.352178 Y48.599063 F200.000000
G1 X78.374177 Y48.644745 F200.000000
G1 Y48.695447 F200.000000
G1 X78.385460 Y48.744879 F200.000000
G0 Z0.500000
G0 X78.910522 Y40.942970
G1 Z-0.040000 F60.000000
G1 X78.784175 Y41.098353 F200.000000
G1 X78.698729 Y41.138506 F200.000000
G1 X78.807969 Y41.166180 F200.000000
G1 X78.850302 Y41.187818 F200.000000
G1 X78.896551 Y41.198837 F200.000000
G1 X79.087051 Y41.292817 F200.000000
G1 X79.146280 Y41.340979 F200.000000
G1 X79.210372 Y41.382452 F200.000000
G1 X79.304352 Y41.478972 F200.000000
G1 X79.339820 Y41.537126 F200.000000
G1 X79.383356 Y41.589515 F200.000000
G1 X79.479876 Y41.780015 F200.000000
G1 X79.481000 Y41.784521 F200.000000
G1 X79.483896 Y41.788152 F200.000000
G1 X79.505193 Y41.881462 F200.000000
G1 X79.528368 Y41.974324 F200.000000
G1 X79.527426 Y41.978872 F200.000000
G1 X79.528460 Y41.983399 F200.000000
G1 Y42.173899 F200.000000
G1 X79.527426 Y42.178426 F200.000000
G1 X79.528368 Y42.182974 F200.000000
G1 X79.505193 Y42.275836 F200.000000
G1 X79.483896 Y42.369146 F200.000000
G1 X79.481000 Y42.372777 F200.000000
G1 X79.479876 Y42.377283 F200.000000
G1 X79.383356 Y42.567783 F200.000000
G1 X79.337942 Y42.622432 F200.000000
G1 X79.300138 Y42.682597 F200.000000
G1 X79.206158 Y42.776577 F200.000000
G1 X79.145993 Y42.814381 F200.000000
G1 X79.091344 Y42.859795 F200.000000
G1 X78.900844 Y42.956315 F200.000000
G1 X78.851062 Y42.968738 F200.000000
G1 X78.813878 Y42.987451 F200.000000
G1 X78.892708 Y43.005443 F200.000000
G1 X78.896338 Y43.008339 F200.000000
G1 X78.900844 Y43.009463 F200.000000
G1 X79.091344 Y43.105983 F200.000000
G1 X79.145993 Y43.151397 F200.000000
G1 X79.206158 Y43.189201 F200.000000
G1 X79.300138 Y43.283181 F200.000000
G1 X79.337942 Y43.343346 F200.000000
G1 X79.383356 Y43.397995 F200.000000
G1 X79.479876 Y43.588495 F200.000000
G1 X79.481000 Y43.593001 F200.000000
G1 X79.483896 Y43.596632 F200.000000
G1 X79.505193 Y43.689942 F200.000000
G1 X79.528368 Y43.782804 F200.000000
G1 X79.527426 Y43.787352 F200.000000
G1 X79.528460 Y43.791879 F200.000000
G1 Y44.269399 F200.000000
G1 X79.527426 Y44.273926 F200.000000
G1 X79.528368 Y44.278474 F200.000000
G1 X79.505193 Y44.371336 F200.000000
G1 X79.483896 Y44.464646 F200.000000
G1 X79.481000 Y44.468277 F200.000000
G1 X79.479876 Y44.472783 F200.000000
G1 X79.383356 Y44.663283 F200.000000
G1 X79.337942 Y44.717932 F200.000000
G1 X79.300138 Y44.778097 F200.000000
G1 X79.206158 Y44.872077 F200.000000
G1 X79.036585 Y44.978626 F200.000000
G1 X78.837576 Y45.001049 F200.000000
G1 X78.648546 Y44.934904 F200.000000
G1 X78.506935 Y44.793293 F200.000000
G1 X78.440790 Y44.604263 F200.000000
G1 X78.463213 Y44.405254 F200.000000
G1 X78.569762 Y44.235681 F200.000000
G1 X78.612974 Y44.192470 F200.000000
G1 X78.628461 Y44.161904 F200.000000
G1 Y43.899374 F200.000000
G1 X78.615515 Y43.873824 F200.000000
G1 X78.589965 Y43.860879 F200.000000
G1 X78.580598 F200.000000
G1 X78.463467 Y43.900268 F200.000000
G1 X77.395138 Y44.968597 F200.000000
G1 X77.373467 Y44.982213 F200.000000
G1 X77.357510 Y45.002223 F200.000000
G1 X77.289490 Y45.034979 F200.000000
G1 X77.225565 Y45.075146 F200.000000
G1 X77.200133 Y45.078012 F200.000000
G1 X77.177074 Y45.089116 F200.000000
G1 X77.101578 F200.000000
G1 X77.026556 Y45.097569 F200.000000
G1 X77.002399 Y45.089116 F200.000000
G1 X76.976806 Y45.089116 F200.000000
G1 X76.908786 Y45.056359 F200.000000
G1 X76.837526 Y45.031424 F200.000000
G1 X76.819429 Y45.013327 F200.000000
G1 X76.796370 Y45.002223 F200.000000
G1 X76.749299 Y44.943197 F200.000000
G1 X76.695915 Y44.889813 F200.000000
G1 X76.687462 Y44.865656 F200.000000
G1 X76.671505 Y44.845646 F200.000000
G1 X76.654705 Y44.772043 F200.000000
G1 X76.629770 Y44.700783 F200.000000
G1 X76.632636 Y44.675351 F200.000000
G1 X76.626941 Y44.650399 F200.000000
G1 Y43.410879 F200.000000
G1 X76.671505 Y43.215632 F200.000000
G1 X76.796370 Y43.059055 F200.000000
G1 X76.976806 Y42.972162 F200.000000
G1 X77.177074 F200.000000
G1 X77.357510 Y43.059055 F200.000000
G1 X77.482376 Y43.215632 F200.000000
G1 X77.526940 Y43.410879 F200.000000
G1 Y43.564004 F200.000000
G1 X77.901742 Y43.189201 F200.000000
G1 X77.904122 Y43.187706 F200.000000
G1 X77.905647 Y43.185344 F200.000000
G1 X77.988794 Y43.134503 F200.000000
G1 X78.045490 Y43.098879 F200.000000
G1 X77.838940 F200.000000
G1 X77.785735 Y43.086735 F200.000000
G1 X77.731170 Y43.085783 F200.000000
G1 X77.350170 Y42.991803 F200.000000
G1 X77.304338 Y42.968738 F200.000000
G1 X77.254556 Y42.956315 F200.000000
G1 X77.064056 Y42.859795 F200.000000
G1 X77.009407 Y42.814381 F200.000000
G1 X76.949242 Y42.776577 F200.000000
G1 X76.855262 Y42.682597 F200.000000
G1 X76.817458 Y42.622432 F200.000000
G1 X76.772044 Y42.567783 F200.000000
G1 X76.675524 Y42.377283 F200.000000
G1 X76.674400 Y42.372777 F200.000000
G1 X76.671505 Y42.369146 F200.000000
G1 X76.650207 Y42.275836 F200.000000
G0 Z0.500000
G0 X78.622257 Y42.078649
G1 Z-0.040000 F60.000000
G1 X78.614441 Y42.063223 F200.000000
G1 X78.540938 Y42.026962 F200.000000
G1 X78.260346 Y41.955879 F200.000000
G1 X77.895054 F200.000000
G1 X77.614462 Y42.026962 F200.000000
G1 X77.540959 Y42.063223 F200.000000
G1 X77.533144 Y42.078649 F200.000000
G1 X77.539885 Y42.091954 F200.000000
G1 X77.615541 Y42.130286 F200.000000
G1 X77.893621 Y42.198880 F200.000000
G1 X78.261780 F200.000000
G1 X78.539859 Y42.130286 F200.000000
G1 X78.615515 Y42.091954 F200.000000
G1 X78.622257 Y42.078649 F200.000000
G0 Z0.500000
G0 X76.650207 Y42.275836
G1 Z-0.040000 F60.000000
G1 X76.627032 Y42.182974 F200.000000
G1 X76.627974 Y42.178426 F200.000000
G1 X76.626941 Y42.173899 F200.000000
G1 Y41.983399 F200.000000
G1 X76.627974 Y41.978872 F200.000000
G1 X76.627032 Y41.974324 F200.000000
G1 X76.650207 Y41.881462 F200.000000
G1 X76.671505 Y41.788152 F200.000000
G1 X76.674400 Y41.784521 F200.000000
G1 X76.675524 Y41.780015 F200.000000
G1 X76.772044 Y41.589515 F200.000000
G1 X76.815580 Y41.537126 F200.000000
G1 X76.851048 Y41.478972 F200.000000
G1 X76.945028 Y41.382452 F200.000000
G1 X77.009120 Y41.340979 F200.000000
G1 X77.068349 Y41.292817 F200.000000
G1 X77.258849 Y41.198837 F200.000000
G1 X77.305098 Y41.187818 F200.000000
G1 X77.347431 Y41.166180 F200.000000
G1 X77.728431 Y41.069660 F200.000000
G1 X77.784379 Y41.068333 F200.000000
G1 X77.838940 Y41.055880 F200.000000
G1 X78.194013 F200.000000
G1 X78.099688 Y40.935266 F200.000000
G1 X78.056981 Y40.739604 F200.000000
G0 Z0.500000
G1 Z-0.040000 F60.000000
G1 X78.084911 Y40.622379 F200.000000
G1 X77.526940 F200.000000
G1 Y40.743879 F200.000000
G1 X77.482376 Y40.939126 F200.000000
G1 X77.357510 Y41.095703 F200.000000
G1 X77.177074 Y41.182596 F200.000000
G1 X76.976806 F200.000000
G1 X76.796370 Y41.095703 F200.000000
G1 X76.671505 Y40.939126 F200.000000
G1 X76.626941 Y40.743879 F200.000000
G1 Y39.600879 F200.000000
G1 X76.671505 Y39.405632 F200.000000
G1 X76.796370 Y39.249055 F200.000000
G1 X76.897394 Y39.200405 F200.000000
G1 X76.851048 Y39.152806 F200.000000
G1 X76.815580 Y39.094652 F200.000000
G1 X76.772044 Y39.042263 F200.000000
G1 X76.675524 Y38.851763 F200.000000
G1 X76.674400 Y38.847257 F200.000000
G1 X76.671505 Y38.843626 F200.000000
G1 X76.650207 Y38.750316 F200.000000
G0 Z0.500000
G0 X77.589852 Y38.621472
G1 Z-0.040000 F60.000000
G1 X77.694131 Y38.792450 F200.000000
G1 X77.713899 Y38.991740 F200.000000
G1 X77.645240 Y39.179872 F200.000000
G1 X77.501753 Y39.319583 F200.000000
G1 X77.432307 Y39.342848 F200.000000
G1 X77.482376 Y39.405632 F200.000000
G1 X77.526940 Y39.600879 F200.000000
G1 Y39.722380 F200.000000
G1 X79.078460 F200.000000
G1 X79.146705 Y39.737956 F200.000000
G1 X79.216439 Y39.744055 F200.000000
G1 X79.243275 Y39.759998 F200.000000
G1 X79.273708 Y39.766943 F200.000000
G1 X79.328436 Y39.810588 F200.000000
G1 X79.388618 Y39.846339 F200.000000
G1 X79.405879 Y39.872347 F200.000000
G1 X79.430284 Y39.891809 F200.000000
G1 X79.460656 Y39.954877 F200.000000
G1 X79.499366 Y40.013200 F200.000000
G1 X79.503634 Y40.044121 F200.000000
G1 X79.517177 Y40.072245 F200.000000
G1 Y40.142245 F200.000000
G1 X79.526748 Y40.211588 F200.000000
G1 X79.517177 Y40.241299 F200.000000
G1 Y40.272513 F200.000000
G1 X79.486805 Y40.335581 F200.000000
G1 X79.465342 Y40.402210 F200.000000
G1 X79.443827 Y40.424826 F200.000000
G1 X79.430284 Y40.452949 F200.000000
G1 X79.375556 Y40.496593 F200.000000
G1 X79.327309 Y40.547311 F200.000000
G1 X79.077801 Y40.712913 F200.000000
G1 X78.971648 Y40.819067 F200.000000
G1 X78.910522 Y40.942970 F200.000000
G0 Z0.500000
G0 X79.474366 Y37.481967
G1 Z-0.040000 F60.000000
G1 X79.477228 Y37.492271 F200.000000
G1 X79.483896 Y37.500632 F200.000000
G1 X79.503904 Y37.588293 F200.000000
G1 X79.527972 Y37.674928 F200.000000
G1 X79.526080 Y37.685453 F200.000000
G1 X79.528460 Y37.695879 F200.000000
G1 Y38.935399 F200.000000
G1 X79.483896 Y39.130646 F200.000000
G1 X79.359030 Y39.287223 F200.000000
G1 X79.178594 Y39.374116 F200.000000
G1 X78.978326 F200.000000
G1 X78.797890 Y39.287223 F200.000000
G1 X78.673025 Y39.130646 F200.000000
G1 X78.628461 Y38.935399 F200.000000
G1 Y38.688818 F200.000000
G1 X78.613106 Y38.702279 F200.000000
G1 X78.603698 Y38.707362 F200.000000
G1 X78.597030 Y38.715723 F200.000000
G1 X78.516019 Y38.754736 F200.000000
G1 X78.436912 Y38.797478 F200.000000
G1 X78.426229 Y38.797976 F200.000000
G1 X78.416594 Y38.802616 F200.000000
G1 X78.326678 F200.000000
G1 X78.236860 Y38.806802 F200.000000
G1 X78.227020 Y38.802616 F200.000000
G1 X78.216326 F200.000000
G1 X78.135314 Y38.763603 F200.000000
G1 X78.052574 Y38.728404 F200.000000
G1 X78.045525 Y38.720363 F200.000000
G1 X78.035890 Y38.715723 F200.000000
G1 X77.979828 Y38.645424 F200.000000
G1 X77.920554 Y38.577811 F200.000000
G1 X77.917692 Y38.567507 F200.000000
G1 X77.911025 Y38.559146 F200.000000
G1 X77.891016 Y38.471485 F200.000000
G1 X77.866949 Y38.384850 F200.000000
G1 X77.868840 Y38.374325 F200.000000
G1 X77.866461 Y38.363899 F200.000000
G1 Y38.184374 F200.000000
G1 X77.853515 Y38.158824 F200.000000
G1 X77.827965 Y38.145879 F200.000000
G1 X77.565435 F200.000000
G1 X77.539885 Y38.158824 F200.000000
G1 X77.526940 Y38.184374 F200.000000
G1 Y38.540884 F200.000000
G1 X77.543815 Y38.574191 F200.000000
G1 X77.589852 Y38.621472 F200.000000
G0 Z0.500000
G0 X76.650207 Y38.750316
G1 Z-0.040000 F60.000000
G1 X76.627032 Y38.657454 F200.000000
G1 X76.627974 Y38.652906 F200.000000
G1 X76.626941 Y38.648379 F200.000000
G1 Y38.076879 F200.000000
G1 X76.627974 Y38.072352 F200.000000
G1 X76.627032 Y38.067804 F200.000000
G1 X76.650207 Y37.974942 F200.000000
G1 X76.671505 Y37.881632 F200.000000
G1 X76.674400 Y37.878001 F200.000000
G1 X76.675524 Y37.873495 F200.000000
G1 X76.772044 Y37.682995 F200.000000
G1 X76.817458 Y37.628346 F200.000000
G1 X76.855262 Y37.568181 F200.000000
G1 X76.949242 Y37.474201 F200.000000
G1 X77.009407 Y37.436397 F200.000000
G1 X77.064056 Y37.390983 F200.000000
G1 X77.254556 Y37.294463 F200.000000
G1 X77.259062 Y37.293339 F200.000000
G1 X77.262693 Y37.290443 F200.000000
G1 X77.356003 Y37.269146 F200.000000
G1 X77.448865 Y37.245971 F200.000000
G1 X77.453413 Y37.246913 F200.000000
G1 X77.457940 Y37.245880 F200.000000
G1 X77.935460 F200.000000
G1 X77.939988 Y37.246913 F200.000000
G1 X77.944535 Y37.245971 F200.000000
G1 X78.037397 Y37.269146 F200.000000
G1 X78.130708 Y37.290443 F200.000000
G1 X78.134338 Y37.293339 F200.000000
G1 X78.138844 Y37.294463 F200.000000
G1 X78.329344 Y37.390983 F200.000000
G1 X78.383993 Y37.436397 F200.000000
G1 X78.444158 Y37.474201 F200.000000
G1 X78.538138 Y37.568181 F200.000000
G1 X78.539329 Y37.570078 F200.000000
G1 X78.781814 Y37.357500 F200.000000
G1 X78.791222 Y37.352416 F200.000000
G1 X78.797890 Y37.344055 F200.000000
G1 X78.878901 Y37.305042 F200.000000
G1 X78.958009 Y37.262300 F200.000000
G1 X78.968691 Y37.261802 F200.000000
G1 X78.978326 Y37.257162 F200.000000
G1 X79.068242 F200.000000
G1 X79.158060 Y37.252976 F200.000000
G1 X79.167900 Y37.257162 F200.000000
G1 X79.178594 F200.000000
G1 X79.259606 Y37.296175 F200.000000
G1 X79.342346 Y37.331374 F200.000000
G1 X79.349395 Y37.339415 F200.000000
G1 X79.359030 Y37.344055 F200.000000
G1 X79.415092 Y37.414354 F200.000000
G1 X79.474366 Y37.481967 F200.000000
G0 Z0.500000
G0 X13.610508 Y22.441960
G1 Z-0.040000 F60.000000
G1 X13.625493 Y22.376306 F200.000000
G1 X13.639527 Y22.358708 F200.000000
G1 X13.646935 Y22.337454 F200.000000
G1 X13.766315 Y22.146954 F200.000000
G1 X13.814745 Y22.098407 F200.000000
G1 X13.857836 Y22.045064 F200.000000
G1 X13.977216 Y21.951084 F200.000000
G1 X14.028324 Y21.926867 F200.000000
G1 X14.074725 Y21.894535 F200.000000
G1 X14.313485 Y21.798015 F200.000000
G1 X14.351031 Y21.791965 F200.000000
G1 X14.385761 Y21.776467 F200.000000
G1 X14.860741 Y21.682487 F200.000000
G1 X14.900045 Y21.683629 F200.000000
G1 X14.938380 Y21.674879 F200.000000
G1 X15.535280 F200.000000
G1 X15.573615 Y21.683629 F200.000000
G1 X15.612919 Y21.682487 F200.000000
G1 X16.087899 Y21.776467 F200.000000
G1 X16.122629 Y21.791965 F200.000000
G1 X16.160176 Y21.798015 F200.000000
G1 X16.398936 Y21.894535 F200.000000
G1 X16.445337 Y21.926867 F200.000000
G1 X16.496444 Y21.951084 F200.000000
G1 X16.615824 Y22.045064 F200.000000
G1 X16.660098 Y22.099871 F200.000000
G1 X16.709375 Y22.150228 F200.000000
G1 X16.826215 Y22.340728 F200.000000
G1 X16.832799 Y22.360220 F200.000000
G1 X16.845627 Y22.376306 F200.000000
G1 X16.861032 Y22.443796 F200.000000
G1 X16.883186 Y22.509382 F200.000000
G1 X16.880661 Y22.529801 F200.000000
G1 X16.885240 Y22.549859 F200.000000
G1 Y22.740359 F200.000000
G1 X16.880661 Y22.760418 F200.000000
G1 X16.883186 Y22.780836 F200.000000
G1 X16.861032 Y22.846422 F200.000000
G1 X16.845627 Y22.913912 F200.000000
G1 X16.832799 Y22.929998 F200.000000
G1 X16.826215 Y22.949490 F200.000000
G1 X16.709375 Y23.139990 F200.000000
G1 X16.661875 Y23.188530 F200.000000
G1 X16.619889 Y23.241911 F200.000000
G1 X16.500509 Y23.338431 F200.000000
G1 X16.445814 Y23.365224 F200.000000
G1 X16.395526 Y23.399583 F200.000000
G1 X16.156766 Y23.493563 F200.000000
G1 X16.121975 Y23.498842 F200.000000
G1 X16.089915 Y23.513347 F200.000000
G1 X15.880367 Y23.555929 F200.000000
G1 X15.884043 Y23.557458 F200.000000
G1 X16.002479 Y23.690360 F200.000000
G1 X16.051521 Y23.861488 F200.000000
G1 X16.021458 Y24.036947 F200.000000
G1 X15.918242 Y24.181987 F200.000000
G1 X15.762318 Y24.267880 F200.000000
G1 X15.441388 Y24.359853 F200.000000
G1 X15.761776 Y24.451184 F200.000000
G1 X15.917821 Y24.536856 F200.000000
G1 X16.021241 Y24.681750 F200.000000
G1 X16.051552 Y24.857167 F200.000000
G1 X16.002750 Y25.028364 F200.000000
G1 X15.884502 Y25.161433 F200.000000
G1 X15.720228 Y25.230018 F200.000000
G1 X15.542464 Y25.220535 F200.000000
G1 X13.876224 Y24.745555 F200.000000
G1 X13.816679 Y24.712863 F200.000000
G1 X13.753957 Y24.686780 F200.000000
G1 X13.739382 Y24.670425 F200.000000
G1 X13.720179 Y24.659882 F200.000000
G1 X13.680715 Y24.604592 F200.000000
G1 X13.635522 Y24.553878 F200.000000
G1 X13.629486 Y24.532819 F200.000000
G1 X13.616759 Y24.514988 F200.000000
G1 X13.605193 Y24.448051 F200.000000
G1 X13.586479 Y24.382750 F200.000000
G1 X13.590179 Y24.361158 F200.000000
G1 X13.586448 Y24.339571 F200.000000
G1 X13.605071 Y24.274244 F200.000000
G1 X13.616542 Y24.207291 F200.000000
G1 X13.629244 Y24.189442 F200.000000
G1 X13.635250 Y24.168374 F200.000000
G1 X13.680372 Y24.117596 F200.000000
G1 X13.719758 Y24.062251 F200.000000
G1 X13.738946 Y24.051681 F200.000000
G1 X13.753498 Y24.035305 F200.000000
G1 X13.816183 Y24.009134 F200.000000
G1 X13.875682 Y23.976358 F200.000000
G1 X15.126548 Y23.617879 F200.000000
G1 X14.938380 F200.000000
G1 X14.899052 Y23.608902 F200.000000
G1 X14.858725 Y23.609867 F200.000000
G1 X14.383745 Y23.513347 F200.000000
G1 X14.351685 Y23.498842 F200.000000
G1 X14.316894 Y23.493563 F200.000000
G1 X14.078134 Y23.399583 F200.000000
G1 X14.027846 Y23.365224 F200.000000
G1 X13.973151 Y23.338431 F200.000000
G1 X13.853771 Y23.241911 F200.000000
G1 X13.812950 Y23.190011 F200.000000
G1 X13.766315 Y23.143264 F200.000000
G1 X13.646935 Y22.952764 F200.000000
G1 X13.639527 Y22.931510 F200.000000
G1 X13.625493 Y22.913912 F200.000000
G1 X13.610508 Y22.848258 F200.000000
G1 X13.588342 Y22.784667 F200.000000
G1 X13.590889 Y22.762303 F200.000000
G1 X13.585880 Y22.740359 F200.000000
G1 Y22.549859 F200.000000
G1 X13.590889 Y22.527915 F200.000000
G1 X13.588342 Y22.505551 F200.000000
G1 X13.610508 Y22.441960 F200.000000
G0 Z0.500000
G0 X16.074418 Y22.645109
G1 Z-0.040000 F60.000000
G1 X16.064803 Y22.629432 F200.000000
G1 X16.046327 Y22.614887 F200.000000
G1 X15.895462 Y22.553899 F200.000000
G1 X15.496088 Y22.474879 F200.000000
G1 X14.977572 F200.000000
G1 X14.578198 Y22.553899 F200.000000
G1 X14.427334 Y22.614887 F200.000000
G1 X14.407297 Y22.630661 F200.000000
G1 X14.398242 Y22.645109 F200.000000
G1 X14.408717 Y22.661825 F200.000000
G1 X14.428335 Y22.677686 F200.000000
G1 X14.577346 Y22.736339 F200.000000
G1 X14.978611 Y22.817879 F200.000000
G1 X15.495049 F200.000000
G1 X15.896314 Y22.736339 F200.000000
G1 X16.045325 Y22.677686 F200.000000
G1 X16.063402 Y22.663070 F200.000000
G1 X16.074418 Y22.645109 F200.000000
G0 Z0.500000
G0 X16.110445 Y20.572784
G1 Z-0.040000 F60.000000
G1 X15.984720 Y20.698812 F200.000000
G1 X15.816763 Y20.757809 F200.000000
G1 X15.639842 Y20.738090 F200.000000
G1 X15.488998 Y20.643561 F200.000000
G1 X15.394106 Y20.492944 F200.000000
G1 X15.373962 Y20.316071 F200.000000
G1 X15.418297 Y20.188879 F200.000000
G1 X14.385880 F200.000000
G1 Y20.360379 F200.000000
G1 X14.346267 Y20.533932 F200.000000
G1 X14.235276 Y20.673111 F200.000000
G1 X14.112260 Y20.732352 F200.000000
G1 X14.191649 Y20.731820 F200.000000
G1 X14.194134 Y20.732996 F200.000000
G1 X14.196883 Y20.733014 F200.000000
G1 X14.274466 Y20.771020 F200.000000
G1 X14.352552 Y20.807980 F200.000000
G1 X14.354280 Y20.810118 F200.000000
G1 X14.356749 Y20.811327 F200.000000
G1 X14.475998 Y20.907742 F200.000000
G1 X14.476129 Y20.907847 F200.000000
G1 X14.503172 Y20.942230 F200.000000
G1 X14.537372 Y20.969503 F200.000000
G1 X14.557466 Y21.011228 F200.000000
G1 X14.586112 Y21.047616 F200.000000
G1 X14.586130 Y21.047700 F200.000000
G1 X14.586184 Y21.047768 F200.000000
G1 X14.595631 Y21.090479 F200.000000
G1 X14.614611 Y21.129891 F200.000000
G1 Y21.176202 F200.000000
G1 X14.624632 Y21.221415 F200.000000
G1 X14.624612 Y21.221499 F200.000000
G1 X14.624631 Y21.221583 F200.000000
G1 X14.614611 Y21.264164 F200.000000
G1 Y21.307907 F200.000000
G1 X14.594517 Y21.349632 F200.000000
G1 X14.583928 Y21.394716 F200.000000
G1 X14.583874 Y21.394783 F200.000000
G1 X14.583855 Y21.394867 F200.000000
G1 X14.556352 Y21.428883 F200.000000
G1 X14.537372 Y21.468295 F200.000000
G1 X14.501165 Y21.497169 F200.000000
G1 X14.472064 Y21.533194 F200.000000
G1 X14.471932 Y21.533298 F200.000000
G1 X14.352684 Y21.627174 F200.000000
G1 X14.274465 Y21.664238 F200.000000
G1 X14.196720 Y21.702282 F200.000000
G1 X14.194142 Y21.702298 F200.000000
G1 X14.191814 Y21.703402 F200.000000
G1 X14.105260 Y21.702858 F200.000000
G1 X14.018707 Y21.703402 F200.000000
G1 X14.016378 Y21.702298 F200.000000
G1 X14.013801 Y21.702282 F200.000000
G1 X13.936055 Y21.664238 F200.000000
G1 X13.857836 Y21.627174 F200.000000
G1 X13.738589 Y21.533298 F200.000000
G0 Z0.500000
G0 X13.738588 Y21.533298
G1 Z-0.040000 F60.000000
G1 X13.738456 Y21.533194 F200.000000
G1 X13.709355 Y21.497169 F200.000000
G1 X13.673148 Y21.468295 F200.000000
G1 X13.654168 Y21.428883 F200.000000
G1 X13.626666 Y21.394867 F200.000000
G1 X13.626646 Y21.394783 F200.000000
G1 X13.626592 Y21.394716 F200.000000
G1 X13.616003 Y21.349632 F200.000000
G1 X13.595909 Y21.307907 F200.000000
G1 Y21.264164 F200.000000
G1 X13.585889 Y21.221583 F200.000000
G1 X13.585908 Y21.221499 F200.000000
G1 X13.585888 Y21.221415 F200.000000
G1 X13.595909 Y21.176202 F200.000000
G1 Y21.129891 F200.000000
G1 X13.614889 Y21.090479 F200.000000
G1 X13.624336 Y21.047768 F200.000000
G1 X13.624390 Y21.047700 F200.000000
G1 X13.624408 Y21.047616 F200.000000
G1 X13.653054 Y21.011228 F200.000000
G1 X13.673148 Y20.969503 F200.000000
G1 X13.707348 Y20.942230 F200.000000
G1 X13.734391 Y20.907847 F200.000000
G1 X13.734522 Y20.907742 F200.000000
G1 X13.853771 Y20.811327 F200.000000
G1 X13.856240 Y20.810118 F200.000000
G1 X13.857969 Y20.807980 F200.000000
G1 X13.936054 Y20.771020 F200.000000
G1 X13.978249 Y20.750350 F200.000000
G1 X13.896872 F200.000000
G1 X13.736484 Y20.673111 F200.000000
G1 X13.625493 Y20.533932 F200.000000
G1 X13.585880 Y20.360379 F200.000000
G1 Y19.217379 F200.000000
G1 X13.625493 Y19.043826 F200.000000
G1 X13.736484 Y18.904647 F200.000000
G1 X13.896872 Y18.827408 F200.000000
G1 X14.074888 F200.000000
G1 X14.235276 Y18.904647 F200.000000
G1 X14.346267 Y19.043826 F200.000000
G1 X14.385880 Y19.217379 F200.000000
G1 Y19.388879 F200.000000
G1 X16.485240 F200.000000
G1 X16.563839 Y19.406819 F200.000000
G1 X16.643137 Y19.421363 F200.000000
G1 X16.650232 Y19.426538 F200.000000
G1 X16.658793 Y19.428492 F200.000000
G1 X16.721825 Y19.478758 F200.000000
G1 X16.786960 Y19.526267 F200.000000
G1 X16.791107 Y19.534008 F200.000000
G1 X16.797972 Y19.539483 F200.000000
G1 X16.832952 Y19.612120 F200.000000
G1 X16.871023 Y19.683185 F200.000000
G1 X16.871401 Y19.691959 F200.000000
G1 X16.875211 Y19.699871 F200.000000
G1 Y19.780491 F200.000000
G1 X16.878677 Y19.861037 F200.000000
G1 X16.875211 Y19.869106 F200.000000
G1 Y19.877887 F200.000000
G1 X16.840231 Y19.950524 F200.000000
G1 X16.808406 Y20.024598 F200.000000
G1 X16.801782 Y20.030363 F200.000000
G1 X16.797972 Y20.038275 F200.000000
G1 X16.734941 Y20.088541 F200.000000
G1 X16.674128 Y20.141471 F200.000000
G1 X16.350638 Y20.314769 F200.000000
G1 X16.193631 Y20.440041 F200.000000
G1 X16.110445 Y20.572784 F200.000000
G0 Z0.500000
G0 X18.507373 Y28.565412
G1 Z-0.040000 F60.000000
G1 X18.472097 Y28.410859 F200.000000
G1 X18.221699 Y28.410859 F200.000000
G1 X18.195880 Y28.472386 F200.000000
G1 Y28.502490 F200.000000
G1 X18.245102 Y28.620832 F200.000000
G1 X18.356484 Y28.709701 F200.000000
G1 X18.506726 Y28.768839 F200.000000
G1 X18.907991 Y28.850379 F200.000000
G1 X19.185669 F200.000000
G1 X19.586934 Y28.768839 F200.000000
G1 X19.737176 Y28.709701 F200.000000
G1 X19.847296 Y28.621840 F200.000000
G1 X19.895240 Y28.504063 F200.000000
G1 Y28.410774 F200.000000
G1 X19.837425 Y28.316510 F200.000000
G1 X19.780454 Y28.147856 F200.000000
G1 X19.802300 Y27.971185 F200.000000
G1 X19.898638 Y27.821489 F200.000000
G1 X20.050386 Y27.728417 F200.000000
G1 X20.227489 Y27.710403 F200.000000
G1 X20.394869 Y27.771015 F200.000000
G1 X20.519375 Y27.898248 F200.000000
G1 X20.636215 Y28.088748 F200.000000
G1 X20.642799 Y28.108240 F200.000000
G1 X20.655627 Y28.124326 F200.000000
G1 X20.671032 Y28.191816 F200.000000
G1 X20.693186 Y28.257402 F200.000000
G1 X20.690661 Y28.277821 F200.000000
G1 X20.695240 Y28.297879 F200.000000
G1 Y28.582359 F200.000000
G1 X20.678133 Y28.657307 F200.000000
G1 X20.665719 Y28.733173 F200.000000
G1 X20.548879 Y29.020193 F200.000000
G1 X20.541636 Y29.030535 F200.000000
G1 X20.538830 Y29.042844 F200.000000
G1 X20.490883 Y29.102997 F200.000000
G1 X20.446754 Y29.166003 F200.000000
G1 X20.435741 Y29.172178 F200.000000
G1 X20.427872 Y29.182050 F200.000000
G1 X20.189112 Y29.372550 F200.000000
G1 X20.135387 Y29.398439 F200.000000
G1 X20.086146 Y29.432083 F200.000000
G1 X19.847386 Y29.526063 F200.000000
G1 X19.812595 Y29.531342 F200.000000
G1 X19.780535 Y29.545847 F200.000000
G1 X19.305555 Y29.642367 F200.000000
G1 X19.265228 Y29.641402 F200.000000
G1 X19.225900 Y29.650379 F200.000000
G1 X18.867760 F200.000000
G1 X18.828432 Y29.641402 F200.000000
G1 X18.788105 Y29.642367 F200.000000
G1 X18.313125 Y29.545847 F200.000000
G1 X18.281065 Y29.531342 F200.000000
G1 X18.246274 Y29.526063 F200.000000
G1 X18.007514 Y29.432083 F200.000000
G1 X17.958273 Y29.398439 F200.000000
G1 X17.904548 Y29.372550 F200.000000
G1 X17.665788 Y29.182050 F200.000000
G1 X17.658874 Y29.173377 F200.000000
G1 X17.649158 Y29.168025 F200.000000
G1 X17.603697 Y29.104152 F200.000000
G1 X17.554831 Y29.042844 F200.000000
G1 X17.552365 Y29.032030 F200.000000
G1 X17.545933 Y29.022993 F200.000000
G1 X17.426553 Y28.735973 F200.000000
G1 X17.413315 Y28.658747 F200.000000
G1 X17.395880 Y28.582359 F200.000000
G1 Y28.391859 F200.000000
G1 X17.413453 Y28.314870 F200.000000
G1 X17.427041 Y28.237078 F200.000000
G1 X17.546421 Y27.952598 F200.000000
G1 X17.551743 Y27.945170 F200.000000
G1 X17.553716 Y27.936248 F200.000000
G1 X17.603347 Y27.873149 F200.000000
G1 X17.650104 Y27.807893 F200.000000
G1 X17.658122 Y27.803510 F200.000000
G1 X17.663771 Y27.796327 F200.000000
G1 X17.783151 Y27.699807 F200.000000
G1 X17.824815 Y27.679398 F200.000000
G1 X17.861087 Y27.650472 F200.000000
G1 X17.903734 Y27.640738 F200.000000
G1 X17.943017 Y27.621494 F200.000000
G1 X17.989410 Y27.621183 F200.000000
G1 X18.034640 Y27.610859 F200.000000
G1 X18.867760 F200.000000
G1 X18.911699 Y27.620888 F200.000000
G1 X18.956768 F200.000000
G1 X18.997374 Y27.640443 F200.000000
G1 X19.041313 Y27.650472 F200.000000
G1 X19.076550 Y27.678572 F200.000000
G1 X19.117156 Y27.698127 F200.000000
G1 X19.145256 Y27.733363 F200.000000
G1 X19.180492 Y27.761463 F200.000000
G1 X19.200047 Y27.802069 F200.000000
G1 X19.228147 Y27.837306 F200.000000
G1 X19.238176 Y27.881245 F200.000000
G1 X19.257731 Y27.921851 F200.000000
G1 Y27.966920 F200.000000
G1 X19.267760 Y28.010859 F200.000000
G1 Y28.391859 F200.000000
G1 X19.228147 Y28.565412 F200.000000
G1 X19.117156 Y28.704591 F200.000000
G1 X18.956768 Y28.781830 F200.000000
G1 X18.778752 F200.000000
G1 X18.618364 Y28.704591 F200.000000
G1 X18.507373 Y28.565412 F200.000000
G0 Z0.500000
G0 X20.475922 Y27.511746
G1 Z-0.040000 F60.000000
G1 X20.471974 Y27.512730 F200.000000
G1 X20.468793 Y27.515266 F200.000000
G1 X20.385795 Y27.534210 F200.000000
G1 X20.303190 Y27.554800 F200.000000
G1 X20.299207 Y27.553973 F200.000000
G1 X20.295240 Y27.554879 F200.000000
G1 X17.795880 F200.000000
G1 X17.622327 Y27.515266 F200.000000
G1 X17.483148 Y27.404275 F200.000000
G1 X17.405909 Y27.243887 F200.000000
G1 Y27.065871 F200.000000
G1 X17.483148 Y26.905483 F200.000000
G1 X17.622327 Y26.794492 F200.000000
G1 X17.795880 Y26.754879 F200.000000
G1 X18.458784 F200.000000
G1 X17.629524 Y26.375644 F200.000000
G1 X17.626293 Y26.373172 F200.000000
G1 X17.622327 Y26.372266 F200.000000
G1 X17.555767 Y26.319187 F200.000000
G1 X17.488166 Y26.267441 F200.000000
G1 X17.486329 Y26.263811 F200.000000
G1 X17.483148 Y26.261275 F200.000000
G1 X17.446210 Y26.184573 F200.000000
G1 X17.407755 Y26.108621 F200.000000
G1 X17.407675 Y26.104553 F200.000000
G1 X17.405909 Y26.100887 F200.000000
G1 Y26.015755 F200.000000
G1 X17.404217 Y25.930639 F200.000000
G1 X17.405909 Y25.926939 F200.000000
G1 Y25.922871 F200.000000
G1 X17.442847 Y25.846169 F200.000000
G1 X17.478253 Y25.768748 F200.000000
G1 X17.481383 Y25.766149 F200.000000
G1 X17.483148 Y25.762483 F200.000000
G1 X17.549707 Y25.709404 F200.000000
G1 X17.615198 Y25.655012 F200.000000
G1 X17.619146 Y25.654029 F200.000000
G1 X17.622327 Y25.651492 F200.000000
G1 X17.705325 Y25.632548 F200.000000
G1 X17.787930 Y25.611958 F200.000000
G1 X17.791914 Y25.612785 F200.000000
G1 X17.795880 Y25.611879 F200.000000
G1 X20.295240 F200.000000
G1 X20.468793 Y25.651492 F200.000000
G1 X20.607972 Y25.762483 F200.000000
G1 X20.685211 Y25.922871 F200.000000
G1 Y26.100887 F200.000000
G1 X20.607972 Y26.261275 F200.000000
G1 X20.468793 Y26.372266 F200.000000
G1 X20.295240 Y26.411879 F200.000000
G1 X19.632336 F200.000000
G1 X20.461596 Y26.791114 F200.000000
G1 X20.464827 Y26.793587 F200.000000
G1 X20.468793 Y26.794492 F200.000000
G1 X20.535353 Y26.847571 F200.000000
G1 X20.602954 Y26.899317 F200.000000
G1 X20.604791 Y26.902947 F200.000000
G1 X20.607972 Y26.905483 F200.000000
G1 X20.644910 Y26.982185 F200.000000
G1 X20.683365 Y27.058137 F200.000000
G1 X20.683446 Y27.062205 F200.000000
G1 X20.685211 Y27.065871 F200.000000
G1 Y27.151003 F200.000000
G1 X20.686903 Y27.236119 F200.000000
G1 X20.685211 Y27.239819 F200.000000
G1 Y27.243887 F200.000000
G1 X20.648273 Y27.320589 F200.000000
G1 X20.612867 Y27.398010 F200.000000
G1 X20.609738 Y27.400609 F200.000000
G1 X20.607972 Y27.404275 F200.000000
G1 X20.541413 Y27.457354 F200.000000
G1 X20.475922 Y27.511746 F200.000000
G0 Z0.500000
G0 X18.706520 Y24.471886
G1 Z-0.040000 F60.000000
G1 X18.658705 Y24.357942 F200.000000
G1 X18.553110 Y24.316379 F200.000000
G1 X18.349290 F200.000000
G1 X18.238335 Y24.360052 F200.000000
G1 X18.218717 Y24.375913 F200.000000
G1 X18.195880 Y24.412357 F200.000000
G1 Y24.659379 F200.000000
G1 X18.706520 F200.000000
G1 Y24.471886 F200.000000
G0 Z0.500000
G0 X19.506520 Y24.659379
G1 Z-0.040000 F60.000000
G1 X19.895240 F200.000000
G1 Y24.504254 F200.000000
G1 X19.874803 Y24.470932 F200.000000
G1 X19.856327 Y24.456387 F200.000000
G1 X19.742467 Y24.410359 F200.000000
G1 X19.660068 F200.000000
G1 X19.548572 Y24.455916 F200.000000
G1 X19.527937 Y24.472161 F200.000000
G1 X19.506520 Y24.506337 F200.000000
G1 Y24.659379 F200.000000
G0 Z0.500000
G0 X18.195880 Y22.658401
G1 Z-0.040000 F60.000000
G1 X18.218717 Y22.694845 F200.000000
G1 X18.238335 Y22.710706 F200.000000
G1 X18.349290 Y22.754379 F200.000000
G1 X18.911250 F200.000000
G1 X19.022205 Y22.710706 F200.000000
G1 X19.040282 Y22.696090 F200.000000
G1 X19.062120 Y22.660484 F200.000000
G1 Y22.601794 F200.000000
G1 X19.040282 Y22.566188 F200.000000
G1 X19.022205 Y22.551572 F200.000000
G1 X18.911250 Y22.507899 F200.000000
G1 X18.349290 F200.000000
G1 X18.238335 Y22.551572 F200.000000
G1 X18.218717 Y22.567433 F200.000000
G1 X18.195880 Y22.603877 F200.000000
G1 Y22.658401 F200.000000
G0 Z0.500000
G0 X19.860066 Y21.099356
G1 Z-0.040000 F60.000000
G1 X19.837912 Y21.164942 F200.000000
G1 X19.822507 Y21.232432 F200.000000
G1 X19.809679 Y21.248518 F200.000000
G1 X19.803095 Y21.268010 F200.000000
G1 X19.686255 Y21.458510 F200.000000
G1 X19.561749 Y21.585743 F200.000000
G1 X19.394369 Y21.646355 F200.000000
G1 X19.217266 Y21.628341 F200.000000
G1 X19.065518 Y21.535269 F200.000000
G1 X18.992752 Y21.422199 F200.000000
G1 X18.967945 Y21.461784 F200.000000
G1 X18.943122 Y21.486667 F200.000000
G1 X18.925974 Y21.517346 F200.000000
G1 X18.881018 Y21.548920 F200.000000
G1 X18.842220 Y21.587812 F200.000000
G1 X18.809059 Y21.599460 F200.000000
G1 X18.780298 Y21.619661 F200.000000
G1 X18.564346 Y21.707899 F200.000000
G1 X18.987140 F200.000000
G1 X19.059880 Y21.724502 F200.000000
G1 X19.133646 Y21.735695 F200.000000
G1 X19.372406 Y21.829675 F200.000000
G1 X19.422694 Y21.864034 F200.000000
G1 X19.477389 Y21.890827 F200.000000
G1 X19.596769 Y21.987347 F200.000000
G1 X19.638755 Y22.040728 F200.000000
G1 X19.686255 Y22.089268 F200.000000
G1 X19.803095 Y22.279768 F200.000000
G1 X19.809679 Y22.299260 F200.000000
G1 X19.822507 Y22.315346 F200.000000
G1 X19.837912 Y22.382836 F200.000000
G1 X19.860066 Y22.448422 F200.000000
G1 X19.857541 Y22.468841 F200.000000
G1 X19.862120 Y22.488899 F200.000000
G1 Y22.773379 F200.000000
G1 X19.857541 Y22.793438 F200.000000
G1 X19.860066 Y22.813856 F200.000000
G1 X19.837912 Y22.879442 F200.000000
G1 X19.822507 Y22.946932 F200.000000
G1 X19.809679 Y22.963018 F200.000000
G1 X19.803095 Y22.982510 F200.000000
G1 X19.686255 Y23.173010 F200.000000
G1 X19.638755 Y23.221550 F200.000000
G1 X19.596769 Y23.274931 F200.000000
G1 X19.477389 Y23.371451 F200.000000
G1 X19.422694 Y23.398244 F200.000000
G1 X19.372406 Y23.432603 F200.000000
G1 X19.133646 Y23.526583 F200.000000
G1 X19.059880 Y23.537776 F200.000000
G1 X18.987140 Y23.554379 F200.000000
G1 X18.801428 F200.000000
G1 X19.014266 Y23.638155 F200.000000
G1 X19.064554 Y23.672514 F200.000000
G1 X19.119249 Y23.699307 F200.000000
G1 X19.178671 Y23.747351 F200.000000
G1 X19.193982 Y23.736597 F200.000000
G1 X19.430202 Y23.640077 F200.000000
G1 X19.506304 Y23.627523 F200.000000
G1 X19.581500 Y23.610359 F200.000000
G1 X19.820260 F200.000000
G1 X19.894747 Y23.627360 F200.000000
G1 X19.970176 Y23.639515 F200.000000
G1 X20.208936 Y23.736035 F200.000000
G1 X20.255337 Y23.768367 F200.000000
G1 X20.306444 Y23.792584 F200.000000
G1 X20.425824 Y23.886564 F200.000000
G1 X20.470098 Y23.941371 F200.000000
G1 X20.519375 Y23.991728 F200.000000
G1 X20.636215 Y24.182228 F200.000000
G1 X20.642799 Y24.201720 F200.000000
G1 X20.655627 Y24.217806 F200.000000
G1 X20.671032 Y24.285296 F200.000000
G1 X20.693186 Y24.350882 F200.000000
G1 X20.690661 Y24.371301 F200.000000
G1 X20.695240 Y24.391359 F200.000000
G1 Y25.059379 F200.000000
G1 X20.685211 Y25.103318 F200.000000
G1 Y25.148387 F200.000000
G1 X20.665656 Y25.188993 F200.000000
G1 X20.655627 Y25.232932 F200.000000
G1 X20.627527 Y25.268169 F200.000000
G1 X20.607972 Y25.308775 F200.000000
G1 X20.572736 Y25.336875 F200.000000
G1 X20.544636 Y25.372111 F200.000000
G1 X20.504030 Y25.391666 F200.000000
G1 X20.468793 Y25.419766 F200.000000
G1 X20.424854 Y25.429795 F200.000000
G1 X20.384248 Y25.449350 F200.000000
G1 X20.339179 F200.000000
G1 X20.295240 Y25.459379 F200.000000
G1 X17.795880 F200.000000
G1 X17.751941 Y25.449350 F200.000000
G1 X17.706872 F200.000000
G1 X17.666266 Y25.429795 F200.000000
G1 X17.622327 Y25.419766 F200.000000
G1 X17.587090 Y25.391666 F200.000000
G1 X17.546484 Y25.372111 F200.000000
G1 X17.518384 Y25.336875 F200.000000
G1 X17.483148 Y25.308775 F200.000000
G1 X17.463593 Y25.268169 F200.000000
G1 X17.435493 Y25.232932 F200.000000
G1 X17.425464 Y25.188993 F200.000000
G1 X17.405909 Y25.148387 F200.000000
G1 Y25.103318 F200.000000
G1 X17.395880 Y25.059379 F200.000000
G1 Y24.297379 F200.000000
G1 X17.400889 Y24.275435 F200.000000
G1 X17.398342 Y24.253071 F200.000000
G1 X17.420508 Y24.189480 F200.000000
G1 X17.435493 Y24.123826 F200.000000
G1 X17.449527 Y24.106228 F200.000000
G1 X17.456935 Y24.084974 F200.000000
G1 X17.576315 Y23.894474 F200.000000
G1 X17.622950 Y23.847727 F200.000000
G1 X17.663771 Y23.795827 F200.000000
G1 X17.783151 Y23.699307 F200.000000
G1 X17.837846 Y23.672514 F200.000000
G1 X17.888134 Y23.638155 F200.000000
G1 X18.126894 Y23.544175 F200.000000
G1 X18.184862 Y23.535379 F200.000000
G1 X18.126894 Y23.526583 F200.000000
G1 X17.888134 Y23.432603 F200.000000
G1 X17.837846 Y23.398244 F200.000000
G1 X17.783151 Y23.371451 F200.000000
G1 X17.663771 Y23.274931 F200.000000
G1 X17.622950 Y23.223031 F200.000000
G1 X17.576315 Y23.176284 F200.000000
G1 X17.456935 Y22.985784 F200.000000
G1 X17.449527 Y22.964530 F200.000000
G1 X17.435493 Y22.946932 F200.000000
G1 X17.420508 Y22.881278 F200.000000
G1 X17.398342 Y22.817687 F200.000000
G1 X17.400889 Y22.795323 F200.000000
G1 X17.395880 Y22.773379 F200.000000
G1 Y22.488899 F200.000000
G1 X17.400889 Y22.466955 F200.000000
G1 X17.398342 Y22.444591 F200.000000
G1 X17.420508 Y22.381000 F200.000000
G1 X17.435493 Y22.315346 F200.000000
G1 X17.449527 Y22.297748 F200.000000
G1 X17.456935 Y22.276494 F200.000000
G1 X17.576315 Y22.085994 F200.000000
G1 X17.622950 Y22.039247 F200.000000
G1 X17.663771 Y21.987347 F200.000000
G1 X17.783151 Y21.890827 F200.000000
G1 X17.837846 Y21.864034 F200.000000
G1 X17.888134 Y21.829675 F200.000000
G1 X18.120442 Y21.738235 F200.000000
G1 X18.079534 Y21.728898 F200.000000
G1 X18.004105 Y21.716743 F200.000000
G1 X17.765345 Y21.620223 F200.000000
G1 X17.735900 Y21.599706 F200.000000
G1 X17.702041 Y21.587812 F200.000000
G1 X17.663759 Y21.549439 F200.000000
G0 Z0.500000
G1 Z-0.040000 F60.000000
G1 X17.619288 Y21.518452 F200.000000
G1 X17.601661 Y21.487191 F200.000000
G1 X17.576315 Y21.461784 F200.000000
G1 X17.456935 Y21.271284 F200.000000
G1 X17.449527 Y21.250030 F200.000000
G1 X17.435493 Y21.232432 F200.000000
G1 X17.420508 Y21.166778 F200.000000
G1 X17.398342 Y21.103187 F200.000000
G1 X17.400889 Y21.080823 F200.000000
G1 X17.395880 Y21.058879 F200.000000
G1 Y20.583899 F200.000000
G1 X17.400889 Y20.561955 F200.000000
G1 X17.398342 Y20.539591 F200.000000
G1 X17.413082 Y20.497302 F200.000000
G1 X17.405909 Y20.482407 F200.000000
G1 Y20.304391 F200.000000
G1 X17.483148 Y20.144003 F200.000000
G1 X17.622327 Y20.033012 F200.000000
G1 X17.795880 Y19.993399 F200.000000
G1 X19.106520 F200.000000
G1 X19.179260 Y20.010002 F200.000000
G1 X19.253026 Y20.021195 F200.000000
G1 X19.491786 Y20.115175 F200.000000
G1 X19.524498 Y20.137525 F200.000000
G1 X19.561749 Y20.151015 F200.000000
G1 X19.597071 Y20.187111 F200.000000
G1 X19.638770 Y20.215601 F200.000000
G1 X19.658546 Y20.249932 F200.000000
G1 X19.686255 Y20.278248 F200.000000
G1 X19.803095 Y20.468748 F200.000000
G1 X19.809679 Y20.488240 F200.000000
G1 X19.822507 Y20.504326 F200.000000
G1 X19.837912 Y20.571816 F200.000000
G1 X19.860066 Y20.637402 F200.000000
G1 X19.857541 Y20.657821 F200.000000
G1 X19.862120 Y20.677879 F200.000000
G1 Y21.058879 F200.000000
G1 X19.857541 Y21.078938 F200.000000
G1 X19.860066 Y21.099356 F200.000000
G0 Z0.500000
G0 X18.348380 Y20.793399
G1 Z-0.040000 F60.000000
G1 X18.195880 F200.000000
G1 Y20.931373 F200.000000
G1 X18.231813 Y20.945899 F200.000000
G1 X18.314213 F200.000000
G1 X18.348380 Y20.931938 F200.000000
G1 Y20.793399 F200.000000
G0 Z0.500000
G0 X17.420508 Y18.024798
G1 Z-0.040000 F60.000000
G1 X17.398342 Y17.961207 F200.000000
G1 X17.400889 Y17.938843 F200.000000
G1 X17.395880 Y17.916899 F200.000000
G1 Y17.535899 F200.000000
G1 X17.400889 Y17.513955 F200.000000
G1 X17.398342 Y17.491591 F200.000000
G1 X17.413082 Y17.449302 F200.000000
G1 X17.405909 Y17.434407 F200.000000
G1 Y17.256391 F200.000000
G1 X17.483148 Y17.096003 F200.000000
G1 X17.622327 Y16.985012 F200.000000
G1 X17.795880 Y16.945399 F200.000000
G1 X20.295240 F200.000000
G1 X20.468793 Y16.985012 F200.000000
G1 X20.607972 Y17.096003 F200.000000
G1 X20.685211 Y17.256391 F200.000000
G1 Y17.434407 F200.000000
G1 X20.607972 Y17.594795 F200.000000
G1 X20.468793 Y17.705786 F200.000000
G1 X20.295240 Y17.745399 F200.000000
G1 X19.862120 F200.000000
G1 Y17.916899 F200.000000
G1 X19.857541 Y17.936958 F200.000000
G1 X19.860066 Y17.957376 F200.000000
G1 X19.837912 Y18.022962 F200.000000
G1 X19.822507 Y18.090452 F200.000000
G1 X19.809679 Y18.106538 F200.000000
G1 X19.803095 Y18.126030 F200.000000
G1 X19.686255 Y18.316530 F200.000000
G1 X19.636978 Y18.366887 F200.000000
G1 X19.592704 Y18.421694 F200.000000
G1 X19.519365 Y18.479428 F200.000000
G1 X19.551128 F200.000000
G1 X19.711516 Y18.556667 F200.000000
G1 X19.822507 Y18.695846 F200.000000
G1 X19.862120 Y18.869399 F200.000000
G1 Y19.059899 F200.000000
G1 X19.857541 Y19.079958 F200.000000
G1 X19.860066 Y19.100376 F200.000000
G1 X19.837912 Y19.165962 F200.000000
G1 X19.822507 Y19.233452 F200.000000
G1 X19.809679 Y19.249538 F200.000000
G1 X19.806843 Y19.257933 F200.000000
G1 X19.852091 Y19.351891 F200.000000
G1 Y19.529907 F200.000000
G1 X19.774852 Y19.690295 F200.000000
G1 X19.635673 Y19.801286 F200.000000
G1 X19.462120 Y19.840899 F200.000000
G1 X17.795880 F200.000000
G1 X17.622327 Y19.801286 F200.000000
G1 X17.483148 Y19.690295 F200.000000
G1 X17.405909 Y19.529907 F200.000000
G1 Y19.351891 F200.000000
G1 X17.483148 Y19.191503 F200.000000
G1 X17.622327 Y19.080512 F200.000000
G1 X17.795880 Y19.040899 F200.000000
G1 X18.909347 F200.000000
G1 X19.023207 Y18.994871 F200.000000
G1 X19.041683 Y18.980326 F200.000000
G1 X19.062120 Y18.947004 F200.000000
G1 Y18.869399 F200.000000
G1 X19.101733 Y18.695846 F200.000000
G1 X19.121325 Y18.671278 F200.000000
G1 X19.061627 Y18.680898 F200.000000
G1 X18.987140 Y18.697899 F200.000000
G1 X18.273400 F200.000000
G1 X18.198914 Y18.680898 F200.000000
G1 X18.123485 Y18.668743 F200.000000
G1 X17.884725 Y18.572223 F200.000000
G1 X17.838324 Y18.539891 F200.000000
G1 X17.787216 Y18.515674 F200.000000
G1 X17.667836 Y18.421694 F200.000000
G1 X17.624745 Y18.368351 F200.000000
G1 X17.576315 Y18.319804 F200.000000
G1 X17.456935 Y18.129304 F200.000000
G1 X17.449527 Y18.108050 F200.000000
G1 X17.435493 Y18.090452 F200.000000
G1 X17.420508 Y18.024798 F200.000000
G0 Z0.500000
G0 X19.062120 Y17.745399
G1 Z-0.040000 F60.000000
G1 X18.195880 F200.000000
G1 Y17.801921 F200.000000
G1 X18.217297 Y17.836097 F200.000000
G1 X18.237334 Y17.851871 F200.000000
G1 X18.351193 Y17.897899 F200.000000
G1 X18.909347 F200.000000
G1 X19.023207 Y17.851871 F200.000000
G1 X19.041683 Y17.837326 F200.000000
G1 X19.062120 Y17.804004 F200.000000
G1 Y17.745399 F200.000000
G0 Z0.500000
G0 X75.217699 Y24.768359
G1 Z-0.040000 F60.000000
G1 Y24.768359 F200.000000
G1 Y24.268360 F200.000000
G1 X75.123619 Y23.856171 F200.000000
G1 X74.860014 Y23.525621 F200.000000
G1 X74.479095 Y23.342179 F200.000000
G1 X74.056306 F200.000000
G1 X73.675386 Y23.525621 F200.000000
G1 X73.411781 Y23.856171 F200.000000
G1 X73.317702 Y24.268360 F200.000000
G1 X73.317702 Y24.768359 F200.000000
G1 X73.317702 F200.000000
G0 Z0.500000
G0 X72.850837 Y25.514785
G1 Z-0.040000 F60.000000
G1 X72.858494 Y25.511097 F200.000000
G1 X73.122099 Y25.180547 F200.000000
G1 X73.216179 Y24.768359 F200.000000
G1 Y24.268360 F200.000000
G1 X73.122099 Y23.856171 F200.000000
G1 X72.858494 Y23.525621 F200.000000
G1 X72.477575 Y23.342179 F200.000000
G1 X72.054786 F200.000000
G1 X71.673866 Y23.525621 F200.000000
G1 X71.410261 Y23.856171 F200.000000
G1 X71.316182 Y24.268360 F200.000000
G1 X71.316182 Y24.768359 F200.000000
G1 X71.316182 F200.000000
G1 X71.345735 Y24.897840 F200.000000
G0 Z0.500000
G0 X71.168123 Y24.983373
G1 Z-0.040000 F60.000000
G1 X71.217199 Y24.768359 F200.000000
G1 Y24.268360 F200.000000
G1 X71.123119 Y23.856171 F200.000000
G1 X70.859514 Y23.525621 F200.000000
G1 X70.478595 Y23.342179 F200.000000
G1 X70.055806 F200.000000
G1 X69.674886 Y23.525621 F200.000000
G1 X69.411281 Y23.856171 F200.000000
G1 X69.317202 Y24.268360 F200.000000
G1 X69.317202 Y24.768359 F200.000000
G1 X69.317202 F200.000000
G1 X69.411281 Y25.180547 F200.000000
G1 X69.674886 Y25.511097 F200.000000
G1 X70.055806 Y25.694539 F200.000000
G1 X70.478595 F200.000000
G1 X70.730257 Y25.573344 F200.000000
G0 Z0.500000
G0 X67.421878 Y23.594162
G1 Z-0.040000 F60.000000
G1 X67.412301 Y23.606171 F200.000000
G1 X67.318222 Y24.018360 F200.000000
G1 X67.318222 Y25.018358 F200.000000
G1 X67.318222 F200.000000
G1 X67.412301 Y25.430547 F200.000000
G1 X67.675906 Y25.761097 F200.000000
G1 X68.056826 Y25.944538 F200.000000
G1 X68.479615 F200.000000
G1 X68.860534 Y25.761097 F200.000000
G1 X69.124139 Y25.430547 F200.000000
G1 X69.218219 Y25.018358 F200.000000
G1 Y24.018360 F200.000000
G1 X69.124139 Y23.606171 F200.000000
G1 X68.860534 Y23.275621 F200.000000
G1 X68.479615 Y23.092180 F200.000000
G1 X68.056826 F200.000000
G1 X67.800346 Y23.215694 F200.000000
G0 Z0.500000
G0 X75.316682 Y25.018358
G1 Z-0.040000 F60.000000
G1 X75.316682 F200.000000
G1 X75.410761 Y25.430547 F200.000000
G1 X75.674366 Y25.761097 F200.000000
G1 X76.055286 Y25.944538 F200.000000
G1 X76.478075 F200.000000
G1 X76.858994 Y25.761097 F200.000000
G1 X77.122599 Y25.430547 F200.000000
G1 X77.216679 Y25.018358 F200.000000
G1 Y24.018360 F200.000000
G1 X77.122599 Y23.606171 F200.000000
G1 X76.858994 Y23.275621 F200.000000
G1 X76.478075 Y23.092180 F200.000000
G1 X76.055286 F200.000000
G1 X75.674366 Y23.275621 F200.000000
G1 X75.410761 Y23.606171 F200.000000
G1 X75.316682 Y24.018360 F200.000000
G1 X75.316682 Y25.018358 F200.000000
G0 Z0.500000
G0 X61.786179 Y26.824207
G1 Z-0.040000 F60.000000
G1 Y28.148362 F200.000000
G1 X62.286178 F200.000000
G1 Y28.648361 F200.000000
G1 X65.916180 F200.000000
G1 X66.328369 Y28.742440 F200.000000
G1 X66.658919 Y29.006045 F200.000000
G1 X66.842360 Y29.386964 F200.000000
G1 Y29.809754 F200.000000
G1 X66.658919 Y30.190673 F200.000000
G1 X66.328369 Y30.454278 F200.000000
G1 X65.916180 Y30.548358 F200.000000
G1 X62.286178 F200.000000
G1 Y31.048357 F200.000000
G1 X59.386183 F200.000000
G1 Y28.148362 F200.000000
G1 X59.886182 F200.000000
G1 Y26.824207 F200.000000
G0 Z0.500000
G0 X32.098949 Y53.677063
G1 Z-0.040000 F60.000000
G1 X31.840245 Y53.552478 F200.000000
G1 X31.412115 F200.000000
G1 X31.026383 Y53.738237 F200.000000
G1 X30.759448 Y54.072963 F200.000000
G1 X30.664180 Y54.490359 F200.000000
G1 X30.664180 Y55.506359 F200.000000
G1 X30.664180 F200.000000
G1 X30.759448 Y55.923755 F200.000000
G1 X31.026383 Y56.258481 F200.000000
G1 X31.412115 Y56.444240 F200.000000
G1 X31.840245 F200.000000
G1 X32.225977 Y56.258481 F200.000000
G1 X32.492912 Y55.923755 F200.000000
G1 X32.588180 Y55.506359 F200.000000
G1 Y54.884886 F200.000000
G0 Z0.500000
G0 X28.486181 Y53.738490
G1 Z-0.040000 F60.000000
G1 X28.219448 Y54.072963 F200.000000
G1 X28.124180 Y54.490359 F200.000000
G1 X28.124180 Y55.506359 F200.000000
G1 X28.124180 F200.000000
G1 X28.219448 Y55.923755 F200.000000
G1 X28.486383 Y56.258481 F200.000000
G1 X28.872115 Y56.444240 F200.000000
G1 X29.300245 F200.000000
G1 X29.685977 Y56.258481 F200.000000
G1 X29.952912 Y55.923755 F200.000000
G1 X30.048180 Y55.506359 F200.000000
G1 Y54.490359 F200.000000
G1 X29.952912 Y54.072963 F200.000000
G1 X29.791947 Y53.871119 F200.000000
G0 Z0.500000
G0 X25.946181 Y53.738490
G1 Z-0.040000 F60.000000
G1 X25.679448 Y54.072963 F200.000000
G1 X25.584180 Y54.490359 F200.000000
G1 X25.584180 Y55.506359 F200.000000
G1 X25.584180 F200.000000
G1 X25.679448 Y55.923755 F200.000000
G1 X25.946383 Y56.258481 F200.000000
G1 X26.332115 Y56.444240 F200.000000
G1 X26.760245 F200.000000
G1 X27.145977 Y56.258481 F200.000000
G1 X27.412912 Y55.923755 F200.000000
G1 X27.508180 Y55.506359 F200.000000
G1 Y54.490359 F200.000000
G1 X27.412912 Y54.072963 F200.000000
G1 X27.251947 Y53.871119 F200.000000
G0 Z0.500000
G0 X23.406181 Y53.738490
G1 Z-0.040000 F60.000000
G1 X23.139448 Y54.072963 F200.000000
G1 X23.044180 Y54.490359 F200.000000
G1 X23.044180 Y55.506359 F200.000000
G1 X23.044180 F200.000000
G1 X23.139448 Y55.923755 F200.000000
G1 X23.406383 Y56.258481 F200.000000
G1 X23.792115 Y56.444240 F200.000000
G1 X24.220245 F200.000000
G1 X24.605977 Y56.258481 F200.000000
G1 X24.872912 Y55.923755 F200.000000
G1 X24.968180 Y55.506359 F200.000000
G1 Y54.490359 F200.000000
G1 X24.872912 Y54.072963 F200.000000
G1 X24.711947 Y53.871119 F200.000000
G0 Z0.500000
G0 X20.866181 Y53.738490
G1 Z-0.040000 F60.000000
G1 X20.599448 Y54.072963 F200.000000
G1 X20.504180 Y54.490359 F200.000000
G1 X20.504180 Y55.506359 F200.000000
G1 X20.504180 F200.000000
G1 X20.599448 Y55.923755 F200.000000
G1 X20.866383 Y56.258481 F200.000000
G1 X21.252115 Y56.444240 F200.000000
G1 X21.680245 F200.000000
G1 X22.065977 Y56.258481 F200.000000
G1 X22.332912 Y55.923755 F200.000000
G1 X22.428180 Y55.506359 F200.000000
G1 Y54.490359 F200.000000
G1 X22.332912 Y54.072963 F200.000000
G1 X22.171947 Y53.871119 F200.000000
G0 Z0.500000
G0 X18.326181 Y53.738490
G1 Z-0.040000 F60.000000
G1 X18.059448 Y54.072963 F200.000000
G1 X17.964180 Y54.490359 F200.000000
G1 X17.964180 Y55.506359 F200.000000
G1 X17.964180 F200.000000
G1 X18.059448 Y55.923755 F200.000000
G1 X18.326383 Y56.258481 F200.000000
G1 X18.712115 Y56.444240 F200.000000
G1 X19.140245 F200.000000
G1 X19.525977 Y56.258481 F200.000000
G1 X19.792912 Y55.923755 F200.000000
G1 X19.888180 Y55.506359 F200.000000
G1 Y54.490359 F200.000000
G1 X19.792912 Y54.072963 F200.000000
G1 X19.631947 Y53.871119 F200.000000
G0 Z0.500000
G0 X15.786181 Y53.738490
G1 Z-0.040000 F60.000000
G1 X15.519448 Y54.072963 F200.000000
G1 X15.424180 Y54.490359 F200.000000
G1 X15.424180 Y55.506359 F200.000000
G1 X15.424180 F200.000000
G1 X15.519448 Y55.923755 F200.000000
G1 X15.786383 Y56.258481 F200.000000
G1 X16.172115 Y56.444240 F200.000000
G1 X16.600245 F200.000000
G1 X16.985977 Y56.258481 F200.000000
G1 X17.252912 Y55.923755 F200.000000
G1 X17.348180 Y55.506359 F200.000000
G1 Y54.490359 F200.000000
G1 X17.252912 Y54.072963 F200.000000
G1 X16.986179 Y53.738490 F200.000000
G0 Z0.500000
G0 X13.246181 Y53.738490
G1 Z-0.040000 F60.000000
G1 X12.979448 Y54.072963 F200.000000
G1 X12.884180 Y54.490359 F200.000000
G1 X12.884180 Y55.506359 F200.000000
G1 X12.884180 F200.000000
G1 X12.979448 Y55.923755 F200.000000
G1 X13.246383 Y56.258481 F200.000000
G1 X13.632115 Y56.444240 F200.000000
G1 X14.060245 F200.000000
G1 X14.445977 Y56.258481 F200.000000
G1 X14.712912 Y55.923755 F200.000000
G1 X14.808180 Y55.506359 F200.000000
G1 Y54.490359 F200.000000
G1 X14.712912 Y54.072963 F200.000000
G1 X14.446179 Y53.738490 F200.000000
G0 Z0.500000
G0 X7.804180 Y7.246359
G1 Z-0.040000 F60.000000
G1 X7.804180 F200.000000
G1 X7.899448 Y7.663755 F200.000000
G1 X8.166383 Y7.998481 F200.000000
G1 X8.552115 Y8.184240 F200.000000
G1 X8.980245 F200.000000
G1 X9.365977 Y7.998481 F200.000000
G1 X9.632912 Y7.663755 F200.000000
G1 X9.728180 Y7.246359 F200.000000
G1 Y6.230359 F200.000000
G1 X9.632912 Y5.812963 F200.000000
G1 X9.365977 Y5.478237 F200.000000
G1 X8.980245 Y5.292478 F200.000000
G1 X8.552115 F200.000000
G1 X8.166383 Y5.478237 F200.000000
G1 X7.899448 Y5.812963 F200.000000
G1 X7.804180 Y6.230359 F200.000000
G1 X7.804180 Y7.246359 F200.000000
G0 Z0.500000
G0 X10.344180
G1 Z-0.040000 F60.000000
G1 X10.344180 F200.000000
G1 X10.439448 Y7.663755 F200.000000
G1 X10.706383 Y7.998481 F200.000000
G1 X11.092115 Y8.184240 F200.000000
G1 X11.520245 F200.000000
G1 X11.905977 Y7.998481 F200.000000
G1 X12.172912 Y7.663755 F200.000000
G1 X12.268180 Y7.246359 F200.000000
G1 Y6.230359 F200.000000
G1 X12.172912 Y5.812963 F200.000000
G1 X11.905977 Y5.478237 F200.000000
G1 X11.520245 Y5.292478 F200.000000
G1 X11.092115 F200.000000
G1 X10.706383 Y5.478237 F200.000000
G1 X10.439448 Y5.812963 F200.000000
G1 X10.344180 Y6.230359 F200.000000
G1 X10.344180 Y7.246359 F200.000000
G0 Z0.500000
G0 X12.884180
G1 Z-0.040000 F60.000000
G1 X12.884180 F200.000000
G1 X12.979448 Y7.663755 F200.000000
G1 X13.246383 Y7.998481 F200.000000
G1 X13.632115 Y8.184240 F200.000000
G1 X14.060245 F200.000000
G1 X14.445977 Y7.998481 F200.000000
G1 X14.712912 Y7.663755 F200.000000
G1 X14.808180 Y7.246359 F200.000000
G1 Y6.230359 F200.000000
G1 X14.712912 Y5.812963 F200.000000
G1 X14.445977 Y5.478237 F200.000000
G1 X14.060245 Y5.292478 F200.000000
G1 X13.632115 F200.000000
G1 X13.246383 Y5.478237 F200.000000
G1 X12.979448 Y5.812963 F200.000000
G1 X12.884180 Y6.230359 F200.000000
G1 X12.884180 Y7.246359 F200.000000
G0 Z0.500000
G0 X15.424180
G1 Z-0.040000 F60.000000
G1 X15.424180 F200.000000
G1 X15.519448 Y7.663755 F200.000000
G1 X15.786383 Y7.998481 F200.000000
G1 X16.172115 Y8.184240 F200.000000
G1 X16.600245 F200.000000
G1 X16.985977 Y7.998481 F200.000000
G1 X17.252912 Y7.663755 F200.000000
G1 X17.348180 Y7.246359 F200.000000
G1 Y6.230359 F200.000000
G1 X17.252912 Y5.812963 F200.000000
G1 X16.985977 Y5.478237 F200.000000
G1 X16.600245 Y5.292478 F200.000000
G1 X16.172115 F200.000000
G1 X15.786383 Y5.478237 F200.000000
G1 X15.519448 Y5.812963 F200.000000
G1 X15.424180 Y6.230359 F200.000000
G1 X15.424180 Y7.246359 F200.000000
G0 Z0.500000
G0 X27.508180 Y6.851832
G1 Z-0.040000 F60.000000
G1 Y6.230359 F200.000000
G1 X27.412912 Y5.812963 F200.000000
G1 X27.145977 Y5.478237 F200.000000
G1 X26.760245 Y5.292478 F200.000000
G1 X26.332115 F200.000000
G1 X25.946383 Y5.478237 F200.000000
G1 X25.679448 Y5.812963 F200.000000
G1 X25.584180 Y6.230359 F200.000000
G1 X25.584180 Y7.246359 F200.000000
G1 X25.584180 F200.000000
G1 X25.679448 Y7.663755 F200.000000
G1 X25.946383 Y7.998481 F200.000000
G1 X26.332115 Y8.184240 F200.000000
G1 X26.581181 F200.000000
G0 Z0.500000
G0 X31.153411 Y8.059655
G1 Z-0.040000 F60.000000
G1 X31.412115 Y8.184240 F200.000000
G1 X31.840245 F200.000000
G1 X32.225977 Y7.998481 F200.000000
G1 X32.492912 Y7.663755 F200.000000
G1 X32.588180 Y7.246359 F200.000000
G1 Y6.230359 F200.000000
G1 X32.492912 Y5.812963 F200.000000
G1 X32.225977 Y5.478237 F200.000000
G1 X31.840245 Y5.292478 F200.000000
G1 X31.412115 F200.000000
G1 X31.026383 Y5.478237 F200.000000
G1 X30.759448 Y5.812963 F200.000000
G1 X30.664180 Y6.230359 F200.000000
G1 Y6.388359 F200.000000
G0 Z0.500000
G0 X34.766179 Y7.998228
G1 Z-0.040000 F60.000000
G1 X35.032912 Y7.663755 F200.000000
G1 X35.128180 Y7.246359 F200.000000
G1 Y6.230359 F200.000000
G1 X35.032912 Y5.812963 F200.000000
G1 X34.765977 Y5.478237 F200.000000
G1 X34.380245 Y5.292478 F200.000000
G1 X33.952115 F200.000000
G1 X33.566383 Y5.478237 F200.000000
G1 X33.299448 Y5.812963 F200.000000
G1 X33.204180 Y6.230359 F200.000000
G1 X33.204180 Y7.246359 F200.000000
G1 X33.204180 F200.000000
G1 X33.299448 Y7.663755 F200.000000
G1 X33.460413 Y7.865599 F200.000000
G0 Z0.500000
G0 X24.606179 Y7.998228
G1 Z-0.040000 F60.000000
G1 X24.872912 Y7.663755 F200.000000
G1 X24.968180 Y7.246359 F200.000000
G1 Y6.230359 F200.000000
G1 X24.872912 Y5.812963 F200.000000
G1 X24.605977 Y5.478237 F200.000000
G1 X24.220245 Y5.292478 F200.000000
G1 X23.792115 F200.000000
G1 X23.406383 Y5.478237 F200.000000
G1 X23.139448 Y5.812963 F200.000000
G1 X23.044180 Y6.230359 F200.000000
G1 X23.044180 Y7.246359 F200.000000
G1 X23.044180 F200.000000
G1 X23.139448 Y7.663755 F200.000000
G1 X23.406181 Y7.998228 F200.000000
G0 Z0.500000
G0 X20.504180 Y7.246359
G1 Z-0.040000 F60.000000
G1 X20.504180 F200.000000
G1 X20.599448 Y7.663755 F200.000000
G1 X20.866383 Y7.998481 F200.000000
G1 X21.252115 Y8.184240 F200.000000
G1 X21.680245 F200.000000
G1 X22.065977 Y7.998481 F200.000000
G1 X22.332912 Y7.663755 F200.000000
G1 X22.428180 Y7.246359 F200.000000
G1 Y6.230359 F200.000000
G1 X22.332912 Y5.812963 F200.000000
G1 X22.065977 Y5.478237 F200.000000
G1 X21.680245 Y5.292478 F200.000000
G1 X21.252115 F200.000000
G1 X20.866383 Y5.478237 F200.000000
G1 X20.599448 Y5.812963 F200.000000
G1 X20.504180 Y6.230359 F200.000000
G1 X20.504180 Y7.246359 F200.000000
G0 Z0.500000
G0 X17.964180
G1 Z-0.040000 F60.000000
G1 X17.964180 F200.000000
G1 X18.059448 Y7.663755 F200.000000
G1 X18.326383 Y7.998481 F200.000000
G1 X18.712115 Y8.184240 F200.000000
G1 X19.140245 F200.000000
G1 X19.525977 Y7.998481 F200.000000
G1 X19.792912 Y7.663755 F200.000000
G1 X19.888180 Y7.246359 F200.000000
G1 Y6.230359 F200.000000
G1 X19.792912 Y5.812963 F200.000000
G1 X19.525977 Y5.478237 F200.000000
G1 X19.140245 Y5.292478 F200.000000
G1 X18.712115 F200.000000
G1 X18.326383 Y5.478237 F200.000000
G1 X18.059448 Y5.812963 F200.000000
G1 X17.964180 Y6.230359 F200.000000
G1 X17.964180 Y7.246359 F200.000000
G0 Z0.500000
G0 X37.306179 Y7.998228
G1 Z-0.040000 F60.000000
G1 X37.572912 Y7.663755 F200.000000
G1 X37.668180 Y7.246359 F200.000000
G1 Y6.230359 F200.000000
G1 X37.572912 Y5.812963 F200.000000
G1 X37.305977 Y5.478237 F200.000000
G1 X36.920245 Y5.292478 F200.000000
G1 X36.492115 F200.000000
G1 X36.106383 Y5.478237 F200.000000
G1 X35.839448 Y5.812963 F200.000000
G1 X35.744180 Y6.230359 F200.000000
G1 X35.744180 Y7.246359 F200.000000
G1 X35.744180 F200.000000
G1 X35.839448 Y7.663755 F200.000000
G1 X36.106181 Y7.998228 F200.000000
G0 Z0.500000
G0 X39.846179 Y7.998228
G1 Z-0.040000 F60.000000
G1 X40.112912 Y7.663755 F200.000000
G1 X40.208180 Y7.246359 F200.000000
G1 Y6.230359 F200.000000
G1 X40.112912 Y5.812963 F200.000000
G1 X39.845977 Y5.478237 F200.000000
G1 X39.460245 Y5.292478 F200.000000
G1 X39.032115 F200.000000
G1 X38.646383 Y5.478237 F200.000000
G1 X38.379448 Y5.812963 F200.000000
G1 X38.284180 Y6.230359 F200.000000
G1 X38.284180 Y7.246359 F200.000000
G1 X38.284180 F200.000000
G1 X38.379448 Y7.663755 F200.000000
G1 X38.646181 Y7.998228 F200.000000
G0 Z0.500000
G0 X42.386179 Y7.998228
G1 Z-0.040000 F60.000000
G1 X42.652912 Y7.663755 F200.000000
G1 X42.748180 Y7.246359 F200.000000
G1 Y6.230359 F200.000000
G1 X42.652912 Y5.812963 F200.000000
G1 X42.385977 Y5.478237 F200.000000
G1 X42.000245 Y5.292478 F200.000000
G1 X41.572115 F200.000000
G1 X41.186383 Y5.478237 F200.000000
G1 X40.919448 Y5.812963 F200.000000
G1 X40.824180 Y6.230359 F200.000000
G1 X40.824180 Y7.246359 F200.000000
G1 X40.824180 F200.000000
G1 X40.919448 Y7.663755 F200.000000
G1 X41.186181 Y7.998228 F200.000000
G0 Z0.500000
G0 X50.006179 Y7.998228
G1 Z-0.040000 F60.000000
G1 X50.272912 Y7.663755 F200.000000
G1 X50.368180 Y7.246359 F200.000000
G1 Y6.230359 F200.000000
G1 X50.272912 Y5.812963 F200.000000
G1 X50.005977 Y5.478237 F200.000000
G1 X49.620245 Y5.292478 F200.000000
G1 X49.192115 F200.000000
G1 X48.806383 Y5.478237 F200.000000
G1 X48.539448 Y5.812963 F200.000000
G1 X48.444180 Y6.230359 F200.000000
G1 X48.444180 Y7.246359 F200.000000
G1 X48.444180 F200.000000
G1 X48.539448 Y7.663755 F200.000000
G1 X48.806181 Y7.998228 F200.000000
G0 Z0.500000
G0 X47.466179
G1 Z-0.040000 F60.000000
G1 X47.732912 Y7.663755 F200.000000
G1 X47.828180 Y7.246359 F200.000000
G1 Y6.230359 F200.000000
G1 X47.732912 Y5.812963 F200.000000
G1 X47.465977 Y5.478237 F200.000000
G1 X47.080245 Y5.292478 F200.000000
G1 X46.652115 F200.000000
G1 X46.266383 Y5.478237 F200.000000
G1 X45.999448 Y5.812963 F200.000000
G1 X45.904180 Y6.230359 F200.000000
G1 X45.904180 Y7.246359 F200.000000
G1 X45.904180 F200.000000
G1 X45.999448 Y7.663755 F200.000000
G1 X46.266181 Y7.998228 F200.000000
G0 Z0.500000
G0 X44.926179 Y7.998228
G1 Z-0.040000 F60.000000
G1 X45.192912 Y7.663755 F200.000000
G1 X45.288180 Y7.246359 F200.000000
G1 Y6.230359 F200.000000
G1 X45.192912 Y5.812963 F200.000000
G1 X44.925977 Y5.478237 F200.000000
G1 X44.540245 Y5.292478 F200.000000
G1 X44.112115 F200.000000
G1 X43.726383 Y5.478237 F200.000000
G1 X43.459448 Y5.812963 F200.000000
G1 X43.364180 Y6.230359 F200.000000
G1 X43.364180 Y7.246359 F200.000000
G1 X43.364180 F200.000000
G1 X43.459448 Y7.663755 F200.000000
G1 X43.726181 Y7.998228 F200.000000
G0 Z0.500000
G0 X53.524180 Y7.246359
G1 Z-0.040000 F60.000000
G1 X53.524180 F200.000000
G1 X53.619448 Y7.663755 F200.000000
G1 X53.886383 Y7.998481 F200.000000
G1 X54.272115 Y8.184240 F200.000000
G1 X54.700245 F200.000000
G1 X55.085977 Y7.998481 F200.000000
G1 X55.352912 Y7.663755 F200.000000
G1 X55.448180 Y7.246359 F200.000000
G1 Y6.230359 F200.000000
G1 X55.352912 Y5.812963 F200.000000
G1 X55.085977 Y5.478237 F200.000000
G1 X54.700245 Y5.292478 F200.000000
G1 X54.272115 F200.000000
G1 X53.886383 Y5.478237 F200.000000
G1 X53.619448 Y5.812963 F200.000000
G1 X53.524180 Y6.230359 F200.000000
G1 X53.524180 Y7.246359 F200.000000
G0 Z0.500000
G0 X57.873292 Y5.788361
G1 Z-0.040000 F60.000000
G1 X57.625977 Y5.478237 F200.000000
G1 X57.240245 Y5.292478 F200.000000
G1 X56.812115 F200.000000
G1 X56.426383 Y5.478237 F200.000000
G1 X56.159448 Y5.812963 F200.000000
G1 X56.064180 Y6.230359 F200.000000
G1 X56.064180 Y7.246359 F200.000000
G1 X56.064180 F200.000000
G1 X56.159448 Y7.663755 F200.000000
G1 X56.426383 Y7.998481 F200.000000
G1 X56.812115 Y8.184240 F200.000000
G1 X57.240245 F200.000000
G1 X57.346182 Y8.133223 F200.000000
G0 Z0.500000
G0 X59.246179 Y8.133223
G1 Z-0.040000 F60.000000
G1 X59.352115 Y8.184240 F200.000000
G1 X59.780245 F200.000000
G1 X60.165977 Y7.998481 F200.000000
G1 X60.432912 Y7.663755 F200.000000
G1 X60.528180 Y7.246359 F200.000000
G1 Y6.230359 F200.000000
G1 X60.432912 Y5.812963 F200.000000
G1 X60.165977 Y5.478237 F200.000000
G1 X59.780245 Y5.292478 F200.000000
G1 X59.352115 F200.000000
G1 X58.966383 Y5.478237 F200.000000
G1 X58.719068 Y5.788361 F200.000000
G0 Z0.500000
G0 X63.684180 Y7.246359
G1 Z-0.040000 F60.000000
G1 X63.684180 F200.000000
G1 X63.779448 Y7.663755 F200.000000
G1 X64.046383 Y7.998481 F200.000000
G1 X64.432115 Y8.184240 F200.000000
G1 X64.860245 F200.000000
G1 X65.245977 Y7.998481 F200.000000
G1 X65.512912 Y7.663755 F200.000000
G1 X65.608180 Y7.246359 F200.000000
G1 Y6.230359 F200.000000
G1 X65.512912 Y5.812963 F200.000000
G1 X65.245977 Y5.478237 F200.000000
G1 X64.860245 Y5.292478 F200.000000
G1 X64.432115 F200.000000
G1 X64.046383 Y5.478237 F200.000000
G1 X63.779448 Y5.812963 F200.000000
G1 X63.684180 Y6.230359 F200.000000
G1 X63.684180 Y7.246359 F200.000000
G0 Z0.500000
G0 X68.148180 Y6.851832
G1 Z-0.040000 F60.000000
G1 Y6.230359 F200.000000
G1 X68.052912 Y5.812963 F200.000000
G1 X67.785977 Y5.478237 F200.000000
G1 X67.400245 Y5.292478 F200.000000
G1 X66.972115 F200.000000
G1 X66.586383 Y5.478237 F200.000000
G1 X66.319448 Y5.812963 F200.000000
G1 X66.224180 Y6.230359 F200.000000
G1 X66.224180 Y7.246359 F200.000000
G1 X66.224180 F200.000000
G1 X66.319448 Y7.663755 F200.000000
G1 X66.586383 Y7.998481 F200.000000
G1 X66.972115 Y8.184240 F200.000000
G1 X67.400245 F200.000000
G1 X67.658949 Y8.059655 F200.000000
G0 Z0.500000
G0 X41.080413 Y53.871119
G1 Z-0.040000 F60.000000
G1 X40.919448 Y54.072963 F200.000000
G1 X40.824180 Y54.490359 F200.000000
G1 X40.824180 Y55.506359 F200.000000
G1 X40.824180 F200.000000
G1 X40.919448 Y55.923755 F200.000000
G1 X41.186383 Y56.258481 F200.000000
G1 X41.572115 Y56.444240 F200.000000
G1 X42.000245 F200.000000
G1 X42.385977 Y56.258481 F200.000000
G1 X42.652912 Y55.923755 F200.000000
G1 X42.748180 Y55.506359 F200.000000
G1 Y54.490359 F200.000000
G1 X42.652912 Y54.072963 F200.000000
G1 X42.386179 Y53.738490 F200.000000
G0 Z0.500000
G0 X43.620413 Y53.871119
G1 Z-0.040000 F60.000000
G1 X43.459448 Y54.072963 F200.000000
G1 X43.364180 Y54.490359 F200.000000
G1 X43.364180 Y55.506359 F200.000000
G1 X43.364180 F200.000000
G1 X43.459448 Y55.923755 F200.000000
G1 X43.726383 Y56.258481 F200.000000
G1 X44.112115 Y56.444240 F200.000000
G1 X44.540245 F200.000000
G1 X44.925977 Y56.258481 F200.000000
G1 X45.192912 Y55.923755 F200.000000
G1 X45.288180 Y55.506359 F200.000000
G1 Y54.490359 F200.000000
G1 X45.192912 Y54.072963 F200.000000
G1 X44.926179 Y53.738490 F200.000000
G0 Z0.500000
G0 X46.160413 Y53.871119
G1 Z-0.040000 F60.000000
G1 X45.999448 Y54.072963 F200.000000
G1 X45.904180 Y54.490359 F200.000000
G1 X45.904180 Y55.506359 F200.000000
G1 X45.904180 F200.000000
G1 X45.999448 Y55.923755 F200.000000
G1 X46.266383 Y56.258481 F200.000000
G1 X46.652115 Y56.444240 F200.000000
G1 X47.080245 F200.000000
G1 X47.465977 Y56.258481 F200.000000
G1 X47.732912 Y55.923755 F200.000000
G1 X47.828180 Y55.506359 F200.000000
G1 Y54.490359 F200.000000
G1 X47.732912 Y54.072963 F200.000000
G1 X47.466179 Y53.738490 F200.000000
G0 Z0.500000
G0 X48.700413 Y53.871119
G1 Z-0.040000 F60.000000
G1 X48.539448 Y54.072963 F200.000000
G1 X48.444180 Y54.490359 F200.000000
G1 X48.444180 Y55.506359 F200.000000
G1 X48.444180 F200.000000
G1 X48.539448 Y55.923755 F200.000000
G1 X48.806383 Y56.258481 F200.000000
G1 X49.192115 Y56.444240 F200.000000
G1 X49.620245 F200.000000
G1 X50.005977 Y56.258481 F200.000000
G1 X50.272912 Y55.923755 F200.000000
G1 X50.368180 Y55.506359 F200.000000
G1 Y54.490359 F200.000000
G1 X50.272912 Y54.072963 F200.000000
G1 X50.006179 Y53.738490 F200.000000
G0 Z0.500000
G0 X51.240413 Y53.871119
G1 Z-0.040000 F60.000000
G1 X51.079448 Y54.072963 F200.000000
G1 X50.984180 Y54.490359 F200.000000
G1 X50.984180 Y55.506359 F200.000000
G1 X50.984180 F200.000000
G1 X51.079448 Y55.923755 F200.000000
G1 X51.346383 Y56.258481 F200.000000
G1 X51.732115 Y56.444240 F200.000000
G1 X52.160245 F200.000000
G1 X52.545977 Y56.258481 F200.000000
G1 X52.812912 Y55.923755 F200.000000
G1 X52.908180 Y55.506359 F200.000000
G1 Y54.490359 F200.000000
G1 X52.812912 Y54.072963 F200.000000
G1 X52.546179 Y53.738490 F200.000000
G0 Z0.500000
G0 X53.886181 Y53.738490
G1 Z-0.040000 F60.000000
G1 X53.619448 Y54.072963 F200.000000
G1 X53.524180 Y54.490359 F200.000000
G1 X53.524180 Y55.506359 F200.000000
G1 X53.524180 F200.000000
G1 X53.619448 Y55.923755 F200.000000
G1 X53.886383 Y56.258481 F200.000000
G1 X54.272115 Y56.444240 F200.000000
G1 X54.700245 F200.000000
G1 X55.085977 Y56.258481 F200.000000
G1 X55.352912 Y55.923755 F200.000000
G1 X55.448180 Y55.506359 F200.000000
G1 Y54.490359 F200.000000
G1 X55.352912 Y54.072963 F200.000000
G1 X55.086179 Y53.738490 F200.000000
G0 Z0.500000
G0 X57.850181 Y53.863886
G1 Z-0.040000 F60.000000
G1 X57.683448 Y54.072963 F200.000000
G1 X57.588180 Y54.490359 F200.000000
G1 X57.588180 Y55.506359 F200.000000
G1 X57.588180 F200.000000
G1 X57.683448 Y55.923755 F200.000000
G1 X57.950383 Y56.258481 F200.000000
G1 X58.336115 Y56.444240 F200.000000
G1 X58.764245 F200.000000
G1 X59.149977 Y56.258481 F200.000000
G1 X59.416912 Y55.923755 F200.000000
G1 X59.512180 Y55.506359 F200.000000
G1 Y54.490359 F200.000000
G1 X59.416912 Y54.072963 F200.000000
G1 X59.250179 Y53.863886 F200.000000
G0 Z0.500000
G0 X60.490181 Y53.738490
G1 Z-0.040000 F60.000000
G1 X60.223448 Y54.072963 F200.000000
G1 X60.128180 Y54.490359 F200.000000
G1 X60.128180 Y55.506359 F200.000000
G1 X60.128180 F200.000000
G1 X60.223448 Y55.923755 F200.000000
G1 X60.490383 Y56.258481 F200.000000
G1 X60.876115 Y56.444240 F200.000000
G1 X61.304245 F200.000000
G1 X61.689977 Y56.258481 F200.000000
G1 X61.956912 Y55.923755 F200.000000
G1 X62.052180 Y55.506359 F200.000000
G1 Y54.490359 F200.000000
G1 X61.956912 Y54.072963 F200.000000
G1 X61.690179 Y53.738490 F200.000000
G0 Z0.500000
G0 X63.030181 Y53.738490
G1 Z-0.040000 F60.000000
G1 X62.763448 Y54.072963 F200.000000
G1 X62.668180 Y54.490359 F200.000000
G1 X62.668180 Y55.506359 F200.000000
G1 X62.668180 F200.000000
G1 X62.763448 Y55.923755 F200.000000
G1 X63.030383 Y56.258481 F200.000000
G1 X63.416115 Y56.444240 F200.000000
G1 X63.844245 F200.000000
G1 X64.229977 Y56.258481 F200.000000
G1 X64.496912 Y55.923755 F200.000000
G1 X64.592180 Y55.506359 F200.000000
G1 Y54.490359 F200.000000
G1 X64.496912 Y54.072963 F200.000000
G1 X64.230179 Y53.738490 F200.000000
G0 Z0.500000
G0 X65.570181 Y53.738490
G1 Z-0.040000 F60.000000
G1 X65.303448 Y54.072963 F200.000000
G1 X65.208180 Y54.490359 F200.000000
G1 X65.208180 Y55.506359 F200.000000
G1 X65.208180 F200.000000
G1 X65.303448 Y55.923755 F200.000000
G1 X65.570383 Y56.258481 F200.000000
G1 X65.956115 Y56.444240 F200.000000
G1 X66.384245 F200.000000
G1 X66.769977 Y56.258481 F200.000000
G1 X67.036912 Y55.923755 F200.000000
G1 X67.132180 Y55.506359 F200.000000
G1 Y54.490359 F200.000000
G1 X67.036912 Y54.072963 F200.000000
G1 X66.770179 Y53.738490 F200.000000
G0 Z0.500000
G0 X68.110181 Y53.738490
G1 Z-0.040000 F60.000000
G1 X67.843448 Y54.072963 F200.000000
G1 X67.748180 Y54.490359 F200.000000
G1 X67.748180 Y55.506359 F200.000000
G1 X67.748180 F200.000000
G1 X67.843448 Y55.923755 F200.000000
G1 X68.110383 Y56.258481 F200.000000
G1 X68.496115 Y56.444240 F200.000000
G1 X68.924245 F200.000000
G1 X69.309977 Y56.258481 F200.000000
G1 X69.576912 Y55.923755 F200.000000
G1 X69.672180 Y55.506359 F200.000000
G1 Y54.490359 F200.000000
G1 X69.576912 Y54.072963 F200.000000
G1 X69.310179 Y53.738490 F200.000000
G0 Z0.500000
G0 X70.288180 Y55.506359
G1 Z-0.040000 F60.000000
G1 X70.288180 F200.000000
G1 X70.383448 Y55.923755 F200.000000
G1 X70.650383 Y56.258481 F200.000000
G1 X71.036115 Y56.444240 F200.000000
G1 X71.464245 F200.000000
G1 X71.849977 Y56.258481 F200.000000
G1 X72.116912 Y55.923755 F200.000000
G1 X72.212180 Y55.506359 F200.000000
G1 Y54.490359 F200.000000
G1 X72.116912 Y54.072963 F200.000000
G1 X71.849977 Y53.738237 F200.000000
G1 X71.464245 Y53.552478 F200.000000
G1 X71.036115 F200.000000
G1 X70.650383 Y53.738237 F200.000000
G1 X70.383448 Y54.072963 F200.000000
G1 X70.288180 Y54.490359 F200.000000
G1 X70.288180 Y55.506359 F200.000000
G0 Z0.500000
G0 X72.840182 Y54.437777
G1 Z-0.040000 F60.000000
G1 X72.828180 Y54.490359 F200.000000
G1 X72.828180 Y55.506359 F200.000000
G1 X72.828180 F200.000000
G1 X72.923448 Y55.923755 F200.000000
G1 X73.190383 Y56.258481 F200.000000
G1 X73.576115 Y56.444240 F200.000000
G1 X74.004245 F200.000000
G1 X74.389977 Y56.258481 F200.000000
G1 X74.656912 Y55.923755 F200.000000
G1 X74.752180 Y55.506359 F200.000000
G1 Y54.490359 F200.000000
G1 X74.740179 Y54.437777 F200.000000
G0 Z0.500000
G0 X75.368180 Y55.506359
G1 Z-0.040000 F60.000000
G1 X75.368180 F200.000000
G1 X75.463448 Y55.923755 F200.000000
G1 X75.730383 Y56.258481 F200.000000
G1 X76.116115 Y56.444240 F200.000000
G1 X76.544245 F200.000000
G1 X76.929977 Y56.258481 F200.000000
G1 X77.196912 Y55.923755 F200.000000
G1 X77.292180 Y55.506359 F200.000000
G1 Y54.490359 F200.000000
G1 X77.196912 Y54.072963 F200.000000
G1 X76.929977 Y53.738237 F200.000000
G1 X76.544245 Y53.552478 F200.000000
G1 X76.116115 F200.000000
G1 X75.730383 Y53.738237 F200.000000
G1 X75.463448 Y54.072963 F200.000000
G1 X75.368180 Y54.490359 F200.000000
G1 X75.368180 Y55.506359 F200.000000
G0 Z0.500000
G0 X63.056179 Y7.298941
G1 Z-0.040000 F60.000000
G1 X63.068180 Y7.246359 F200.000000
G1 Y6.230359 F200.000000
G1 X62.972912 Y5.812963 F200.000000
G1 X62.705977 Y5.478237 F200.000000
G1 X62.320245 Y5.292478 F200.000000
G1 X61.892115 F200.000000
G1 X61.506383 Y5.478237 F200.000000
G1 X61.239448 Y5.812963 F200.000000
G1 X61.144180 Y6.230359 F200.000000
G1 X61.144180 Y7.246359 F200.000000
G1 X61.144180 F200.000000
G1 X61.156182 Y7.298941 F200.000000
G0 Z0.500000
G0 X9.364430 Y30.905109
G1 Z-0.040000 F60.000000
G1 X9.279634 Y30.770157 F200.000000
G1 X9.180261 Y30.645548 F200.000000
G1 X9.168238 Y30.592872 F200.000000
G1 X9.139492 Y30.547124 F200.000000
G1 X9.121647 Y30.388744 F200.000000
G1 X9.086182 Y30.233359 F200.000000
G1 Y16.021861 F200.000000
G1 X8.094430 Y15.030109 F200.000000
G1 X8.009634 Y14.895157 F200.000000
G1 X7.910261 Y14.770548 F200.000000
G1 X7.898238 Y14.717872 F200.000000
G1 X7.869492 Y14.672124 F200.000000
G1 X7.851647 Y14.513744 F200.000000
G1 X7.816182 Y14.358359 F200.000000
G1 Y12.846861 F200.000000
G1 X7.737678 Y12.768358 F200.000000
G1 X7.613014 F200.000000
G1 X7.472366 Y12.974651 F200.000000
G1 X7.076179 Y13.290600 F200.000000
G1 X6.604465 Y13.475734 F200.000000
G1 X6.099139 Y13.513602 F200.000000
G1 X5.605101 Y13.400842 F200.000000
G1 X5.166249 Y13.147470 F200.000000
G1 X4.821577 Y12.776001 F200.000000
G1 X4.601709 Y12.319442 F200.000000
G1 X4.526183 Y11.818359 F200.000000
G1 X4.601709 Y11.317276 F200.000000
G1 X4.821577 Y10.860717 F200.000000
G1 X5.166249 Y10.489248 F200.000000
G1 X5.605101 Y10.235876 F200.000000
G1 X6.099139 Y10.123116 F200.000000
G1 X6.604465 Y10.160984 F200.000000
G1 X7.076179 Y10.346118 F200.000000
G1 X7.472366 Y10.662067 F200.000000
G1 X7.613014 Y10.868361 F200.000000
G1 X8.131180 Y10.868361 F200.000000
G1 X8.286565 Y10.903826 F200.000000
G1 X8.444945 Y10.921671 F200.000000
G1 X8.490693 Y10.950417 F200.000000
G1 X8.543369 Y10.962440 F200.000000
G1 X8.667978 Y11.061813 F200.000000
G1 X8.802930 Y11.146609 F200.000000
G1 X9.437930 Y11.781609 F200.000000
G1 X9.522726 Y11.916561 F200.000000
G1 X9.622099 Y12.041170 F200.000000
G1 X9.634122 Y12.093846 F200.000000
G1 X9.662868 Y12.139594 F200.000000
G1 X9.680713 Y12.297974 F200.000000
G1 X9.716179 Y12.453359 F200.000000
G1 Y13.964857 F200.000000
G1 X10.707930 Y14.956609 F200.000000
G1 X10.792726 Y15.091561 F200.000000
G1 X10.892099 Y15.216170 F200.000000
G1 X10.904122 Y15.268846 F200.000000
G1 X10.932868 Y15.314594 F200.000000
G1 X10.950713 Y15.472974 F200.000000
G1 X10.986179 Y15.628359 F200.000000
G1 Y29.839857 F200.000000
G0 Z0.500000
G0 X59.825634 Y13.371157
G1 Z-0.040000 F60.000000
G1 X59.726261 Y13.246548 F200.000000
G1 X59.714238 Y13.193872 F200.000000
G1 X59.685492 Y13.148124 F200.000000
G1 X59.677511 Y13.077289 F200.000000
G1 X59.486391 Y12.814236 F200.000000
G1 X59.382690 Y12.326359 F200.000000
G1 X59.486391 Y11.838482 F200.000000
G1 X59.779565 Y11.434964 F200.000000
G1 X60.211517 Y11.185576 F200.000000
G1 X60.399187 Y11.165851 F200.000000
G1 X61.156182 Y10.408857 F200.000000
G1 Y7.298941 F200.000000
G0 Z0.500000
G0 X58.357179 Y26.824207
G1 Z-0.040000 F60.000000
G1 X58.394056 Y26.777964 F200.000000
G1 X58.502530 Y26.302709 F200.000000
G1 Y24.512009 F200.000000
G1 X58.394056 Y24.036754 F200.000000
G1 X58.090120 Y23.655630 F200.000000
G1 X57.650918 Y23.444122 F200.000000
G1 X57.163442 F200.000000
G1 X56.724240 Y23.655630 F200.000000
G1 X56.420304 Y24.036754 F200.000000
G1 X56.311830 Y24.512009 F200.000000
G1 Y26.302709 F200.000000
G1 X56.420304 Y26.777964 F200.000000
G1 X56.457182 Y26.824207 F200.000000
G0 Z0.500000
G0 X57.975303 Y22.420358
G1 Z-0.040000 F60.000000
G1 X58.071304 Y22.840964 F200.000000
G1 X58.375240 Y23.222088 F200.000000
G1 X58.814442 Y23.433596 F200.000000
G1 X59.301918 F200.000000
G1 X59.741120 Y23.222088 F200.000000
G1 X60.045056 Y22.840964 F200.000000
G1 X60.153530 Y22.365709 F200.000000
G1 Y20.575009 F200.000000
G1 X60.045056 Y20.099754 F200.000000
G1 X60.008179 Y20.053511 F200.000000
G0 Z0.500000
G0 X58.108182 Y20.053511
G1 Z-0.040000 F60.000000
G1 X58.071304 Y20.099754 F200.000000
G1 X57.975303 Y20.520361 F200.000000
G0 Z0.500000
G0 X61.919057 Y24.457361
G1 Z-0.040000 F60.000000
G1 X61.823056 Y24.036754 F200.000000
G1 X61.519120 Y23.655630 F200.000000
G1 X61.079918 Y23.444122 F200.000000
G1 X60.592442 F200.000000
G1 X60.153240 Y23.655630 F200.000000
G1 X59.849304 Y24.036754 F200.000000
G1 X59.740830 Y24.512009 F200.000000
G1 Y26.302709 F200.000000
G1 X59.849304 Y26.777964 F200.000000
G1 X59.886182 Y26.824207 F200.000000
G0 Z0.500000
G0 X61.786179 Y26.824207
G1 Z-0.040000 F60.000000
G1 X61.823056 Y26.777964 F200.000000
G1 X61.919057 Y26.357358 F200.000000
G0 Z0.500000
G0 X63.111701 Y19.629337
G1 Z-0.040000 F60.000000
G1 X62.857918 Y19.507122 F200.000000
G1 X62.370442 F200.000000
G1 X61.931240 Y19.718630 F200.000000
G1 X61.627304 Y20.099754 F200.000000
G1 X61.518830 Y20.575009 F200.000000
G1 Y22.365709 F200.000000
G1 X61.627304 Y22.840964 F200.000000
G1 X61.931240 Y23.222088 F200.000000
G1 X62.370442 Y23.433596 F200.000000
G1 X62.857918 F200.000000
G1 X63.297120 Y23.222088 F200.000000
G1 X63.601056 Y22.840964 F200.000000
G1 X63.709530 Y22.365709 F200.000000
G1 Y21.718510 F200.000000
G0 Z0.500000
G0 X63.182303 Y26.357358
G1 Z-0.040000 F60.000000
G1 X63.278304 Y26.777964 F200.000000
G1 X63.582240 Y27.159088 F200.000000
G1 X64.021442 Y27.370596 F200.000000
G1 X64.508918 F200.000000
G1 X64.948120 Y27.159088 F200.000000
G1 X65.252056 Y26.777964 F200.000000
G1 X65.360530 Y26.302709 F200.000000
G1 Y25.655510 F200.000000
G0 Z0.500000
G0 X64.762701 Y23.566337
G1 Z-0.040000 F60.000000
G1 X64.508918 Y23.444122 F200.000000
G1 X64.021442 F200.000000
G1 X63.582240 Y23.655630 F200.000000
G1 X63.278304 Y24.036754 F200.000000
G1 X63.182303 Y24.457361 F200.000000
G0 Z0.500000
G0 X59.948071 Y44.081109
G1 Z-0.040000 F60.000000
G1 X59.810680 Y43.568359 F200.000000
G1 X59.948071 Y43.055609 F200.000000
G1 X60.136181 Y42.867499 F200.000000
G1 Y39.102476 F200.000000
G1 X60.003064 Y38.969359 F200.000000
G1 X59.874180 Y38.488359 F200.000000
G1 X60.003064 Y38.007359 F200.000000
G1 X60.355180 Y37.655243 F200.000000
G1 X60.836180 Y37.526359 F200.000000
G1 X61.317180 Y37.655243 F200.000000
G1 X61.669296 Y38.007359 F200.000000
G1 X61.798180 Y38.488359 F200.000000
G1 X61.669296 Y38.969359 F200.000000
G1 X61.536179 Y39.102476 F200.000000
G1 Y42.867499 F200.000000
G1 X61.724289 Y43.055609 F200.000000
G1 X61.861680 Y43.568359 F200.000000
G1 X61.724289 Y44.081109 F200.000000
G1 X61.348930 Y44.456468 F200.000000
G1 X60.836180 Y44.593859 F200.000000
G1 X60.323430 Y44.456468 F200.000000
G1 X59.948071 Y44.081109 F200.000000
G0 Z0.500000
G0 X62.715463 Y42.067164
G1 Z-0.040000 F60.000000
G1 X62.736644 Y42.033454 F200.000000
G1 X62.745503 Y41.994641 F200.000000
G1 X62.818725 Y41.902823 F200.000000
G1 X62.881206 Y41.803385 F200.000000
G1 X65.216181 Y39.468410 F200.000000
G1 Y39.102476 F200.000000
G1 X65.083064 Y38.969359 F200.000000
G1 X64.954180 Y38.488359 F200.000000
G1 X65.083064 Y38.007359 F200.000000
G1 X65.435180 Y37.655243 F200.000000
G1 X65.916180 Y37.526359 F200.000000
G1 X66.397180 Y37.655243 F200.000000
G1 X66.749296 Y38.007359 F200.000000
G1 X66.878180 Y38.488359 F200.000000
G1 X66.749296 Y38.969359 F200.000000
G1 X66.616179 Y39.102476 F200.000000
G1 Y39.758359 F200.000000
G1 X66.590046 Y39.872854 F200.000000
G1 X66.576897 Y39.989554 F200.000000
G1 X66.555716 Y40.023264 F200.000000
G1 X66.546857 Y40.062077 F200.000000
G1 X66.473635 Y40.153895 F200.000000
G0 Z0.500000
G0 X65.255463 Y42.067164
G1 Z-0.040000 F60.000000
G1 X65.276644 Y42.033454 F200.000000
G1 X65.285503 Y41.994641 F200.000000
G1 X65.358725 Y41.902823 F200.000000
G1 X65.421206 Y41.803385 F200.000000
G1 X67.756181 Y39.468410 F200.000000
G1 Y39.102476 F200.000000
G1 X67.623064 Y38.969359 F200.000000
G1 X67.494180 Y38.488359 F200.000000
G1 X67.623064 Y38.007359 F200.000000
G1 X67.975180 Y37.655243 F200.000000
G1 X68.456180 Y37.526359 F200.000000
G1 X68.937180 Y37.655243 F200.000000
G1 X69.289296 Y38.007359 F200.000000
G1 X69.418180 Y38.488359 F200.000000
G1 X69.289296 Y38.969359 F200.000000
G1 X69.156179 Y39.102476 F200.000000
G1 Y39.758359 F200.000000
G1 X69.130046 Y39.872854 F200.000000
G1 X69.116897 Y39.989554 F200.000000
G1 X69.095716 Y40.023264 F200.000000
G1 X69.086857 Y40.062077 F200.000000
G1 X69.013635 Y40.153895 F200.000000
G0 Z0.500000
G0 X60.490181 Y53.738490
G1 Z-0.040000 F60.000000
G1 Y52.121149 F200.000000
G1 X60.323430 Y52.076468 F200.000000
G1 X59.948071 Y51.701109 F200.000000
G1 X59.810680 Y51.188359 F200.000000
G1 X59.948071 Y50.675609 F200.000000
G1 X60.323430 Y50.300250 F200.000000
G1 X60.836180 Y50.162859 F200.000000
G1 X61.348930 Y50.300250 F200.000000
G1 X61.724289 Y50.675609 F200.000000
G1 X61.861680 Y51.188359 F200.000000
G1 X61.724289 Y51.701109 F200.000000
G1 X61.690179 Y51.735219 F200.000000
G1 Y53.738490 F200.000000
G0 Z0.500000
G0 X63.030181 Y53.738490
G1 Z-0.040000 F60.000000
G1 Y52.121149 F200.000000
G1 X62.863430 Y52.076468 F200.000000
G1 X62.488071 Y51.701109 F200.000000
G1 X62.350680 Y51.188359 F200.000000
G1 X62.488071 Y50.675609 F200.000000
G1 X62.863430 Y50.300250 F200.000000
G1 X63.376180 Y50.162859 F200.000000
G1 X63.888930 Y50.300250 F200.000000
G1 X64.264289 Y50.675609 F200.000000
G1 X64.401680 Y51.188359 F200.000000
G1 X64.264289 Y51.701109 F200.000000
G1 X64.230179 Y51.735219 F200.000000
G1 Y53.738490 F200.000000
G0 Z0.500000
G0 X66.473635 Y40.153895
G1 Z-0.040000 F60.000000
G1 X66.411154 Y40.253333 F200.000000
G1 X64.076179 Y42.588308 F200.000000
G1 Y42.867499 F200.000000
G1 X64.264289 Y43.055609 F200.000000
G1 X64.401680 Y43.568359 F200.000000
G1 X64.264289 Y44.081109 F200.000000
G1 X63.888930 Y44.456468 F200.000000
G1 X63.376180 Y44.593859 F200.000000
G1 X62.863430 Y44.456468 F200.000000
G1 X62.488071 Y44.081109 F200.000000
G1 X62.350680 Y43.568359 F200.000000
G1 X62.488071 Y43.055609 F200.000000
G1 X62.676181 Y42.867499 F200.000000
G1 Y42.298359 F200.000000
G1 X62.702314 Y42.183865 F200.000000
G1 X62.715463 Y42.067164 F200.000000
G0 Z0.500000
G0 X65.570181 Y53.738490
G1 Z-0.040000 F60.000000
G1 Y52.121149 F200.000000
G1 X65.403430 Y52.076468 F200.000000
G1 X65.028071 Y51.701109 F200.000000
G1 X64.890680 Y51.188359 F200.000000
G1 X65.028071 Y50.675609 F200.000000
G1 X65.403430 Y50.300250 F200.000000
G1 X65.916180 Y50.162859 F200.000000
G1 X66.428930 Y50.300250 F200.000000
G1 X66.804289 Y50.675609 F200.000000
G1 X66.941680 Y51.188359 F200.000000
G1 X66.804289 Y51.701109 F200.000000
G1 X66.770179 Y51.735219 F200.000000
G1 Y53.738490 F200.000000
G0 Z0.500000
G0 X69.013635 Y40.153895
G1 Z-0.040000 F60.000000
G1 X68.951154 Y40.253333 F200.000000
G1 X66.616179 Y42.588308 F200.000000
G1 Y42.867499 F200.000000
G1 X66.804289 Y43.055609 F200.000000
G1 X66.941680 Y43.568359 F200.000000
G1 X66.804289 Y44.081109 F200.000000
G1 X66.428930 Y44.456468 F200.000000
G1 X65.916180 Y44.593859 F200.000000
G1 X65.403430 Y44.456468 F200.000000
G1 X65.028071 Y44.081109 F200.000000
G1 X64.890680 Y43.568359 F200.000000
G1 X65.028071 Y43.055609 F200.000000
G1 X65.216181 Y42.867499 F200.000000
G1 Y42.298359 F200.000000
G1 X65.242314 Y42.183865 F200.000000
G1 X65.255463 Y42.067164 F200.000000
G0 Z0.500000
G0 X39.773441 Y45.516045
G1 Z-0.040000 F60.000000
G1 X39.876819 Y45.433604 F200.000000
G1 X40.035180 Y45.275243 F200.000000
G1 X40.095748 Y45.259013 F200.000000
G1 X40.103991 Y45.252440 F200.000000
G1 X40.213919 Y45.227350 F200.000000
G1 X40.516180 Y45.146359 F200.000000
G1 X40.560970 Y45.158361 F200.000000
G1 X43.011390 F200.000000
G1 X43.056180 Y45.146359 F200.000000
G1 X43.100970 Y45.158361 F200.000000
G1 X45.551390 F200.000000
G1 X45.596180 Y45.146359 F200.000000
G1 X45.640970 Y45.158361 F200.000000
G1 X48.091390 F200.000000
G1 X48.136180 Y45.146359 F200.000000
G1 X48.180970 Y45.158361 F200.000000
G1 X50.631390 F200.000000
G1 X50.676180 Y45.146359 F200.000000
G1 X50.720970 Y45.158361 F200.000000
G1 X53.171390 F200.000000
G1 X53.216180 Y45.146359 F200.000000
G1 X53.260970 Y45.158361 F200.000000
G1 X72.586182 F200.000000
G1 Y42.298359 F200.000000
G1 Y42.298359 F200.000000
G1 Y42.298359 F200.000000
G1 Y37.041011 F200.000000
G1 X72.416174 Y36.898358 F200.000000
G1 X64.326179 F200.000000
G1 Y38.443569 F200.000000
G1 X64.338180 Y38.488359 F200.000000
G1 X64.257189 Y38.790620 F200.000000
G1 X64.232099 Y38.900548 F200.000000
G1 X64.225526 Y38.908791 F200.000000
G1 X64.209296 Y38.969359 F200.000000
G1 X64.050935 Y39.127720 F200.000000
G1 X63.968494 Y39.231098 F200.000000
G1 X63.928109 Y39.250546 F200.000000
G1 X63.857180 Y39.321475 F200.000000
G1 X63.685049 Y39.367598 F200.000000
G1 X63.587575 Y39.414539 F200.000000
G1 X63.509862 F200.000000
G1 X63.376180 Y39.450359 F200.000000
G1 X63.242498 Y39.414539 F200.000000
G1 X63.164786 F200.000000
G1 X63.067311 Y39.367598 F200.000000
G1 X62.895180 Y39.321475 F200.000000
G1 X62.824251 Y39.250546 F200.000000
G1 X62.783866 Y39.231098 F200.000000
G1 X62.701425 Y39.127720 F200.000000
G1 X62.543064 Y38.969359 F200.000000
G1 X62.526834 Y38.908791 F200.000000
G1 X62.520261 Y38.900548 F200.000000
G1 X62.495171 Y38.790620 F200.000000
G1 X62.414180 Y38.488359 F200.000000
G1 X62.426182 Y38.443569 F200.000000
G1 Y36.395958 F200.000000
G1 X60.521980 F200.000000
G1 X60.233870 Y36.684068 F200.000000
G1 X59.721120 Y36.821459 F200.000000
G1 X59.208370 Y36.684068 F200.000000
G1 X58.833011 Y36.308709 F200.000000
G1 X58.695620 Y35.795959 F200.000000
G1 X58.833011 Y35.283209 F200.000000
G1 X59.208370 Y34.907850 F200.000000
G1 X59.721120 Y34.770459 F200.000000
G1 X60.233870 Y34.907850 F200.000000
G1 X60.521980 Y35.195960 F200.000000
G1 X62.803926 F200.000000
G1 X62.880305 Y35.159178 F200.000000
G1 X62.963991 Y35.092440 F200.000000
G1 X63.068347 Y35.068622 F200.000000
G1 X63.164786 Y35.022179 F200.000000
G1 X63.271825 F200.000000
G1 X63.376180 Y34.998361 F200.000000
G1 X72.416174 Y34.998361 F200.000000
G1 X72.801180 Y34.675302 F200.000000
G1 X73.280917 Y34.500692 F200.000000
G1 X73.791443 F200.000000
G1 X74.271180 Y34.675302 F200.000000
G1 X74.656187 Y34.998361 F200.000000
G1 X75.682678 F200.000000
G1 X77.666182 Y33.014857 F200.000000
G1 Y23.641861 F200.000000
G1 X75.682678 Y21.658358 F200.000000
G1 X69.357682 Y21.658358 F200.000000
G1 X67.800346 Y23.215694 F200.000000
G0 Z0.500000
G0 X42.662678 Y38.808361
G1 Z-0.040000 F60.000000
G1 X43.376182 Y38.094857 F200.000000
G1 Y28.721861 F200.000000
G1 X41.392678 Y26.738358 F200.000000
G1 X40.909682 Y26.738358 F200.000000
G1 X40.208180 Y27.439860 F200.000000
G1 Y28.020359 F200.000000
G1 X38.284180 F200.000000
G1 Y26.096359 F200.000000
G1 X38.864679 F200.000000
G1 X39.844430 Y25.116609 F200.000000
G1 X39.979382 Y25.031813 F200.000000
G1 X40.103991 Y24.932440 F200.000000
G1 X40.156667 Y24.920417 F200.000000
G0 Z0.500000
G0 X31.939945 Y19.811671
G1 Z-0.040000 F60.000000
G1 X31.992001 Y19.844380 F200.000000
G1 X32.107180 Y19.875243 F200.000000
G1 X32.218868 Y19.986930 F200.000000
G1 X32.252792 Y20.008246 F200.000000
G1 X36.391182 Y15.869857 F200.000000
G1 Y14.751861 F200.000000
G1 X35.677678 Y14.038358 F200.000000
G1 X34.845970 F200.000000
G1 X34.801180 Y14.050359 F200.000000
G1 X34.756390 Y14.038358 F200.000000
G1 X32.305970 F200.000000
G1 X32.261180 Y14.050359 F200.000000
G1 X32.216390 Y14.038358 F200.000000
G1 X29.765970 F200.000000
G1 X29.721180 Y14.050359 F200.000000
G1 X29.676390 Y14.038358 F200.000000
G1 X27.225970 F200.000000
G1 X27.181180 Y14.050359 F200.000000
G1 X26.878919 Y13.969368 F200.000000
G1 X26.768991 Y13.944278 F200.000000
G1 X26.760748 Y13.937705 F200.000000
G1 X26.700180 Y13.921475 F200.000000
G1 X26.541819 Y13.763114 F200.000000
G1 X26.448078 Y13.688358 F200.000000
G1 X24.006180 Y13.688358 F200.000000
G1 X23.908042 Y13.665959 F200.000000
G1 X23.808013 Y13.654688 F200.000000
G1 X23.779119 Y13.636533 F200.000000
G1 X23.745850 Y13.628940 F200.000000
G1 X23.667149 Y13.566178 F200.000000
G0 Z0.500000
G0 X57.850181 Y53.863886
G1 Z-0.040000 F60.000000
G1 Y53.002308 F200.000000
G1 X56.998232 Y52.150359 F200.000000
G1 X56.064180 F200.000000
G1 Y50.226359 F200.000000
G1 X57.988180 F200.000000
G1 Y51.160411 F200.000000
G1 X59.045154 Y52.217385 F200.000000
G1 X59.107635 Y52.316823 F200.000000
G1 X59.180857 Y52.408641 F200.000000
G1 X59.189716 Y52.447454 F200.000000
G1 X59.210897 Y52.481164 F200.000000
G1 X59.224046 Y52.597865 F200.000000
G1 X59.250179 Y52.712359 F200.000000
G1 Y53.863886 F200.000000
G0 Z0.500000
G0 X53.886181 Y53.738490
G1 Z-0.040000 F60.000000
G1 Y52.706887 F200.000000
G1 X53.329653 Y52.150359 F200.000000
G1 X52.254180 F200.000000
G1 Y50.226359 F200.000000
G1 X54.178180 F200.000000
G1 Y51.301832 F200.000000
G1 X54.910444 Y52.034096 F200.000000
G1 X54.963999 Y52.119328 F200.000000
G1 X55.026761 Y52.198029 F200.000000
G1 X55.034354 Y52.231298 F200.000000
G1 X55.052509 Y52.260192 F200.000000
G1 X55.063780 Y52.360221 F200.000000
G1 X55.086179 Y52.458359 F200.000000
G1 Y53.738490 F200.000000
G0 Z0.500000
G0 X51.240413 Y53.871119
G1 Z-0.040000 F60.000000
G1 X50.251917 Y52.882623 F200.000000
G1 X50.198361 Y52.797390 F200.000000
G1 X50.135599 Y52.718689 F200.000000
G1 X50.128006 Y52.685420 F200.000000
G1 X50.109851 Y52.656526 F200.000000
G1 X50.098580 Y52.556497 F200.000000
G1 X50.076181 Y52.458359 F200.000000
G1 Y52.150359 F200.000000
G1 X49.714180 F200.000000
G1 Y50.226359 F200.000000
G1 X51.638180 F200.000000
G1 Y52.150359 F200.000000
G1 X51.276179 F200.000000
G1 Y52.209831 F200.000000
G1 X52.370444 Y53.304096 F200.000000
G1 X52.423999 Y53.389328 F200.000000
G1 X52.486761 Y53.468029 F200.000000
G1 X52.494354 Y53.501298 F200.000000
G1 X52.512509 Y53.530192 F200.000000
G1 X52.523780 Y53.630221 F200.000000
G1 X52.546179 Y53.728359 F200.000000
G1 Y53.738490 F200.000000
G0 Z0.500000
G0 X48.700413 Y53.871119
G1 Z-0.040000 F60.000000
G1 X47.711917 Y52.882623 F200.000000
G1 X47.658361 Y52.797390 F200.000000
G1 X47.595599 Y52.718689 F200.000000
G1 X47.588006 Y52.685420 F200.000000
G1 X47.569851 Y52.656526 F200.000000
G1 X47.558580 Y52.556497 F200.000000
G1 X47.536181 Y52.458359 F200.000000
G1 Y52.150359 F200.000000
G1 X47.174180 F200.000000
G1 Y50.226359 F200.000000
G1 X49.098180 F200.000000
G1 Y52.150359 F200.000000
G1 X48.736179 F200.000000
G1 Y52.209831 F200.000000
G1 X49.830444 Y53.304096 F200.000000
G1 X49.883999 Y53.389328 F200.000000
G1 X49.946761 Y53.468029 F200.000000
G1 X49.954354 Y53.501298 F200.000000
G1 X49.972509 Y53.530192 F200.000000
G1 X49.983780 Y53.630221 F200.000000
G1 X50.006179 Y53.728359 F200.000000
G1 Y53.738490 F200.000000
G0 Z0.500000
G0 X46.160413 Y53.871119
G1 Z-0.040000 F60.000000
G1 X45.171917 Y52.882623 F200.000000
G1 X45.118361 Y52.797390 F200.000000
G1 X45.055599 Y52.718689 F200.000000
G1 X45.048006 Y52.685420 F200.000000
G1 X45.029851 Y52.656526 F200.000000
G1 X45.018580 Y52.556497 F200.000000
G1 X44.996181 Y52.458359 F200.000000
G1 Y52.150359 F200.000000
G1 X44.634180 F200.000000
G1 Y50.226359 F200.000000
G1 X46.558180 F200.000000
G1 Y52.150359 F200.000000
G1 X46.196179 F200.000000
G1 Y52.209831 F200.000000
G1 X47.290444 Y53.304096 F200.000000
G1 X47.343999 Y53.389328 F200.000000
G1 X47.406761 Y53.468029 F200.000000
G1 X47.414354 Y53.501298 F200.000000
G1 X47.432509 Y53.530192 F200.000000
G1 X47.443780 Y53.630221 F200.000000
G1 X47.466179 Y53.728359 F200.000000
G1 Y53.738490 F200.000000
G0 Z0.500000
G0 X43.620413 Y53.871119
G1 Z-0.040000 F60.000000
G1 X42.631917 Y52.882623 F200.000000
G1 X42.578361 Y52.797390 F200.000000
G1 X42.515599 Y52.718689 F200.000000
G1 X42.508006 Y52.685420 F200.000000
G1 X42.489851 Y52.656526 F200.000000
G1 X42.478580 Y52.556497 F200.000000
G1 X42.456181 Y52.458359 F200.000000
G1 Y52.150359 F200.000000
G1 X42.094180 F200.000000
G1 Y50.226359 F200.000000
G1 X44.018180 F200.000000
G1 Y52.150359 F200.000000
G1 X43.656179 F200.000000
G1 Y52.209831 F200.000000
G1 X44.750444 Y53.304096 F200.000000
G1 X44.803999 Y53.389328 F200.000000
G1 X44.866761 Y53.468029 F200.000000
G1 X44.874354 Y53.501298 F200.000000
G1 X44.892509 Y53.530192 F200.000000
G1 X44.903780 Y53.630221 F200.000000
G1 X44.926179 Y53.728359 F200.000000
G1 Y53.738490 F200.000000
G0 Z0.500000
G0 X41.080413 Y53.871119
G1 Z-0.040000 F60.000000
G1 X40.091917 Y52.882623 F200.000000
G1 X40.038361 Y52.797390 F200.000000
G1 X39.975599 Y52.718689 F200.000000
G1 X39.968006 Y52.685420 F200.000000
G1 X39.949851 Y52.656526 F200.000000
G1 X39.938580 Y52.556497 F200.000000
G1 X39.916181 Y52.458359 F200.000000
G1 Y52.150359 F200.000000
G1 X39.554180 F200.000000
G1 Y50.226359 F200.000000
G1 X41.478180 F200.000000
G1 Y52.150359 F200.000000
G1 X41.116179 F200.000000
G1 Y52.209831 F200.000000
G1 X42.210444 Y53.304096 F200.000000
G1 X42.263999 Y53.389328 F200.000000
G1 X42.326761 Y53.468029 F200.000000
G1 X42.334354 Y53.501298 F200.000000
G1 X42.352509 Y53.530192 F200.000000
G1 X42.363780 Y53.630221 F200.000000
G1 X42.386179 Y53.728359 F200.000000
G1 Y53.738490 F200.000000
G0 Z0.500000
G0 X31.153411 Y8.059655
G1 Z-0.040000 F60.000000
G1 X30.321179 Y8.891887 F200.000000
G1 Y9.586359 F200.000000
G1 X30.683180 F200.000000
G1 Y11.510359 F200.000000
G1 X28.759180 F200.000000
G1 Y9.586359 F200.000000
G1 X29.121181 F200.000000
G1 Y8.643359 F200.000000
G1 X29.143580 Y8.545221 F200.000000
G1 X29.154851 Y8.445192 F200.000000
G1 X29.173006 Y8.416298 F200.000000
G1 X29.180599 Y8.383029 F200.000000
G1 X29.243361 Y8.304328 F200.000000
G1 X29.296917 Y8.219096 F200.000000
G1 X30.664180 Y6.851832 F200.000000
G0 Z0.500000
G0 X27.508180 Y6.851832
G1 Z-0.040000 F60.000000
G1 X27.605444 Y6.949096 F200.000000
G1 X27.658999 Y7.034328 F200.000000
G1 X27.721761 Y7.113029 F200.000000
G1 X27.729354 Y7.146298 F200.000000
G1 X27.747509 Y7.175192 F200.000000
G1 X27.758780 Y7.275221 F200.000000
G1 X27.781179 Y7.373359 F200.000000
G1 Y9.586359 F200.000000
G1 X28.143180 F200.000000
G1 Y11.510359 F200.000000
G1 X26.219180 F200.000000
G1 Y9.586359 F200.000000
G1 X26.581181 F200.000000
G1 Y8.184240 F200.000000
G0 Z0.500000
G0 X23.795444 Y12.029096
G1 Z-0.040000 F60.000000
G1 X24.254708 Y12.488360 F200.000000
G1 X26.448078 Y12.488360 F200.000000
G1 X26.541819 Y12.413604 F200.000000
G1 X26.700180 Y12.255243 F200.000000
G1 X26.760748 Y12.239013 F200.000000
G1 X26.768991 Y12.232440 F200.000000
G1 X26.878919 Y12.207350 F200.000000
G1 X27.181180 Y12.126359 F200.000000
G1 X27.225970 Y12.138361 F200.000000
G1 X29.676390 F200.000000
G1 X29.721180 Y12.126359 F200.000000
G1 X29.765970 Y12.138361 F200.000000
G1 X32.216390 F200.000000
G1 X32.261180 Y12.126359 F200.000000
G1 X32.305970 Y12.138361 F200.000000
G1 X34.756390 F200.000000
G1 X34.801180 Y12.126359 F200.000000
G1 X34.845970 Y12.138361 F200.000000
G1 X36.071180 F200.000000
