(Generated by ./pygerber2gcode_cui_MOD.py )
( 2013-10-19 10:59:36 )
(Initialize)

(Start form here)
G0 Z0.500000 F40.000000
G0 X64.638658 Y10.548359
G0 Z-2.000000 F40.000000 D0.609600
G0 Z0.500000
G0 X53.843658 Y15.628359
G0 Z-2.000000 F40.000000 D0.609600
G0 Z0.500000
G0 X51.938658 Y10.548359
G0 Z-2.000000 F40.000000 D0.609600
G0 Z0.500000
G0 X44.318658 Y23.248359
G0 Z-2.000000 F40.000000 D0.609600
G0 Z0.500000
G0 X74.257638 Y24.518359
G0 Z-2.000000 F40.000000 D0.711200
G0 Z0.500000
G0 X72.258658 Y24.518359
G0 Z-2.000000 F40.000000 D0.711200
G0 Z0.500000
G0 X70.259678 Y24.518359
G0 Z-2.000000 F40.000000 D0.711200
G0 Z0.500000
G0 X76.322658 Y54.998359
G0 Z-2.000000 F40.000000 D0.812800
G0 Z0.500000
G0 X76.068658 Y17.533359
G0 Z-2.000000 F40.000000 D0.812800
G0 Z0.500000
G0 X76.068658 Y9.913359
G0 Z-2.000000 F40.000000 D0.812800
G0 Z0.500000
G0 X74.798658 Y49.918359
G0 Z-2.000000 F40.000000 D0.812800
G0 Z0.500000
G0 X74.798658 Y42.298359
G0 Z-2.000000 F40.000000 D0.812800
G0 Z0.500000
G0 X73.782658 Y54.998359
G0 Z-2.000000 F40.000000 D0.812800
G0 Z0.500000
G0 X71.242658 Y54.998359
G0 Z-2.000000 F40.000000 D0.812800
G0 Z0.500000
G0 X70.988658 Y17.533359
G0 Z-2.000000 F40.000000 D0.812800
G0 Z0.500000
G0 X70.988658 Y9.913359
G0 Z-2.000000 F40.000000 D0.812800
G0 Z0.500000
G0 X69.718658 Y49.918359
G0 Z-2.000000 F40.000000 D0.812800
G0 Z0.500000
G0 X69.718658 Y42.298359
G0 Z-2.000000 F40.000000 D0.812800
G0 Z0.500000
G0 X68.702658 Y54.998359
G0 Z-2.000000 F40.000000 D0.812800
G0 Z0.500000
G0 X68.448658 Y38.488359
G0 Z-2.000000 F40.000000 D0.812800
G0 Z0.500000
G0 X67.178658 Y6.738359
G0 Z-2.000000 F40.000000 D0.812800
G0 Z0.500000
G0 X66.162658 Y54.998359
G0 Z-2.000000 F40.000000 D0.812800
G0 Z0.500000
G0 X65.908658 Y51.188359
G0 Z-2.000000 F40.000000 D0.812800
G0 Z0.500000
G0 X65.908658 Y43.568359
G0 Z-2.000000 F40.000000 D0.812800
G0 Z0.500000
G0 X65.908658 Y38.488359
G0 Z-2.000000 F40.000000 D0.812800
G0 Z0.500000
G0 X65.908658 Y32.138359
G0 Z-2.000000 F40.000000 D0.812800
G0 Z0.500000
G0 X65.908658 Y29.598359
G0 Z-2.000000 F40.000000 D0.812800
G0 Z0.500000
G0 X64.638658 Y6.738359
G0 Z-2.000000 F40.000000 D0.812800
G0 Z0.500000
G0 X63.622658 Y54.998359
G0 Z-2.000000 F40.000000 D0.812800
G0 Z0.500000
G0 X63.368658 Y51.188359
G0 Z-2.000000 F40.000000 D0.812800
G0 Z0.500000
G0 X63.368658 Y43.568359
G0 Z-2.000000 F40.000000 D0.812800
G0 Z0.500000
G0 X63.368658 Y38.488359
G0 Z-2.000000 F40.000000 D0.812800
G0 Z0.500000
G0 X62.098658 Y6.738359
G0 Z-2.000000 F40.000000 D0.812800
G0 Z0.500000
G0 X61.082658 Y54.998359
G0 Z-2.000000 F40.000000 D0.812800
G0 Z0.500000
G0 X60.828658 Y51.188359
G0 Z-2.000000 F40.000000 D0.812800
G0 Z0.500000
G0 X60.828658 Y43.568359
G0 Z-2.000000 F40.000000 D0.812800
G0 Z0.500000
G0 X60.828658 Y38.488359
G0 Z-2.000000 F40.000000 D0.812800
G0 Z0.500000
G0 X59.713598 Y35.793419
G0 Z-2.000000 F40.000000 D0.812800
G0 Z0.500000
G0 X59.558658 Y6.738359
G0 Z-2.000000 F40.000000 D0.812800
G0 Z0.500000
G0 X58.542658 Y54.998359
G0 Z-2.000000 F40.000000 D0.812800
G0 Z0.500000
G0 X57.173598 Y34.523419
G0 Z-2.000000 F40.000000 D0.812800
G0 Z0.500000
G0 X57.018658 Y6.738359
G0 Z-2.000000 F40.000000 D0.812800
G0 Z0.500000
G0 X54.478658 Y54.998359
G0 Z-2.000000 F40.000000 D0.812800
G0 Z0.500000
G0 X54.478658 Y6.738359
G0 Z-2.000000 F40.000000 D0.812800
G0 Z0.500000
G0 X54.323718 Y41.183299
G0 Z-2.000000 F40.000000 D0.812800
G0 Z0.500000
G0 X51.938658 Y54.998359
G0 Z-2.000000 F40.000000 D0.812800
G0 Z0.500000
G0 X51.783718 Y39.913299
G0 Z-2.000000 F40.000000 D0.812800
G0 Z0.500000
G0 X49.398658 Y54.998359
G0 Z-2.000000 F40.000000 D0.812800
G0 Z0.500000
G0 X49.398658 Y37.218359
G0 Z-2.000000 F40.000000 D0.812800
G0 Z0.500000
G0 X49.398658 Y34.678359
G0 Z-2.000000 F40.000000 D0.812800
G0 Z0.500000
G0 X49.398658 Y32.138359
G0 Z-2.000000 F40.000000 D0.812800
G0 Z0.500000
G0 X49.398658 Y29.598359
G0 Z-2.000000 F40.000000 D0.812800
G0 Z0.500000
G0 X49.398658 Y20.708359
G0 Z-2.000000 F40.000000 D0.812800
G0 Z0.500000
G0 X49.398658 Y18.168359
G0 Z-2.000000 F40.000000 D0.812800
G0 Z0.500000
G0 X49.398658 Y6.738359
G0 Z-2.000000 F40.000000 D0.812800
G0 Z0.500000
G0 X46.858658 Y54.998359
G0 Z-2.000000 F40.000000 D0.812800
G0 Z0.500000
G0 X46.858658 Y6.738359
G0 Z-2.000000 F40.000000 D0.812800
G0 Z0.500000
G0 X44.318658 Y54.998359
G0 Z-2.000000 F40.000000 D0.812800
G0 Z0.500000
G0 X44.318658 Y6.738359
G0 Z-2.000000 F40.000000 D0.812800
G0 Z0.500000
G0 X41.778658 Y54.998359
G0 Z-2.000000 F40.000000 D0.812800
G0 Z0.500000
G0 X41.778658 Y37.218359
G0 Z-2.000000 F40.000000 D0.812800
G0 Z0.500000
G0 X41.778658 Y34.678359
G0 Z-2.000000 F40.000000 D0.812800
G0 Z0.500000
G0 X41.778658 Y32.138359
G0 Z-2.000000 F40.000000 D0.812800
G0 Z0.500000
G0 X41.778658 Y29.598359
G0 Z-2.000000 F40.000000 D0.812800
G0 Z0.500000
G0 X41.778658 Y6.738359
G0 Z-2.000000 F40.000000 D0.812800
G0 Z0.500000
G0 X39.238658 Y6.738359
G0 Z-2.000000 F40.000000 D0.812800
G0 Z0.500000
G0 X36.698658 Y6.738359
G0 Z-2.000000 F40.000000 D0.812800
G0 Z0.500000
G0 X34.158658 Y6.738359
G0 Z-2.000000 F40.000000 D0.812800
G0 Z0.500000
G0 X31.618658 Y54.998359
G0 Z-2.000000 F40.000000 D0.812800
G0 Z0.500000
G0 X31.618658 Y20.708359
G0 Z-2.000000 F40.000000 D0.812800
G0 Z0.500000
G0 X31.618658 Y6.738359
G0 Z-2.000000 F40.000000 D0.812800
G0 Z0.500000
G0 X29.713658 Y40.393359
G0 Z-2.000000 F40.000000 D0.812800
G0 Z0.500000
G0 X29.078658 Y54.998359
G0 Z-2.000000 F40.000000 D0.812800
G0 Z0.500000
G0 X29.078658 Y20.708359
G0 Z-2.000000 F40.000000 D0.812800
G0 Z0.500000
G0 X27.173658 Y40.393359
G0 Z-2.000000 F40.000000 D0.812800
G0 Z0.500000
G0 X26.538658 Y54.998359
G0 Z-2.000000 F40.000000 D0.812800
G0 Z0.500000
G0 X26.538658 Y6.738359
G0 Z-2.000000 F40.000000 D0.812800
G0 Z0.500000
G0 X23.998658 Y54.998359
G0 Z-2.000000 F40.000000 D0.812800
G0 Z0.500000
G0 X23.998658 Y6.738359
G0 Z-2.000000 F40.000000 D0.812800
G0 Z0.500000
G0 X22.728658 Y17.533359
G0 Z-2.000000 F40.000000 D0.812800
G0 Z0.500000
G0 X22.728658 Y9.913359
G0 Z-2.000000 F40.000000 D0.812800
G0 Z0.500000
G0 X21.458658 Y54.998359
G0 Z-2.000000 F40.000000 D0.812800
G0 Z0.500000
G0 X21.458658 Y6.738359
G0 Z-2.000000 F40.000000 D0.812800
G0 Z0.500000
G0 X18.918658 Y54.998359
G0 Z-2.000000 F40.000000 D0.812800
G0 Z0.500000
G0 X18.918658 Y6.738359
G0 Z-2.000000 F40.000000 D0.812800
G0 Z0.500000
G0 X17.013658 Y47.378359
G0 Z-2.000000 F40.000000 D0.812800
G0 Z0.500000
G0 X17.013658 Y44.838359
G0 Z-2.000000 F40.000000 D0.812800
G0 Z0.500000
G0 X16.378658 Y54.998359
G0 Z-2.000000 F40.000000 D0.812800
G0 Z0.500000
G0 X16.378658 Y6.738359
G0 Z-2.000000 F40.000000 D0.812800
G0 Z0.500000
G0 X13.838658 Y54.998359
G0 Z-2.000000 F40.000000 D0.812800
G0 Z0.500000
G0 X13.838658 Y6.738359
G0 Z-2.000000 F40.000000 D0.812800
G0 Z0.500000
G0 X11.933658 Y35.948359
G0 Z-2.000000 F40.000000 D0.812800
G0 Z0.500000
G0 X11.298658 Y6.738359
G0 Z-2.000000 F40.000000 D0.812800
G0 Z0.500000
G0 X9.393658 Y47.378359
G0 Z-2.000000 F40.000000 D0.812800
G0 Z0.500000
G0 X9.393658 Y44.838359
G0 Z-2.000000 F40.000000 D0.812800
G0 Z0.500000
G0 X9.393658 Y35.948359
G0 Z-2.000000 F40.000000 D0.812800
G0 Z0.500000
G0 X8.758658 Y6.738359
G0 Z-2.000000 F40.000000 D0.812800
G0 Z0.500000
G0 X6.218658 Y54.998359
G0 Z-2.000000 F40.000000 D0.812800
G0 Z0.500000
G0 X6.218658 Y11.818359
G0 Z-2.000000 F40.000000 D0.812800
G0 Z0.500000
G0 X76.259158 Y24.518359
G0 Z-2.000000 F40.000000 D0.990600
G0 Z0.500000
G0 X68.258158 Y24.518359
G0 Z-2.000000 F40.000000 D0.990600
G0 Z0.500000
G0 X60.574658 Y17.914359
G0 Z-2.000000 F40.000000 D0.990600
G0 Z0.500000
G0 X60.574658 Y12.326359
G0 Z-2.000000 F40.000000 D0.990600
G0 Z0.500000
G0 X57.018658 Y51.188359
G0 Z-2.000000 F40.000000 D1.016000
G0 Z0.500000
G0 X57.018658 Y48.648359
G0 Z-2.000000 F40.000000 D1.016000
G0 Z0.500000
G0 X53.208658 Y51.188359
G0 Z-2.000000 F40.000000 D1.016000
G0 Z0.500000
G0 X53.208658 Y48.648359
G0 Z-2.000000 F40.000000 D1.016000
G0 Z0.500000
G0 X53.208658 Y46.108359
G0 Z-2.000000 F40.000000 D1.016000
G0 Z0.500000
G0 X50.668658 Y51.188359
G0 Z-2.000000 F40.000000 D1.016000
G0 Z0.500000
G0 X50.668658 Y48.648359
G0 Z-2.000000 F40.000000 D1.016000
G0 Z0.500000
G0 X50.668658 Y46.108359
G0 Z-2.000000 F40.000000 D1.016000
G0 Z0.500000
G0 X48.128658 Y51.188359
G0 Z-2.000000 F40.000000 D1.016000
G0 Z0.500000
G0 X48.128658 Y48.648359
G0 Z-2.000000 F40.000000 D1.016000
G0 Z0.500000
G0 X48.128658 Y46.108359
G0 Z-2.000000 F40.000000 D1.016000
G0 Z0.500000
G0 X45.588658 Y51.188359
G0 Z-2.000000 F40.000000 D1.016000
G0 Z0.500000
G0 X45.588658 Y48.648359
G0 Z-2.000000 F40.000000 D1.016000
G0 Z0.500000
G0 X45.588658 Y46.108359
G0 Z-2.000000 F40.000000 D1.016000
G0 Z0.500000
G0 X43.048658 Y51.188359
G0 Z-2.000000 F40.000000 D1.016000
G0 Z0.500000
G0 X43.048658 Y48.648359
G0 Z-2.000000 F40.000000 D1.016000
G0 Z0.500000
G0 X43.048658 Y46.108359
G0 Z-2.000000 F40.000000 D1.016000
G0 Z0.500000
G0 X40.508658 Y51.188359
G0 Z-2.000000 F40.000000 D1.016000
G0 Z0.500000
G0 X40.508658 Y48.648359
G0 Z-2.000000 F40.000000 D1.016000
G0 Z0.500000
G0 X40.508658 Y46.108359
G0 Z-2.000000 F40.000000 D1.016000
G0 Z0.500000
G0 X39.238658 Y37.218359
G0 Z-2.000000 F40.000000 D1.016000
G0 Z0.500000
G0 X39.238658 Y34.678359
G0 Z-2.000000 F40.000000 D1.016000
G0 Z0.500000
G0 X39.238658 Y32.138359
G0 Z-2.000000 F40.000000 D1.016000
G0 Z0.500000
G0 X39.238658 Y29.598359
G0 Z-2.000000 F40.000000 D1.016000
G0 Z0.500000
G0 X39.238658 Y27.058359
G0 Z-2.000000 F40.000000 D1.016000
G0 Z0.500000
G0 X34.793658 Y15.628359
G0 Z-2.000000 F40.000000 D1.016000
G0 Z0.500000
G0 X34.793658 Y13.088359
G0 Z-2.000000 F40.000000 D1.016000
G0 Z0.500000
G0 X34.793658 Y10.548359
G0 Z-2.000000 F40.000000 D1.016000
G0 Z0.500000
G0 X33.523658 Y51.188359
G0 Z-2.000000 F40.000000 D1.016000
G0 Z0.500000
G0 X33.523658 Y48.648359
G0 Z-2.000000 F40.000000 D1.016000
G0 Z0.500000
G0 X33.523658 Y46.108359
G0 Z-2.000000 F40.000000 D1.016000
G0 Z0.500000
G0 X32.253658 Y15.628359
G0 Z-2.000000 F40.000000 D1.016000
G0 Z0.500000
G0 X32.253658 Y13.088359
G0 Z-2.000000 F40.000000 D1.016000
G0 Z0.500000
G0 X32.253658 Y10.548359
G0 Z-2.000000 F40.000000 D1.016000
G0 Z0.500000
G0 X30.983658 Y51.188359
G0 Z-2.000000 F40.000000 D1.016000
G0 Z0.500000
G0 X30.983658 Y48.648359
G0 Z-2.000000 F40.000000 D1.016000
G0 Z0.500000
G0 X30.983658 Y46.108359
G0 Z-2.000000 F40.000000 D1.016000
G0 Z0.500000
G0 X29.713658 Y15.628359
G0 Z-2.000000 F40.000000 D1.016000
G0 Z0.500000
G0 X29.713658 Y13.088359
G0 Z-2.000000 F40.000000 D1.016000
G0 Z0.500000
G0 X29.713658 Y10.548359
G0 Z-2.000000 F40.000000 D1.016000
G0 Z0.500000
G0 X28.443658 Y51.188359
G0 Z-2.000000 F40.000000 D1.016000
G0 Z0.500000
G0 X28.443658 Y48.648359
G0 Z-2.000000 F40.000000 D1.016000
G0 Z0.500000
G0 X28.443658 Y46.108359
G0 Z-2.000000 F40.000000 D1.016000
G0 Z0.500000
G0 X27.173658 Y15.628359
G0 Z-2.000000 F40.000000 D1.016000
G0 Z0.500000
G0 X27.173658 Y13.088359
G0 Z-2.000000 F40.000000 D1.016000
G0 Z0.500000
G0 X27.173658 Y10.548359
G0 Z-2.000000 F40.000000 D1.016000
G0 Z0.500000
G0 X25.903658 Y51.188359
G0 Z-2.000000 F40.000000 D1.016000
G0 Z0.500000
G0 X25.903658 Y48.648359
G0 Z-2.000000 F40.000000 D1.016000
G0 Z0.500000
G0 X25.903658 Y46.108359
G0 Z-2.000000 F40.000000 D1.016000
G0 Z0.500000
G0 X23.363658 Y51.188359
G0 Z-2.000000 F40.000000 D1.016000
G0 Z0.500000
G0 X23.363658 Y48.648359
G0 Z-2.000000 F40.000000 D1.016000
G0 Z0.500000
G0 X23.363658 Y46.108359
G0 Z-2.000000 F40.000000 D1.016000
G0 Z0.500000
G0 X20.823658 Y51.188359
G0 Z-2.000000 F40.000000 D1.016000
G0 Z0.500000
G0 X20.823658 Y48.648359
G0 Z-2.000000 F40.000000 D1.016000
G0 Z0.500000
G0 X20.823658 Y46.108359
G0 Z-2.000000 F40.000000 D1.016000
G0 Z0.500000
G0 X19.553658 Y12.453359
G0 Z-2.000000 F40.000000 D1.016000
G0 Z0.500000
G0 X17.013658 Y50.553359
G0 Z-2.000000 F40.000000 D1.016000
G0 Z0.500000
G0 X17.013658 Y41.663359
G0 Z-2.000000 F40.000000 D1.016000
G0 Z0.500000
G0 X17.013658 Y12.453359
G0 Z-2.000000 F40.000000 D1.016000
G0 Z0.500000
G0 X14.473658 Y50.553359
G0 Z-2.000000 F40.000000 D1.016000
G0 Z0.500000
G0 X14.473658 Y41.663359
G0 Z-2.000000 F40.000000 D1.016000
G0 Z0.500000
G0 X14.473658 Y12.453359
G0 Z-2.000000 F40.000000 D1.016000
G0 Z0.500000
G0 X11.933658 Y50.553359
G0 Z-2.000000 F40.000000 D1.016000
G0 Z0.500000
G0 X11.933658 Y41.663359
G0 Z-2.000000 F40.000000 D1.016000
G0 Z0.500000
G0 X11.933658 Y12.453359
G0 Z-2.000000 F40.000000 D1.016000
G0 Z0.500000
G0 X9.393658 Y50.553359
G0 Z-2.000000 F40.000000 D1.016000
G0 Z0.500000
G0 X9.393658 Y41.663359
G0 Z-2.000000 F40.000000 D1.016000
G0 Z0.500000
G0 X64.257658 Y25.407359
G0 Z-2.000000 F40.000000 D1.193800
G0 Z0.500000
G0 X62.606658 Y21.470359
G0 Z-2.000000 F40.000000 D1.193800
G0 Z0.500000
G0 X60.828658 Y25.407359
G0 Z-2.000000 F40.000000 D1.193800
G0 Z0.500000
G0 X59.050658 Y21.470359
G0 Z-2.000000 F40.000000 D1.193800
G0 Z0.500000
G0 X57.399658 Y25.407359
G0 Z-2.000000 F40.000000 D1.193800
G0 Z0.500000
G0 X60.828658 Y29.598359
G0 Z-2.000000 F40.000000 D1.498600
G0 Z0.500000
G0 X53.208658 Y29.598359
G0 Z-2.000000 F40.000000 D1.498600
G0 Z0.500000
G0 X73.528658 Y35.948359
G0 Z-2.000000 F40.000000 D1.524000
G0 Z0.500000
G0 X73.528658 Y30.868359
G0 Z-2.000000 F40.000000 D1.524000
G0 Z0.500000

(Goto to Initial position)
G0 Z0.500000
G0 X0.000000 Y0.000000
G0 Z0.000000
