(Generated by ./pygerber2gcode_cui_MOD.py )
( 2013-10-19 10:59:36 )
(Initialize)

(Start form here)
G0 Z0.500000
G0 X79.395623 Y50.018052
G1 Z-0.040000 F60.000000
G1 X79.205123 Y50.208552 F200.000000
G1 X79.159898 Y50.236968 F200.000000
G1 X79.307168 Y50.332266 F200.000000
G1 X79.401148 Y50.428786 F200.000000
G1 X79.468935 Y50.539930 F200.000000
G1 X79.537147 Y50.650814 F200.000000
G1 X79.633667 Y50.935294 F200.000000
G1 X79.643534 Y51.031030 F200.000000
G1 X79.664949 Y51.124859 F200.000000
G1 Y51.315359 F200.000000
G1 X79.643707 Y51.408430 F200.000000
G1 X79.634176 Y51.503417 F200.000000
G1 X79.537656 Y51.790437 F200.000000
G1 X79.535733 Y51.793581 F200.000000
G1 X79.535321 Y51.797244 F200.000000
G1 X79.467338 Y51.905438 F200.000000
G1 X79.400680 Y52.014453 F200.000000
G1 X79.397583 Y52.016451 F200.000000
G1 X79.395623 Y52.019572 F200.000000
G1 X79.205123 Y52.210072 F200.000000
G1 X79.123632 Y52.261276 F200.000000
G1 X79.048960 Y52.321994 F200.000000
G1 X78.858460 Y52.415974 F200.000000
G1 X78.797823 Y52.430421 F200.000000
G1 X78.742319 Y52.458791 F200.000000
G1 X78.361319 Y52.555311 F200.000000
G1 X78.287965 Y52.557051 F200.000000
G1 X78.216430 Y52.573379 F200.000000
G1 X77.931950 F200.000000
G1 X77.860415 Y52.557051 F200.000000
G1 X77.787060 Y52.555311 F200.000000
G1 X77.406060 Y52.458791 F200.000000
G1 X77.350557 Y52.430421 F200.000000
G1 X77.289920 Y52.415974 F200.000000
G1 X77.099420 Y52.321994 F200.000000
G1 X77.024748 Y52.261276 F200.000000
G1 X76.943257 Y52.210072 F200.000000
G1 X76.752757 Y52.019572 F200.000000
G1 X76.750797 Y52.016451 F200.000000
G1 X76.747700 Y52.014453 F200.000000
G1 X76.681042 Y51.905438 F200.000000
G1 X76.613059 Y51.797244 F200.000000
G1 X76.612647 Y51.793581 F200.000000
G1 X76.610724 Y51.790437 F200.000000
G1 X76.514204 Y51.503417 F200.000000
G1 X76.504673 Y51.408430 F200.000000
G1 X76.483430 Y51.315359 F200.000000
G1 Y51.124859 F200.000000
G1 X76.504846 Y51.031030 F200.000000
G1 X76.514713 Y50.935294 F200.000000
G1 X76.611233 Y50.650814 F200.000000
G1 X76.679445 Y50.539930 F200.000000
G1 X76.747232 Y50.428786 F200.000000
G1 X76.841212 Y50.332266 F200.000000
G1 X76.988482 Y50.236968 F200.000000
G1 X76.943257 Y50.208552 F200.000000
G1 X76.752757 Y50.018052 F200.000000
G1 X76.751229 Y50.015620 F200.000000
G1 X76.748812 Y50.014069 F200.000000
G1 X76.681454 Y49.904574 F200.000000
G1 X76.613059 Y49.795724 F200.000000
G1 X76.612738 Y49.792870 F200.000000
G1 X76.611233 Y49.790424 F200.000000
G1 X76.514713 Y49.505944 F200.000000
G1 X76.504846 Y49.410208 F200.000000
G1 X76.483430 Y49.316379 F200.000000
G1 Y49.125879 F200.000000
G1 X76.504673 Y49.032808 F200.000000
G1 X76.514204 Y48.937821 F200.000000
G1 X76.610724 Y48.650801 F200.000000
G1 X76.612647 Y48.647657 F200.000000
G1 X76.613059 Y48.643995 F200.000000
G1 X76.681042 Y48.535801 F200.000000
G1 X76.747700 Y48.426785 F200.000000
G1 X76.750797 Y48.424787 F200.000000
G1 X76.752757 Y48.421666 F200.000000
G1 X76.767008 Y48.407416 F200.000000
G1 X76.747700 Y48.394953 F200.000000
G1 X76.610724 Y48.170937 F200.000000
G1 X76.514204 Y47.883917 F200.000000
G1 X76.504673 Y47.788930 F200.000000
G1 X76.483430 Y47.695859 F200.000000
G1 Y47.220879 F200.000000
G1 X76.484785 Y47.214943 F200.000000
G1 X76.483550 Y47.208981 F200.000000
G1 X76.513935 Y47.087228 F200.000000
G1 X76.541859 Y46.964888 F200.000000
G1 X76.545655 Y46.960128 F200.000000
G1 X76.547129 Y46.954220 F200.000000
G1 X76.643649 Y46.763720 F200.000000
G1 X76.700729 Y46.695032 F200.000000
G1 X76.747232 Y46.618786 F200.000000
G1 X76.841212 Y46.522266 F200.000000
G1 X76.925243 Y46.467890 F200.000000
G1 X77.002900 Y46.404744 F200.000000
G1 X77.193400 Y46.310764 F200.000000
G1 X77.196193 Y46.310098 F200.000000
G1 X77.198439 Y46.308308 F200.000000
G1 X77.323770 Y46.279702 F200.000000
G1 X77.448824 Y46.249906 F200.000000
G1 X77.451630 Y46.250519 F200.000000
G1 X77.454430 Y46.249880 F200.000000
G1 X77.644930 F200.000000
G1 X77.647730 Y46.250519 F200.000000
G1 X77.650536 Y46.249906 F200.000000
G1 X77.775590 Y46.279702 F200.000000
G1 X77.900921 Y46.308308 F200.000000
G1 X77.903166 Y46.310098 F200.000000
G1 X77.905960 Y46.310764 F200.000000
G1 X78.096460 Y46.404744 F200.000000
G1 X78.171132 Y46.465462 F200.000000
G1 X78.252623 Y46.516666 F200.000000
G1 X78.349143 Y46.613186 F200.000000
G1 X78.400347 Y46.694677 F200.000000
G1 X78.413495 Y46.710848 F200.000000
G1 X78.481868 Y46.521248 F200.000000
G1 X78.669292 Y46.337352 F200.000000
G1 X78.917944 Y46.252988 F200.000000
G1 X79.178577 Y46.284865 F200.000000
G1 X79.399568 Y46.426669 F200.000000
G1 X79.537147 Y46.650314 F200.000000
G0 Z0.500000
G0 X77.862192 Y50.555937
G1 Z-0.040000 F60.000000
G1 X77.807314 Y50.554980 F200.000000
G1 X77.849287 Y50.669989 F200.000000
G1 X77.823369 Y50.931282 F200.000000
G1 X77.686648 Y51.155453 F200.000000
G1 X77.685782 Y51.156342 F200.000000
G1 X77.664005 Y51.220525 F200.000000
G1 X77.685044 Y51.283088 F200.000000
G1 X77.708796 Y51.306840 F200.000000
G1 X77.756168 Y51.330210 F200.000000
G1 X78.005521 Y51.393380 F200.000000
G1 X78.142859 F200.000000
G1 X78.392212 Y51.330210 F200.000000
G1 X78.439584 Y51.306840 F200.000000
G1 X78.463335 Y51.283088 F200.000000
G1 X78.484374 Y51.220525 F200.000000
G1 X78.462598 Y51.156342 F200.000000
G1 X78.461732 Y51.155453 F200.000000
G1 X78.325011 Y50.931282 F200.000000
G1 X78.299093 Y50.669989 F200.000000
G1 X78.341066 Y50.554980 F200.000000
G1 X78.286187 Y50.555937 F200.000000
G1 X78.216430 Y50.571859 F200.000000
G1 X77.931950 F200.000000
G1 X77.862192 Y50.555937 F200.000000
G0 Z0.500000
G0 X79.537147 Y46.650314
G1 Z-0.040000 F60.000000
G1 X79.633667 Y46.934794 F200.000000
G1 X79.643534 Y47.030530 F200.000000
G1 X79.664949 Y47.124359 F200.000000
G1 Y47.601879 F200.000000
G1 X79.663595 Y47.607815 F200.000000
G1 X79.664829 Y47.613777 F200.000000
G1 X79.634445 Y47.735530 F200.000000
G1 X79.606521 Y47.857870 F200.000000
G1 X79.602725 Y47.862631 F200.000000
G1 X79.601251 Y47.868538 F200.000000
G1 X79.504731 Y48.059038 F200.000000
G1 X79.445188 Y48.130689 F200.000000
G1 X79.395623 Y48.209572 F200.000000
G1 X79.301643 Y48.303552 F200.000000
G1 X79.255033 Y48.332839 F200.000000
G1 X79.336911 Y48.370254 F200.000000
G1 X79.504731 Y48.572200 F200.000000
G1 X79.601251 Y48.762700 F200.000000
G1 X79.602725 Y48.768608 F200.000000
G1 X79.606521 Y48.773368 F200.000000
G1 X79.634445 Y48.895708 F200.000000
G1 X79.664829 Y49.017461 F200.000000
G1 X79.663595 Y49.023423 F200.000000
G1 X79.664949 Y49.029359 F200.000000
G1 Y49.316379 F200.000000
G1 X79.643534 Y49.410208 F200.000000
G1 X79.633667 Y49.505944 F200.000000
G1 X79.537147 Y49.790424 F200.000000
G1 X79.535642 Y49.792870 F200.000000
G1 X79.535321 Y49.795724 F200.000000
G1 X79.466925 Y49.904574 F200.000000
G1 X79.399568 Y50.014069 F200.000000
G1 X79.397151 Y50.015620 F200.000000
G1 X79.395623 Y50.018052 F200.000000
G0 Z0.500000
G0 X77.750460 Y48.131066
G1 Z-0.040000 F60.000000
G1 X77.735025 Y48.112083 F200.000000
G1 X77.719462 Y48.154880 F200.000000
G1 X77.765870 F200.000000
G1 X77.750460 Y48.131066 F200.000000
G0 Z0.500000
G0 X77.615845 Y43.202398
G1 Z-0.040000 F60.000000
G1 X77.629076 Y43.260368 F200.000000
G1 X77.672958 Y43.216486 F200.000000
G1 X77.615845 Y43.202398 F200.000000
G0 Z0.500000
G0 X77.918738 Y40.762379
G1 Z-0.040000 F60.000000
G1 X77.659207 Y40.762379 F200.000000
G1 X77.615722 Y40.952901 F200.000000
G1 X77.690540 Y40.933947 F200.000000
G1 X77.763895 Y40.932207 F200.000000
G1 X77.835430 Y40.915880 F200.000000
G1 X77.952243 F200.000000
G1 X77.918738 Y40.762379 F200.000000
G0 Z0.500000
G0 X79.662706 Y40.223786
G1 Z-0.040000 F60.000000
G1 X79.650157 Y40.262740 F200.000000
G1 Y40.303666 F200.000000
G1 X79.610336 Y40.386355 F200.000000
G1 X79.582195 Y40.473713 F200.000000
G1 X79.553987 Y40.503365 F200.000000
G1 X79.536230 Y40.540238 F200.000000
G1 X79.464475 Y40.597460 F200.000000
G1 X79.401218 Y40.663957 F200.000000
G1 X79.163382 Y40.821813 F200.000000
G1 X79.083469 Y40.901725 F200.000000
G1 X79.032565 Y41.004909 F200.000000
G1 X78.970672 Y41.081025 F200.000000
G1 X79.145480 Y41.167264 F200.000000
G1 X79.223137 Y41.230410 F200.000000
G1 X79.307168 Y41.284786 F200.000000
G1 X79.401148 Y41.381306 F200.000000
G1 X79.447651 Y41.457552 F200.000000
G1 X79.504731 Y41.526240 F200.000000
G1 X79.601251 Y41.716740 F200.000000
G1 X79.602725 Y41.722648 F200.000000
G1 X79.606521 Y41.727408 F200.000000
G1 X79.634445 Y41.849748 F200.000000
G1 X79.664829 Y41.971501 F200.000000
G1 X79.663595 Y41.977463 F200.000000
G1 X79.664949 Y41.983399 F200.000000
G1 Y42.173899 F200.000000
G1 X79.663595 Y42.179835 F200.000000
G1 X79.664829 Y42.185797 F200.000000
G1 X79.634445 Y42.307550 F200.000000
G1 X79.606521 Y42.429890 F200.000000
G1 X79.602725 Y42.434651 F200.000000
G1 X79.601251 Y42.440558 F200.000000
G1 X79.504731 Y42.631058 F200.000000
G1 X79.445188 Y42.702709 F200.000000
G1 X79.395623 Y42.781592 F200.000000
G1 X79.301643 Y42.875572 F200.000000
G1 X79.222760 Y42.925137 F200.000000
G1 X79.153264 Y42.982889 F200.000000
G1 X79.222760 Y43.040641 F200.000000
G1 X79.301643 Y43.090206 F200.000000
G1 X79.395623 Y43.184186 F200.000000
G1 X79.445188 Y43.263069 F200.000000
G1 X79.504731 Y43.334720 F200.000000
G1 X79.601251 Y43.525220 F200.000000
G1 X79.602725 Y43.531128 F200.000000
G1 X79.606521 Y43.535888 F200.000000
G1 X79.634445 Y43.658228 F200.000000
G1 X79.664829 Y43.779981 F200.000000
G1 X79.663595 Y43.785943 F200.000000
G1 X79.664949 Y43.791879 F200.000000
G1 Y44.269399 F200.000000
G1 X79.663595 Y44.275335 F200.000000
G1 X79.664829 Y44.281297 F200.000000
G1 X79.634445 Y44.403050 F200.000000
G1 X79.606521 Y44.525390 F200.000000
G1 X79.602725 Y44.530151 F200.000000
G1 X79.601251 Y44.536058 F200.000000
G1 X79.504731 Y44.726558 F200.000000
G1 X79.445188 Y44.798209 F200.000000
G1 X79.395623 Y44.877092 F200.000000
G1 X79.301643 Y44.971072 F200.000000
G1 X79.079314 Y45.110770 F200.000000
G1 X78.818391 Y45.140169 F200.000000
G1 X78.570551 Y45.053446 F200.000000
G1 X78.384883 Y44.867778 F200.000000
G1 X78.298160 Y44.619938 F200.000000
G1 X78.327559 Y44.359015 F200.000000
G1 X78.467257 Y44.136686 F200.000000
G1 X78.484950 Y44.118993 F200.000000
G1 Y44.073264 F200.000000
G1 X77.490623 Y45.067592 F200.000000
G1 X77.462210 Y45.085444 F200.000000
G1 X77.441289 Y45.111679 F200.000000
G1 X77.352107 Y45.154627 F200.000000
G1 X77.268294 Y45.207290 F200.000000
G1 X77.234950 Y45.211047 F200.000000
G1 X77.204717 Y45.225606 F200.000000
G1 X77.105733 F200.000000
G1 X77.007371 Y45.236689 F200.000000
G1 X76.975698 Y45.225606 F200.000000
G1 X76.942143 F200.000000
G1 X76.852961 Y45.182658 F200.000000
G1 X76.759531 Y45.149966 F200.000000
G1 X76.735804 Y45.126238 F200.000000
G1 X76.705571 Y45.111679 F200.000000
G1 X76.643856 Y45.034290 F200.000000
G1 X76.573863 Y44.964298 F200.000000
G1 X76.562780 Y44.932625 F200.000000
G1 X76.541859 Y44.906390 F200.000000
G1 X76.519833 Y44.809888 F200.000000
G1 X76.487140 Y44.716458 F200.000000
G1 X76.490897 Y44.683113 F200.000000
G1 X76.483430 Y44.650399 F200.000000
G1 Y43.410879 F200.000000
G1 X76.541859 Y43.154888 F200.000000
G1 X76.705571 Y42.949599 F200.000000
G1 X76.852184 Y42.878994 F200.000000
G1 X76.846737 Y42.875572 F200.000000
G1 X76.752757 Y42.781592 F200.000000
G1 X76.703192 Y42.702709 F200.000000
G1 X76.643649 Y42.631058 F200.000000
G1 X76.547129 Y42.440558 F200.000000
G1 X76.545655 Y42.434651 F200.000000
G1 X76.541859 Y42.429890 F200.000000
G1 X76.513935 Y42.307550 F200.000000
G1 X76.483550 Y42.185797 F200.000000
G1 X76.484785 Y42.179835 F200.000000
G1 X76.483430 Y42.173899 F200.000000
G1 Y41.983399 F200.000000
G1 X76.484785 Y41.977463 F200.000000
G1 X76.483550 Y41.971501 F200.000000
G1 X76.513935 Y41.849748 F200.000000
G1 X76.541859 Y41.727408 F200.000000
G1 X76.545655 Y41.722648 F200.000000
G1 X76.547129 Y41.716740 F200.000000
G1 X76.643649 Y41.526240 F200.000000
G1 X76.700729 Y41.457552 F200.000000
G1 X76.747232 Y41.381306 F200.000000
G1 X76.841212 Y41.284786 F200.000000
G1 X76.853887 Y41.276584 F200.000000
G1 X76.705571 Y41.205159 F200.000000
G1 X76.541859 Y40.999870 F200.000000
G1 X76.483430 Y40.743879 F200.000000
G1 Y39.600879 F200.000000
G1 X76.541859 Y39.344888 F200.000000
G1 X76.689109 Y39.160242 F200.000000
G1 X76.643649 Y39.105538 F200.000000
G1 X76.547129 Y38.915038 F200.000000
G1 X76.545655 Y38.909131 F200.000000
G1 X76.541859 Y38.904370 F200.000000
G1 X76.513935 Y38.782030 F200.000000
G0 Z0.500000
G0 X77.686648 Y38.523806
G1 Z-0.040000 F60.000000
G1 X77.823369 Y38.747976 F200.000000
G1 X77.849287 Y39.009269 F200.000000
G1 X77.759267 Y39.255930 F200.000000
G1 X77.616439 Y39.395000 F200.000000
G1 X77.659207 Y39.582380 F200.000000
G1 X79.074950 Y39.582380 F200.000000
G1 X79.164427 Y39.602802 F200.000000
G1 X79.255856 Y39.610799 F200.000000
G1 X79.291041 Y39.631701 F200.000000
G1 X79.330941 Y39.640808 F200.000000
G1 X79.402696 Y39.698030 F200.000000
G1 X79.481601 Y39.744905 F200.000000
G1 X79.504233 Y39.779003 F200.000000
G1 X79.536230 Y39.804520 F200.000000
G1 X79.576051 Y39.887209 F200.000000
G1 X79.626804 Y39.963677 F200.000000
G1 X79.632400 Y40.004219 F200.000000
G1 X79.650157 Y40.041092 F200.000000
G1 Y40.132870 F200.000000
G1 X79.662706 Y40.223786 F200.000000
G0 Z0.500000
G0 X79.594026 Y37.415417
G1 Z-0.040000 F60.000000
G1 X79.597779 Y37.428926 F200.000000
G1 X79.606521 Y37.439888 F200.000000
G1 X79.632754 Y37.554822 F200.000000
G1 X79.664310 Y37.668410 F200.000000
G1 X79.661830 Y37.682210 F200.000000
G1 X79.664949 Y37.695879 F200.000000
G1 Y38.935399 F200.000000
G1 X79.606521 Y39.191390 F200.000000
G1 X79.442809 Y39.396679 F200.000000
G1 X79.206237 Y39.510606 F200.000000
G1 X78.943663 F200.000000
G1 X78.707091 Y39.396679 F200.000000
G1 X78.543379 Y39.191390 F200.000000
G1 X78.484950 Y38.935399 F200.000000
G1 Y38.924765 F200.000000
G1 X78.470875 Y38.932370 F200.000000
G1 X78.456870 Y38.933023 F200.000000
G1 X78.444237 Y38.939106 F200.000000
G1 X78.326347 F200.000000
G1 X78.208586 Y38.944595 F200.000000
G1 X78.195684 Y38.939106 F200.000000
G1 X78.181663 F200.000000
G1 X78.075448 Y38.887956 F200.000000
G1 X77.966966 Y38.841806 F200.000000
G1 X77.957724 Y38.831263 F200.000000
G1 X77.945091 Y38.825179 F200.000000
G1 X77.871588 Y38.733009 F200.000000
G1 X77.793874 Y38.644361 F200.000000
G1 X77.790121 Y38.630852 F200.000000
G1 X77.781379 Y38.619890 F200.000000
G1 X77.755146 Y38.504956 F200.000000
G1 X77.723590 Y38.391368 F200.000000
G1 X77.726070 Y38.377568 F200.000000
G1 X77.722950 Y38.363899 F200.000000
G1 Y38.285879 F200.000000
G1 X77.663429 F200.000000
G1 Y38.499960 F200.000000
G1 X77.686648 Y38.523806 F200.000000
G0 Z0.500000
G0 X76.513935 Y38.782030
G1 Z-0.040000 F60.000000
G1 X76.483550 Y38.660277 F200.000000
G1 X76.484785 Y38.654315 F200.000000
G1 X76.483430 Y38.648379 F200.000000
G1 Y38.076879 F200.000000
G1 X76.484785 Y38.070943 F200.000000
G1 X76.483550 Y38.064981 F200.000000
G1 X76.513935 Y37.943228 F200.000000
G1 X76.541859 Y37.820888 F200.000000
G1 X76.545655 Y37.816128 F200.000000
G1 X76.547129 Y37.810220 F200.000000
G1 X76.643649 Y37.619720 F200.000000
G1 X76.703192 Y37.548069 F200.000000
G1 X76.752757 Y37.469186 F200.000000
G1 X76.846737 Y37.375206 F200.000000
G1 X76.925620 Y37.325641 F200.000000
G1 X76.997271 Y37.266098 F200.000000
G1 X77.187771 Y37.169578 F200.000000
G1 X77.193678 Y37.168104 F200.000000
G1 X77.198439 Y37.164308 F200.000000
G1 X77.320779 Y37.136384 F200.000000
G1 X77.442532 Y37.106000 F200.000000
G1 X77.448494 Y37.107234 F200.000000
G1 X77.454430 Y37.105880 F200.000000
G1 X77.931950 F200.000000
G1 X77.937886 Y37.107234 F200.000000
G1 X77.943848 Y37.106000 F200.000000
G1 X78.065601 Y37.136384 F200.000000
G1 X78.187941 Y37.164308 F200.000000
G1 X78.192701 Y37.168104 F200.000000
G1 X78.198609 Y37.169578 F200.000000
G1 X78.389109 Y37.266098 F200.000000
G1 X78.460760 Y37.325641 F200.000000
G1 X78.539643 Y37.375206 F200.000000
G1 X78.542487 Y37.378051 F200.000000
G1 X78.686014 Y37.252226 F200.000000
G1 X78.698349 Y37.245561 F200.000000
G1 X78.707091 Y37.234599 F200.000000
G1 X78.813306 Y37.183448 F200.000000
G1 X78.917025 Y37.127408 F200.000000
G1 X78.931030 Y37.126755 F200.000000
G1 X78.943663 Y37.120672 F200.000000
G1 X79.061552 F200.000000
G1 X79.179314 Y37.115183 F200.000000
G1 X79.192216 Y37.120672 F200.000000
G1 X79.206237 F200.000000
G1 X79.312452 Y37.171822 F200.000000
G1 X79.420933 Y37.217972 F200.000000
G1 X79.430176 Y37.228515 F200.000000
G1 X79.442809 Y37.234599 F200.000000
G1 X79.516312 Y37.326769 F200.000000
G1 X79.594026 Y37.415417 F200.000000
G0 Z0.500000
G0 X15.635232 Y22.645818
G1 Z-0.040000 F60.000000
G1 X15.478860 Y22.614879 F200.000000
G1 X14.987780 F200.000000
G1 X14.831408 Y22.645818 F200.000000
G1 X14.989181 Y22.677879 F200.000000
G1 X15.477459 F200.000000
G1 X15.635232 Y22.645818 F200.000000
G0 Z0.500000
G0 X14.747591 Y21.098738
G1 Z-0.040000 F60.000000
G1 Y21.161257 F200.000000
G1 X14.761119 Y21.222296 F200.000000
G1 X14.761092 Y21.222409 F200.000000
G1 X14.761117 Y21.222523 F200.000000
G1 X14.747591 Y21.280006 F200.000000
G1 Y21.339060 F200.000000
G1 X14.720464 Y21.395388 F200.000000
G1 X14.706169 Y21.456252 F200.000000
G1 X14.706096 Y21.456342 F200.000000
G1 X14.706070 Y21.456456 F200.000000
G1 X14.668941 Y21.502378 F200.000000
G1 X14.643319 Y21.555583 F200.000000
G1 X14.599100 Y21.590846 F200.000000
G1 X14.830057 Y21.545149 F200.000000
G1 X14.883118 Y21.546692 F200.000000
G1 X14.934870 Y21.534879 F200.000000
G1 X15.531770 F200.000000
G1 X15.583522 Y21.546692 F200.000000
G1 X15.636583 Y21.545149 F200.000000
G1 X16.111563 Y21.639129 F200.000000
G1 X16.158448 Y21.660052 F200.000000
G1 X16.209136 Y21.668220 F200.000000
G1 X16.447896 Y21.764740 F200.000000
G1 X16.510537 Y21.808388 F200.000000
G1 X16.579532 Y21.841081 F200.000000
G1 X16.698912 Y21.935061 F200.000000
G1 X16.758682 Y22.009051 F200.000000
G1 X16.825206 Y22.077032 F200.000000
G1 X16.942046 Y22.267532 F200.000000
G1 X16.950935 Y22.293846 F200.000000
G1 X16.968253 Y22.315562 F200.000000
G1 X16.989049 Y22.406674 F200.000000
G1 X17.018958 Y22.495215 F200.000000
G1 X17.015549 Y22.522780 F200.000000
G1 X17.021730 Y22.549859 F200.000000
G1 Y22.740359 F200.000000
G1 X17.015549 Y22.767438 F200.000000
G1 X17.018958 Y22.795003 F200.000000
G1 X16.989049 Y22.883544 F200.000000
G1 X16.968253 Y22.974656 F200.000000
G1 X16.950935 Y22.996372 F200.000000
G1 X16.942046 Y23.022686 F200.000000
G1 X16.825206 Y23.213186 F200.000000
G1 X16.761082 Y23.278715 F200.000000
G1 X16.704400 Y23.350779 F200.000000
G1 X16.585020 Y23.447299 F200.000000
G1 X16.511182 Y23.483470 F200.000000
G1 X16.443293 Y23.529854 F200.000000
G1 X16.204533 Y23.623834 F200.000000
G1 X16.157566 Y23.630961 F200.000000
G1 X16.127791 Y23.644433 F200.000000
G1 X16.187802 Y23.853833 F200.000000
G1 X16.147216 Y24.090703 F200.000000
G1 X16.007875 Y24.286507 F200.000000
G1 X15.875125 Y24.359634 F200.000000
G1 X16.007306 Y24.432205 F200.000000
G1 X16.146923 Y24.627812 F200.000000
G1 X16.187843 Y24.864625 F200.000000
G1 X16.121961 Y25.095741 F200.000000
G1 X15.962326 Y25.275384 F200.000000
G1 X15.740556 Y25.367973 F200.000000
G1 X15.500574 Y25.355171 F200.000000
G1 X13.834334 Y24.880191 F200.000000
G1 X13.753949 Y24.836057 F200.000000
G1 X13.669274 Y24.800845 F200.000000
G1 X13.649598 Y24.778766 F200.000000
G1 X13.623673 Y24.764533 F200.000000
G1 X13.570397 Y24.689891 F200.000000
G1 X13.509386 Y24.621428 F200.000000
G1 X13.501238 Y24.592998 F200.000000
G1 X13.484057 Y24.568926 F200.000000
G1 X13.468442 Y24.478561 F200.000000
G1 X13.443178 Y24.390405 F200.000000
G1 X13.448173 Y24.361255 F200.000000
G1 X13.443137 Y24.332113 F200.000000
G1 X13.468277 Y24.243922 F200.000000
G1 X13.483764 Y24.153535 F200.000000
G1 X13.500912 Y24.129439 F200.000000
G1 X13.509019 Y24.100997 F200.000000
G1 X13.569934 Y24.032448 F200.000000
G1 X13.623105 Y23.957731 F200.000000
G1 X13.649009 Y23.943462 F200.000000
G1 X13.668654 Y23.921354 F200.000000
G1 X13.753279 Y23.886023 F200.000000
G1 X13.833603 Y23.841776 F200.000000
G1 X14.439261 Y23.668203 F200.000000
G1 X14.352355 Y23.650543 F200.000000
G1 X14.309074 Y23.630961 F200.000000
G1 X14.262107 Y23.623834 F200.000000
G1 X14.023347 Y23.529854 F200.000000
G1 X13.955458 Y23.483470 F200.000000
G1 X13.881620 Y23.447299 F200.000000
G1 X13.762240 Y23.350779 F200.000000
G1 X13.707131 Y23.280714 F200.000000
G1 X13.644174 Y23.217606 F200.000000
G1 X13.524794 Y23.027106 F200.000000
G1 X13.514793 Y22.998413 F200.000000
G1 X13.495847 Y22.974656 F200.000000
G1 X13.475617 Y22.886022 F200.000000
G1 X13.445693 Y22.800175 F200.000000
G1 X13.449132 Y22.769984 F200.000000
G1 X13.442370 Y22.740359 F200.000000
G1 Y22.549859 F200.000000
G1 X13.449132 Y22.520234 F200.000000
G1 X13.445693 Y22.490043 F200.000000
G1 X13.475617 Y22.404196 F200.000000
G1 X13.495847 Y22.315562 F200.000000
G1 X13.514793 Y22.291805 F200.000000
G1 X13.524794 Y22.263112 F200.000000
G1 X13.644174 Y22.072612 F200.000000
G1 X13.709555 Y22.007073 F200.000000
G1 X13.767728 Y21.935061 F200.000000
G1 X13.887108 Y21.841081 F200.000000
G1 X13.936031 Y21.817899 F200.000000
G1 X13.873323 Y21.787213 F200.000000
G1 X13.767728 Y21.737177 F200.000000
G1 X13.648526 Y21.643338 F200.000000
G0 Z0.500000
G0 X16.225566 Y20.647126
G1 Z-0.040000 F60.000000
G1 X16.055836 Y20.817264 F200.000000
G1 X15.829096 Y20.896910 F200.000000
G1 X15.590252 Y20.870290 F200.000000
G1 X15.386612 Y20.742675 F200.000000
G1 X15.258508 Y20.539342 F200.000000
G1 X15.234538 Y20.328879 F200.000000
G1 X14.522370 F200.000000
G1 Y20.360379 F200.000000
G1 X14.468893 Y20.594676 F200.000000
G1 X14.399984 Y20.681085 F200.000000
G1 X14.435594 Y20.697941 F200.000000
G1 X14.437927 Y20.700826 F200.000000
G1 X14.441260 Y20.702459 F200.000000
G1 X14.560463 Y20.798837 F200.000000
G1 X14.560640 Y20.798979 F200.000000
G1 X14.597148 Y20.845395 F200.000000
G1 X14.643319 Y20.882215 F200.000000
G1 X14.670445 Y20.938543 F200.000000
G1 X14.709117 Y20.987667 F200.000000
G1 X14.709142 Y20.987781 F200.000000
G1 X14.709214 Y20.987872 F200.000000
G1 X14.721968 Y21.045532 F200.000000
G1 X14.747591 Y21.098738 F200.000000
G0 Z0.500000
G0 X13.648526 Y21.643337
G1 Z-0.040000 F60.000000
G1 X13.648348 Y21.643197 F200.000000
G1 X13.609061 Y21.594564 F200.000000
G1 X13.560181 Y21.555583 F200.000000
G1 X13.534559 Y21.502378 F200.000000
G1 X13.497430 Y21.456456 F200.000000
G1 X13.497404 Y21.456342 F200.000000
G1 X13.497331 Y21.456252 F200.000000
G1 X13.483035 Y21.395388 F200.000000
G1 X13.455909 Y21.339060 F200.000000
G1 Y21.280006 F200.000000
G1 X13.442383 Y21.222523 F200.000000
G1 X13.442408 Y21.222409 F200.000000
G1 X13.442381 Y21.222296 F200.000000
G1 X13.455909 Y21.161257 F200.000000
G1 Y21.098738 F200.000000
G1 X13.481532 Y21.045532 F200.000000
G1 X13.494286 Y20.987872 F200.000000
G1 X13.494358 Y20.987781 F200.000000
G1 X13.494383 Y20.987667 F200.000000
G1 X13.533055 Y20.938543 F200.000000
G1 X13.560181 Y20.882215 F200.000000
G1 X13.606351 Y20.845395 F200.000000
G1 X13.642860 Y20.798979 F200.000000
G1 X13.643037 Y20.798837 F200.000000
G1 X13.656636 Y20.787841 F200.000000
G1 X13.645686 Y20.782568 F200.000000
G1 X13.495847 Y20.594676 F200.000000
G1 X13.442370 Y20.360379 F200.000000
G1 Y19.217379 F200.000000
G1 X13.495847 Y18.983082 F200.000000
G1 X13.645686 Y18.795190 F200.000000
G1 X13.862209 Y18.690918 F200.000000
G1 X14.102531 F200.000000
G1 X14.319054 Y18.795190 F200.000000
G1 X14.468893 Y18.983082 F200.000000
G1 X14.522370 Y19.217379 F200.000000
G1 Y19.248879 F200.000000
G1 X16.481730 F200.000000
G1 X16.587839 Y19.273098 F200.000000
G1 X16.694891 Y19.292732 F200.000000
G1 X16.704469 Y19.299718 F200.000000
G1 X16.716027 Y19.302356 F200.000000
G1 X16.801120 Y19.370216 F200.000000
G1 X16.889052 Y19.434353 F200.000000
G1 X16.894650 Y19.444803 F200.000000
G1 X16.903919 Y19.452195 F200.000000
G1 X16.951142 Y19.550254 F200.000000
G1 X17.002537 Y19.646193 F200.000000
G1 X17.003047 Y19.658037 F200.000000
G1 X17.008191 Y19.668718 F200.000000
G1 Y19.777556 F200.000000
G1 X17.012870 Y19.886293 F200.000000
G1 X17.008191 Y19.897185 F200.000000
G1 Y19.909040 F200.000000
G1 X16.960968 Y20.007100 F200.000000
G1 X16.918005 Y20.107099 F200.000000
G1 X16.909062 Y20.114882 F200.000000
G1 X16.903919 Y20.125563 F200.000000
G1 X16.818826 Y20.193423 F200.000000
G1 X16.736729 Y20.264878 F200.000000
G1 X16.424477 Y20.432156 F200.000000
G1 X16.296084 Y20.534597 F200.000000
G1 X16.225566 Y20.647126 F200.000000
G0 Z0.500000
G0 X20.720527 Y27.483106
G1 Z-0.040000 F60.000000
G1 X20.716302 Y27.486615 F200.000000
G1 X20.713919 Y27.491563 F200.000000
G1 X20.624064 Y27.563220 F200.000000
G1 X20.535651 Y27.636649 F200.000000
G1 X20.530321 Y27.637977 F200.000000
G1 X20.526027 Y27.641402 F200.000000
G1 X20.468370 Y27.654562 F200.000000
G1 X20.635206 Y27.825052 F200.000000
G1 X20.752046 Y28.015552 F200.000000
G1 X20.760935 Y28.041866 F200.000000
G1 X20.778253 Y28.063582 F200.000000
G1 X20.799049 Y28.154694 F200.000000
G1 X20.828958 Y28.243235 F200.000000
G1 X20.825549 Y28.270800 F200.000000
G1 X20.831730 Y28.297879 F200.000000
G1 Y28.582359 F200.000000
G1 X20.808636 Y28.683539 F200.000000
G1 X20.791877 Y28.785959 F200.000000
G1 X20.675037 Y29.072979 F200.000000
G1 X20.665259 Y29.086939 F200.000000
G1 X20.661470 Y29.103557 F200.000000
G1 X20.596743 Y29.184763 F200.000000
G1 X20.537168 Y29.269821 F200.000000
G1 X20.522301 Y29.278157 F200.000000
G1 X20.511677 Y29.291486 F200.000000
G1 X20.272917 Y29.481986 F200.000000
G1 X20.200388 Y29.516935 F200.000000
G1 X20.133913 Y29.562354 F200.000000
G1 X19.895153 Y29.656334 F200.000000
G1 X19.848186 Y29.663461 F200.000000
G1 X19.804905 Y29.683043 F200.000000
G1 X19.329925 Y29.779563 F200.000000
G1 X19.275482 Y29.778261 F200.000000
G1 X19.222390 Y29.790379 F200.000000
G1 X18.864250 F200.000000
G1 X18.811157 Y29.778261 F200.000000
G1 X18.756715 Y29.779563 F200.000000
G1 X18.281735 Y29.683043 F200.000000
G1 X18.238454 Y29.663461 F200.000000
G1 X18.191487 Y29.656334 F200.000000
G1 X17.952727 Y29.562354 F200.000000
G1 X17.886251 Y29.516935 F200.000000
G1 X17.813723 Y29.481986 F200.000000
G1 X17.574963 Y29.291486 F200.000000
G1 X17.565629 Y29.279776 F200.000000
G1 X17.552513 Y29.272552 F200.000000
G1 X17.491140 Y29.186323 F200.000000
G1 X17.425170 Y29.103557 F200.000000
G1 X17.421841 Y29.088958 F200.000000
G1 X17.413158 Y29.076758 F200.000000
G1 X17.293778 Y28.789738 F200.000000
G1 X17.275908 Y28.685483 F200.000000
G1 X17.252370 Y28.582359 F200.000000
G1 Y28.391859 F200.000000
G1 X17.276093 Y28.287923 F200.000000
G1 X17.294437 Y28.182905 F200.000000
G1 X17.413817 Y27.898425 F200.000000
G1 X17.421002 Y27.888397 F200.000000
G1 X17.423666 Y27.876352 F200.000000
G1 X17.490667 Y27.791169 F200.000000
G1 X17.553789 Y27.703073 F200.000000
G1 X17.564614 Y27.697155 F200.000000
G1 X17.572240 Y27.687459 F200.000000
G1 X17.613546 Y27.654063 F200.000000
G1 X17.558073 Y27.641402 F200.000000
G1 X17.370181 Y27.491563 F200.000000
G1 X17.265909 Y27.275040 F200.000000
G1 Y27.034718 F200.000000
G1 X17.370181 Y26.818195 F200.000000
G1 X17.558073 Y26.668356 F200.000000
G1 X17.792370 Y26.614879 F200.000000
G1 X17.812514 F200.000000
G1 X17.567789 Y26.502963 F200.000000
G1 X17.563428 Y26.499624 F200.000000
G1 X17.558073 Y26.498402 F200.000000
G1 X17.468218 Y26.426745 F200.000000
G1 X17.376956 Y26.356888 F200.000000
G1 X17.374475 Y26.351988 F200.000000
G1 X17.370181 Y26.348563 F200.000000
G1 X17.320316 Y26.245016 F200.000000
G1 X17.268402 Y26.142480 F200.000000
G1 X17.268292 Y26.136989 F200.000000
G1 X17.265909 Y26.132040 F200.000000
G1 Y26.017111 F200.000000
G1 X17.263625 Y25.902205 F200.000000
G1 X17.265909 Y25.897210 F200.000000
G1 Y25.891718 F200.000000
G1 X17.315775 Y25.788170 F200.000000
G1 X17.363573 Y25.683653 F200.000000
G1 X17.367798 Y25.680143 F200.000000
G1 X17.370181 Y25.675195 F200.000000
G1 X17.460036 Y25.603538 F200.000000
G1 X17.543463 Y25.534251 F200.000000
G1 X17.510504 Y25.507967 F200.000000
G1 X17.455686 Y25.481568 F200.000000
G1 X17.417751 Y25.433998 F200.000000
G1 X17.370181 Y25.396063 F200.000000
G1 X17.343782 Y25.341245 F200.000000
G1 X17.305847 Y25.293676 F200.000000
G1 X17.292308 Y25.234358 F200.000000
G0 Z0.500000
G0 X19.312838 Y27.728993
G1 Z-0.040000 F60.000000
G1 X19.350773 Y27.776562 F200.000000
G1 X19.364312 Y27.835880 F200.000000
G1 X19.390711 Y27.890698 F200.000000
G1 Y27.951541 F200.000000
G1 X19.404250 Y28.010859 F200.000000
G1 Y28.391859 F200.000000
G1 X19.350773 Y28.626156 F200.000000
G1 X19.305949 Y28.682363 F200.000000
G1 X19.543543 Y28.634082 F200.000000
G1 X19.662804 Y28.587139 F200.000000
G1 X19.727899 Y28.535201 F200.000000
G1 X19.751730 Y28.476659 F200.000000
G1 Y28.450287 F200.000000
G1 X19.714574 Y28.389706 F200.000000
G1 X19.637662 Y28.162023 F200.000000
G1 X19.667155 Y27.923518 F200.000000
G1 X19.797211 Y27.721428 F200.000000
G1 X19.840498 Y27.694879 F200.000000
G1 X19.296409 F200.000000
G1 X19.312838 Y27.728993 F200.000000
G0 Z0.500000
G0 X18.563010 Y24.500070
G1 Z-0.040000 F60.000000
G1 X18.548956 Y24.466580 F200.000000
G1 X18.523039 Y24.456379 F200.000000
G1 X18.372341 F200.000000
G1 X18.332370 Y24.472112 F200.000000
G1 Y24.519379 F200.000000
G1 X18.563010 F200.000000
G1 Y24.500070 F200.000000
G0 Z0.500000
G0 X19.918926 Y21.341206
G1 Z-0.040000 F60.000000
G1 X19.802086 Y21.531706 F200.000000
G1 X19.634003 Y21.703471 F200.000000
G1 X19.500422 Y21.751843 F200.000000
G1 X19.561900 Y21.781959 F200.000000
G1 X19.681280 Y21.878479 F200.000000
G1 X19.737962 Y21.950543 F200.000000
G1 X19.802086 Y22.016072 F200.000000
G1 X19.918926 Y22.206572 F200.000000
G1 X19.927815 Y22.232886 F200.000000
G1 X19.945133 Y22.254602 F200.000000
G1 X19.965929 Y22.345714 F200.000000
G1 X19.995838 Y22.434255 F200.000000
G1 X19.992429 Y22.461820 F200.000000
G1 X19.998610 Y22.488899 F200.000000
G1 Y22.773379 F200.000000
G1 X19.992429 Y22.800458 F200.000000
G1 X19.995838 Y22.828023 F200.000000
G1 X19.965929 Y22.916564 F200.000000
G1 X19.945133 Y23.007676 F200.000000
G1 X19.927815 Y23.029392 F200.000000
G1 X19.918926 Y23.055706 F200.000000
G1 X19.802086 Y23.246206 F200.000000
G1 X19.737962 Y23.311735 F200.000000
G1 X19.681280 Y23.383799 F200.000000
G1 X19.572734 Y23.471559 F200.000000
G1 X19.577990 Y23.470359 F200.000000
G1 X19.816750 F200.000000
G1 X19.917307 Y23.493311 F200.000000
G1 X20.019136 Y23.509720 F200.000000
G1 X20.257896 Y23.606240 F200.000000
G1 X20.320537 Y23.649888 F200.000000
G1 X20.389532 Y23.682581 F200.000000
G1 X20.508912 Y23.776561 F200.000000
G1 X20.568682 Y23.850551 F200.000000
G1 X20.635206 Y23.918532 F200.000000
G1 X20.752046 Y24.109032 F200.000000
G1 X20.760935 Y24.135346 F200.000000
G1 X20.778253 Y24.157062 F200.000000
G1 X20.799049 Y24.248174 F200.000000
G1 X20.828958 Y24.336715 F200.000000
G1 X20.825549 Y24.364280 F200.000000
G1 X20.831730 Y24.391359 F200.000000
G1 Y25.059379 F200.000000
G1 X20.818191 Y25.118697 F200.000000
G1 Y25.179540 F200.000000
G1 X20.791792 Y25.234358 F200.000000
G1 X20.778253 Y25.293676 F200.000000
G1 X20.740318 Y25.341245 F200.000000
G1 X20.713919 Y25.396063 F200.000000
G1 X20.666349 Y25.433998 F200.000000
G1 X20.628414 Y25.481568 F200.000000
G1 X20.573596 Y25.507967 F200.000000
G1 X20.538909 Y25.535629 F200.000000
G1 X20.713919 Y25.675195 F200.000000
G1 X20.818191 Y25.891718 F200.000000
G1 Y26.132040 F200.000000
G1 X20.713919 Y26.348563 F200.000000
G1 X20.526027 Y26.498402 F200.000000
G1 X20.291730 Y26.551879 F200.000000
G1 X20.271586 F200.000000
G1 X20.516311 Y26.663796 F200.000000
G1 X20.520672 Y26.667134 F200.000000
G1 X20.526027 Y26.668356 F200.000000
G1 X20.615882 Y26.740013 F200.000000
G1 X20.707143 Y26.809870 F200.000000
G1 X20.709624 Y26.814770 F200.000000
G1 X20.713919 Y26.818195 F200.000000
G1 X20.763784 Y26.921742 F200.000000
G1 X20.815698 Y27.024278 F200.000000
G1 X20.815808 Y27.029769 F200.000000
G1 X20.818191 Y27.034718 F200.000000
G1 Y27.149647 F200.000000
G1 X20.820475 Y27.264553 F200.000000
G1 X20.818191 Y27.269548 F200.000000
G1 Y27.275040 F200.000000
G1 X20.768325 Y27.378588 F200.000000
G1 X20.720527 Y27.483106 F200.000000
G0 Z0.500000
G0 X17.292308 Y25.234358
G1 Z-0.040000 F60.000000
G1 X17.265909 Y25.179540 F200.000000
G1 Y25.118697 F200.000000
G1 X17.252370 Y25.059379 F200.000000
G1 Y24.297379 F200.000000
G1 X17.259132 Y24.267754 F200.000000
G1 X17.255693 Y24.237563 F200.000000
G1 X17.285617 Y24.151716 F200.000000
G1 X17.305847 Y24.063082 F200.000000
G1 X17.324793 Y24.039325 F200.000000
G1 X17.334794 Y24.010632 F200.000000
G1 X17.454174 Y23.820132 F200.000000
G1 X17.517131 Y23.757024 F200.000000
G1 X17.572240 Y23.686959 F200.000000
G1 X17.691620 Y23.590439 F200.000000
G1 X17.765458 Y23.554268 F200.000000
G1 X17.793105 Y23.535379 F200.000000
G1 X17.765458 Y23.516490 F200.000000
G1 X17.691620 Y23.480319 F200.000000
G1 X17.572240 Y23.383799 F200.000000
G1 X17.517131 Y23.313734 F200.000000
G1 X17.454174 Y23.250626 F200.000000
G1 X17.334794 Y23.060126 F200.000000
G1 X17.324793 Y23.031433 F200.000000
G1 X17.305847 Y23.007676 F200.000000
G1 X17.285617 Y22.919042 F200.000000
G1 X17.255693 Y22.833195 F200.000000
G1 X17.259132 Y22.803004 F200.000000
G1 X17.252370 Y22.773379 F200.000000
G1 Y22.488899 F200.000000
G1 X17.259132 Y22.459274 F200.000000
G1 X17.255693 Y22.429083 F200.000000
G1 X17.285617 Y22.343236 F200.000000
G1 X17.305847 Y22.254602 F200.000000
G1 X17.324793 Y22.230845 F200.000000
G1 X17.334794 Y22.202152 F200.000000
G1 X17.454174 Y22.011652 F200.000000
G1 X17.517131 Y21.948544 F200.000000
G1 X17.572240 Y21.878479 F200.000000
G1 X17.691620 Y21.781959 F200.000000
G1 X17.735366 Y21.760530 F200.000000
G1 X17.709364 Y21.750018 F200.000000
G1 X17.669614 Y21.722321 F200.000000
G1 X17.623904 Y21.706264 F200.000000
G1 X17.572224 Y21.654460 F200.000000
G0 Z0.500000
G1 Z-0.040000 F60.000000
G1 X17.512187 Y21.612627 F200.000000
G1 X17.488391 Y21.570426 F200.000000
G1 X17.454174 Y21.536126 F200.000000
G1 X17.334794 Y21.345626 F200.000000
G1 X17.324793 Y21.316933 F200.000000
G1 X17.305847 Y21.293176 F200.000000
G1 X17.285617 Y21.204542 F200.000000
G1 X17.255693 Y21.118695 F200.000000
G1 X17.259132 Y21.088504 F200.000000
G1 X17.252370 Y21.058879 F200.000000
G1 Y20.583899 F200.000000
G1 X17.259132 Y20.554274 F200.000000
G1 X17.255693 Y20.524083 F200.000000
G1 X17.265909 Y20.494775 F200.000000
G1 Y20.273238 F200.000000
G1 X17.370181 Y20.056715 F200.000000
G1 X17.545191 Y19.917149 F200.000000
G1 X17.370181 Y19.777583 F200.000000
G1 X17.265909 Y19.561060 F200.000000
G1 Y19.320738 F200.000000
G1 X17.370181 Y19.104215 F200.000000
G1 X17.558073 Y18.954376 F200.000000
G1 X17.792370 Y18.900899 F200.000000
G1 X18.878609 F200.000000
G1 X18.918610 Y18.884729 F200.000000
G1 Y18.869399 F200.000000
G1 X18.925800 Y18.837899 F200.000000
G1 X18.269890 Y18.837899 F200.000000
G1 X18.169333 Y18.814947 F200.000000
G1 X18.067504 Y18.798538 F200.000000
G1 X17.828744 Y18.702018 F200.000000
G1 X17.766103 Y18.658370 F200.000000
G1 X17.697108 Y18.625677 F200.000000
G1 X17.577728 Y18.531697 F200.000000
G1 X17.519555 Y18.459685 F200.000000
G1 X17.454174 Y18.394146 F200.000000
G1 X17.334794 Y18.203646 F200.000000
G1 X17.324793 Y18.174953 F200.000000
G1 X17.305847 Y18.151196 F200.000000
G1 X17.285617 Y18.062562 F200.000000
G1 X17.255693 Y17.976715 F200.000000
G1 X17.259132 Y17.946524 F200.000000
G1 X17.252370 Y17.916899 F200.000000
G1 Y17.535899 F200.000000
G1 X17.259132 Y17.506274 F200.000000
G1 X17.255693 Y17.476083 F200.000000
G1 X17.265909 Y17.446775 F200.000000
G1 Y17.225238 F200.000000
G1 X17.370181 Y17.008715 F200.000000
G1 X17.558073 Y16.858876 F200.000000
G1 X17.792370 Y16.805399 F200.000000
G1 X20.291730 F200.000000
G1 X20.526027 Y16.858876 F200.000000
G1 X20.713919 Y17.008715 F200.000000
G1 X20.818191 Y17.225238 F200.000000
G1 Y17.465560 F200.000000
G1 X20.713919 Y17.682083 F200.000000
G1 X20.526027 Y17.831922 F200.000000
G1 X20.291730 Y17.885399 F200.000000
G1 X19.998610 F200.000000
G1 Y17.916899 F200.000000
G1 X19.992429 Y17.943978 F200.000000
G1 X19.995838 Y17.971543 F200.000000
G1 X19.965929 Y18.060084 F200.000000
G1 X19.945133 Y18.151196 F200.000000
G1 X19.927815 Y18.172912 F200.000000
G1 X19.918926 Y18.199226 F200.000000
G1 X19.802086 Y18.389726 F200.000000
G1 X19.761677 Y18.431021 F200.000000
G1 X19.795294 Y18.447210 F200.000000
G1 X19.945133 Y18.635102 F200.000000
G1 X19.998610 Y18.869399 F200.000000
G1 Y19.059899 F200.000000
G1 X19.992429 Y19.086978 F200.000000
G1 X19.995838 Y19.114543 F200.000000
G1 X19.965929 Y19.203084 F200.000000
G1 X19.953865 Y19.255938 F200.000000
G1 X19.985071 Y19.320738 F200.000000
G1 Y19.561060 F200.000000
G1 X19.880799 Y19.777583 F200.000000
G1 X19.692907 Y19.927422 F200.000000
G1 X19.503404 Y19.970675 F200.000000
G1 X19.539553 Y19.984904 F200.000000
G1 X19.583714 Y20.015077 F200.000000
G1 X19.634003 Y20.033287 F200.000000
G1 X19.681688 Y20.082017 F200.000000
G1 X19.737982 Y20.120479 F200.000000
G1 X19.764678 Y20.166825 F200.000000
G1 X19.802086 Y20.205052 F200.000000
G1 X19.918926 Y20.395552 F200.000000
G1 X19.927815 Y20.421866 F200.000000
G1 X19.945133 Y20.443582 F200.000000
G1 X19.965929 Y20.534694 F200.000000
G1 X19.995838 Y20.623235 F200.000000
G1 X19.992429 Y20.650800 F200.000000
G1 X19.998610 Y20.677879 F200.000000
G1 Y21.058879 F200.000000
G1 X19.992429 Y21.085958 F200.000000
G1 X19.995838 Y21.113523 F200.000000
G1 X19.965929 Y21.202064 F200.000000
G1 X19.945133 Y21.293176 F200.000000
G1 X19.927815 Y21.314892 F200.000000
G1 X19.918926 Y21.341206 F200.000000
G0 Z0.500000
G0 X75.354188 Y25.582922
G1 Z-0.040000 F60.000000
G1 X75.583567 Y25.870553 F200.000000
G1 X76.020622 Y26.081028 F200.000000
G1 X76.505717 F200.000000
G1 X76.942773 Y25.870553 F200.000000
G1 X77.245225 Y25.491291 F200.000000
G1 X77.353168 Y25.018358 F200.000000
G1 Y24.018360 F200.000000
G1 X77.245225 Y23.545427 F200.000000
G1 X76.942773 Y23.166165 F200.000000
G1 X76.505717 Y22.955690 F200.000000
G1 X76.020622 F200.000000
G1 X75.583567 Y23.166165 F200.000000
G1 X75.281115 Y23.545427 F200.000000
G1 X75.228992 Y23.773793 F200.000000
G1 X74.943793 Y23.416164 F200.000000
G1 X74.506737 Y23.205690 F200.000000
G1 X74.021642 F200.000000
G1 X73.584587 Y23.416164 F200.000000
G1 X73.282135 Y23.795427 F200.000000
G1 X73.263430 Y23.877380 F200.000000
G1 X73.244725 Y23.795427 F200.000000
G1 X72.942273 Y23.416164 F200.000000
G1 X72.505217 Y23.205690 F200.000000
G1 X72.020122 F200.000000
G1 X71.583067 Y23.416164 F200.000000
G1 X71.280615 Y23.795427 F200.000000
G1 X71.263180 Y23.871816 F200.000000
G1 X71.245745 Y23.795427 F200.000000
G1 X70.943293 Y23.416164 F200.000000
G1 X70.506237 Y23.205690 F200.000000
G1 X70.021142 F200.000000
G1 X69.584087 Y23.416164 F200.000000
G1 X69.298888 Y23.773793 F200.000000
G1 X69.246765 Y23.545427 F200.000000
G1 X68.944313 Y23.166165 F200.000000
G1 X68.507257 Y22.955690 F200.000000
G1 X68.254830 F200.000000
G0 Z0.500000
G0 X72.934616 Y25.624241
G1 Z-0.040000 F60.000000
G1 X72.942273 Y25.620554 F200.000000
G1 X73.174191 Y25.329737 F200.000000
G0 Z0.500000
G0 X67.174711 Y24.035808
G1 Z-0.040000 F60.000000
G1 Y25.018358 F200.000000
G1 X67.282655 Y25.491291 F200.000000
G1 X67.585107 Y25.870553 F200.000000
G1 X68.022162 Y26.081028 F200.000000
G1 X68.507257 F200.000000
G1 X68.944313 Y25.870553 F200.000000
G1 X69.246765 Y25.491291 F200.000000
G1 X69.298888 Y25.262925 F200.000000
G1 X69.584087 Y25.620554 F200.000000
G1 X70.021142 Y25.831028 F200.000000
G1 X70.506237 F200.000000
G1 X70.537671 Y25.815891 F200.000000
G0 Z0.500000
G0 X58.493668 Y26.867565
G1 Z-0.040000 F60.000000
G1 Y31.048361 F200.000000
G1 X59.242672 F200.000000
G1 Y28.008362 F200.000000
G1 X59.742671 F200.000000
G1 Y26.867565 F200.000000
G0 Z0.500000
G0 X61.922668 Y26.867565
G1 Z-0.040000 F60.000000
G1 Y28.008362 F200.000000
G1 X62.422667 F200.000000
G1 Y28.508361 F200.000000
G1 X65.912670 F200.000000
G1 X66.385603 Y28.616304 F200.000000
G1 X66.764865 Y28.918756 F200.000000
G1 X66.975340 Y29.355812 F200.000000
G1 Y29.840907 F200.000000
G1 X66.764865 Y30.277962 F200.000000
G1 X66.385603 Y30.580414 F200.000000
G1 X65.912670 Y30.688358 F200.000000
G1 X62.422667 F200.000000
G1 Y31.048361 F200.000000
G1 X66.731178 F200.000000
G1 X68.951925 Y28.827614 F200.000000
G1 X68.952240 Y28.827415 F200.000000
G1 X68.952439 Y28.827100 F200.000000
G1 X70.537671 Y27.243981 F200.000000
G1 Y25.815891 F200.000000
G0 Z0.500000
G0 X32.064055 Y53.510457
G1 Z-0.040000 F60.000000
G1 X31.867888 Y53.415988 F200.000000
G1 X31.377452 F200.000000
G1 X30.935584 Y53.628781 F200.000000
G1 X30.629802 Y54.012219 F200.000000
G1 X30.520670 Y54.490359 F200.000000
G1 Y55.506359 F200.000000
G1 X30.629802 Y55.984499 F200.000000
G1 X30.935584 Y56.367937 F200.000000
G1 X31.377452 Y56.580730 F200.000000
G1 X31.867888 F200.000000
G1 X32.309756 Y56.367937 F200.000000
G1 X32.615538 Y55.984499 F200.000000
G1 X32.724670 Y55.506359 F200.000000
G1 Y54.942876 F200.000000
G0 Z0.500000
G0 X28.353295 Y53.681809
G1 Z-0.040000 F60.000000
G1 X28.089802 Y54.012219 F200.000000
G1 X27.980670 Y54.490359 F200.000000
G1 Y55.506359 F200.000000
G1 X28.089802 Y55.984499 F200.000000
G1 X28.395584 Y56.367937 F200.000000
G1 X28.837452 Y56.580730 F200.000000
G1 X29.327888 F200.000000
G1 X29.769756 Y56.367937 F200.000000
G1 X30.075538 Y55.984499 F200.000000
G1 X30.184670 Y55.506359 F200.000000
G1 Y54.490359 F200.000000
G1 X30.075538 Y54.012219 F200.000000
G1 X29.973401 Y53.884144 F200.000000
G0 Z0.500000
G0 X25.813295 Y53.681809
G1 Z-0.040000 F60.000000
G1 X25.549802 Y54.012219 F200.000000
G1 X25.440670 Y54.490359 F200.000000
G1 Y55.506359 F200.000000
G1 X25.549802 Y55.984499 F200.000000
G1 X25.855584 Y56.367937 F200.000000
G1 X26.297452 Y56.580730 F200.000000
G1 X26.787888 F200.000000
G1 X27.229756 Y56.367937 F200.000000
G1 X27.535538 Y55.984499 F200.000000
G1 X27.644670 Y55.506359 F200.000000
G1 Y54.490359 F200.000000
G1 X27.535538 Y54.012219 F200.000000
G1 X27.433401 Y53.884144 F200.000000
G0 Z0.500000
G0 X23.273295 Y53.681809
G1 Z-0.040000 F60.000000
G1 X23.009802 Y54.012219 F200.000000
G1 X22.900670 Y54.490359 F200.000000
G1 Y55.506359 F200.000000
G1 X23.009802 Y55.984499 F200.000000
G1 X23.315584 Y56.367937 F200.000000
G1 X23.757452 Y56.580730 F200.000000
G1 X24.247888 F200.000000
G1 X24.689756 Y56.367937 F200.000000
G1 X24.995538 Y55.984499 F200.000000
G1 X25.104670 Y55.506359 F200.000000
G1 Y54.490359 F200.000000
G1 X24.995538 Y54.012219 F200.000000
G1 X24.893401 Y53.884144 F200.000000
G0 Z0.500000
G0 X20.733295 Y53.681809
G1 Z-0.040000 F60.000000
G1 X20.469802 Y54.012219 F200.000000
G1 X20.360670 Y54.490359 F200.000000
G1 Y55.506359 F200.000000
G1 X20.469802 Y55.984499 F200.000000
G1 X20.775584 Y56.367937 F200.000000
G1 X21.217452 Y56.580730 F200.000000
G1 X21.707888 F200.000000
G1 X22.149756 Y56.367937 F200.000000
G1 X22.455538 Y55.984499 F200.000000
G1 X22.564670 Y55.506359 F200.000000
G1 Y54.490359 F200.000000
G1 X22.455538 Y54.012219 F200.000000
G1 X22.353401 Y53.884144 F200.000000
G0 Z0.500000
G0 X18.193295 Y53.681809
G1 Z-0.040000 F60.000000
G1 X17.929802 Y54.012219 F200.000000
G1 X17.820670 Y54.490359 F200.000000
G1 Y55.506359 F200.000000
G1 X17.929802 Y55.984499 F200.000000
G1 X18.235584 Y56.367937 F200.000000
G1 X18.677452 Y56.580730 F200.000000
G1 X19.167888 F200.000000
G1 X19.609756 Y56.367937 F200.000000
G1 X19.915538 Y55.984499 F200.000000
G1 X20.024670 Y55.506359 F200.000000
G1 Y54.490359 F200.000000
G1 X19.915538 Y54.012219 F200.000000
G1 X19.813401 Y53.884144 F200.000000
G0 Z0.500000
G0 X15.642671 Y53.695132
G1 Z-0.040000 F60.000000
G1 X15.389802 Y54.012219 F200.000000
G1 X15.280670 Y54.490359 F200.000000
G1 Y55.506359 F200.000000
G1 X15.389802 Y55.984499 F200.000000
G1 X15.695584 Y56.367937 F200.000000
G1 X16.137452 Y56.580730 F200.000000
G1 X16.627888 F200.000000
G1 X17.069756 Y56.367937 F200.000000
G1 X17.375538 Y55.984499 F200.000000
G1 X17.484670 Y55.506359 F200.000000
G1 Y54.490359 F200.000000
G1 X17.375538 Y54.012219 F200.000000
G1 X17.122669 Y53.695132 F200.000000
G0 Z0.500000
G0 X13.102671
G1 Z-0.040000 F60.000000
G1 X12.849802 Y54.012219 F200.000000
G1 X12.740670 Y54.490359 F200.000000
G1 Y55.506359 F200.000000
G1 X12.849802 Y55.984499 F200.000000
G1 X13.155584 Y56.367937 F200.000000
G1 X13.597452 Y56.580730 F200.000000
G1 X14.087888 F200.000000
G1 X14.529756 Y56.367937 F200.000000
G1 X14.835538 Y55.984499 F200.000000
G1 X14.944670 Y55.506359 F200.000000
G1 Y54.490359 F200.000000
G1 X14.835538 Y54.012219 F200.000000
G1 X14.582669 Y53.695132 F200.000000
G0 Z0.500000
G0 X7.660670 Y7.246359
G1 Z-0.040000 F60.000000
G1 X7.769802 Y7.724499 F200.000000
G1 X8.075584 Y8.107937 F200.000000
G1 X8.517452 Y8.320730 F200.000000
G1 X9.007888 F200.000000
G1 X9.449756 Y8.107937 F200.000000
G1 X9.755538 Y7.724499 F200.000000
G1 X9.864670 Y7.246359 F200.000000
G1 Y6.230359 F200.000000
G1 X9.755538 Y5.752219 F200.000000
G1 X9.449756 Y5.368781 F200.000000
G1 X9.007888 Y5.155988 F200.000000
G1 X8.517452 F200.000000
G1 X8.075584 Y5.368781 F200.000000
G1 X7.769802 Y5.752219 F200.000000
G1 X7.660670 Y6.230359 F200.000000
G1 Y7.246359 F200.000000
G0 Z0.500000
G0 X10.200670
G1 Z-0.040000 F60.000000
G1 X10.309802 Y7.724499 F200.000000
G1 X10.615584 Y8.107937 F200.000000
G1 X11.057452 Y8.320730 F200.000000
G1 X11.547888 F200.000000
G1 X11.989756 Y8.107937 F200.000000
G1 X12.295538 Y7.724499 F200.000000
G1 X12.404670 Y7.246359 F200.000000
G1 Y6.230359 F200.000000
G1 X12.295538 Y5.752219 F200.000000
G1 X11.989756 Y5.368781 F200.000000
G1 X11.547888 Y5.155988 F200.000000
G1 X11.057452 F200.000000
G1 X10.615584 Y5.368781 F200.000000
G1 X10.309802 Y5.752219 F200.000000
G1 X10.200670 Y6.230359 F200.000000
G1 Y7.246359 F200.000000
G0 Z0.500000
G0 X12.740670
G1 Z-0.040000 F60.000000
G1 X12.849802 Y7.724499 F200.000000
G1 X13.155584 Y8.107937 F200.000000
G1 X13.597452 Y8.320730 F200.000000
G1 X14.087888 F200.000000
G1 X14.529756 Y8.107937 F200.000000
G1 X14.835538 Y7.724499 F200.000000
G1 X14.944670 Y7.246359 F200.000000
G1 Y6.230359 F200.000000
G1 X14.835538 Y5.752219 F200.000000
G1 X14.529756 Y5.368781 F200.000000
G1 X14.087888 Y5.155988 F200.000000
G1 X13.597452 F200.000000
G1 X13.155584 Y5.368781 F200.000000
G1 X12.849802 Y5.752219 F200.000000
G1 X12.740670 Y6.230359 F200.000000
G1 Y7.246359 F200.000000
G0 Z0.500000
G0 X15.280670
G1 Z-0.040000 F60.000000
G1 X15.389802 Y7.724499 F200.000000
G1 X15.695584 Y8.107937 F200.000000
G1 X16.137452 Y8.320730 F200.000000
G1 X16.627888 F200.000000
G1 X17.069756 Y8.107937 F200.000000
G1 X17.375538 Y7.724499 F200.000000
G1 X17.484670 Y7.246359 F200.000000
G1 Y6.230359 F200.000000
G1 X17.375538 Y5.752219 F200.000000
G1 X17.069756 Y5.368781 F200.000000
G1 X16.627888 Y5.155988 F200.000000
G1 X16.137452 F200.000000
G1 X15.695584 Y5.368781 F200.000000
G1 X15.389802 Y5.752219 F200.000000
G1 X15.280670 Y6.230359 F200.000000
G1 Y7.246359 F200.000000
G0 Z0.500000
G0 X27.644670 Y6.793842
G1 Z-0.040000 F60.000000
G1 Y6.230359 F200.000000
G1 X27.535538 Y5.752219 F200.000000
G1 X27.229756 Y5.368781 F200.000000
G1 X26.787888 Y5.155988 F200.000000
G1 X26.297452 F200.000000
G1 X25.855584 Y5.368781 F200.000000
G1 X25.549802 Y5.752219 F200.000000
G1 X25.440670 Y6.230359 F200.000000
G1 Y7.246359 F200.000000
G1 X25.549802 Y7.724499 F200.000000
G1 X25.855584 Y8.107937 F200.000000
G1 X26.297452 Y8.320730 F200.000000
G1 X26.437671 F200.000000
G0 Z0.500000
G0 X31.181285 Y8.226261
G1 Z-0.040000 F60.000000
G1 X31.377452 Y8.320730 F200.000000
G1 X31.867888 F200.000000
G1 X32.309756 Y8.107937 F200.000000
G1 X32.615538 Y7.724499 F200.000000
G1 X32.724670 Y7.246359 F200.000000
G1 Y6.230359 F200.000000
G1 X32.615538 Y5.752219 F200.000000
G1 X32.309756 Y5.368781 F200.000000
G1 X31.867888 Y5.155988 F200.000000
G1 X31.377452 F200.000000
G1 X30.935584 Y5.368781 F200.000000
G1 X30.629802 Y5.752219 F200.000000
G1 X30.520670 Y6.230359 F200.000000
G1 Y6.793842 F200.000000
G0 Z0.500000
G0 X34.892044 Y8.054909
G1 Z-0.040000 F60.000000
G1 X35.155538 Y7.724499 F200.000000
G1 X35.264670 Y7.246359 F200.000000
G1 Y6.230359 F200.000000
G1 X35.155538 Y5.752219 F200.000000
G1 X34.849756 Y5.368781 F200.000000
G1 X34.407888 Y5.155988 F200.000000
G1 X33.917452 F200.000000
G1 X33.475584 Y5.368781 F200.000000
G1 X33.169802 Y5.752219 F200.000000
G1 X33.060670 Y6.230359 F200.000000
G1 Y7.246359 F200.000000
G1 X33.169802 Y7.724499 F200.000000
G1 X33.271938 Y7.852574 F200.000000
G0 Z0.500000
G0 X24.742669 Y8.041586
G1 Z-0.040000 F60.000000
G1 X24.995538 Y7.724499 F200.000000
G1 X25.104670 Y7.246359 F200.000000
G1 Y6.230359 F200.000000
G1 X24.995538 Y5.752219 F200.000000
G1 X24.689756 Y5.368781 F200.000000
G1 X24.247888 Y5.155988 F200.000000
G1 X23.757452 F200.000000
G1 X23.315584 Y5.368781 F200.000000
G1 X23.009802 Y5.752219 F200.000000
G1 X22.900670 Y6.230359 F200.000000
G1 Y7.246359 F200.000000
G1 X23.009802 Y7.724499 F200.000000
G1 X23.262671 Y8.041586 F200.000000
G0 Z0.500000
G0 X20.360670 Y7.246359
G1 Z-0.040000 F60.000000
G1 X20.469802 Y7.724499 F200.000000
G1 X20.775584 Y8.107937 F200.000000
G1 X21.217452 Y8.320730 F200.000000
G1 X21.707888 F200.000000
G1 X22.149756 Y8.107937 F200.000000
G1 X22.455538 Y7.724499 F200.000000
G1 X22.564670 Y7.246359 F200.000000
G1 Y6.230359 F200.000000
G1 X22.455538 Y5.752219 F200.000000
G1 X22.149756 Y5.368781 F200.000000
G1 X21.707888 Y5.155988 F200.000000
G1 X21.217452 F200.000000
G1 X20.775584 Y5.368781 F200.000000
G1 X20.469802 Y5.752219 F200.000000
G1 X20.360670 Y6.230359 F200.000000
G1 Y7.246359 F200.000000
G0 Z0.500000
G0 X17.820670
G1 Z-0.040000 F60.000000
G1 X17.929802 Y7.724499 F200.000000
G1 X18.235584 Y8.107937 F200.000000
G1 X18.677452 Y8.320730 F200.000000
G1 X19.167888 F200.000000
G1 X19.609756 Y8.107937 F200.000000
G1 X19.915538 Y7.724499 F200.000000
G1 X20.024670 Y7.246359 F200.000000
G1 Y6.230359 F200.000000
G1 X19.915538 Y5.752219 F200.000000
G1 X19.609756 Y5.368781 F200.000000
G1 X19.167888 Y5.155988 F200.000000
G1 X18.677452 F200.000000
G1 X18.235584 Y5.368781 F200.000000
G1 X17.929802 Y5.752219 F200.000000
G1 X17.820670 Y6.230359 F200.000000
G1 Y7.246359 F200.000000
G0 Z0.500000
G0 X37.442669 Y8.041586
G1 Z-0.040000 F60.000000
G1 X37.695538 Y7.724499 F200.000000
G1 X37.804670 Y7.246359 F200.000000
G1 Y6.230359 F200.000000
G1 X37.695538 Y5.752219 F200.000000
G1 X37.389756 Y5.368781 F200.000000
G1 X36.947888 Y5.155988 F200.000000
G1 X36.457452 F200.000000
G1 X36.015584 Y5.368781 F200.000000
G1 X35.709802 Y5.752219 F200.000000
G1 X35.600670 Y6.230359 F200.000000
G1 Y7.246359 F200.000000
G1 X35.709802 Y7.724499 F200.000000
G1 X35.962671 Y8.041586 F200.000000
G0 Z0.500000
G0 X39.982669 Y8.041586
G1 Z-0.040000 F60.000000
G1 X40.235538 Y7.724499 F200.000000
G1 X40.344670 Y7.246359 F200.000000
G1 Y6.230359 F200.000000
G1 X40.235538 Y5.752219 F200.000000
G1 X39.929756 Y5.368781 F200.000000
G1 X39.487888 Y5.155988 F200.000000
G1 X38.997452 F200.000000
G1 X38.555584 Y5.368781 F200.000000
G1 X38.249802 Y5.752219 F200.000000
G1 X38.140670 Y6.230359 F200.000000
G1 Y7.246359 F200.000000
G1 X38.249802 Y7.724499 F200.000000
G1 X38.502671 Y8.041586 F200.000000
G0 Z0.500000
G0 X42.522669 Y8.041586
G1 Z-0.040000 F60.000000
G1 X42.775538 Y7.724499 F200.000000
G1 X42.884670 Y7.246359 F200.000000
G1 Y6.230359 F200.000000
G1 X42.775538 Y5.752219 F200.000000
G1 X42.469756 Y5.368781 F200.000000
G1 X42.027888 Y5.155988 F200.000000
G1 X41.537452 F200.000000
G1 X41.095584 Y5.368781 F200.000000
G1 X40.789802 Y5.752219 F200.000000
G1 X40.680670 Y6.230359 F200.000000
G1 Y7.246359 F200.000000
G1 X40.789802 Y7.724499 F200.000000
G1 X41.042671 Y8.041586 F200.000000
G0 Z0.500000
G0 X50.142669
G1 Z-0.040000 F60.000000
G1 X50.395538 Y7.724499 F200.000000
G1 X50.504670 Y7.246359 F200.000000
G1 Y6.230359 F200.000000
G1 X50.395538 Y5.752219 F200.000000
G1 X50.089756 Y5.368781 F200.000000
G1 X49.647888 Y5.155988 F200.000000
G1 X49.157452 F200.000000
G1 X48.715584 Y5.368781 F200.000000
G1 X48.409802 Y5.752219 F200.000000
G1 X48.300670 Y6.230359 F200.000000
G1 Y7.246359 F200.000000
G1 X48.409802 Y7.724499 F200.000000
G1 X48.662671 Y8.041586 F200.000000
G0 Z0.500000
G0 X47.602669
G1 Z-0.040000 F60.000000
G1 X47.855538 Y7.724499 F200.000000
G1 X47.964670 Y7.246359 F200.000000
G1 Y6.230359 F200.000000
G1 X47.855538 Y5.752219 F200.000000
G1 X47.549756 Y5.368781 F200.000000
G1 X47.107888 Y5.155988 F200.000000
G1 X46.617452 F200.000000
G1 X46.175584 Y5.368781 F200.000000
G1 X45.869802 Y5.752219 F200.000000
G1 X45.760670 Y6.230359 F200.000000
G1 Y7.246359 F200.000000
G1 X45.869802 Y7.724499 F200.000000
G1 X46.122671 Y8.041586 F200.000000
G0 Z0.500000
G0 X45.062669 Y8.041586
G1 Z-0.040000 F60.000000
G1 X45.315538 Y7.724499 F200.000000
G1 X45.424670 Y7.246359 F200.000000
G1 Y6.230359 F200.000000
G1 X45.315538 Y5.752219 F200.000000
G1 X45.009756 Y5.368781 F200.000000
G1 X44.567888 Y5.155988 F200.000000
G1 X44.077452 F200.000000
G1 X43.635584 Y5.368781 F200.000000
G1 X43.329802 Y5.752219 F200.000000
G1 X43.220670 Y6.230359 F200.000000
G1 Y7.246359 F200.000000
G1 X43.329802 Y7.724499 F200.000000
G1 X43.582671 Y8.041586 F200.000000
G0 Z0.500000
G0 X53.380670 Y7.246359
G1 Z-0.040000 F60.000000
G1 X53.489802 Y7.724499 F200.000000
G1 X53.795584 Y8.107937 F200.000000
G1 X54.237452 Y8.320730 F200.000000
G1 X54.727888 F200.000000
G1 X55.169756 Y8.107937 F200.000000
G1 X55.475538 Y7.724499 F200.000000
G1 X55.584670 Y7.246359 F200.000000
G1 Y6.230359 F200.000000
G1 X55.475538 Y5.752219 F200.000000
G1 X55.169756 Y5.368781 F200.000000
G1 X54.727888 Y5.155988 F200.000000
G1 X54.237452 F200.000000
G1 X53.795584 Y5.368781 F200.000000
G1 X53.489802 Y5.752219 F200.000000
G1 X53.380670 Y6.230359 F200.000000
G1 Y7.246359 F200.000000
G0 Z0.500000
G0 X57.932713 Y5.648361
G1 Z-0.040000 F60.000000
G1 X57.709756 Y5.368781 F200.000000
G1 X57.267888 Y5.155988 F200.000000
G1 X56.777452 F200.000000
G1 X56.335584 Y5.368781 F200.000000
G1 X56.029802 Y5.752219 F200.000000
G1 X55.920670 Y6.230359 F200.000000
G1 Y7.246359 F200.000000
G1 X56.029802 Y7.724499 F200.000000
G1 X56.335584 Y8.107937 F200.000000
G1 X56.777452 Y8.320730 F200.000000
G1 X57.202671 F200.000000
G0 Z0.500000
G0 X59.382668
G1 Z-0.040000 F60.000000
G1 X59.807888 F200.000000
G1 X60.249756 Y8.107937 F200.000000
G1 X60.555538 Y7.724499 F200.000000
G1 X60.664670 Y7.246359 F200.000000
G1 Y6.230359 F200.000000
G1 X60.555538 Y5.752219 F200.000000
G1 X60.249756 Y5.368781 F200.000000
G1 X59.807888 Y5.155988 F200.000000
G1 X59.317452 F200.000000
G1 X58.875584 Y5.368781 F200.000000
G1 X58.652627 Y5.648361 F200.000000
G0 Z0.500000
G0 X63.540670 Y7.246359
G1 Z-0.040000 F60.000000
G1 X63.649802 Y7.724499 F200.000000
G1 X63.955584 Y8.107937 F200.000000
G1 X64.397452 Y8.320730 F200.000000
G1 X64.887888 F200.000000
G1 X65.329756 Y8.107937 F200.000000
G1 X65.635538 Y7.724499 F200.000000
G1 X65.744670 Y7.246359 F200.000000
G1 Y6.230359 F200.000000
G1 X65.635538 Y5.752219 F200.000000
G1 X65.329756 Y5.368781 F200.000000
G1 X64.887888 Y5.155988 F200.000000
G1 X64.397452 F200.000000
G1 X63.955584 Y5.368781 F200.000000
G1 X63.649802 Y5.752219 F200.000000
G1 X63.540670 Y6.230359 F200.000000
G1 Y7.246359 F200.000000
G0 Z0.500000
G0 X68.284670 Y6.793842
G1 Z-0.040000 F60.000000
G1 Y6.230359 F200.000000
G1 X68.175538 Y5.752219 F200.000000
G1 X67.869756 Y5.368781 F200.000000
G1 X67.427888 Y5.155988 F200.000000
G1 X66.937452 F200.000000
G1 X66.495584 Y5.368781 F200.000000
G1 X66.189802 Y5.752219 F200.000000
G1 X66.080670 Y6.230359 F200.000000
G1 Y7.246359 F200.000000
G1 X66.189802 Y7.724499 F200.000000
G1 X66.495584 Y8.107937 F200.000000
G1 X66.937452 Y8.320730 F200.000000
G1 X67.427888 F200.000000
G1 X67.624055 Y8.226261 F200.000000
G0 Z0.500000
G0 X40.891938 Y53.884144
G1 Z-0.040000 F60.000000
G1 X40.789802 Y54.012219 F200.000000
G1 X40.680670 Y54.490359 F200.000000
G1 Y55.506359 F200.000000
G1 X40.789802 Y55.984499 F200.000000
G1 X41.095584 Y56.367937 F200.000000
G1 X41.537452 Y56.580730 F200.000000
G1 X42.027888 F200.000000
G1 X42.469756 Y56.367937 F200.000000
G1 X42.775538 Y55.984499 F200.000000
G1 X42.884670 Y55.506359 F200.000000
G1 Y54.490359 F200.000000
G1 X42.775538 Y54.012219 F200.000000
G1 X42.512044 Y53.681809 F200.000000
G0 Z0.500000
G0 X43.431938 Y53.884144
G1 Z-0.040000 F60.000000
G1 X43.329802 Y54.012219 F200.000000
G1 X43.220670 Y54.490359 F200.000000
G1 Y55.506359 F200.000000
G1 X43.329802 Y55.984499 F200.000000
G1 X43.635584 Y56.367937 F200.000000
G1 X44.077452 Y56.580730 F200.000000
G1 X44.567888 F200.000000
G1 X45.009756 Y56.367937 F200.000000
G1 X45.315538 Y55.984499 F200.000000
G1 X45.424670 Y55.506359 F200.000000
G1 Y54.490359 F200.000000
G1 X45.315538 Y54.012219 F200.000000
G1 X45.052044 Y53.681809 F200.000000
G0 Z0.500000
G0 X45.971938 Y53.884144
G1 Z-0.040000 F60.000000
G1 X45.869802 Y54.012219 F200.000000
G1 X45.760670 Y54.490359 F200.000000
G1 Y55.506359 F200.000000
G1 X45.869802 Y55.984499 F200.000000
G1 X46.175584 Y56.367937 F200.000000
G1 X46.617452 Y56.580730 F200.000000
G1 X47.107888 F200.000000
G1 X47.549756 Y56.367937 F200.000000
G1 X47.855538 Y55.984499 F200.000000
G1 X47.964670 Y55.506359 F200.000000
G1 Y54.490359 F200.000000
G1 X47.855538 Y54.012219 F200.000000
G1 X47.592044 Y53.681809 F200.000000
G0 Z0.500000
G0 X48.511938 Y53.884144
G1 Z-0.040000 F60.000000
G1 X48.409802 Y54.012219 F200.000000
G1 X48.300670 Y54.490359 F200.000000
G1 Y55.506359 F200.000000
G1 X48.409802 Y55.984499 F200.000000
G1 X48.715584 Y56.367937 F200.000000
G1 X49.157452 Y56.580730 F200.000000
G1 X49.647888 F200.000000
G1 X50.089756 Y56.367937 F200.000000
G1 X50.395538 Y55.984499 F200.000000
G1 X50.504670 Y55.506359 F200.000000
G1 Y54.490359 F200.000000
G1 X50.395538 Y54.012219 F200.000000
G1 X50.132044 Y53.681809 F200.000000
G0 Z0.500000
G0 X51.051938 Y53.884144
G1 Z-0.040000 F60.000000
G1 X50.949802 Y54.012219 F200.000000
G1 X50.840670 Y54.490359 F200.000000
G1 Y55.506359 F200.000000
G1 X50.949802 Y55.984499 F200.000000
G1 X51.255584 Y56.367937 F200.000000
G1 X51.697452 Y56.580730 F200.000000
G1 X52.187888 F200.000000
G1 X52.629756 Y56.367937 F200.000000
G1 X52.935538 Y55.984499 F200.000000
G1 X53.044670 Y55.506359 F200.000000
G1 Y54.490359 F200.000000
G1 X52.935538 Y54.012219 F200.000000
G1 X52.672044 Y53.681809 F200.000000
G0 Z0.500000
G0 X53.742671 Y53.695132
G1 Z-0.040000 F60.000000
G1 X53.489802 Y54.012219 F200.000000
G1 X53.380670 Y54.490359 F200.000000
G1 Y55.506359 F200.000000
G1 X53.489802 Y55.984499 F200.000000
G1 X53.795584 Y56.367937 F200.000000
G1 X54.237452 Y56.580730 F200.000000
G1 X54.727888 F200.000000
G1 X55.169756 Y56.367937 F200.000000
G1 X55.475538 Y55.984499 F200.000000
G1 X55.584670 Y55.506359 F200.000000
G1 Y54.490359 F200.000000
G1 X55.475538 Y54.012219 F200.000000
G1 X55.222669 Y53.695132 F200.000000
G0 Z0.500000
G0 X57.706671 Y53.820528
G1 Z-0.040000 F60.000000
G1 X57.553802 Y54.012219 F200.000000
G1 X57.444670 Y54.490359 F200.000000
G1 Y55.506359 F200.000000
G1 X57.553802 Y55.984499 F200.000000
G1 X57.859584 Y56.367937 F200.000000
G1 X58.301452 Y56.580730 F200.000000
G1 X58.791888 F200.000000
G1 X59.233756 Y56.367937 F200.000000
G1 X59.539538 Y55.984499 F200.000000
G1 X59.648670 Y55.506359 F200.000000
G1 Y54.490359 F200.000000
G1 X59.539538 Y54.012219 F200.000000
G1 X59.386669 Y53.820528 F200.000000
G0 Z0.500000
G0 X60.346671 Y53.695132
G1 Z-0.040000 F60.000000
G1 X60.093802 Y54.012219 F200.000000
G1 X59.984670 Y54.490359 F200.000000
G1 Y55.506359 F200.000000
G1 X60.093802 Y55.984499 F200.000000
G1 X60.399584 Y56.367937 F200.000000
G1 X60.841452 Y56.580730 F200.000000
G1 X61.331888 F200.000000
G1 X61.773756 Y56.367937 F200.000000
G1 X62.079538 Y55.984499 F200.000000
G1 X62.188670 Y55.506359 F200.000000
G1 Y54.490359 F200.000000
G1 X62.079538 Y54.012219 F200.000000
G1 X61.826669 Y53.695132 F200.000000
G0 Z0.500000
G0 X62.886671 Y53.695132
G1 Z-0.040000 F60.000000
G1 X62.633802 Y54.012219 F200.000000
G1 X62.524670 Y54.490359 F200.000000
G1 Y55.506359 F200.000000
G1 X62.633802 Y55.984499 F200.000000
G1 X62.939584 Y56.367937 F200.000000
G1 X63.381452 Y56.580730 F200.000000
G1 X63.871888 F200.000000
G1 X64.313756 Y56.367937 F200.000000
G1 X64.619538 Y55.984499 F200.000000
G1 X64.728670 Y55.506359 F200.000000
G1 Y54.490359 F200.000000
G1 X64.619538 Y54.012219 F200.000000
G1 X64.366669 Y53.695132 F200.000000
G0 Z0.500000
G0 X65.426671 Y53.695132
G1 Z-0.040000 F60.000000
G1 X65.173802 Y54.012219 F200.000000
G1 X65.064670 Y54.490359 F200.000000
G1 Y55.506359 F200.000000
G1 X65.173802 Y55.984499 F200.000000
G1 X65.479584 Y56.367937 F200.000000
G1 X65.921452 Y56.580730 F200.000000
G1 X66.411888 F200.000000
G1 X66.853756 Y56.367937 F200.000000
G1 X67.159538 Y55.984499 F200.000000
G1 X67.268670 Y55.506359 F200.000000
G1 Y54.490359 F200.000000
G1 X67.159538 Y54.012219 F200.000000
G1 X66.906669 Y53.695132 F200.000000
G0 Z0.500000
G0 X67.966671 Y53.695132
G1 Z-0.040000 F60.000000
G1 X67.713802 Y54.012219 F200.000000
G1 X67.604670 Y54.490359 F200.000000
G1 Y55.506359 F200.000000
G1 X67.713802 Y55.984499 F200.000000
G1 X68.019584 Y56.367937 F200.000000
G1 X68.461452 Y56.580730 F200.000000
G1 X68.951888 F200.000000
G1 X69.393756 Y56.367937 F200.000000
G1 X69.699538 Y55.984499 F200.000000
G1 X69.808670 Y55.506359 F200.000000
G1 Y54.490359 F200.000000
G1 X69.699538 Y54.012219 F200.000000
G1 X69.446669 Y53.695132 F200.000000
G0 Z0.500000
G0 X70.144670 Y55.506359
G1 Z-0.040000 F60.000000
G1 X70.253802 Y55.984499 F200.000000
G1 X70.559584 Y56.367937 F200.000000
G1 X71.001452 Y56.580730 F200.000000
G1 X71.491888 F200.000000
G1 X71.933756 Y56.367937 F200.000000
G1 X72.239538 Y55.984499 F200.000000
G1 X72.348670 Y55.506359 F200.000000
G1 Y54.490359 F200.000000
G1 X72.239538 Y54.012219 F200.000000
G1 X71.933756 Y53.628781 F200.000000
G1 X71.491888 Y53.415988 F200.000000
G1 X71.001452 F200.000000
G1 X70.559584 Y53.628781 F200.000000
G1 X70.253802 Y54.012219 F200.000000
G1 X70.144670 Y54.490359 F200.000000
G1 Y55.506359 F200.000000
G0 Z0.500000
G0 X72.696671 Y54.437777
G1 Z-0.040000 F60.000000
G1 X72.684670 Y54.490359 F200.000000
G1 Y55.506359 F200.000000
G1 X72.793802 Y55.984499 F200.000000
G1 X73.099584 Y56.367937 F200.000000
G1 X73.541452 Y56.580730 F200.000000
G1 X74.031888 F200.000000
G1 X74.473756 Y56.367937 F200.000000
G1 X74.779538 Y55.984499 F200.000000
G1 X74.888670 Y55.506359 F200.000000
G1 Y54.490359 F200.000000
G1 X74.876668 Y54.437777 F200.000000
G0 Z0.500000
G0 X75.224670 Y55.506359
G1 Z-0.040000 F60.000000
G1 X75.333802 Y55.984499 F200.000000
G1 X75.639584 Y56.367937 F200.000000
G1 X76.081452 Y56.580730 F200.000000
G1 X76.571888 F200.000000
G1 X77.013756 Y56.367937 F200.000000
G1 X77.319538 Y55.984499 F200.000000
G1 X77.428670 Y55.506359 F200.000000
G1 Y54.490359 F200.000000
G1 X77.319538 Y54.012219 F200.000000
G1 X77.013756 Y53.628781 F200.000000
G1 X76.571888 Y53.415988 F200.000000
G1 X76.081452 F200.000000
G1 X75.639584 Y53.628781 F200.000000
G1 X75.333802 Y54.012219 F200.000000
G1 X75.224670 Y54.490359 F200.000000
G1 Y55.506359 F200.000000
G0 Z0.500000
G0 X63.192668 Y7.298941
G1 Z-0.040000 F60.000000
G1 X63.204670 Y7.246359 F200.000000
G1 Y6.230359 F200.000000
G1 X63.095538 Y5.752219 F200.000000
G1 X62.789756 Y5.368781 F200.000000
G1 X62.347888 Y5.155988 F200.000000
G1 X61.857452 F200.000000
G1 X61.415584 Y5.368781 F200.000000
G1 X61.109802 Y5.752219 F200.000000
G1 X61.000670 Y6.230359 F200.000000
G1 Y7.246359 F200.000000
G1 X61.012671 Y7.298941 F200.000000
G0 Z0.500000
G0 X9.261925 Y31.004104
G1 Z-0.040000 F60.000000
G1 X9.164632 Y30.849265 F200.000000
G1 X9.050615 Y30.706292 F200.000000
G1 X9.036821 Y30.645853 F200.000000
G1 X9.003839 Y30.593363 F200.000000
G1 X8.983364 Y30.411643 F200.000000
G1 X8.942671 Y30.233359 F200.000000
G1 Y16.079851 F200.000000
G1 X7.991925 Y15.129104 F200.000000
G1 X7.894632 Y14.974265 F200.000000
G1 X7.780615 Y14.831292 F200.000000
G1 X7.766821 Y14.770853 F200.000000
G1 X7.733839 Y14.718363 F200.000000
G1 X7.713364 Y14.536643 F200.000000
G1 X7.672671 Y14.358359 F200.000000
G1 Y12.942239 F200.000000
G1 X7.649976 Y12.979559 F200.000000
G1 X7.283760 Y13.321581 F200.000000
G1 X6.838847 Y13.552116 F200.000000
G1 X6.348236 Y13.654067 F200.000000
G1 X5.848312 Y13.619871 F200.000000
G1 X5.376152 Y13.452065 F200.000000
G1 X4.966774 Y13.163095 F200.000000
G1 X4.650541 Y12.774392 F200.000000
G1 X4.450905 Y12.314784 F200.000000
G1 X4.382673 Y11.818359 F200.000000
G1 X4.450905 Y11.321934 F200.000000
G1 X4.650541 Y10.862326 F200.000000
G1 X4.966774 Y10.473623 F200.000000
G1 X5.376152 Y10.184653 F200.000000
G1 X5.848312 Y10.016847 F200.000000
G1 X6.348236 Y9.982651 F200.000000
G1 X6.838847 Y10.084602 F200.000000
G1 X7.283760 Y10.315137 F200.000000
G1 X7.649976 Y10.657159 F200.000000
G1 X7.693275 Y10.728361 F200.000000
G1 X8.127670 Y10.728361 F200.000000
G1 X8.305954 Y10.769053 F200.000000
G1 X8.487674 Y10.789528 F200.000000
G1 X8.540164 Y10.822510 F200.000000
G1 X8.600603 Y10.836304 F200.000000
G1 X8.743575 Y10.950321 F200.000000
G1 X8.898415 Y11.047614 F200.000000
G1 X9.533415 Y11.682614 F200.000000
G1 X9.630708 Y11.837453 F200.000000
G1 X9.744725 Y11.980426 F200.000000
G1 X9.758519 Y12.040865 F200.000000
G1 X9.791501 Y12.093355 F200.000000
G1 X9.811976 Y12.275075 F200.000000
G1 X9.852668 Y12.453359 F200.000000
G1 Y13.906867 F200.000000
G1 X10.803415 Y14.857614 F200.000000
G1 X10.900708 Y15.012453 F200.000000
G1 X11.014725 Y15.155426 F200.000000
G1 X11.028519 Y15.215865 F200.000000
G1 X11.061501 Y15.268355 F200.000000
G1 X11.081976 Y15.450075 F200.000000
G1 X11.122668 Y15.628359 F200.000000
G1 Y29.781867 F200.000000
G0 Z0.500000
G0 X58.292670 Y13.268361
G1 Z-0.040000 F60.000000
G1 X59.587729 F200.000000
G1 X59.582821 Y13.246853 F200.000000
G1 X59.549839 Y13.194363 F200.000000
G1 X59.544002 Y13.142560 F200.000000
G1 X59.341143 Y12.838960 F200.000000
G1 X59.239180 Y12.326359 F200.000000
G1 X59.341143 Y11.813758 F200.000000
G1 X59.631507 Y11.379197 F200.000000
G1 X60.066069 Y11.088832 F200.000000
G1 X60.326512 Y11.037026 F200.000000
G1 X61.012671 Y10.350867 F200.000000
G1 Y7.298941 F200.000000
G0 Z0.500000
G0 X58.493668 Y26.867565
G1 Z-0.040000 F60.000000
G1 X58.516682 Y26.838707 F200.000000
G1 X58.639020 Y26.302709 F200.000000
G1 Y24.512009 F200.000000
G1 X58.516682 Y23.976011 F200.000000
G1 X58.173898 Y23.546174 F200.000000
G1 X57.678561 Y23.307632 F200.000000
G1 X57.128779 F200.000000
G1 X56.633442 Y23.546174 F200.000000
G1 X56.290658 Y23.976011 F200.000000
G1 X56.168320 Y24.512009 F200.000000
G1 X56.168320 Y26.302709 F200.000000
G1 X56.168320 F200.000000
G1 X56.290658 Y26.838707 F200.000000
G1 X56.313671 Y26.867565 F200.000000
G0 Z0.500000
G0 X57.863747 Y22.560358
G1 Z-0.040000 F60.000000
G1 X57.941658 Y22.901707 F200.000000
G1 X58.284442 Y23.331545 F200.000000
G1 X58.779779 Y23.570086 F200.000000
G1 X59.329561 F200.000000
G1 X59.824898 Y23.331545 F200.000000
G1 X60.167682 Y22.901707 F200.000000
G1 X60.290020 Y22.365709 F200.000000
G1 Y20.575009 F200.000000
G1 X60.167682 Y20.039011 F200.000000
G1 X60.144668 Y20.010153 F200.000000
G0 Z0.500000
G0 X57.964671 Y20.010153
G1 Z-0.040000 F60.000000
G1 X57.941658 Y20.039011 F200.000000
G1 X57.863747 Y20.380361 F200.000000
G0 Z0.500000
G0 X62.023593 Y24.317361
G1 Z-0.040000 F60.000000
G1 X61.945682 Y23.976011 F200.000000
G1 X61.602898 Y23.546174 F200.000000
G1 X61.107561 Y23.307632 F200.000000
G1 X60.557779 F200.000000
G1 X60.062442 Y23.546174 F200.000000
G1 X59.719658 Y23.976011 F200.000000
G1 X59.597320 Y24.512009 F200.000000
G1 X59.597320 Y26.302709 F200.000000
G1 X59.597320 F200.000000
G1 X59.719658 Y26.838707 F200.000000
G1 X59.742671 Y26.867565 F200.000000
G0 Z0.500000
G0 X61.922668 Y26.867565
G1 Z-0.040000 F60.000000
G1 X61.945682 Y26.838707 F200.000000
G1 X62.023593 Y26.497358 F200.000000
G0 Z0.500000
G0 X63.076807 Y19.462731
G1 Z-0.040000 F60.000000
G1 X62.885561 Y19.370632 F200.000000
G1 X62.335779 F200.000000
G1 X61.840442 Y19.609174 F200.000000
G1 X61.497658 Y20.039011 F200.000000
G1 X61.375320 Y20.575009 F200.000000
G1 X61.375320 Y22.365709 F200.000000
G1 X61.375320 F200.000000
G1 X61.497658 Y22.901707 F200.000000
G1 X61.840442 Y23.331545 F200.000000
G1 X62.335779 Y23.570086 F200.000000
G1 X62.885561 F200.000000
G1 X63.380898 Y23.331545 F200.000000
G1 X63.723682 Y22.901707 F200.000000
G1 X63.846020 Y22.365709 F200.000000
G1 Y21.776500 F200.000000
G0 Z0.500000
G0 X63.070747 Y26.497358
G1 Z-0.040000 F60.000000
G1 X63.148658 Y26.838707 F200.000000
G1 X63.491442 Y27.268545 F200.000000
G1 X63.986779 Y27.507086 F200.000000
G1 X64.536561 F200.000000
G1 X65.031898 Y27.268545 F200.000000
G1 X65.374682 Y26.838707 F200.000000
G1 X65.497020 Y26.302709 F200.000000
G1 Y25.713500 F200.000000
G0 Z0.500000
G0 X64.727807 Y23.399731
G1 Z-0.040000 F60.000000
G1 X64.536561 Y23.307632 F200.000000
G1 X63.986779 F200.000000
G1 X63.491442 Y23.546174 F200.000000
G1 X63.148658 Y23.976011 F200.000000
G1 X63.070747 Y24.317361 F200.000000
G0 Z0.500000
G0 X59.782591 Y44.074051
G1 Z-0.040000 F60.000000
G1 X59.667170 Y43.568359 F200.000000
G1 X59.782591 Y43.062668 F200.000000
G1 X59.992671 Y42.799235 F200.000000
G1 Y39.153741 F200.000000
G1 X59.856897 Y39.000484 F200.000000
G1 X59.730670 Y38.488359 F200.000000
G1 X59.856897 Y37.976234 F200.000000
G1 X60.206663 Y37.581431 F200.000000
G1 X60.699839 Y37.394394 F200.000000
G1 X61.223445 Y37.457971 F200.000000
G1 X61.657529 Y37.757598 F200.000000
G1 X61.902648 Y38.224633 F200.000000
G1 Y38.752085 F200.000000
G1 X61.672669 Y39.190273 F200.000000
G1 Y42.799235 F200.000000
G1 X61.882749 Y43.062668 F200.000000
G1 X61.998170 Y43.568359 F200.000000
G1 X61.882749 Y44.074051 F200.000000
G1 X61.559347 Y44.479584 F200.000000
G1 X61.092018 Y44.704638 F200.000000
G1 X60.573322 F200.000000
G1 X60.105993 Y44.479584 F200.000000
G1 X59.782591 Y44.074051 F200.000000
G0 Z0.500000
G0 X62.579809 Y42.020925
G1 Z-0.040000 F60.000000
G1 X62.605226 Y41.980473 F200.000000
G1 X62.615857 Y41.933897 F200.000000
G1 X62.703723 Y41.823716 F200.000000
G1 X62.778701 Y41.704390 F200.000000
G1 X65.072671 Y39.410420 F200.000000
G1 Y39.153741 F200.000000
G1 X64.936897 Y39.000484 F200.000000
G1 X64.810670 Y38.488359 F200.000000
G1 X64.936897 Y37.976234 F200.000000
G1 X65.286663 Y37.581431 F200.000000
G1 X65.779839 Y37.394394 F200.000000
G1 X66.303445 Y37.457971 F200.000000
G1 X66.737529 Y37.757598 F200.000000
G1 X66.982648 Y38.224633 F200.000000
G1 Y38.752085 F200.000000
G1 X66.752669 Y39.190273 F200.000000
G1 Y39.758359 F200.000000
G1 X66.721310 Y39.895752 F200.000000
G1 X66.705531 Y40.035793 F200.000000
G1 X66.680114 Y40.076245 F200.000000
G1 X66.669483 Y40.122821 F200.000000
G1 X66.581617 Y40.233002 F200.000000
G0 Z0.500000
G0 X65.119809 Y42.020925
G1 Z-0.040000 F60.000000
G1 X65.145226 Y41.980473 F200.000000
G1 X65.155857 Y41.933897 F200.000000
G1 X65.243723 Y41.823716 F200.000000
G1 X65.318701 Y41.704390 F200.000000
G1 X67.612671 Y39.410420 F200.000000
G1 Y39.153741 F200.000000
G1 X67.476897 Y39.000484 F200.000000
G1 X67.350670 Y38.488359 F200.000000
G1 X67.476897 Y37.976234 F200.000000
G1 X67.826663 Y37.581431 F200.000000
G1 X68.319839 Y37.394394 F200.000000
G1 X68.843445 Y37.457971 F200.000000
G1 X69.277529 Y37.757598 F200.000000
G1 X69.522648 Y38.224633 F200.000000
G1 Y38.752085 F200.000000
G1 X69.292669 Y39.190273 F200.000000
G1 Y39.758359 F200.000000
G1 X69.261310 Y39.895752 F200.000000
G1 X69.245531 Y40.035793 F200.000000
G1 X69.220114 Y40.076245 F200.000000
G1 X69.209483 Y40.122821 F200.000000
G1 X69.121617 Y40.233002 F200.000000
G0 Z0.500000
G0 X75.354188 Y25.582922
G1 Z-0.040000 F60.000000
G1 Y30.139379 F200.000000
G1 X75.313290 Y30.318567 F200.000000
G1 X75.292394 Y30.501171 F200.000000
G1 X75.259828 Y30.552800 F200.000000
G1 X75.246245 Y30.612312 F200.000000
G1 X75.142670 Y30.742190 F200.000000
G1 Y32.478359 F200.000000
G1 X71.922670 F200.000000
G1 Y29.258359 F200.000000
G1 X73.174191 F200.000000
G1 Y25.329737 F200.000000
G0 Z0.500000
G0 X49.925928 Y14.881617
G1 Z-0.040000 F60.000000
G1 X47.602669 Y17.204877 F200.000000
G1 Y38.816841 F200.000000
G1 X49.229128 Y40.443300 F200.000000
G1 X50.759577 Y40.443300 F200.000000
G1 X50.740191 Y40.418991 F200.000000
G1 X50.624770 Y39.913299 F200.000000
G1 X50.740191 Y39.407608 F200.000000
G1 X51.063593 Y39.002074 F200.000000
G1 X51.530922 Y38.777021 F200.000000
G1 X52.049618 F200.000000
G1 X52.516947 Y39.002074 F200.000000
G1 X52.840349 Y39.407608 F200.000000
G1 X52.955770 Y39.913299 F200.000000
G1 X52.933659 Y40.010172 F200.000000
G1 X53.366788 Y40.443300 F200.000000
G1 X53.467045 Y40.443300 F200.000000
G1 X53.603593 Y40.272074 F200.000000
G1 X54.070922 Y40.047021 F200.000000
G1 X54.589618 F200.000000
G1 X55.056947 Y40.272074 F200.000000
G1 X55.380349 Y40.677608 F200.000000
G1 X55.495770 Y41.183299 F200.000000
G1 X55.380349 Y41.688991 F200.000000
G1 X55.056947 Y42.094524 F200.000000
G1 X54.589618 Y42.319578 F200.000000
G1 X54.070922 F200.000000
G1 X53.603593 Y42.094524 F200.000000
G1 X53.467045 Y41.923298 F200.000000
G1 X48.922610 Y41.923298 F200.000000
G1 X48.801573 Y41.895672 F200.000000
G1 X48.678204 Y41.881772 F200.000000
G1 X48.642568 Y41.859380 F200.000000
G1 X48.601536 Y41.850015 F200.000000
G1 X48.504472 Y41.772609 F200.000000
G1 X48.399352 Y41.706557 F200.000000
G1 X46.339412 Y39.646617 F200.000000
G0 Z0.500000
G0 X60.346671 Y53.695132
G1 Z-0.040000 F60.000000
G1 Y52.215488 F200.000000
G1 X60.105993 Y52.099584 F200.000000
G1 X59.782591 Y51.694051 F200.000000
G1 X59.667170 Y51.188359 F200.000000
G1 X59.782591 Y50.682668 F200.000000
G1 X60.105993 Y50.277134 F200.000000
G1 X60.573322 Y50.052081 F200.000000
G1 X61.092018 F200.000000
G1 X61.559347 Y50.277134 F200.000000
G1 X61.882749 Y50.682668 F200.000000
G1 X61.998170 Y51.188359 F200.000000
G1 X61.882749 Y51.694051 F200.000000
G1 X61.826669 Y51.764373 F200.000000
G1 Y53.695132 F200.000000
G0 Z0.500000
G0 X62.886671 Y53.695132
G1 Z-0.040000 F60.000000
G1 Y52.215488 F200.000000
G1 X62.645993 Y52.099584 F200.000000
G1 X62.322591 Y51.694051 F200.000000
G1 X62.207170 Y51.188359 F200.000000
G1 X62.322591 Y50.682668 F200.000000
G1 X62.645993 Y50.277134 F200.000000
G1 X63.113322 Y50.052081 F200.000000
G1 X63.632018 F200.000000
G1 X64.099347 Y50.277134 F200.000000
G1 X64.422749 Y50.682668 F200.000000
G1 X64.538170 Y51.188359 F200.000000
G1 X64.422749 Y51.694051 F200.000000
G1 X64.366669 Y51.764373 F200.000000
G1 Y53.695132 F200.000000
G0 Z0.500000
G0 X66.581617 Y40.233002
G1 Z-0.040000 F60.000000
G1 X66.506639 Y40.352328 F200.000000
G1 X64.212669 Y42.646298 F200.000000
G1 Y42.799235 F200.000000
G1 X64.422749 Y43.062668 F200.000000
G1 X64.538170 Y43.568359 F200.000000
G1 X64.422749 Y44.074051 F200.000000
G1 X64.099347 Y44.479584 F200.000000
G1 X63.632018 Y44.704638 F200.000000
G1 X63.113322 F200.000000
G1 X62.645993 Y44.479584 F200.000000
G1 X62.322591 Y44.074051 F200.000000
G1 X62.207170 Y43.568359 F200.000000
G1 X62.322591 Y43.062668 F200.000000
G1 X62.532671 Y42.799235 F200.000000
G1 Y42.298359 F200.000000
G1 X62.564030 Y42.160966 F200.000000
G1 X62.579809 Y42.020925 F200.000000
G0 Z0.500000
G0 X65.426671 Y53.695132
G1 Z-0.040000 F60.000000
G1 Y52.215488 F200.000000
G1 X65.185993 Y52.099584 F200.000000
G1 X64.862591 Y51.694051 F200.000000
G1 X64.747170 Y51.188359 F200.000000
G1 X64.862591 Y50.682668 F200.000000
G1 X65.185993 Y50.277134 F200.000000
G1 X65.653322 Y50.052081 F200.000000
G1 X66.172018 F200.000000
G1 X66.639347 Y50.277134 F200.000000
G1 X66.962749 Y50.682668 F200.000000
G1 X67.078170 Y51.188359 F200.000000
G1 X66.962749 Y51.694051 F200.000000
G1 X66.906669 Y51.764373 F200.000000
G1 Y53.695132 F200.000000
G0 Z0.500000
G0 X69.121617 Y40.233002
G1 Z-0.040000 F60.000000
G1 X69.046639 Y40.352328 F200.000000
G1 X66.752669 Y42.646298 F200.000000
G1 Y42.799235 F200.000000
G1 X66.962749 Y43.062668 F200.000000
G1 X67.078170 Y43.568359 F200.000000
G1 X66.962749 Y44.074051 F200.000000
G1 X66.639347 Y44.479584 F200.000000
G1 X66.172018 Y44.704638 F200.000000
G1 X65.653322 F200.000000
G1 X65.185993 Y44.479584 F200.000000
G1 X64.862591 Y44.074051 F200.000000
G1 X64.747170 Y43.568359 F200.000000
G1 X64.862591 Y43.062668 F200.000000
G1 X65.072671 Y42.799235 F200.000000
G1 Y42.298359 F200.000000
G1 X65.104030 Y42.160966 F200.000000
G1 X65.119809 Y42.020925 F200.000000
G0 Z0.500000
G0 X39.660475 Y45.428756
G1 Z-0.040000 F60.000000
G1 X39.744956 Y45.361385 F200.000000
G1 X39.886663 Y45.201431 F200.000000
G1 X39.998915 Y45.158859 F200.000000
G1 X40.039737 Y45.126304 F200.000000
G1 X40.152798 Y45.100499 F200.000000
G1 X40.379839 Y45.014394 F200.000000
G1 X40.477888 Y45.026299 F200.000000
G1 X40.512670 Y45.018361 F200.000000
G1 X42.909379 F200.000000
G1 X42.919839 Y45.014394 F200.000000
G1 X42.952507 Y45.018361 F200.000000
G1 X45.449379 F200.000000
G1 X45.459839 Y45.014394 F200.000000
G1 X45.492507 Y45.018361 F200.000000
G1 X47.989379 F200.000000
G1 X47.999839 Y45.014394 F200.000000
G1 X48.032507 Y45.018361 F200.000000
G1 X50.529379 F200.000000
G1 X50.539839 Y45.014394 F200.000000
G1 X50.572507 Y45.018361 F200.000000
G1 X50.672670 F200.000000
G1 X53.069379 F200.000000
G1 X53.079839 Y45.014394 F200.000000
G1 X53.112507 Y45.018361 F200.000000
G1 X72.442671 F200.000000
G1 Y42.298359 F200.000000
G1 Y42.298359 F200.000000
G1 Y42.298359 F200.000000
G1 Y37.107212 F200.000000
G1 X72.373817 Y37.038358 F200.000000
G1 X64.462668 F200.000000
G1 Y38.488359 F200.000000
G1 X64.442648 Y38.576075 F200.000000
G1 Y38.752085 F200.000000
G1 X64.371560 Y38.887532 F200.000000
G1 X64.354725 Y38.961292 F200.000000
G1 X64.290733 Y39.041535 F200.000000
G1 X64.197529 Y39.219120 F200.000000
G1 X64.089830 Y39.293460 F200.000000
G1 X64.052273 Y39.340554 F200.000000
G1 X63.950818 Y39.389412 F200.000000
G1 X63.763445 Y39.518747 F200.000000
G1 X63.654879 Y39.531929 F200.000000
G1 X63.615217 Y39.551029 F200.000000
G1 X63.497578 F200.000000
G1 X63.239839 Y39.582324 F200.000000
G1 X63.157320 Y39.551029 F200.000000
G1 X63.130122 F200.000000
G1 X63.029320 Y39.502485 F200.000000
G1 X62.746663 Y39.395287 F200.000000
G1 X62.701973 Y39.344843 F200.000000
G1 X62.693067 Y39.340554 F200.000000
G1 X62.647028 Y39.282823 F200.000000
G1 X62.396897 Y39.000484 F200.000000
G1 X62.270670 Y38.488359 F200.000000
G1 X62.282671 Y38.439667 F200.000000
G1 Y36.535958 F200.000000
G1 X60.580835 Y36.535958 F200.000000
G1 X60.444287 Y36.707184 F200.000000
G1 X59.976958 Y36.932238 F200.000000
G1 X59.458262 F200.000000
G1 X58.990933 Y36.707184 F200.000000
G1 X58.667531 Y36.301651 F200.000000
G1 X58.552110 Y35.795959 F200.000000
G1 X58.667531 Y35.290268 F200.000000
G1 X58.990933 Y34.884734 F200.000000
G1 X59.458262 Y34.659681 F200.000000
G1 X59.976958 F200.000000
G1 X60.444287 Y34.884734 F200.000000
G1 X60.580835 Y35.055960 F200.000000
G1 X62.776552 F200.000000
G1 X62.803718 Y35.042877 F200.000000
G1 X62.899737 Y34.966304 F200.000000
G1 X63.019471 Y34.938976 F200.000000
G1 X63.130122 Y34.885689 F200.000000
G1 X63.252936 F200.000000
G1 X63.372670 Y34.858361 F200.000000
G1 X72.373817 F200.000000
G1 X72.586336 Y34.645842 F200.000000
G1 X73.035153 Y34.417158 F200.000000
G1 X73.532670 Y34.338359 F200.000000
G1 X74.030187 Y34.417158 F200.000000
G1 X74.479004 Y34.645842 F200.000000
G1 X74.691523 Y34.858361 F200.000000
G1 X75.621178 F200.000000
G1 X77.522671 Y32.956867 F200.000000
G1 Y23.699851 F200.000000
G1 X75.621178 Y21.798358 F200.000000
G1 X69.412162 Y21.798358 F200.000000
G1 X68.254830 Y22.955690 F200.000000
G0 Z0.500000
G0 X34.892044 Y8.054909
G1 Z-0.040000 F60.000000
G1 X34.875043 Y8.129396 F200.000000
G1 X34.861143 Y8.252765 F200.000000
G1 X34.838751 Y8.288401 F200.000000
G1 X34.829386 Y8.329433 F200.000000
G1 X34.751980 Y8.426497 F200.000000
G1 X34.685928 Y8.531617 F200.000000
G1 X33.771187 Y9.446359 F200.000000
G1 X35.899670 F200.000000
G1 Y9.669842 F200.000000
G1 X35.962671 Y9.606841 F200.000000
G1 Y8.041586 F200.000000
G0 Z0.500000
G0 X30.699742 Y20.128445
G1 Z-0.040000 F60.000000
G1 X30.762958 Y20.065228 F200.000000
G1 X30.996663 Y19.801431 F200.000000
G1 X31.489839 Y19.614394 F200.000000
G1 X32.013445 Y19.677971 F200.000000
G1 X32.231236 Y19.828302 F200.000000
G1 X36.247671 Y15.811867 F200.000000
G1 Y14.809851 F200.000000
G1 X35.616178 Y14.178358 F200.000000
G1 X34.697507 F200.000000
G1 X34.664839 Y14.182324 F200.000000
G1 X34.654379 Y14.178358 F200.000000
G1 X32.157507 F200.000000
G1 X32.124839 Y14.182324 F200.000000
G1 X32.114379 Y14.178358 F200.000000
G1 X29.617507 F200.000000
G1 X29.584839 Y14.182324 F200.000000
G1 X29.574379 Y14.178358 F200.000000
G1 X27.177670 F200.000000
G1 X27.142888 Y14.170419 F200.000000
G1 X27.044839 Y14.182324 F200.000000
G1 X26.817798 Y14.096219 F200.000000
G1 X26.704737 Y14.070414 F200.000000
G1 X26.663915 Y14.037859 F200.000000
G1 X26.551663 Y13.995287 F200.000000
G1 X26.409956 Y13.835333 F200.000000
G1 X26.401209 Y13.828358 F200.000000
G1 X24.002670 Y13.828358 F200.000000
G1 X23.881633 Y13.800732 F200.000000
G1 X23.758264 Y13.786832 F200.000000
G1 X23.722628 Y13.764440 F200.000000
G1 X23.681596 Y13.755075 F200.000000
G1 X23.584532 Y13.677669 F200.000000
G0 Z0.500000
G0 X57.706671 Y53.820528
G1 Z-0.040000 F60.000000
G1 Y53.060298 F200.000000
G1 X56.936732 Y52.290359 F200.000000
G1 X55.920670 F200.000000
G1 Y50.086359 F200.000000
G1 X58.124670 F200.000000
G1 Y51.102421 F200.000000
G1 X59.140639 Y52.118390 F200.000000
G1 X59.215617 Y52.237716 F200.000000
G1 X59.303483 Y52.347897 F200.000000
G1 X59.314114 Y52.394473 F200.000000
G1 X59.339531 Y52.434925 F200.000000
G1 X59.355310 Y52.574966 F200.000000
G1 X59.386669 Y52.712359 F200.000000
G1 Y53.820528 F200.000000
G0 Z0.500000
G0 X53.742671 Y53.695132
G1 Z-0.040000 F60.000000
G1 Y52.764877 F200.000000
G1 X53.268153 Y52.290359 F200.000000
G1 X52.110670 F200.000000
G1 Y50.086359 F200.000000
G1 X54.314670 F200.000000
G1 Y51.243842 F200.000000
G1 X55.005928 Y51.935101 F200.000000
G1 X55.071980 Y52.040221 F200.000000
G1 X55.149386 Y52.137285 F200.000000
G1 X55.158751 Y52.178317 F200.000000
G1 X55.181143 Y52.213953 F200.000000
G1 X55.195043 Y52.337322 F200.000000
G1 X55.222669 Y52.458359 F200.000000
G1 Y53.695132 F200.000000
G0 Z0.500000
G0 X51.051938 Y53.884144
G1 Z-0.040000 F60.000000
G1 X50.149412 Y52.981617 F200.000000
G1 X50.083360 Y52.876497 F200.000000
G1 X50.005954 Y52.779433 F200.000000
G1 X49.996589 Y52.738401 F200.000000
G1 X49.974197 Y52.702765 F200.000000
G1 X49.960297 Y52.579396 F200.000000
G1 X49.932671 Y52.458359 F200.000000
G1 Y52.290359 F200.000000
G1 X49.570670 F200.000000
G1 Y50.086359 F200.000000
G1 X51.774670 F200.000000
G1 Y52.290359 F200.000000
G1 X51.551187 F200.000000
G1 X52.465928 Y53.205101 F200.000000
G1 X52.531980 Y53.310221 F200.000000
G1 X52.609386 Y53.407285 F200.000000
G1 X52.618751 Y53.448317 F200.000000
G1 X52.641143 Y53.483953 F200.000000
G1 X52.655043 Y53.607322 F200.000000
G1 X52.672044 Y53.681809 F200.000000
G0 Z0.500000
G0 X48.511938 Y53.884144
G1 Z-0.040000 F60.000000
G1 X47.609412 Y52.981617 F200.000000
G1 X47.543360 Y52.876497 F200.000000
G1 X47.465954 Y52.779433 F200.000000
G1 X47.456589 Y52.738401 F200.000000
G1 X47.434197 Y52.702765 F200.000000
G1 X47.420297 Y52.579396 F200.000000
G1 X47.392671 Y52.458359 F200.000000
G1 Y52.290359 F200.000000
G1 X47.030670 F200.000000
G1 Y50.086359 F200.000000
G1 X49.234670 F200.000000
G1 Y52.290359 F200.000000
G1 X49.011187 F200.000000
G1 X49.925928 Y53.205101 F200.000000
G1 X49.991980 Y53.310221 F200.000000
G1 X50.069386 Y53.407285 F200.000000
G1 X50.078751 Y53.448317 F200.000000
G1 X50.101143 Y53.483953 F200.000000
G1 X50.115043 Y53.607322 F200.000000
G1 X50.132044 Y53.681809 F200.000000
G0 Z0.500000
G0 X45.971938 Y53.884144
G1 Z-0.040000 F60.000000
G1 X45.069412 Y52.981617 F200.000000
G1 X45.003360 Y52.876497 F200.000000
G1 X44.925954 Y52.779433 F200.000000
G1 X44.916589 Y52.738401 F200.000000
G1 X44.894197 Y52.702765 F200.000000
G1 X44.880297 Y52.579396 F200.000000
G1 X44.852671 Y52.458359 F200.000000
G1 Y52.290359 F200.000000
G1 X44.490670 F200.000000
G1 Y50.086359 F200.000000
G1 X46.694670 F200.000000
G1 Y52.290359 F200.000000
G1 X46.471187 F200.000000
G1 X47.385928 Y53.205101 F200.000000
G1 X47.451980 Y53.310221 F200.000000
G1 X47.529386 Y53.407285 F200.000000
G1 X47.538751 Y53.448317 F200.000000
G1 X47.561143 Y53.483953 F200.000000
G1 X47.575043 Y53.607322 F200.000000
G1 X47.592044 Y53.681809 F200.000000
G0 Z0.500000
G0 X43.431938 Y53.884144
G1 Z-0.040000 F60.000000
G1 X42.529412 Y52.981617 F200.000000
G1 X42.463360 Y52.876497 F200.000000
G1 X42.385954 Y52.779433 F200.000000
G1 X42.376589 Y52.738401 F200.000000
G1 X42.354197 Y52.702765 F200.000000
G1 X42.340297 Y52.579396 F200.000000
G1 X42.312671 Y52.458359 F200.000000
G1 Y52.290359 F200.000000
G1 X41.950670 F200.000000
G1 Y50.086359 F200.000000
G1 X44.154670 F200.000000
G1 Y52.290359 F200.000000
G1 X43.931187 F200.000000
G1 X44.845928 Y53.205101 F200.000000
G1 X44.911980 Y53.310221 F200.000000
G1 X44.989386 Y53.407285 F200.000000
G1 X44.998751 Y53.448317 F200.000000
G1 X45.021143 Y53.483953 F200.000000
G1 X45.035043 Y53.607322 F200.000000
G1 X45.052044 Y53.681809 F200.000000
G0 Z0.500000
G0 X40.891938 Y53.884144
G1 Z-0.040000 F60.000000
G1 X39.989412 Y52.981617 F200.000000
G1 X39.923360 Y52.876497 F200.000000
G1 X39.845954 Y52.779433 F200.000000
G1 X39.836589 Y52.738401 F200.000000
G1 X39.814197 Y52.702765 F200.000000
G1 X39.800297 Y52.579396 F200.000000
G1 X39.772671 Y52.458359 F200.000000
G1 Y52.290359 F200.000000
G1 X39.410670 F200.000000
G1 Y50.086359 F200.000000
G1 X41.614670 F200.000000
G1 Y52.290359 F200.000000
G1 X41.391187 F200.000000
G1 X42.305928 Y53.205101 F200.000000
G1 X42.371980 Y53.310221 F200.000000
G1 X42.449386 Y53.407285 F200.000000
G1 X42.458751 Y53.448317 F200.000000
G1 X42.481143 Y53.483953 F200.000000
G1 X42.495043 Y53.607322 F200.000000
G1 X42.512044 Y53.681809 F200.000000
G0 Z0.500000
G0 X31.181285 Y8.226261
G1 Z-0.040000 F60.000000
G1 X30.457669 Y8.949877 F200.000000
G1 Y9.446359 F200.000000
G1 X30.819670 F200.000000
G1 Y11.650359 F200.000000
G1 X28.615670 F200.000000
G1 Y9.446359 F200.000000
G1 X28.977671 F200.000000
G1 Y8.643359 F200.000000
G1 X29.005297 Y8.522322 F200.000000
G1 X29.019197 Y8.398953 F200.000000
G1 X29.041589 Y8.363317 F200.000000
G1 X29.050954 Y8.322285 F200.000000
G1 X29.128360 Y8.225221 F200.000000
G1 X29.194412 Y8.120101 F200.000000
G1 X30.520670 Y6.793842 F200.000000
G0 Z0.500000
G0 X27.644670
G1 Z-0.040000 F60.000000
G1 X27.700928 Y6.850101 F200.000000
G1 X27.766980 Y6.955221 F200.000000
G1 X27.844386 Y7.052285 F200.000000
G1 X27.853751 Y7.093317 F200.000000
G1 X27.876143 Y7.128953 F200.000000
G1 X27.890043 Y7.252322 F200.000000
G1 X27.917669 Y7.373359 F200.000000
G1 Y9.446359 F200.000000
G1 X28.279670 F200.000000
G1 Y11.650359 F200.000000
G1 X26.075670 F200.000000
G1 Y9.446359 F200.000000
G1 X26.437671 F200.000000
G1 Y8.320730 F200.000000
G0 Z0.500000
G0 X23.890928 Y11.930101
G1 Z-0.040000 F60.000000
G1 X24.309188 Y12.348360 F200.000000
G1 X26.401209 F200.000000
G1 X26.409956 Y12.341385 F200.000000
G1 X26.551663 Y12.181431 F200.000000
G1 X26.663915 Y12.138859 F200.000000
G1 X26.704737 Y12.106304 F200.000000
G1 X26.817798 Y12.080499 F200.000000
G1 X27.044839 Y11.994394 F200.000000
G1 X27.142888 Y12.006299 F200.000000
G1 X27.177670 Y11.998361 F200.000000
G1 X29.574379 F200.000000
G1 X29.584839 Y11.994394 F200.000000
G1 X29.617507 Y11.998361 F200.000000
G1 X32.114379 F200.000000
G1 X32.124839 Y11.994394 F200.000000
G1 X32.157507 Y11.998361 F200.000000
G1 X34.654379 F200.000000
G1 X34.664839 Y11.994394 F200.000000
G1 X34.697507 Y11.998361 F200.000000
G1 X36.067670 F200.000000
G1 X36.245954 Y12.039053 F200.000000
G1 X36.427674 Y12.059528 F200.000000
G1 X36.480164 Y12.092510 F200.000000
G1 X36.540603 Y12.106304 F200.000000
G1 X36.683575 Y12.220321 F200.000000
G1 X36.838415 Y12.317614 F200.000000
G1 X38.108415 Y13.587614 F200.000000
G1 X38.205708 Y13.742453 F200.000000
G1 X38.319725 Y13.885426 F200.000000
G1 X38.333519 Y13.945865 F200.000000
G1 X38.366501 Y13.998355 F200.000000
G1 X38.386976 Y14.180075 F200.000000
G1 X38.427668 Y14.358359 F200.000000
G1 Y16.263359 F200.000000
G1 X38.386976 Y16.441643 F200.000000
G1 X38.366501 Y16.623363 F200.000000
G1 X38.333519 Y16.675853 F200.000000
G1 X38.319725 Y16.736292 F200.000000
G1 X38.205708 Y16.879265 F200.000000
G1 X38.189579 Y16.904933 F200.000000
G1 X38.502671 Y16.591841 F200.000000
G1 Y8.041586 F200.000000
G0 Z0.500000
G0 X26.406925 Y18.032614
G1 Z-0.040000 F60.000000
G1 X27.721181 Y16.718358 F200.000000
G1 X27.177670 F200.000000
G1 X27.142888 Y16.710419 F200.000000
G1 X27.044839 Y16.722324 F200.000000
G1 X26.817798 Y16.636219 F200.000000
G1 X26.704737 Y16.610414 F200.000000
G1 X26.663915 Y16.577859 F200.000000
G1 X26.551663 Y16.535287 F200.000000
G1 X26.409956 Y16.375333 F200.000000
G1 X26.401209 Y16.368358 F200.000000
G1 X24.309188 Y16.368358 F200.000000
G0 Z0.500000
G0 X19.589386 Y43.247285
G1 Z-0.040000 F60.000000
G1 X19.598751 Y43.288317 F200.000000
G1 X19.621143 Y43.323953 F200.000000
G1 X19.635043 Y43.447322 F200.000000
G1 X19.662669 Y43.568359 F200.000000
G1 Y45.473359 F200.000000
G1 X19.635043 Y45.594396 F200.000000
G1 X19.621143 Y45.717765 F200.000000
G1 X19.598751 Y45.753401 F200.000000
G1 X19.589386 Y45.794433 F200.000000
G1 X19.511980 Y45.891497 F200.000000
G1 X19.445928 Y45.996617 F200.000000
G1 X18.161059 Y47.281486 F200.000000
G1 X18.183170 Y47.378359 F200.000000
G1 X18.067749 Y47.884051 F200.000000
G1 X17.757669 Y48.272879 F200.000000
G1 Y49.764023 F200.000000
G1 X17.842529 Y49.822598 F200.000000
G1 X18.087648 Y50.289633 F200.000000
G1 Y50.817085 F200.000000
G1 X17.842529 Y51.284120 F200.000000
G1 X17.408445 Y51.583747 F200.000000
G1 X17.122669 Y51.618446 F200.000000
G1 Y53.695132 F200.000000
G0 Z0.500000
G0 X8.295670 Y34.846359
G1 Z-0.040000 F60.000000
G1 X10.499670 F200.000000
G1 Y37.050359 F200.000000
G1 X10.487668 F200.000000
G1 Y40.561359 F200.000000
G1 X10.499670 F200.000000
G1 Y42.765359 F200.000000
G1 X10.487668 F200.000000
G1 Y44.507565 F200.000000
G1 X10.563170 Y44.838359 F200.000000
G1 X10.487668 Y45.169153 F200.000000
G1 Y47.047565 F200.000000
G1 X10.563170 Y47.378359 F200.000000
G1 X10.487668 Y47.709153 F200.000000
G1 Y49.451359 F200.000000
G1 X10.499670 F200.000000
G1 Y51.655359 F200.000000
G1 X10.487668 F200.000000
G1 Y53.728359 F200.000000
G1 X10.446976 Y53.906643 F200.000000
G1 X10.426501 Y54.088363 F200.000000
G1 X10.393519 Y54.140853 F200.000000
G1 X10.379725 Y54.201292 F200.000000
G1 X10.265708 Y54.344265 F200.000000
G1 X10.168415 Y54.499104 F200.000000
G1 X8.898415 Y55.769104 F200.000000
G1 X8.743575 Y55.866397 F200.000000
G1 X8.600603 Y55.980414 F200.000000
G1 X8.540164 Y55.994208 F200.000000
G1 X8.487674 Y56.027190 F200.000000
G1 X8.305954 Y56.047665 F200.000000
G1 X8.127670 Y56.088358 F200.000000
G1 X7.693275 F200.000000
G1 X7.649976 Y56.159559 F200.000000
G1 X7.283760 Y56.501581 F200.000000
G1 X6.838847 Y56.732116 F200.000000
G1 X6.348236 Y56.834067 F200.000000
G1 X5.848312 Y56.799871 F200.000000
G1 X5.376152 Y56.632065 F200.000000
G1 X4.966774 Y56.343095 F200.000000
G1 X4.650541 Y55.954392 F200.000000
G1 X4.450905 Y55.494784 F200.000000
G1 X4.382673 Y54.998359 F200.000000
G1 X4.450905 Y54.501934 F200.000000
G1 X4.650541 Y54.042326 F200.000000
G1 X4.966774 Y53.653623 F200.000000
G1 X5.376152 Y53.364653 F200.000000
G1 X5.848312 Y53.196847 F200.000000
G1 X6.348236 Y53.162651 F200.000000
G1 X6.838847 Y53.264602 F200.000000
G1 X7.283760 Y53.495137 F200.000000
G1 X7.649976 Y53.837159 F200.000000
G1 X7.686810 Y53.897729 F200.000000
G1 X8.307671 Y53.276867 F200.000000
G1 Y51.655359 F200.000000
G1 X8.295670 F200.000000
G1 Y49.451359 F200.000000
G1 X8.307671 F200.000000
G1 Y47.709153 F200.000000
G1 X8.232170 Y47.378359 F200.000000
G1 X8.307671 Y47.047565 F200.000000
G1 Y45.169153 F200.000000
G1 X8.232170 Y44.838359 F200.000000
G1 X8.307671 Y44.507565 F200.000000
G1 Y42.765359 F200.000000
G1 X8.295670 F200.000000
G1 Y40.561359 F200.000000
G1 X8.307671 F200.000000
G1 Y37.050359 F200.000000
G1 X8.295670 F200.000000
G1 Y34.846359 F200.000000
G0 Z0.500000
G0 X18.182671 Y44.840546
G1 Z-0.040000 F60.000000
G1 X18.086170 Y45.263342 F200.000000
G1 X18.182671 Y45.166841 F200.000000
G1 Y44.840546 F200.000000
G0 Z0.500000
G0 X24.742669 Y8.041586
G1 Z-0.040000 F60.000000
G1 Y8.643359 F200.000000
G1 X24.715043 Y8.764396 F200.000000
G1 X24.701143 Y8.887765 F200.000000
G1 X24.678751 Y8.923401 F200.000000
G1 X24.669386 Y8.964433 F200.000000
G1 X24.591980 Y9.061497 F200.000000
G1 X24.525928 Y9.166617 F200.000000
G1 X23.876059 Y9.816486 F200.000000
G1 X23.898170 Y9.913359 F200.000000
G1 X23.782749 Y10.419051 F200.000000
G1 X23.459347 Y10.824584 F200.000000
G1 X22.992018 Y11.049638 F200.000000
G1 X22.473322 F200.000000
G1 X22.005993 Y10.824584 F200.000000
G1 X21.869445 Y10.653358 F200.000000
G1 X15.419188 Y10.653358 F200.000000
G1 X15.217669 Y10.854877 F200.000000
G1 Y11.664023 F200.000000
G1 X15.302529 Y11.722598 F200.000000
G1 X15.547648 Y12.189633 F200.000000
G1 Y12.717085 F200.000000
G1 X15.302529 Y13.184120 F200.000000
G1 X14.868445 Y13.483747 F200.000000
G1 X14.344839 Y13.547324 F200.000000
G1 X13.851663 Y13.360287 F200.000000
G1 X13.501897 Y12.965484 F200.000000
G1 X13.375670 Y12.453359 F200.000000
G1 X13.501897 Y11.941234 F200.000000
G1 X13.737671 Y11.675101 F200.000000
G1 Y10.548359 F200.000000
G1 X13.765297 Y10.427322 F200.000000
G1 X13.779197 Y10.303953 F200.000000
G1 X13.801589 Y10.268317 F200.000000
G1 X13.810954 Y10.227285 F200.000000
G1 X13.888360 Y10.130221 F200.000000
G1 X13.954412 Y10.025101 F200.000000
G1 X14.589412 Y9.390101 F200.000000
G0 Z0.500000
G0 X15.915670 Y12.453359
G1 Z-0.040000 F60.000000
G1 X16.041897 Y11.941234 F200.000000
G1 X16.391663 Y11.546431 F200.000000
G1 X16.884839 Y11.359394 F200.000000
G1 X17.408445 Y11.422971 F200.000000
G1 X17.842529 Y11.722598 F200.000000
G1 X18.087648 Y12.189633 F200.000000
G1 Y12.717085 F200.000000
G1 X17.842529 Y13.184120 F200.000000
G1 X17.408445 Y13.483747 F200.000000
G1 X16.884839 Y13.547324 F200.000000
G1 X16.391663 Y13.360287 F200.000000
G1 X16.041897 Y12.965484 F200.000000
G1 X15.915670 Y12.453359 F200.000000
G0 Z0.500000
G0 X23.584532 Y13.677669
G1 Z-0.040000 F60.000000
G1 X23.479412 Y13.611617 F200.000000
G1 X23.061152 Y13.193358 F200.000000
G1 X20.369145 F200.000000
G1 X19.948445 Y13.483747 F200.000000
G1 X19.424839 Y13.547324 F200.000000
G1 X18.931663 Y13.360287 F200.000000
G1 X18.581897 Y12.965484 F200.000000
G1 X18.455670 Y12.453359 F200.000000
G1 X18.581897 Y11.941234 F200.000000
G1 X18.931663 Y11.546431 F200.000000
G1 X19.424839 Y11.359394 F200.000000
G1 X19.948445 Y11.422971 F200.000000
G1 X20.369145 Y11.713360 F200.000000
G1 X23.367670 Y11.713360 F200.000000
G1 X23.488707 Y11.740986 F200.000000
G1 X23.612076 Y11.754886 F200.000000
G1 X23.647712 Y11.777278 F200.000000
G1 X23.688744 Y11.786643 F200.000000
G1 X23.785808 Y11.864049 F200.000000
G1 X23.890928 Y11.930101 F200.000000
G0 Z0.500000
G0 X24.309188 Y16.368358
G1 Z-0.040000 F60.000000
G1 X23.723799 Y16.953747 F200.000000
G1 X23.782749 Y17.027668 F200.000000
G1 X23.898170 Y17.533359 F200.000000
G1 X23.782749 Y18.039051 F200.000000
G1 X23.459347 Y18.444584 F200.000000
G1 X22.992018 Y18.669638 F200.000000
G1 X22.473322 F200.000000
G1 X22.005993 Y18.444584 F200.000000
G1 X21.682591 Y18.039051 F200.000000
G1 X21.567170 Y17.533359 F200.000000
G1 X21.682591 Y17.027668 F200.000000
G1 X22.005993 Y16.622134 F200.000000
G1 X22.061858 Y16.595231 F200.000000
G1 X22.065954 Y16.577285 F200.000000
G1 X22.143360 Y16.480221 F200.000000
G0 Z0.500000
G0 X14.589412 Y9.390101
G1 Z-0.040000 F60.000000
G1 X14.694532 Y9.324049 F200.000000
G1 X14.791596 Y9.246643 F200.000000
G1 X14.832628 Y9.237278 F200.000000
G1 X14.868264 Y9.214886 F200.000000
G1 X14.991633 Y9.200986 F200.000000
G1 X15.112670 Y9.173360 F200.000000
G1 X21.869445 Y9.173360 F200.000000
G1 X22.005993 Y9.002134 F200.000000
G1 X22.473322 Y8.777081 F200.000000
G1 X22.822432 F200.000000
G1 X23.262671 Y8.336841 F200.000000
G1 Y8.041586 F200.000000
G0 Z0.500000
G0 X32.064055 Y53.510457
G1 Z-0.040000 F60.000000
G1 X32.787671 Y52.786841 F200.000000
G1 Y52.290359 F200.000000
G1 X32.425670 F200.000000
G1 Y50.086359 F200.000000
G1 X34.629670 F200.000000
G1 Y52.290359 F200.000000
G1 X34.267669 F200.000000
G1 Y53.093359 F200.000000
G1 X34.240043 Y53.214396 F200.000000
G1 X34.226143 Y53.337765 F200.000000
G1 X34.203751 Y53.373401 F200.000000
G1 X34.194386 Y53.414433 F200.000000
G1 X34.116980 Y53.511497 F200.000000
G1 X34.050928 Y53.616617 F200.000000
G1 X32.724670 Y54.942876 F200.000000
G0 Z0.500000
G0 X20.354737 Y47.666304
G1 Z-0.040000 F60.000000
G1 X20.467798 Y47.640499 F200.000000
G1 X20.694839 Y47.554394 F200.000000
G1 X20.792888 Y47.566299 F200.000000
G1 X20.827670 Y47.558361 F200.000000
G1 X23.224379 F200.000000
G1 X23.234839 Y47.554394 F200.000000
G1 X23.267507 Y47.558361 F200.000000
G1 X25.764379 F200.000000
G1 X25.774839 Y47.554394 F200.000000
G1 X25.807507 Y47.558361 F200.000000
G1 X28.304379 F200.000000
G1 X28.314839 Y47.554394 F200.000000
G1 X28.347507 Y47.558361 F200.000000
G1 X30.844379 F200.000000
G1 X30.854839 Y47.554394 F200.000000
G1 X30.887507 Y47.558361 F200.000000
G1 X33.384379 F200.000000
G1 X33.394839 Y47.554394 F200.000000
G1 X33.427507 Y47.558361 F200.000000
G1 X36.351522 F200.000000
G1 X36.355615 Y47.540426 F200.000000
G1 X36.565171 Y47.277651 F200.000000
G1 Y44.337351 F200.000000
G1 X33.711178 Y41.483358 F200.000000
G0 Z0.500000
G0 X18.193295 Y53.681809
G1 Z-0.040000 F60.000000
G1 X18.210297 Y53.607322 F200.000000
G1 X18.224197 Y53.483953 F200.000000
G1 X18.246589 Y53.448317 F200.000000
G1 X18.255954 Y53.407285 F200.000000
G1 X18.333360 Y53.310221 F200.000000
G1 X18.399412 Y53.205101 F200.000000
G1 X19.725670 Y51.878842 F200.000000
G1 Y50.086359 F200.000000
G1 X21.929670 F200.000000
G1 Y52.214842 F200.000000
G1 X22.265670 Y51.878842 F200.000000
G1 Y50.086359 F200.000000
G1 X24.469670 F200.000000
G1 Y52.214842 F200.000000
G1 X24.805670 Y51.878842 F200.000000
G1 Y50.086359 F200.000000
G1 X27.009670 F200.000000
G1 Y52.214842 F200.000000
G1 X27.345670 Y51.878842 F200.000000
G1 Y50.086359 F200.000000
G1 X29.549670 F200.000000
G1 Y52.214842 F200.000000
G1 X29.885670 Y51.878842 F200.000000
G1 Y50.086359 F200.000000
G1 X32.089670 F200.000000
G1 Y52.290359 F200.000000
G1 X31.546278 F200.000000
G1 X31.510928 Y52.346617 F200.000000
G1 X29.973401 Y53.884144 F200.000000
G0 Z0.500000
G0 X28.353295 Y53.681809
G1 Z-0.040000 F60.000000
G1 X28.370297 Y53.607322 F200.000000
G1 X28.384197 Y53.483953 F200.000000
G1 X28.406589 Y53.448317 F200.000000
G1 X28.415954 Y53.407285 F200.000000
G1 X28.493360 Y53.310221 F200.000000
G1 X28.559412 Y53.205101 F200.000000
G1 X29.474153 Y52.290359 F200.000000
G1 X29.006278 F200.000000
G1 X28.970928 Y52.346617 F200.000000
G1 X27.433401 Y53.884144 F200.000000
G0 Z0.500000
G0 X25.813295 Y53.681809
G1 Z-0.040000 F60.000000
G1 X25.830297 Y53.607322 F200.000000
G1 X25.844197 Y53.483953 F200.000000
G1 X25.866589 Y53.448317 F200.000000
G1 X25.875954 Y53.407285 F200.000000
G1 X25.953360 Y53.310221 F200.000000
G1 X26.019412 Y53.205101 F200.000000
G1 X26.934153 Y52.290359 F200.000000
G1 X26.466278 F200.000000
G1 X26.430928 Y52.346617 F200.000000
G1 X24.893401 Y53.884144 F200.000000
G0 Z0.500000
G0 X23.273295 Y53.681809
G1 Z-0.040000 F60.000000
G1 X23.290297 Y53.607322 F200.000000
G1 X23.304197 Y53.483953 F200.000000
G1 X23.326589 Y53.448317 F200.000000
G1 X23.335954 Y53.407285 F200.000000
G1 X23.413360 Y53.310221 F200.000000
G1 X23.479412 Y53.205101 F200.000000
G1 X24.394153 Y52.290359 F200.000000
G1 X23.926278 F200.000000
G1 X23.890928 Y52.346617 F200.000000
G1 X22.353401 Y53.884144 F200.000000
G0 Z0.500000
G0 X20.733295 Y53.681809
G1 Z-0.040000 F60.000000
G1 X20.750297 Y53.607322 F200.000000
G1 X20.764197 Y53.483953 F200.000000
G1 X20.786589 Y53.448317 F200.000000
G1 X20.795954 Y53.407285 F200.000000
G1 X20.873360 Y53.310221 F200.000000
G1 X20.939412 Y53.205101 F200.000000
G1 X21.854153 Y52.290359 F200.000000
G1 X21.386278 F200.000000
G1 X21.350928 Y52.346617 F200.000000
G1 X19.813401 Y53.884144 F200.000000
G0 Z0.500000
G0 X11.085475 Y36.627962
G1 Z-0.040000 F60.000000
G1 X11.055944 Y36.566641 F200.000000
G1 X10.961897 Y36.460484 F200.000000
G1 X10.916895 Y36.277903 F200.000000
G1 X10.875000 Y36.190907 F200.000000
G1 Y36.107927 F200.000000
G1 X10.835670 Y35.948359 F200.000000
G1 X10.875000 Y35.788791 F200.000000
G1 Y35.705812 F200.000000
G1 X10.916895 Y35.618815 F200.000000
G1 X10.961897 Y35.436234 F200.000000
G1 X11.055944 Y35.330077 F200.000000
G1 X11.085475 Y35.268756 F200.000000
G1 X11.169956 Y35.201385 F200.000000
G1 X11.311663 Y35.041431 F200.000000
G1 X11.423915 Y34.998859 F200.000000
G1 X11.464737 Y34.966304 F200.000000
G1 X11.577798 Y34.940499 F200.000000
G1 X11.804839 Y34.854394 F200.000000
G1 X11.902888 Y34.866299 F200.000000
G1 X11.937670 Y34.858361 F200.000000
G1 X12.752671 F200.000000
G1 Y34.494851 F200.000000
G1 X9.261925 Y31.004104 F200.000000
G0 Z0.500000
