(Generated by ./pygerber2gcode_cui_MOD.py )
( 2013-05-31 00:41:27 )
(Initialize)

(Start form here)
G0 Z0.500000 F40.000000
G0 X74.859215 Y25.889215
G0 Z-2.000000 F40.000000
G0 Z0.500000
G0 X62.921215 Y15.475215
G0 Z-2.000000 F40.000000
G0 Z0.500000
G0 X41.077215 Y22.333215
G0 Z-2.000000 F40.000000
G0 Z0.500000
G0 X41.077215 Y19.031215
G0 Z-2.000000 F40.000000
G0 Z0.500000
G0 X86.670215 Y51.797215
G0 Z-2.000000 F40.000000
G0 Z0.500000
G0 X82.733215 Y55.353215
G0 Z-2.000000 F40.000000
G0 Z0.500000
G0 X82.733215 Y47.479215
G0 Z-2.000000 F40.000000
G0 Z0.500000
G0 X80.193215 Y55.353215
G0 Z-2.000000 F40.000000
G0 Z0.500000
G0 X80.193215 Y47.479215
G0 Z-2.000000 F40.000000
G0 Z0.500000
G0 X77.780215 Y51.797215
G0 Z-2.000000 F40.000000
G0 Z0.500000
G0 X77.653215 Y55.353215
G0 Z-2.000000 F40.000000
G0 Z0.500000
G0 X75.113215 Y55.353215
G0 Z-2.000000 F40.000000
G0 Z0.500000
G0 X73.589215 Y7.093215
G0 Z-2.000000 F40.000000
G0 Z0.500000
G0 X72.573215 Y55.353215
G0 Z-2.000000 F40.000000
G0 Z0.500000
G0 X71.049215 Y7.093215
G0 Z-2.000000 F40.000000
G0 Z0.500000
G0 X70.033215 Y55.353215
G0 Z-2.000000 F40.000000
G0 Z0.500000
G0 X69.779215 Y25.635215
G0 Z-2.000000 F40.000000
G0 Z0.500000
G0 X69.779215 Y22.587215
G0 Z-2.000000 F40.000000
G0 Z0.500000
G0 X68.763215 Y37.573215
G0 Z-2.000000 F40.000000
G0 Z0.500000
G0 X68.509215 Y7.093215
G0 Z-2.000000 F40.000000
G0 Z0.500000
G0 X67.493215 Y55.353215
G0 Z-2.000000 F40.000000
G0 Z0.500000
G0 X65.969215 Y7.093215
G0 Z-2.000000 F40.000000
G0 Z0.500000
G0 X64.953215 Y55.353215
G0 Z-2.000000 F40.000000
G0 Z0.500000
G0 X63.429215 Y7.093215
G0 Z-2.000000 F40.000000
G0 Z0.500000
G0 X62.159215 Y25.635215
G0 Z-2.000000 F40.000000
G0 Z0.500000
G0 X62.159215 Y22.587215
G0 Z-2.000000 F40.000000
G0 Z0.500000
G0 X61.143215 Y37.573215
G0 Z-2.000000 F40.000000
G0 Z0.500000
G0 X60.889215 Y55.353215
G0 Z-2.000000 F40.000000
G0 Z0.500000
G0 X60.889215 Y7.093215
G0 Z-2.000000 F40.000000
G0 Z0.500000
G0 X58.603215 Y52.051215
G0 Z-2.000000 F40.000000
G0 Z0.500000
G0 X58.603215 Y49.511215
G0 Z-2.000000 F40.000000
G0 Z0.500000
G0 X58.349215 Y55.353215
G0 Z-2.000000 F40.000000
G0 Z0.500000
G0 X57.333215 Y42.145215
G0 Z-2.000000 F40.000000
G0 Z0.500000
G0 X55.809215 Y55.353215
G0 Z-2.000000 F40.000000
G0 Z0.500000
G0 X55.809215 Y7.093215
G0 Z-2.000000 F40.000000
G0 Z0.500000
G0 X54.793215 Y47.733215
G0 Z-2.000000 F40.000000
G0 Z0.500000
G0 X54.793215 Y45.193215
G0 Z-2.000000 F40.000000
G0 Z0.500000
G0 X53.269215 Y55.353215
G0 Z-2.000000 F40.000000
G0 Z0.500000
G0 X53.269215 Y7.093215
G0 Z-2.000000 F40.000000
G0 Z0.500000
G0 X50.729215 Y55.353215
G0 Z-2.000000 F40.000000
G0 Z0.500000
G0 X50.729215 Y52.051215
G0 Z-2.000000 F40.000000
G0 Z0.500000
G0 X50.729215 Y49.511215
G0 Z-2.000000 F40.000000
G0 Z0.500000
G0 X50.729215 Y7.093215
G0 Z-2.000000 F40.000000
G0 Z0.500000
G0 X49.713215 Y42.145215
G0 Z-2.000000 F40.000000
G0 Z0.500000
G0 X48.189215 Y55.353215
G0 Z-2.000000 F40.000000
G0 Z0.500000
G0 X48.189215 Y7.093215
G0 Z-2.000000 F40.000000
G0 Z0.500000
G0 X47.173215 Y45.955215
G0 Z-2.000000 F40.000000
G0 Z0.500000
G0 X47.173215 Y38.335215
G0 Z-2.000000 F40.000000
G0 Z0.500000
G0 X45.649215 Y55.353215
G0 Z-2.000000 F40.000000
G0 Z0.500000
G0 X45.649215 Y7.093215
G0 Z-2.000000 F40.000000
G0 Z0.500000
G0 X43.109215 Y55.353215
G0 Z-2.000000 F40.000000
G0 Z0.500000
G0 X43.109215 Y7.093215
G0 Z-2.000000 F40.000000
G0 Z0.500000
G0 X86.035215 Y12.554215
G0 Z-2.000000 F40.000000
G0 Z0.500000
G0 X86.035215 Y8.109215
G0 Z-2.000000 F40.000000
G0 Z0.500000
G0 X84.257215 Y43.288215
G0 Z-2.000000 F40.000000
G0 Z0.500000
G0 X84.257215 Y38.843215
G0 Z-2.000000 F40.000000
G0 Z0.500000
G0 X79.685215 Y12.554215
G0 Z-2.000000 F40.000000
G0 Z0.500000
G0 X79.685215 Y8.109215
G0 Z-2.000000 F40.000000
G0 Z0.500000
G0 X77.907215 Y43.288215
G0 Z-2.000000 F40.000000
G0 Z0.500000
G0 X77.907215 Y38.843215
G0 Z-2.000000 F40.000000
G0 Z0.500000
G0 X74.605215 Y48.749215
G0 Z-2.000000 F40.000000
G0 Z0.500000
G0 X74.605215 Y46.209215
G0 Z-2.000000 F40.000000
G0 Z0.500000
G0 X70.033215 Y51.797215
G0 Z-2.000000 F40.000000
G0 Z0.500000
G0 X70.033215 Y46.717215
G0 Z-2.000000 F40.000000
G0 Z0.500000
G0 X70.033215 Y44.177215
G0 Z-2.000000 F40.000000
G0 Z0.500000
G0 X70.033215 Y41.637215
G0 Z-2.000000 F40.000000
G0 Z0.500000
G0 X68.509215 Y19.031215
G0 Z-2.000000 F40.000000
G0 Z0.500000
G0 X68.509215 Y16.491215
G0 Z-2.000000 F40.000000
G0 Z0.500000
G0 X68.509215 Y13.951215
G0 Z-2.000000 F40.000000
G0 Z0.500000
G0 X68.509215 Y11.411215
G0 Z-2.000000 F40.000000
G0 Z0.500000
G0 X67.493215 Y51.797215
G0 Z-2.000000 F40.000000
G0 Z0.500000
G0 X67.493215 Y46.717215
G0 Z-2.000000 F40.000000
G0 Z0.500000
G0 X67.493215 Y44.177215
G0 Z-2.000000 F40.000000
G0 Z0.500000
G0 X67.493215 Y41.637215
G0 Z-2.000000 F40.000000
G0 Z0.500000
G0 X65.969215 Y19.031215
G0 Z-2.000000 F40.000000
G0 Z0.500000
G0 X65.969215 Y16.491215
G0 Z-2.000000 F40.000000
G0 Z0.500000
G0 X65.969215 Y13.951215
G0 Z-2.000000 F40.000000
G0 Z0.500000
G0 X65.969215 Y11.411215
G0 Z-2.000000 F40.000000
G0 Z0.500000
G0 X64.953215 Y46.717215
G0 Z-2.000000 F40.000000
G0 Z0.500000
G0 X64.953215 Y44.177215
G0 Z-2.000000 F40.000000
G0 Z0.500000
G0 X64.953215 Y41.637215
G0 Z-2.000000 F40.000000
G0 Z0.500000
G0 X62.413215 Y46.717215
G0 Z-2.000000 F40.000000
G0 Z0.500000
G0 X62.413215 Y44.177215
G0 Z-2.000000 F40.000000
G0 Z0.500000
G0 X62.413215 Y41.637215
G0 Z-2.000000 F40.000000
G0 Z0.500000
G0 X55.809215 Y10.649215
G0 Z-2.000000 F40.000000
G0 Z0.500000
G0 X53.269215 Y10.649215
G0 Z-2.000000 F40.000000
G0 Z0.500000
G0 X50.729215 Y10.649215
G0 Z-2.000000 F40.000000
G0 Z0.500000
G0 X48.189215 Y10.649215
G0 Z-2.000000 F40.000000
G0 Z0.500000
G0 X47.173215 Y35.541215
G0 Z-2.000000 F40.000000
G0 Z0.500000
G0 X47.173215 Y33.001215
G0 Z-2.000000 F40.000000
G0 Z0.500000
G0 X47.173215 Y30.461215
G0 Z-2.000000 F40.000000
G0 Z0.500000
G0 X47.173215 Y27.921215
G0 Z-2.000000 F40.000000
G0 Z0.500000
G0 X56.317215 Y36.811215
G0 Z-2.000000 F40.000000
G0 Z0.500000
G0 X56.317215 Y31.731215
G0 Z-2.000000 F40.000000
G0 Z0.500000
G0 X56.317215 Y26.651215
G0 Z-2.000000 F40.000000
G0 Z0.500000
G0 X92.639215 Y7.093215
G0 Z-2.000000 F40.000000
G0 Z0.500000
G0 X91.369215 Y55.353215
G0 Z-2.000000 F40.000000
G0 Z0.500000
G0 X40.569215 Y40.113215
G0 Z-2.000000 F40.000000
G0 Z0.500000
G0 X40.569215 Y12.173215
G0 Z-2.000000 F40.000000
G0 Z0.500000

(Goto to Initial position)
G0 Z0.500000
G0 X0.000000 Y0.000000
G0 Z0.000000
