(Created with emc2b post processor 2014/08/11 17:19)
(tool change to 3.2 mm Ball End Mill)
(T1 M06 G43)
(G17 G90 G21)
(G00 Z2 S7000 M03)
G01 X49.999 Y50.68
G01 X49.999 Y50.68 Z-1 F50
G01 X50.592 Y50.337 Z-1 F100
G01 X50.592 Y49.654 Z-1
G01 X49.999 Y49.311 Z-1
G01 X49.407 Y49.654 Z-1
G01 X49.407 Y50.337 Z-1
G01 X49.999 Y50.68 Z-1
G01 X49.999 Y51.835 Z-1
G01 X51.592 Y50.915 Z-1
G01 X51.592 Y49.077 Z-1
G01 X49.999 Y48.157 Z-1
G01 X48.407 Y49.077 Z-1
G01 X48.407 Y50.915 Z-1
G01 X49.999 Y51.835 Z-1
G01 X49.999 Y52.991 Z-1
G01 X52.592 Y51.492 Z-1
G01 X52.592 Y48.501 Z-1
G01 X49.999 Y47.002 Z-1
G01 X47.407 Y48.501 Z-1
G01 X47.407 Y51.492 Z-1
G01 X49.999 Y52.991 Z-1
G01 X49.999 Y54.146 Z-1
G01 X53.592 Y52.07 Z-1
G01 X53.592 Y47.924 Z-1
G01 X49.999 Y45.848 Z-1
G01 X46.407 Y47.924 Z-1
G01 X46.407 Y52.07 Z-1
G01 X49.999 Y54.146 Z-1
G01 X49.999 Y55.301 Z-1
G01 X54.592 Y52.648 Z-1
G01 X54.592 Y47.347 Z-1
G01 X49.999 Y44.694 Z-1
G01 X45.407 Y47.347 Z-1
G01 X45.407 Y52.648 Z-1
G01 X49.999 Y55.301 Z-1
G01 X49.999 Y56.456 Z-1
G01 X55.592 Y53.226 Z-1
G01 X55.592 Y46.77 Z-1
G01 X49.999 Y43.54 Z-1
G01 X44.407 Y46.77 Z-1
G01 X44.407 Y53.226 Z-1
G01 X49.999 Y56.456 Z-1
G01 X49.999 Y57.611 Z-1
G01 X56.592 Y53.804 Z-1
G01 X56.592 Y46.193 Z-1
G01 X49.999 Y42.386 Z-1
G01 X43.407 Y46.193 Z-1
G01 X43.407 Y53.804 Z-1
G01 X49.999 Y57.611 Z-1
G01 X49.999 Y58.477 Z-1
G01 X49.999 Y58.573 Z-0.874
G01 X49.999 Y58.669 Z-0.71
G01 X49.999 Y58.766 Z-0.581
G01 X50.171 Y58.666 Z-0.711
G01 X50.344 Y58.566 Z-0.873
G01 X50.43 Y58.516 Z-0.97
G01 X50.516 Y58.467 Z-1
G01 X57.074 Y54.68 Z-1
G01 X57.16 Y54.631 Z-0.97
G01 X57.333 Y54.531 Z-0.789
G01 X57.505 Y54.431 Z-0.643
G01 X57.592 Y54.382 Z-0.581
G01 X57.592 Y54.182 Z-0.711
G01 X57.592 Y53.983 Z-0.873
G01 X57.592 Y53.883 Z-0.97
G01 X57.592 Y53.784 Z-1
G01 X57.592 Y46.213 Z-1
G01 X57.592 Y46.114 Z-0.968
G01 X57.592 Y45.914 Z-0.787
G01 X57.592 Y45.715 Z-0.641
G01 X57.592 Y45.616 Z-0.58
G01 X57.419 Y45.516 Z-0.71
G01 X57.246 Y45.416 Z-0.871
G01 X57.16 Y45.366 Z-0.968
G01 X57.074 Y45.317 Z-1
G01 X50.516 Y41.53 Z-1
G01 X50.43 Y41.481 Z-0.965
G01 X50.257 Y41.381 Z-0.785
G01 X50.085 Y41.281 Z-0.64
G01 X49.999 Y41.232 Z-0.578
G01 X49.826 Y41.331 Z-0.708
G01 X49.653 Y41.431 Z-0.869
G01 X49.567 Y41.481 Z-0.965
G01 X49.481 Y41.53 Z-1
G01 X42.924 Y45.317 Z-1
G01 X42.838 Y45.366 Z-0.966
G01 X42.665 Y45.466 Z-0.785
G01 X42.493 Y45.566 Z-0.64
G01 X42.407 Y45.616 Z-0.579
G01 X42.407 Y45.815 Z-0.709
G01 X42.407 Y46.014 Z-0.869
G01 X42.407 Y46.114 Z-0.966
G01 X42.407 Y46.213 Z-1
G01 X42.407 Y53.784 Z-1
G01 X42.407 Y53.883 Z-0.968
G01 X42.407 Y54.083 Z-0.787
G01 X42.407 Y54.282 Z-0.642
G01 X42.407 Y54.382 Z-0.58
G01 X42.579 Y54.481 Z-0.71
G01 X42.752 Y54.581 Z-0.871
G01 X42.838 Y54.631 Z-0.968
G01 X42.924 Y54.68 Z-1
G01 X49.481 Y58.467 Z-1
G01 X49.567 Y58.516 Z-0.97
G01 X49.74 Y58.616 Z-0.788
G01 X49.912 Y58.716 Z-0.643
G01 X49.999 Y58.766 Z-0.581
G01 X49.999 Y58.862 Z-0.474
G01 X49.999 Y58.958 Z-0.385
G01 X49.999 Y59.151 Z-0.243
G01 X49.999 Y59.343 Z-0.14
G01 X49.999 Y59.536 Z-0.068
G01 X49.999 Y59.728 Z-0.023
G01 X49.999 Y59.921 Z-0.001
G01 X50.428 Y59.672 Z-0.031
G01 X50.944 Y59.375 Z-0.107
G01 X51.545 Y59.028 Z-0.237
G01 X52.662 Y58.383 Z-0.545
G01 X53.264 Y58.035 Z-0.704
G01 X53.693 Y57.787 Z-0.79
G01 X54.037 Y57.589 Z-0.829
G01 X54.381 Y57.39 Z-0.838
G01 X54.725 Y57.192 Z-0.813
G01 X55.068 Y56.994 Z-0.759
G01 X55.584 Y56.696 Z-0.64
G01 X57.045 Y55.852 Z-0.237
G01 X57.646 Y55.505 Z-0.107
G01 X58.162 Y55.208 Z-0.031
G01 X58.592 Y54.96 Z-0.001
G01 X58.592 Y54.463 Z-0.031
G01 X58.592 Y53.868 Z-0.107
G01 X58.592 Y53.174 Z-0.237
G01 X58.592 Y51.884 Z-0.544
G01 X58.592 Y51.19 Z-0.703
G01 X58.592 Y50.693 Z-0.789
G01 X58.592 Y50.297 Z-0.828
G01 X58.592 Y49.9 Z-0.837
G01 X58.592 Y49.503 Z-0.812
G01 X58.592 Y49.106 Z-0.758
G01 X58.592 Y48.511 Z-0.639
G01 X58.592 Y46.824 Z-0.237
G01 X58.592 Y46.13 Z-0.107
G01 X58.592 Y45.535 Z-0.031
G01 X58.592 Y45.039 Z-0.001
G01 X58.162 Y44.79 Z-0.031
G01 X57.646 Y44.493 Z-0.107
G01 X57.045 Y44.146 Z-0.237
G01 X55.928 Y43.501 Z-0.544
G01 X55.326 Y43.153 Z-0.703
G01 X54.897 Y42.905 Z-0.789
G01 X54.553 Y42.707 Z-0.827
G01 X54.209 Y42.508 Z-0.837
G01 X53.865 Y42.31 Z-0.811
G01 X53.522 Y42.112 Z-0.757
G01 X53.006 Y41.814 Z-0.638
G01 X51.545 Y40.97 Z-0.237
G01 X50.944 Y40.623 Z-0.107
G01 X50.428 Y40.326 Z-0.031
G01 X49.999 Y40.078 Z-0.001
G01 X49.569 Y40.326 Z-0.031
G01 X49.053 Y40.623 Z-0.107
G01 X48.452 Y40.97 Z-0.237
G01 X47.335 Y41.615 Z-0.543
G01 X46.734 Y41.963 Z-0.701
G01 X46.304 Y42.211 Z-0.787
G01 X45.96 Y42.409 Z-0.826
G01 X45.617 Y42.608 Z-0.835
G01 X45.273 Y42.806 Z-0.81
G01 X44.929 Y43.004 Z-0.756
G01 X44.414 Y43.302 Z-0.637
G01 X42.953 Y44.146 Z-0.236
G01 X42.352 Y44.493 Z-0.106
G01 X41.836 Y44.79 Z-0.031
G01 X41.407 Y45.039 Z-0.001
G01 X41.407 Y45.535 Z-0.031
G01 X41.407 Y46.13 Z-0.106
G01 X41.407 Y46.824 Z-0.236
G01 X41.407 Y48.114 Z-0.543
G01 X41.407 Y48.808 Z-0.701
G01 X41.407 Y49.305 Z-0.787
G01 X41.407 Y49.701 Z-0.826
G01 X41.407 Y50.098 Z-0.835
G01 X41.407 Y50.495 Z-0.81
G01 X41.407 Y50.892 Z-0.756
G01 X41.407 Y51.487 Z-0.638
G01 X41.407 Y53.174 Z-0.237
G01 X41.407 Y53.868 Z-0.107
G01 X41.407 Y54.463 Z-0.031
G01 X41.407 Y54.96 Z-0.001
G01 X41.836 Y55.208 Z-0.031
G01 X42.352 Y55.505 Z-0.107
G01 X42.953 Y55.852 Z-0.237
G01 X44.07 Y56.497 Z-0.544
G01 X44.671 Y56.845 Z-0.702
G01 X45.101 Y57.093 Z-0.789
G01 X45.445 Y57.291 Z-0.828
G01 X45.788 Y57.49 Z-0.837
G01 X46.132 Y57.688 Z-0.811
G01 X46.476 Y57.886 Z-0.758
G01 X46.991 Y58.184 Z-0.639
G01 X48.452 Y59.028 Z-0.237
G01 X49.053 Y59.375 Z-0.107
G01 X49.569 Y59.672 Z-0.031
G01 X49.999 Y59.921 Z-0.001
G00 Z2
G01 X49.999 Y50.68
G01 Z1
G01 X49.999 Y50.68 Z-2 F50
G01 X50.592 Y50.337 Z-2 F100
G01 X50.592 Y49.654 Z-2
G01 X49.999 Y49.311 Z-2
G01 X49.407 Y49.654 Z-2
G01 X49.407 Y50.337 Z-2
G01 X49.999 Y50.68 Z-2
G01 X49.999 Y51.835 Z-2
G01 X51.592 Y50.915 Z-2
G01 X51.592 Y49.077 Z-2
G01 X49.999 Y48.157 Z-2
G01 X48.407 Y49.077 Z-2
G01 X48.407 Y50.915 Z-2
G01 X49.999 Y51.835 Z-2
G01 X49.999 Y52.991 Z-2
G01 X52.592 Y51.492 Z-2
G01 X52.592 Y48.501 Z-2
G01 X49.999 Y47.002 Z-2
G01 X47.407 Y48.501 Z-2
G01 X47.407 Y51.492 Z-2
G01 X49.999 Y52.991 Z-2
G01 X49.999 Y54.146 Z-2
G01 X53.592 Y52.07 Z-2
G01 X53.592 Y47.924 Z-2
G01 X49.999 Y45.848 Z-2
G01 X46.407 Y47.924 Z-2
G01 X46.407 Y52.07 Z-2
G01 X49.999 Y54.146 Z-2
G01 X49.999 Y55.301 Z-2
G01 X54.592 Y52.648 Z-2
G01 X54.592 Y47.347 Z-2
G01 X49.999 Y44.694 Z-2
G01 X45.407 Y47.347 Z-2
G01 X45.407 Y52.648 Z-2
G01 X49.999 Y55.301 Z-2
G01 X49.999 Y56.456 Z-2
G01 X55.592 Y53.226 Z-2
G01 X55.592 Y46.77 Z-2
G01 X49.999 Y43.54 Z-2
G01 X44.407 Y46.77 Z-2
G01 X44.407 Y53.226 Z-2
G01 X49.999 Y56.456 Z-2
G01 X49.999 Y57.611 Z-2
G01 X56.592 Y53.804 Z-2
G01 X56.592 Y46.193 Z-2
G01 X49.999 Y42.386 Z-2
G01 X43.407 Y46.193 Z-2
G01 X43.407 Y53.804 Z-2
G01 X49.999 Y57.611 Z-2
G01 X49.999 Y58.092 Z-2
G01 X49.999 Y58.188 Z-1.974
G01 X49.999 Y58.477 Z-1.107 F50
G01 X49.999 Y58.573 Z-0.874
G01 X49.999 Y58.669 Z-0.71 F100
G01 X49.999 Y58.766 Z-0.581
G01 X50.171 Y58.666 Z-0.711
G01 X50.344 Y58.566 Z-0.873
G01 X50.43 Y58.516 Z-0.97
G01 X51.034 Y58.168 Z-1.821
G01 X51.12 Y58.118 Z-1.925
G01 X51.206 Y58.068 Z-2
G01 X56.384 Y55.079 Z-2
G01 X56.47 Y55.029 Z-1.93
G01 X56.901 Y54.78 Z-1.35
G01 X57.16 Y54.631 Z-0.97
G01 X57.333 Y54.531 Z-0.789
G01 X57.505 Y54.431 Z-0.643
G01 X57.592 Y54.382 Z-0.581
G01 X57.592 Y54.182 Z-0.711
G01 X57.592 Y53.983 Z-0.873
G01 X57.592 Y53.883 Z-0.97
G01 X57.592 Y53.286 Z-1.713
G01 X57.592 Y53.087 Z-1.926
G01 X57.592 Y52.987 Z-2
G01 X57.592 Y47.01 Z-2
G01 X57.592 Y46.91 Z-1.936
G01 X57.592 Y46.313 Z-1.217
G01 X57.592 Y46.114 Z-0.968
G01 X57.592 Y45.914 Z-0.787
G01 X57.592 Y45.715 Z-0.641
G01 X57.592 Y45.616 Z-0.58
G01 X57.419 Y45.516 Z-0.71
G01 X57.246 Y45.416 Z-0.871
G01 X57.16 Y45.366 Z-0.968
G01 X56.556 Y45.018 Z-1.827
G01 X56.47 Y44.968 Z-1.929
G01 X56.384 Y44.918 Z-2
G01 X51.206 Y41.929 Z-2
G01 X51.12 Y41.879 Z-1.939
G01 X50.602 Y41.58 Z-1.212
G01 X50.43 Y41.481 Z-0.965
G01 X50.257 Y41.381 Z-0.785
G01 X50.085 Y41.281 Z-0.64
G01 X49.999 Y41.232 Z-0.578
G01 X49.826 Y41.331 Z-0.708
G01 X49.653 Y41.431 Z-0.869
G01 X49.567 Y41.481 Z-0.965
G01 X48.877 Y41.879 Z-1.938
G01 X48.791 Y41.929 Z-2
G01 X43.614 Y44.918 Z-2
G01 X43.528 Y44.968 Z-1.927
G01 X43.356 Y45.068 Z-1.715
G01 X42.838 Y45.366 Z-0.966
G01 X42.665 Y45.466 Z-0.785
G01 X42.493 Y45.566 Z-0.64
G01 X42.407 Y45.616 Z-0.579
G01 X42.407 Y45.815 Z-0.709
G01 X42.407 Y46.014 Z-0.869
G01 X42.407 Y46.114 Z-0.966
G01 X42.407 Y46.512 Z-1.461
G01 X42.407 Y46.91 Z-1.934
G01 X42.407 Y47.01 Z-2
G01 X42.407 Y52.987 Z-2
G01 X42.407 Y53.087 Z-1.923
G01 X42.407 Y53.385 Z-1.597
G01 X42.407 Y53.883 Z-0.968
G01 X42.407 Y54.083 Z-0.787
G01 X42.407 Y54.282 Z-0.642
G01 X42.407 Y54.382 Z-0.58
G01 X42.579 Y54.481 Z-0.71
G01 X42.752 Y54.581 Z-0.871
G01 X42.838 Y54.631 Z-0.968
G01 X43.183 Y54.83 Z-1.469
G01 X43.528 Y55.029 Z-1.927
G01 X43.614 Y55.079 Z-2
G01 X48.791 Y58.068 Z-2
G01 X48.877 Y58.118 Z-1.925
G01 X49.136 Y58.267 Z-1.591
G01 X49.567 Y58.516 Z-0.97
G01 X49.74 Y58.616 Z-0.788
G01 X49.912 Y58.716 Z-0.643
G01 X49.999 Y58.766 Z-0.581
G01 X49.999 Y58.862 Z-0.474
G01 X49.999 Y58.958 Z-0.385
G01 X49.999 Y59.151 Z-0.243
G01 X49.999 Y59.343 Z-0.14
G01 X49.999 Y59.536 Z-0.068
G01 X49.999 Y59.728 Z-0.023
G01 X49.999 Y59.921 Z-0.001
G01 X50.428 Y59.672 Z-0.031
G01 X50.944 Y59.375 Z-0.107
G01 X51.545 Y59.028 Z-0.237
G01 X52.576 Y58.432 Z-0.52
G01 X53.264 Y58.035 Z-0.704
G01 X53.693 Y57.787 Z-0.79
G01 X54.123 Y57.539 Z-0.835
G01 X54.467 Y57.341 Z-0.835
G01 X54.725 Y57.192 Z-0.813
G01 X55.154 Y56.944 Z-0.742
G01 X55.842 Y56.547 Z-0.57
G01 X56.959 Y55.902 Z-0.259
G01 X57.56 Y55.555 Z-0.123
G01 X58.076 Y55.257 Z-0.041
G01 X58.506 Y55.009 Z-0.005
G01 X58.592 Y54.96 Z-0.001
G01 X58.592 Y54.463 Z-0.031
G01 X58.592 Y53.868 Z-0.107
G01 X58.592 Y53.174 Z-0.237
G01 X58.592 Y51.884 Z-0.544
G01 X58.592 Y51.19 Z-0.703
G01 X58.592 Y50.693 Z-0.789
G01 X58.592 Y50.297 Z-0.828
G01 X58.592 Y49.9 Z-0.837
G01 X58.592 Y49.503 Z-0.812
G01 X58.592 Y49.106 Z-0.758
G01 X58.592 Y48.511 Z-0.639
G01 X58.592 Y46.824 Z-0.237
G01 X58.592 Y46.13 Z-0.107
G01 X58.592 Y45.535 Z-0.031
G01 X58.592 Y45.039 Z-0.001
G01 X58.162 Y44.79 Z-0.031
G01 X57.646 Y44.493 Z-0.107
G01 X57.045 Y44.146 Z-0.237
G01 X55.928 Y43.501 Z-0.544
G01 X55.326 Y43.153 Z-0.703
G01 X54.897 Y42.905 Z-0.789
G01 X54.553 Y42.707 Z-0.827
G01 X54.209 Y42.508 Z-0.837
G01 X53.865 Y42.31 Z-0.811
G01 X53.522 Y42.112 Z-0.757
G01 X53.006 Y41.814 Z-0.638
G01 X51.545 Y40.97 Z-0.237
G01 X50.944 Y40.623 Z-0.107
G01 X50.428 Y40.326 Z-0.031
G01 X49.999 Y40.078 Z-0.001
G01 X49.569 Y40.326 Z-0.031
G01 X49.053 Y40.623 Z-0.107
G01 X48.452 Y40.97 Z-0.237
G01 X47.335 Y41.615 Z-0.543
G01 X46.734 Y41.963 Z-0.701
G01 X46.304 Y42.211 Z-0.787
G01 X45.96 Y42.409 Z-0.826
G01 X45.617 Y42.608 Z-0.835
G01 X45.273 Y42.806 Z-0.81
G01 X44.929 Y43.004 Z-0.756
G01 X44.414 Y43.302 Z-0.637
G01 X42.953 Y44.146 Z-0.236
G01 X42.352 Y44.493 Z-0.106
G01 X41.836 Y44.79 Z-0.031
G01 X41.407 Y45.039 Z-0.001
G01 X41.407 Y45.535 Z-0.031
G01 X41.407 Y46.13 Z-0.106
G01 X41.407 Y46.824 Z-0.236
G01 X41.407 Y48.114 Z-0.543
G01 X41.407 Y48.808 Z-0.701
G01 X41.407 Y49.305 Z-0.787
G01 X41.407 Y49.701 Z-0.826
G01 X41.407 Y50.098 Z-0.835
G01 X41.407 Y50.495 Z-0.81
G01 X41.407 Y50.892 Z-0.756
G01 X41.407 Y51.487 Z-0.638
G01 X41.407 Y53.174 Z-0.237
G01 X41.407 Y53.868 Z-0.107
G01 X41.407 Y54.463 Z-0.031
G01 X41.407 Y54.96 Z-0.001
G01 X41.836 Y55.208 Z-0.031
G01 X42.352 Y55.505 Z-0.107
G01 X42.953 Y55.852 Z-0.237
G01 X44.07 Y56.497 Z-0.544
G01 X44.671 Y56.845 Z-0.702
G01 X45.101 Y57.093 Z-0.789
G01 X45.445 Y57.291 Z-0.828
G01 X45.788 Y57.49 Z-0.837
G01 X46.132 Y57.688 Z-0.811
G01 X46.476 Y57.886 Z-0.758
G01 X46.991 Y58.184 Z-0.639
G01 X48.452 Y59.028 Z-0.237
G01 X49.053 Y59.375 Z-0.107
G01 X49.569 Y59.672 Z-0.031
G01 X49.999 Y59.921 Z-0.001
G00 Z2
G01 X49.999 Y50.68
G01 Z0
G01 X49.999 Y50.68 Z-3 F50
G01 X50.592 Y50.337 Z-3 F100
G01 X50.592 Y49.654 Z-3
G01 X49.999 Y49.311 Z-3
G01 X49.407 Y49.654 Z-3
G01 X49.407 Y50.337 Z-3
G01 X49.999 Y50.68 Z-3
G01 X49.999 Y51.835 Z-3
G01 X51.592 Y50.915 Z-3
G01 X51.592 Y49.077 Z-3
G01 X49.999 Y48.157 Z-3
G01 X48.407 Y49.077 Z-3
G01 X48.407 Y50.915 Z-3
G01 X49.999 Y51.835 Z-3
G01 X49.999 Y52.991 Z-3
G01 X52.592 Y51.492 Z-3
G01 X52.592 Y48.501 Z-3
G01 X49.999 Y47.002 Z-3
G01 X47.407 Y48.501 Z-3
G01 X47.407 Y51.492 Z-3
G01 X49.999 Y52.991 Z-3
G01 X49.999 Y54.146 Z-3
G01 X53.592 Y52.07 Z-3
G01 X53.592 Y47.924 Z-3
G01 X49.999 Y45.848 Z-3
G01 X46.407 Y47.924 Z-3
G01 X46.407 Y52.07 Z-3
G01 X49.999 Y54.146 Z-3
G01 X49.999 Y55.301 Z-3
G01 X54.592 Y52.648 Z-3
G01 X54.592 Y47.347 Z-3
G01 X49.999 Y44.694 Z-3
G01 X45.407 Y47.347 Z-3
G01 X45.407 Y52.648 Z-3
G01 X49.999 Y55.301 Z-3
G01 X49.999 Y56.456 Z-3
G01 X55.592 Y53.226 Z-3
G01 X55.592 Y46.77 Z-3
G01 X49.999 Y43.54 Z-3
G01 X44.407 Y46.77 Z-3
G01 X44.407 Y53.226 Z-3
G01 X49.999 Y56.456 Z-3
G01 X49.999 Y57.611 Z-3
G01 X56.592 Y53.804 Z-3
G01 X56.592 Y46.193 Z-3
G01 X49.999 Y42.386 Z-3
G01 X43.407 Y46.193 Z-3
G01 X43.407 Y53.804 Z-3
G01 X49.999 Y57.611 Z-3
G01 X49.999 Y57.803 Z-3
G01 X49.999 Y57.899 Z-2.841
G01 X49.999 Y58.477 Z-1.107 F50
G01 X49.999 Y58.573 Z-0.874
G01 X49.999 Y58.669 Z-0.71 F100
G01 X49.999 Y58.766 Z-0.581
G01 X50.171 Y58.666 Z-0.711
G01 X50.344 Y58.566 Z-0.873
G01 X50.43 Y58.516 Z-0.97
G01 X51.034 Y58.168 Z-1.821
G01 X51.12 Y58.118 Z-1.925
G01 X51.293 Y58.018 Z-2.16
G01 X51.465 Y57.919 Z-2.351
G01 X51.638 Y57.819 Z-2.559
G01 X51.897 Y57.67 Z-2.817
G01 X51.983 Y57.62 Z-2.908
G01 X52.069 Y57.57 Z-2.98
G01 X52.156 Y57.52 Z-3
G01 X55.434 Y55.627 Z-3
G01 X55.521 Y55.577 Z-2.983
G01 X55.693 Y55.478 Z-2.828
G01 X56.038 Y55.278 Z-2.47
G01 X56.211 Y55.179 Z-2.256
G01 X56.384 Y55.079 Z-2.056
G01 X56.988 Y54.73 Z-1.221
G01 X57.16 Y54.631 Z-0.97
G01 X57.333 Y54.531 Z-0.789
G01 X57.505 Y54.431 Z-0.643
G01 X57.592 Y54.382 Z-0.581
G01 X57.592 Y54.182 Z-0.711
G01 X57.592 Y53.983 Z-0.873
G01 X57.592 Y53.883 Z-0.97
G01 X57.592 Y53.286 Z-1.713
G01 X57.592 Y52.987 Z-2.042
G01 X57.592 Y52.887 Z-2.16
G01 X57.592 Y52.588 Z-2.454
G01 X57.592 Y52.489 Z-2.559
G01 X57.592 Y51.991 Z-2.98
G01 X57.592 Y51.891 Z-3
G01 X57.592 Y48.106 Z-3
G01 X57.592 Y48.006 Z-2.98
G01 X57.592 Y47.707 Z-2.739
G01 X57.592 Y47.309 Z-2.363
G01 X57.592 Y46.91 Z-1.936
G01 X57.592 Y46.313 Z-1.217
G01 X57.592 Y46.114 Z-0.968
G01 X57.592 Y45.914 Z-0.787
G01 X57.592 Y45.715 Z-0.641
G01 X57.592 Y45.616 Z-0.58
G01 X57.419 Y45.516 Z-0.71
G01 X57.246 Y45.416 Z-0.871
G01 X57.16 Y45.366 Z-0.968
G01 X56.556 Y45.018 Z-1.827
G01 X56.211 Y44.818 Z-2.265
G01 X56.038 Y44.719 Z-2.453
G01 X55.866 Y44.619 Z-2.651
G01 X55.607 Y44.47 Z-2.894
G01 X55.521 Y44.42 Z-2.98
G01 X55.434 Y44.37 Z-3
G01 X52.156 Y42.477 Z-3
G01 X52.069 Y42.427 Z-2.975
G01 X51.724 Y42.228 Z-2.649
G01 X51.293 Y41.979 Z-2.157
G01 X51.034 Y41.829 Z-1.826
G01 X50.43 Y41.481 Z-0.965
G01 X50.257 Y41.381 Z-0.785
G01 X50.085 Y41.281 Z-0.64
G01 X49.999 Y41.232 Z-0.578
G01 X49.826 Y41.331 Z-0.708
G01 X49.653 Y41.431 Z-0.869
G01 X49.567 Y41.481 Z-0.965
G01 X48.877 Y41.879 Z-1.938
G01 X48.532 Y42.078 Z-2.362
G01 X48.187 Y42.278 Z-2.732
G01 X47.928 Y42.427 Z-2.974
G01 X47.842 Y42.477 Z-3
G01 X44.563 Y44.37 Z-3
G01 X44.477 Y44.42 Z-2.977
G01 X44.218 Y44.569 Z-2.724
G01 X44.132 Y44.619 Z-2.648
G01 X43.701 Y44.868 Z-2.152
G01 X43.356 Y45.068 Z-1.715
G01 X42.838 Y45.366 Z-0.966
G01 X42.665 Y45.466 Z-0.785
G01 X42.493 Y45.566 Z-0.64
G01 X42.407 Y45.616 Z-0.579
G01 X42.407 Y45.815 Z-0.709
G01 X42.407 Y46.014 Z-0.869
G01 X42.407 Y46.114 Z-0.966
G01 X42.407 Y46.612 Z-1.579
G01 X42.407 Y47.11 Z-2.153
G01 X42.407 Y47.409 Z-2.462
G01 X42.407 Y47.807 Z-2.823
G01 X42.407 Y48.006 Z-2.977
G01 X42.407 Y48.106 Z-3
G01 X42.407 Y51.891 Z-3
G01 X42.407 Y51.991 Z-2.977
G01 X42.407 Y52.489 Z-2.556
G01 X42.407 Y52.688 Z-2.348
G01 X42.407 Y52.887 Z-2.157
G01 X42.407 Y53.186 Z-1.816
G01 X42.407 Y53.385 Z-1.597
G01 X42.407 Y53.883 Z-0.968
G01 X42.407 Y54.083 Z-0.787
G01 X42.407 Y54.282 Z-0.642
G01 X42.407 Y54.382 Z-0.58
G01 X42.579 Y54.481 Z-0.71
G01 X42.752 Y54.581 Z-0.871
G01 X42.838 Y54.631 Z-0.968
G01 X43.183 Y54.83 Z-1.469
G01 X43.701 Y55.129 Z-2.154
G01 X43.873 Y55.228 Z-2.354
G01 X43.959 Y55.278 Z-2.467
G01 X44.477 Y55.577 Z-2.98
G01 X44.563 Y55.627 Z-3
G01 X47.842 Y57.52 Z-3
G01 X47.928 Y57.57 Z-2.979
G01 X48.014 Y57.62 Z-2.907
G01 X48.273 Y57.769 Z-2.642
G01 X48.359 Y57.819 Z-2.558
G01 X48.618 Y57.968 Z-2.254
G01 X48.704 Y58.018 Z-2.159
G01 X48.963 Y58.168 Z-1.82
G01 X49.05 Y58.218 Z-1.716
G01 X49.567 Y58.516 Z-0.97
G01 X49.74 Y58.616 Z-0.788
G01 X49.912 Y58.716 Z-0.643
G01 X49.999 Y58.766 Z-0.581
G01 X49.999 Y58.862 Z-0.474
G01 X49.999 Y58.958 Z-0.385
G01 X49.999 Y59.151 Z-0.243
G01 X49.999 Y59.343 Z-0.14
G01 X49.999 Y59.536 Z-0.068
G01 X49.999 Y59.728 Z-0.023
G01 X49.999 Y59.921 Z-0.001
G01 X50.428 Y59.672 Z-0.031
G01 X50.944 Y59.375 Z-0.107
G01 X51.545 Y59.028 Z-0.237
G01 X52.662 Y58.383 Z-0.545
G01 X53.264 Y58.035 Z-0.704
G01 X53.693 Y57.787 Z-0.79
G01 X54.037 Y57.589 Z-0.829
G01 X54.381 Y57.39 Z-0.838
G01 X54.725 Y57.192 Z-0.813
G01 X55.068 Y56.994 Z-0.759
G01 X55.584 Y56.696 Z-0.64
G01 X57.045 Y55.852 Z-0.237
G01 X57.646 Y55.505 Z-0.107
G01 X58.162 Y55.208 Z-0.031
G01 X58.592 Y54.96 Z-0.001
G01 X58.592 Y54.463 Z-0.031
G01 X58.592 Y53.868 Z-0.107
G01 X58.592 Y53.174 Z-0.237
G01 X58.592 Y51.884 Z-0.544
G01 X58.592 Y51.19 Z-0.703
G01 X58.592 Y50.693 Z-0.789
G01 X58.592 Y50.297 Z-0.828
G01 X58.592 Y49.9 Z-0.837
G01 X58.592 Y49.503 Z-0.812
G01 X58.592 Y49.106 Z-0.758
G01 X58.592 Y48.511 Z-0.639
G01 X58.592 Y46.824 Z-0.237
G01 X58.592 Y46.13 Z-0.107
G01 X58.592 Y45.535 Z-0.031
G01 X58.592 Y45.039 Z-0.001
G01 X58.162 Y44.79 Z-0.031
G01 X57.646 Y44.493 Z-0.107
G01 X57.045 Y44.146 Z-0.237
G01 X55.928 Y43.501 Z-0.544
G01 X55.326 Y43.153 Z-0.703
G01 X54.897 Y42.905 Z-0.789
G01 X54.553 Y42.707 Z-0.827
G01 X54.209 Y42.508 Z-0.837
G01 X53.865 Y42.31 Z-0.811
G01 X53.522 Y42.112 Z-0.757
G01 X53.006 Y41.814 Z-0.638
G01 X51.545 Y40.97 Z-0.237
G01 X50.944 Y40.623 Z-0.107
G01 X50.428 Y40.326 Z-0.031
G01 X49.999 Y40.078 Z-0.001
G01 X49.569 Y40.326 Z-0.031
G01 X49.053 Y40.623 Z-0.107
G01 X48.452 Y40.97 Z-0.237
G01 X47.335 Y41.615 Z-0.543
G01 X46.734 Y41.963 Z-0.701
G01 X46.304 Y42.211 Z-0.787
G01 X45.96 Y42.409 Z-0.826
G01 X45.617 Y42.608 Z-0.835
G01 X45.273 Y42.806 Z-0.81
G01 X44.929 Y43.004 Z-0.756
G01 X44.414 Y43.302 Z-0.637
G01 X42.953 Y44.146 Z-0.236
G01 X42.352 Y44.493 Z-0.106
G01 X41.836 Y44.79 Z-0.031
G01 X41.407 Y45.039 Z-0.001
G01 X41.407 Y45.535 Z-0.031
G01 X41.407 Y46.13 Z-0.106
G01 X41.407 Y46.824 Z-0.236
G01 X41.407 Y48.114 Z-0.543
G01 X41.407 Y48.808 Z-0.701
G01 X41.407 Y49.305 Z-0.787
G01 X41.407 Y49.701 Z-0.826
G01 X41.407 Y50.098 Z-0.835
G01 X41.407 Y50.495 Z-0.81
G01 X41.407 Y50.892 Z-0.756
G01 X41.407 Y51.487 Z-0.638
G01 X41.407 Y53.174 Z-0.237
G01 X41.407 Y53.868 Z-0.107
G01 X41.407 Y54.463 Z-0.031
G01 X41.407 Y54.96 Z-0.001
G01 X41.836 Y55.208 Z-0.031
G01 X42.352 Y55.505 Z-0.107
G01 X42.953 Y55.852 Z-0.237
G01 X44.07 Y56.497 Z-0.544
G01 X44.671 Y56.845 Z-0.702
G01 X45.101 Y57.093 Z-0.789
G01 X45.445 Y57.291 Z-0.828
G01 X45.788 Y57.49 Z-0.837
G01 X46.132 Y57.688 Z-0.811
G01 X46.476 Y57.886 Z-0.758
G01 X46.991 Y58.184 Z-0.639
G01 X48.452 Y59.028 Z-0.237
G01 X49.053 Y59.375 Z-0.107
G01 X49.569 Y59.672 Z-0.031
G01 X49.999 Y59.921 Z-0.001
G00 Z2
G01 X49.999 Y50.68
G01 Z-1
G01 X49.999 Y50.68 Z-4 F50
G01 X50.592 Y50.337 Z-4 F100
G01 X50.592 Y49.654 Z-4
G01 X49.999 Y49.311 Z-4
G01 X49.407 Y49.654 Z-4
G01 X49.407 Y50.337 Z-4
G01 X49.999 Y50.68 Z-4
G01 X49.999 Y51.835 Z-4
G01 X51.592 Y50.915 Z-4
G01 X51.592 Y49.077 Z-4
G01 X49.999 Y48.157 Z-4
G01 X48.407 Y49.077 Z-4
G01 X48.407 Y50.915 Z-4
G01 X49.999 Y51.835 Z-4
G01 X49.999 Y52.991 Z-4
G01 X52.592 Y51.492 Z-4
G01 X52.592 Y48.501 Z-4
G01 X49.999 Y47.002 Z-4
G01 X47.407 Y48.501 Z-4
G01 X47.407 Y51.492 Z-4
G01 X49.999 Y52.991 Z-4
G01 X49.999 Y54.146 Z-4
G01 X53.592 Y52.07 Z-4
G01 X53.592 Y47.924 Z-4
G01 X49.999 Y45.848 Z-4
G01 X46.407 Y47.924 Z-4
G01 X46.407 Y52.07 Z-4
G01 X49.999 Y54.146 Z-4
G01 X49.999 Y55.301 Z-4
G01 X54.592 Y52.648 Z-4
G01 X54.592 Y47.347 Z-4
G01 X49.999 Y44.694 Z-4
G01 X45.407 Y47.347 Z-4
G01 X45.407 Y52.648 Z-4
G01 X49.999 Y55.301 Z-4
G01 X49.999 Y56.456 Z-4
G01 X55.592 Y53.226 Z-4
G01 X55.592 Y46.77 Z-4
G01 X49.999 Y43.54 Z-4
G01 X44.407 Y46.77 Z-4
G01 X44.407 Y53.226 Z-4
G01 X49.999 Y56.456 Z-4
G01 X49.999 Y57.514 Z-3.996
G01 X49.999 Y57.611 Z-3.707 F50
G01 X50.17 Y57.512 Z-3.997 F100
G01 X56.335 Y53.952 Z-4
G01 X56.42 Y53.902 Z-3.988
G01 X56.592 Y53.804 Z-3.696
G01 X56.592 Y53.606 Z-3.974
G01 X56.592 Y53.507 Z-4
G01 X56.592 Y46.489 Z-4
G01 X56.592 Y46.39 Z-3.983
G01 X56.592 Y46.193 Z-3.683
G01 X56.506 Y46.143 Z-3.837
G01 X56.42 Y46.094 Z-3.969
G01 X56.335 Y46.044 Z-4
G01 X50.255 Y42.534 Z-4
G01 X50.17 Y42.484 Z-3.969
G01 X50.084 Y42.435 Z-3.834
G01 X49.999 Y42.386 Z-3.675
G01 X49.913 Y42.435 Z-3.834
G01 X49.827 Y42.484 Z-3.969
G01 X49.742 Y42.534 Z-4
G01 X43.663 Y46.044 Z-4
G01 X43.578 Y46.094 Z-3.967
G01 X43.492 Y46.143 Z-3.835
G01 X43.407 Y46.193 Z-3.68
G01 X43.407 Y46.39 Z-3.98
G01 X43.407 Y46.489 Z-4
G01 X43.407 Y53.507 Z-4
G01 X43.407 Y53.606 Z-3.971
G01 X43.407 Y53.804 Z-3.693
G01 X43.578 Y53.902 Z-3.985
G01 X43.663 Y53.952 Z-4
G01 X49.827 Y57.512 Z-3.997
G01 X49.999 Y57.611 Z-3.707
G01 X49.999 Y58.477 Z-1.107 F50
G01 X49.999 Y58.573 Z-0.874
G01 X49.999 Y58.669 Z-0.71 F100
G01 X49.999 Y58.766 Z-0.581
G01 X50.171 Y58.666 Z-0.711
G01 X50.344 Y58.566 Z-0.873
G01 X50.43 Y58.516 Z-0.97
G01 X51.034 Y58.168 Z-1.821
G01 X51.12 Y58.118 Z-1.925
G01 X51.293 Y58.018 Z-2.16
G01 X51.552 Y57.869 Z-2.46
G01 X51.638 Y57.819 Z-2.559
G01 X51.897 Y57.67 Z-2.817
G01 X51.983 Y57.62 Z-2.908
G01 X52.414 Y57.371 Z-3.264
G01 X52.76 Y57.171 Z-3.477
G01 X53.277 Y56.872 Z-3.689
G01 X53.709 Y56.623 Z-3.754
G01 X53.968 Y56.474 Z-3.748
G01 X54.399 Y56.225 Z-3.666
G01 X54.917 Y55.926 Z-3.429
G01 X55.348 Y55.677 Z-3.134
G01 X55.693 Y55.478 Z-2.828
G01 X56.125 Y55.228 Z-2.357
G01 X56.384 Y55.079 Z-2.056
G01 X56.988 Y54.73 Z-1.221
G01 X57.16 Y54.631 Z-0.97
G01 X57.333 Y54.531 Z-0.789
G01 X57.505 Y54.431 Z-0.643
G01 X57.592 Y54.382 Z-0.581
G01 X57.592 Y54.182 Z-0.711
G01 X57.592 Y53.983 Z-0.873
G01 X57.592 Y53.883 Z-0.97
G01 X57.592 Y53.286 Z-1.713
G01 X57.592 Y52.987 Z-2.042
G01 X57.592 Y52.887 Z-2.16
G01 X57.592 Y52.588 Z-2.454
G01 X57.592 Y52.489 Z-2.559
G01 X57.592 Y51.991 Z-2.98
G01 X57.592 Y51.493 Z-3.318
G01 X57.592 Y51.194 Z-3.475
G01 X57.592 Y51.094 Z-3.518
G01 X57.592 Y50.497 Z-3.707
G01 X57.592 Y50.297 Z-3.731
G01 X57.592 Y49.899 Z-3.752
G01 X57.592 Y49.7 Z-3.736
G01 X57.592 Y49.202 Z-3.63
G01 X57.592 Y48.704 Z-3.42
G01 X57.592 Y48.604 Z-3.37
G01 X57.592 Y48.106 Z-3.057
G01 X57.592 Y47.707 Z-2.739
G01 X57.592 Y47.309 Z-2.363
G01 X57.592 Y46.91 Z-1.936
G01 X57.592 Y46.313 Z-1.217
G01 X57.592 Y46.114 Z-0.968
G01 X57.592 Y45.914 Z-0.787
G01 X57.592 Y45.715 Z-0.641
G01 X57.592 Y45.616 Z-0.58
G01 X57.419 Y45.516 Z-0.71
G01 X57.246 Y45.416 Z-0.871
G01 X57.16 Y45.366 Z-0.968
G01 X56.556 Y45.018 Z-1.827
G01 X56.211 Y44.818 Z-2.265
G01 X56.038 Y44.719 Z-2.453
G01 X55.866 Y44.619 Z-2.651
G01 X55.607 Y44.47 Z-2.894
G01 X55.521 Y44.42 Z-2.98
G01 X55.003 Y44.121 Z-3.368
G01 X54.744 Y43.972 Z-3.52
G01 X54.226 Y43.673 Z-3.703
G01 X54.054 Y43.573 Z-3.736
G01 X53.622 Y43.324 Z-3.744
G01 X53.45 Y43.224 Z-3.72
G01 X52.932 Y42.925 Z-3.558
G01 X52.587 Y42.726 Z-3.368
G01 X52.069 Y42.427 Z-2.975
G01 X51.724 Y42.228 Z-2.649
G01 X51.293 Y41.979 Z-2.157
G01 X51.034 Y41.829 Z-1.826
G01 X50.43 Y41.481 Z-0.965
G01 X50.257 Y41.381 Z-0.785
G01 X50.085 Y41.281 Z-0.64
G01 X49.999 Y41.232 Z-0.578
G01 X49.826 Y41.331 Z-0.708
G01 X49.653 Y41.431 Z-0.869
G01 X49.567 Y41.481 Z-0.965
G01 X48.877 Y41.879 Z-1.938
G01 X48.532 Y42.078 Z-2.362
G01 X48.187 Y42.278 Z-2.732
G01 X47.842 Y42.477 Z-3.053
G01 X47.583 Y42.626 Z-3.239
G01 X47.41 Y42.726 Z-3.367
G01 X47.065 Y42.925 Z-3.556
G01 X46.548 Y43.224 Z-3.718
G01 X46.375 Y43.324 Z-3.742
G01 X45.944 Y43.573 Z-3.734
G01 X45.771 Y43.673 Z-3.7
G01 X45.254 Y43.972 Z-3.518
G01 X44.908 Y44.171 Z-3.314
G01 X44.65 Y44.32 Z-3.109
G01 X44.477 Y44.42 Z-2.977
G01 X44.218 Y44.569 Z-2.724
G01 X44.132 Y44.619 Z-2.648
G01 X43.701 Y44.868 Z-2.152
G01 X43.356 Y45.068 Z-1.715
G01 X42.838 Y45.366 Z-0.966
G01 X42.665 Y45.466 Z-0.785
G01 X42.493 Y45.566 Z-0.64
G01 X42.407 Y45.616 Z-0.579
G01 X42.407 Y45.815 Z-0.709
G01 X42.407 Y46.014 Z-0.869
G01 X42.407 Y46.114 Z-0.966
G01 X42.407 Y46.612 Z-1.579
G01 X42.407 Y47.11 Z-2.153
G01 X42.407 Y47.409 Z-2.462
G01 X42.407 Y47.807 Z-2.823
G01 X42.407 Y48.205 Z-3.122
G01 X42.407 Y48.704 Z-3.417
G01 X42.407 Y49.202 Z-3.627
G01 X42.407 Y49.7 Z-3.732
G01 X42.407 Y49.999 Z-3.749
G01 X42.407 Y50.497 Z-3.704
G01 X42.407 Y50.596 Z-3.68
G01 X42.407 Y51.194 Z-3.472
G01 X42.407 Y51.493 Z-3.315
G01 X42.407 Y51.592 Z-3.258
G01 X42.407 Y52.09 Z-2.898
G01 X42.407 Y52.489 Z-2.556
G01 X42.407 Y52.788 Z-2.255
G01 X42.407 Y52.887 Z-2.157
G01 X42.407 Y53.186 Z-1.816
G01 X42.407 Y53.385 Z-1.597
G01 X42.407 Y53.883 Z-0.968
G01 X42.407 Y54.083 Z-0.787
G01 X42.407 Y54.282 Z-0.642
G01 X42.407 Y54.382 Z-0.58
G01 X42.579 Y54.481 Z-0.71
G01 X42.752 Y54.581 Z-0.871
G01 X42.838 Y54.631 Z-0.968
G01 X43.269 Y54.88 Z-1.585
G01 X43.701 Y55.129 Z-2.154
G01 X44.132 Y55.378 Z-2.642
G01 X44.391 Y55.527 Z-2.905
G01 X44.65 Y55.677 Z-3.131
G01 X45.081 Y55.926 Z-3.426
G01 X45.599 Y56.225 Z-3.663
G01 X46.03 Y56.474 Z-3.746
G01 X46.289 Y56.623 Z-3.752
G01 X46.72 Y56.872 Z-3.687
G01 X46.806 Y56.922 Z-3.658
G01 X47.324 Y57.221 Z-3.424
G01 X47.583 Y57.371 Z-3.262
G01 X48.014 Y57.62 Z-2.907
G01 X48.273 Y57.769 Z-2.642
G01 X48.359 Y57.819 Z-2.558
G01 X48.618 Y57.968 Z-2.254
G01 X48.704 Y58.018 Z-2.159
G01 X48.963 Y58.168 Z-1.82
G01 X49.05 Y58.218 Z-1.716
G01 X49.567 Y58.516 Z-0.97
G01 X49.74 Y58.616 Z-0.788
G01 X49.912 Y58.716 Z-0.643
G01 X49.999 Y58.766 Z-0.581
G01 X49.999 Y58.862 Z-0.474
G01 X49.999 Y58.958 Z-0.385
G01 X49.999 Y59.151 Z-0.243
G01 X49.999 Y59.343 Z-0.14
G01 X49.999 Y59.536 Z-0.068
G01 X49.999 Y59.728 Z-0.023
G01 X49.999 Y59.921 Z-0.001
G01 X50.428 Y59.672 Z-0.031
G01 X50.944 Y59.375 Z-0.107
G01 X51.545 Y59.028 Z-0.237
G01 X52.662 Y58.383 Z-0.545
G01 X53.264 Y58.035 Z-0.704
G01 X53.693 Y57.787 Z-0.79
G01 X54.037 Y57.589 Z-0.829
G01 X54.381 Y57.39 Z-0.838
G01 X54.725 Y57.192 Z-0.813
G01 X55.068 Y56.994 Z-0.759
G01 X55.584 Y56.696 Z-0.64
G01 X57.045 Y55.852 Z-0.237
G01 X57.646 Y55.505 Z-0.107
G01 X58.162 Y55.208 Z-0.031
G01 X58.592 Y54.96 Z-0.001
G01 X58.592 Y54.463 Z-0.031
G01 X58.592 Y53.868 Z-0.107
G01 X58.592 Y53.174 Z-0.237
G01 X58.592 Y51.884 Z-0.544
G01 X58.592 Y51.19 Z-0.703
G01 X58.592 Y50.693 Z-0.789
G01 X58.592 Y50.297 Z-0.828
G01 X58.592 Y49.9 Z-0.837
G01 X58.592 Y49.503 Z-0.812
G01 X58.592 Y49.106 Z-0.758
G01 X58.592 Y48.511 Z-0.639
G01 X58.592 Y46.824 Z-0.237
G01 X58.592 Y46.13 Z-0.107
G01 X58.592 Y45.535 Z-0.031
G01 X58.592 Y45.039 Z-0.001
G01 X58.162 Y44.79 Z-0.031
G01 X57.646 Y44.493 Z-0.107
G01 X57.045 Y44.146 Z-0.237
G01 X55.928 Y43.501 Z-0.544
G01 X55.326 Y43.153 Z-0.703
G01 X54.897 Y42.905 Z-0.789
G01 X54.553 Y42.707 Z-0.827
G01 X54.209 Y42.508 Z-0.837
G01 X53.865 Y42.31 Z-0.811
G01 X53.522 Y42.112 Z-0.757
G01 X53.006 Y41.814 Z-0.638
G01 X51.545 Y40.97 Z-0.237
G01 X50.944 Y40.623 Z-0.107
G01 X50.428 Y40.326 Z-0.031
G01 X49.999 Y40.078 Z-0.001
G01 X49.569 Y40.326 Z-0.031
G01 X49.053 Y40.623 Z-0.107
G01 X48.452 Y40.97 Z-0.237
G01 X47.335 Y41.615 Z-0.543
G01 X46.734 Y41.963 Z-0.701
G01 X46.304 Y42.211 Z-0.787
G01 X45.96 Y42.409 Z-0.826
G01 X45.617 Y42.608 Z-0.835
G01 X45.273 Y42.806 Z-0.81
G01 X44.929 Y43.004 Z-0.756
G01 X44.414 Y43.302 Z-0.637
G01 X42.953 Y44.146 Z-0.236
G01 X42.352 Y44.493 Z-0.106
G01 X41.836 Y44.79 Z-0.031
G01 X41.407 Y45.039 Z-0.001
G01 X41.407 Y45.535 Z-0.031
G01 X41.407 Y46.13 Z-0.106
G01 X41.407 Y46.824 Z-0.236
G01 X41.407 Y48.114 Z-0.543
G01 X41.407 Y48.808 Z-0.701
G01 X41.407 Y49.305 Z-0.787
G01 X41.407 Y49.701 Z-0.826
G01 X41.407 Y50.098 Z-0.835
G01 X41.407 Y50.495 Z-0.81
G01 X41.407 Y50.892 Z-0.756
G01 X41.407 Y51.487 Z-0.638
G01 X41.407 Y53.174 Z-0.237
G01 X41.407 Y53.868 Z-0.107
G01 X41.407 Y54.463 Z-0.031
G01 X41.407 Y54.96 Z-0.001
G01 X41.836 Y55.208 Z-0.031
G01 X42.352 Y55.505 Z-0.107
G01 X42.953 Y55.852 Z-0.237
G01 X44.07 Y56.497 Z-0.544
G01 X44.671 Y56.845 Z-0.702
G01 X45.101 Y57.093 Z-0.789
G01 X45.445 Y57.291 Z-0.828
G01 X45.788 Y57.49 Z-0.837
G01 X46.132 Y57.688 Z-0.811
G01 X46.476 Y57.886 Z-0.758
G01 X46.991 Y58.184 Z-0.639
G01 X48.452 Y59.028 Z-0.237
G01 X49.053 Y59.375 Z-0.107
G01 X49.569 Y59.672 Z-0.031
G01 X49.999 Y59.921 Z-0.001
G00 Z2
G01 X49.999 Y50.68
G01 Z-2
G01 X49.999 Y50.68 Z-5 F50
G01 X50.592 Y50.337 Z-5 F100
G01 X50.592 Y49.654 Z-5
G01 X49.999 Y49.311 Z-5
G01 X49.407 Y49.654 Z-5
G01 X49.407 Y50.337 Z-5
G01 X49.999 Y50.68 Z-5
G01 X49.999 Y51.835 Z-5
G01 X51.592 Y50.915 Z-5
G01 X51.592 Y49.077 Z-5
G01 X49.999 Y48.157 Z-5
G01 X48.407 Y49.077 Z-5
G01 X48.407 Y50.915 Z-5
G01 X49.999 Y51.835 Z-5
G01 X49.999 Y52.991 Z-5
G01 X52.592 Y51.492 Z-5
G01 X52.592 Y48.501 Z-5
G01 X49.999 Y47.002 Z-5
G01 X47.407 Y48.501 Z-5
G01 X47.407 Y51.492 Z-5
G01 X49.999 Y52.991 Z-5
G01 X49.999 Y54.146 Z-5
G01 X53.592 Y52.07 Z-5
G01 X53.592 Y47.924 Z-5
G01 X49.999 Y45.848 Z-5
G01 X46.407 Y47.924 Z-5
G01 X46.407 Y52.07 Z-5
G01 X49.999 Y54.146 Z-5
G01 X49.999 Y55.301 Z-5
G01 X54.592 Y52.648 Z-5
G01 X54.592 Y47.347 Z-5
G01 X49.999 Y44.694 Z-5
G01 X45.407 Y47.347 Z-5
G01 X45.407 Y52.648 Z-5
G01 X49.999 Y55.301 Z-5
G01 X49.999 Y56.456 Z-5
G01 X55.592 Y53.226 Z-5
G01 X55.592 Y46.77 Z-5
G01 X49.999 Y43.54 Z-5
G01 X44.407 Y46.77 Z-5
G01 X44.407 Y53.226 Z-5
G01 X49.999 Y56.456 Z-5
G01 X49.999 Y57.129 Z-5
G01 X49.999 Y57.226 Z-4.862
G01 X49.999 Y57.611 Z-3.707 F50
G01 X50.255 Y57.462 Z-4.135 F100
G01 X50.598 Y57.264 Z-4.657
G01 X50.855 Y57.116 Z-5
G01 X55.735 Y54.298 Z-5
G01 X55.821 Y54.248 Z-4.908
G01 X56.249 Y54.001 Z-4.263
G01 X56.592 Y53.804 Z-3.696
G01 X56.592 Y53.309 Z-4.387
G01 X56.592 Y53.013 Z-4.774
G01 X56.592 Y52.815 Z-5
G01 X56.592 Y47.181 Z-5
G01 X56.592 Y47.082 Z-4.909
G01 X56.592 Y46.687 Z-4.402
G01 X56.592 Y46.193 Z-3.683
G01 X56.42 Y46.094 Z-3.969
G01 X56.163 Y45.945 Z-4.385
G01 X55.907 Y45.797 Z-4.775
G01 X55.735 Y45.698 Z-5
G01 X50.855 Y42.88 Z-5
G01 X50.683 Y42.781 Z-4.781
G01 X50.255 Y42.534 Z-4.11
G01 X49.999 Y42.386 Z-3.675
G01 X49.827 Y42.484 Z-3.969
G01 X49.57 Y42.633 Z-4.388
G01 X49.314 Y42.781 Z-4.78
G01 X49.142 Y42.88 Z-5
G01 X44.263 Y45.698 Z-5
G01 X44.006 Y45.846 Z-4.652
G01 X43.835 Y45.945 Z-4.383
G01 X43.749 Y45.995 Z-4.261
G01 X43.407 Y46.193 Z-3.68
G01 X43.407 Y46.489 Z-4.118
G01 X43.407 Y46.786 Z-4.527
G01 X43.407 Y47.082 Z-4.906
G01 X43.407 Y47.181 Z-5
G01 X43.407 Y52.815 Z-5
G01 X43.407 Y53.112 Z-4.658
G01 X43.407 Y53.606 Z-3.971
G01 X43.407 Y53.804 Z-3.693
G01 X43.749 Y54.001 Z-4.261
G01 X43.92 Y54.1 Z-4.533
G01 X44.177 Y54.248 Z-4.905
G01 X44.263 Y54.298 Z-5
G01 X49.142 Y57.116 Z-5
G01 X49.228 Y57.166 Z-4.898
G01 X49.57 Y57.363 Z-4.401
G01 X49.913 Y57.561 Z-3.852
G01 X49.999 Y57.611 Z-3.707
G01 X49.999 Y58.477 Z-1.107 F50
G01 X49.999 Y58.573 Z-0.874
G01 X49.999 Y58.669 Z-0.71 F100
G01 X49.999 Y58.766 Z-0.581
G01 X50.171 Y58.666 Z-0.711
G01 X50.344 Y58.566 Z-0.873
G01 X50.43 Y58.516 Z-0.97
G01 X51.034 Y58.168 Z-1.821
G01 X51.12 Y58.118 Z-1.925
G01 X51.293 Y58.018 Z-2.16
G01 X51.465 Y57.919 Z-2.351
G01 X51.638 Y57.819 Z-2.559
G01 X51.897 Y57.67 Z-2.817
G01 X51.983 Y57.62 Z-2.908
G01 X52.414 Y57.371 Z-3.264
G01 X52.76 Y57.171 Z-3.477
G01 X53.277 Y56.872 Z-3.689
G01 X53.709 Y56.623 Z-3.754
G01 X53.968 Y56.474 Z-3.748
G01 X54.399 Y56.225 Z-3.666
G01 X54.917 Y55.926 Z-3.429
G01 X55.348 Y55.677 Z-3.134
G01 X55.693 Y55.478 Z-2.828
G01 X56.038 Y55.278 Z-2.47
G01 X56.211 Y55.179 Z-2.256
G01 X56.384 Y55.079 Z-2.056
G01 X56.988 Y54.73 Z-1.221
G01 X57.16 Y54.631 Z-0.97
G01 X57.333 Y54.531 Z-0.789
G01 X57.505 Y54.431 Z-0.643
G01 X57.592 Y54.382 Z-0.581
G01 X57.592 Y54.182 Z-0.711
G01 X57.592 Y53.983 Z-0.873
G01 X57.592 Y53.883 Z-0.97
G01 X57.592 Y53.286 Z-1.713
G01 X57.592 Y52.987 Z-2.042
G01 X57.592 Y52.887 Z-2.16
G01 X57.592 Y52.588 Z-2.454
G01 X57.592 Y52.489 Z-2.559
G01 X57.592 Y51.991 Z-2.98
G01 X57.592 Y51.493 Z-3.318
G01 X57.592 Y51.194 Z-3.475
G01 X57.592 Y51.094 Z-3.518
G01 X57.592 Y50.497 Z-3.707
G01 X57.592 Y50.297 Z-3.731
G01 X57.592 Y49.899 Z-3.752
G01 X57.592 Y49.7 Z-3.736
G01 X57.592 Y49.202 Z-3.63
G01 X57.592 Y48.704 Z-3.42
G01 X57.592 Y48.604 Z-3.37
G01 X57.592 Y48.106 Z-3.057
G01 X57.592 Y47.707 Z-2.739
G01 X57.592 Y47.309 Z-2.363
G01 X57.592 Y46.91 Z-1.936
G01 X57.592 Y46.313 Z-1.217
G01 X57.592 Y46.114 Z-0.968
G01 X57.592 Y45.914 Z-0.787
G01 X57.592 Y45.715 Z-0.641
G01 X57.592 Y45.616 Z-0.58
G01 X57.419 Y45.516 Z-0.71
G01 X57.246 Y45.416 Z-0.871
G01 X57.16 Y45.366 Z-0.968
G01 X56.556 Y45.018 Z-1.827
G01 X56.211 Y44.818 Z-2.265
G01 X56.038 Y44.719 Z-2.453
G01 X55.866 Y44.619 Z-2.651
G01 X55.607 Y44.47 Z-2.894
G01 X55.521 Y44.42 Z-2.98
G01 X55.003 Y44.121 Z-3.368
G01 X54.744 Y43.972 Z-3.52
G01 X54.226 Y43.673 Z-3.703
G01 X54.054 Y43.573 Z-3.736
G01 X53.622 Y43.324 Z-3.744
G01 X53.45 Y43.224 Z-3.72
G01 X52.932 Y42.925 Z-3.558
G01 X52.587 Y42.726 Z-3.368
G01 X52.069 Y42.427 Z-2.975
G01 X51.724 Y42.228 Z-2.649
G01 X51.293 Y41.979 Z-2.157
G01 X51.034 Y41.829 Z-1.826
G01 X50.43 Y41.481 Z-0.965
G01 X50.257 Y41.381 Z-0.785
G01 X50.085 Y41.281 Z-0.64
G01 X49.999 Y41.232 Z-0.578
G01 X49.826 Y41.331 Z-0.708
G01 X49.653 Y41.431 Z-0.869
G01 X49.567 Y41.481 Z-0.965
G01 X48.877 Y41.879 Z-1.938
G01 X48.532 Y42.078 Z-2.362
G01 X48.187 Y42.278 Z-2.732
G01 X47.842 Y42.477 Z-3.053
G01 X47.583 Y42.626 Z-3.239
G01 X47.41 Y42.726 Z-3.367
G01 X47.065 Y42.925 Z-3.556
G01 X46.548 Y43.224 Z-3.718
G01 X46.375 Y43.324 Z-3.742
G01 X45.944 Y43.573 Z-3.734
G01 X45.771 Y43.673 Z-3.7
G01 X45.254 Y43.972 Z-3.518
G01 X44.908 Y44.171 Z-3.314
G01 X44.65 Y44.32 Z-3.109
G01 X44.477 Y44.42 Z-2.977
G01 X44.218 Y44.569 Z-2.724
G01 X44.132 Y44.619 Z-2.648
G01 X43.701 Y44.868 Z-2.152
G01 X43.356 Y45.068 Z-1.715
G01 X42.838 Y45.366 Z-0.966
G01 X42.665 Y45.466 Z-0.785
G01 X42.493 Y45.566 Z-0.64
G01 X42.407 Y45.616 Z-0.579
G01 X42.407 Y45.815 Z-0.709
G01 X42.407 Y46.014 Z-0.869
G01 X42.407 Y46.114 Z-0.966
G01 X42.407 Y46.612 Z-1.579
G01 X42.407 Y47.11 Z-2.153
G01 X42.407 Y47.409 Z-2.462
G01 X42.407 Y47.807 Z-2.823
G01 X42.407 Y48.205 Z-3.122
G01 X42.407 Y48.704 Z-3.417
G01 X42.407 Y49.202 Z-3.627
G01 X42.407 Y49.7 Z-3.732
G01 X42.407 Y49.999 Z-3.749
G01 X42.407 Y50.497 Z-3.704
G01 X42.407 Y50.596 Z-3.68
G01 X42.407 Y51.194 Z-3.472
G01 X42.407 Y51.493 Z-3.315
G01 X42.407 Y51.592 Z-3.258
G01 X42.407 Y52.09 Z-2.898
G01 X42.407 Y52.489 Z-2.556
G01 X42.407 Y52.788 Z-2.255
G01 X42.407 Y52.887 Z-2.157
G01 X42.407 Y53.186 Z-1.816
G01 X42.407 Y53.385 Z-1.597
G01 X42.407 Y53.883 Z-0.968
G01 X42.407 Y54.083 Z-0.787
G01 X42.407 Y54.282 Z-0.642
G01 X42.407 Y54.382 Z-0.58
G01 X42.579 Y54.481 Z-0.71
G01 X42.752 Y54.581 Z-0.871
G01 X42.838 Y54.631 Z-0.968
G01 X43.269 Y54.88 Z-1.585
G01 X43.701 Y55.129 Z-2.154
G01 X44.132 Y55.378 Z-2.642
G01 X44.391 Y55.527 Z-2.905
G01 X44.65 Y55.677 Z-3.131
G01 X45.081 Y55.926 Z-3.426
G01 X45.599 Y56.225 Z-3.663
G01 X46.03 Y56.474 Z-3.746
G01 X46.289 Y56.623 Z-3.752
G01 X46.72 Y56.872 Z-3.687
G01 X46.806 Y56.922 Z-3.658
G01 X47.324 Y57.221 Z-3.424
G01 X47.583 Y57.371 Z-3.262
G01 X48.014 Y57.62 Z-2.907
G01 X48.273 Y57.769 Z-2.642
G01 X48.359 Y57.819 Z-2.558
G01 X48.618 Y57.968 Z-2.254
G01 X48.704 Y58.018 Z-2.159
G01 X48.963 Y58.168 Z-1.82
G01 X49.05 Y58.218 Z-1.716
G01 X49.567 Y58.516 Z-0.97
G01 X49.74 Y58.616 Z-0.788
G01 X49.912 Y58.716 Z-0.643
G01 X49.999 Y58.766 Z-0.581
G01 X49.999 Y58.862 Z-0.474
G01 X49.999 Y58.958 Z-0.385
G01 X49.999 Y59.151 Z-0.243
G01 X49.999 Y59.343 Z-0.14
G01 X49.999 Y59.536 Z-0.068
G01 X49.999 Y59.728 Z-0.023
G01 X49.999 Y59.921 Z-0.001
G01 X50.428 Y59.672 Z-0.031
G01 X50.944 Y59.375 Z-0.107
G01 X51.545 Y59.028 Z-0.237
G01 X52.662 Y58.383 Z-0.545
G01 X53.264 Y58.035 Z-0.704
G01 X53.693 Y57.787 Z-0.79
G01 X54.037 Y57.589 Z-0.829
G01 X54.381 Y57.39 Z-0.838
G01 X54.725 Y57.192 Z-0.813
G01 X55.068 Y56.994 Z-0.759
G01 X55.584 Y56.696 Z-0.64
G01 X57.045 Y55.852 Z-0.237
G01 X57.646 Y55.505 Z-0.107
G01 X58.162 Y55.208 Z-0.031
G01 X58.592 Y54.96 Z-0.001
G01 X58.592 Y54.463 Z-0.031
G01 X58.592 Y53.868 Z-0.107
G01 X58.592 Y53.174 Z-0.237
G01 X58.592 Y51.884 Z-0.544
G01 X58.592 Y51.19 Z-0.703
G01 X58.592 Y50.693 Z-0.789
G01 X58.592 Y50.297 Z-0.828
G01 X58.592 Y49.9 Z-0.837
G01 X58.592 Y49.503 Z-0.812
G01 X58.592 Y49.106 Z-0.758
G01 X58.592 Y48.511 Z-0.639
G01 X58.592 Y46.824 Z-0.237
G01 X58.592 Y46.13 Z-0.107
G01 X58.592 Y45.535 Z-0.031
G01 X58.592 Y45.039 Z-0.001
G01 X58.162 Y44.79 Z-0.031
G01 X57.646 Y44.493 Z-0.107
G01 X57.045 Y44.146 Z-0.237
G01 X55.928 Y43.501 Z-0.544
G01 X55.326 Y43.153 Z-0.703
G01 X54.897 Y42.905 Z-0.789
G01 X54.553 Y42.707 Z-0.827
G01 X54.209 Y42.508 Z-0.837
G01 X53.865 Y42.31 Z-0.811
G01 X53.522 Y42.112 Z-0.757
G01 X53.006 Y41.814 Z-0.638
G01 X51.545 Y40.97 Z-0.237
G01 X50.944 Y40.623 Z-0.107
G01 X50.428 Y40.326 Z-0.031
G01 X49.999 Y40.078 Z-0.001
G01 X49.569 Y40.326 Z-0.031
G01 X49.053 Y40.623 Z-0.107
G01 X48.452 Y40.97 Z-0.237
G01 X47.335 Y41.615 Z-0.543
G01 X46.734 Y41.963 Z-0.701
G01 X46.304 Y42.211 Z-0.787
G01 X45.96 Y42.409 Z-0.826
G01 X45.617 Y42.608 Z-0.835
G01 X45.273 Y42.806 Z-0.81
G01 X44.929 Y43.004 Z-0.756
G01 X44.414 Y43.302 Z-0.637
G01 X42.953 Y44.146 Z-0.236
G01 X42.352 Y44.493 Z-0.106
G01 X41.836 Y44.79 Z-0.031
G01 X41.407 Y45.039 Z-0.001
G01 X41.407 Y45.535 Z-0.031
G01 X41.407 Y46.13 Z-0.106
G01 X41.407 Y46.824 Z-0.236
G01 X41.407 Y48.114 Z-0.543
G01 X41.407 Y48.808 Z-0.701
G01 X41.407 Y49.305 Z-0.787
G01 X41.407 Y49.701 Z-0.826
G01 X41.407 Y50.098 Z-0.835
G01 X41.407 Y50.495 Z-0.81
G01 X41.407 Y50.892 Z-0.756
G01 X41.407 Y51.487 Z-0.638
G01 X41.407 Y53.174 Z-0.237
G01 X41.407 Y53.868 Z-0.107
G01 X41.407 Y54.463 Z-0.031
G01 X41.407 Y54.96 Z-0.001
G01 X41.836 Y55.208 Z-0.031
G01 X42.352 Y55.505 Z-0.107
G01 X42.953 Y55.852 Z-0.237
G01 X44.07 Y56.497 Z-0.544
G01 X44.671 Y56.845 Z-0.702
G01 X45.101 Y57.093 Z-0.789
G01 X45.445 Y57.291 Z-0.828
G01 X45.788 Y57.49 Z-0.837
G01 X46.132 Y57.688 Z-0.811
G01 X46.476 Y57.886 Z-0.758
G01 X46.991 Y58.184 Z-0.639
G01 X48.452 Y59.028 Z-0.237
G01 X49.053 Y59.375 Z-0.107
G01 X49.569 Y59.672 Z-0.031
G01 X49.999 Y59.921 Z-0.001
G00 Z2
G01 X49.999 Y50.68
G01 Z-3
G01 X49.999 Y50.68 Z-6 F50
G01 X50.592 Y50.337 Z-6 F100
G01 X50.592 Y49.654 Z-6
G01 X49.999 Y49.311 Z-6
G01 X49.407 Y49.654 Z-6
G01 X49.407 Y50.337 Z-6
G01 X49.999 Y50.68 Z-6
G01 X49.999 Y51.835 Z-6
G01 X51.592 Y50.915 Z-6
G01 X51.592 Y49.077 Z-6
G01 X49.999 Y48.157 Z-6
G01 X48.407 Y49.077 Z-6
G01 X48.407 Y50.915 Z-6
G01 X49.999 Y51.835 Z-6
G01 X49.999 Y52.991 Z-6
G01 X52.592 Y51.492 Z-6
G01 X52.592 Y48.501 Z-6
G01 X49.999 Y47.002 Z-6
G01 X47.407 Y48.501 Z-6
G01 X47.407 Y51.492 Z-6
G01 X49.999 Y52.991 Z-6
G01 X49.999 Y54.146 Z-6
G01 X53.592 Y52.07 Z-6
G01 X53.592 Y47.924 Z-6
G01 X49.999 Y45.848 Z-6
G01 X46.407 Y47.924 Z-6
G01 X46.407 Y52.07 Z-6
G01 X49.999 Y54.146 Z-6
G01 X49.999 Y55.301 Z-6
G01 X54.592 Y52.648 Z-6
G01 X54.592 Y47.347 Z-6
G01 X49.999 Y44.694 Z-6
G01 X45.407 Y47.347 Z-6
G01 X45.407 Y52.648 Z-6
G01 X49.999 Y55.301 Z-6
G01 X49.999 Y56.456 Z-6
G01 X55.592 Y53.226 Z-6
G01 X55.592 Y46.77 Z-6
G01 X49.999 Y43.54 Z-6
G01 X44.407 Y46.77 Z-6
G01 X44.407 Y53.226 Z-6
G01 X49.999 Y56.456 Z-6
G01 X49.999 Y56.841 Z-6
G01 X49.999 Y57.611 Z-3.707 F50
G01 X50.255 Y57.462 Z-4.135 F100
G01 X50.598 Y57.264 Z-4.657
G01 X50.94 Y57.067 Z-5.133
G01 X51.197 Y56.918 Z-5.462
G01 X51.625 Y56.671 Z-5.927
G01 X51.711 Y56.622 Z-6
G01 X54.879 Y54.792 Z-6
G01 X54.965 Y54.743 Z-5.93
G01 X55.222 Y54.595 Z-5.661
G01 X55.478 Y54.446 Z-5.364
G01 X55.907 Y54.199 Z-4.779
G01 X56.163 Y54.051 Z-4.396
G01 X56.42 Y53.902 Z-3.988
G01 X56.592 Y53.804 Z-3.696
G01 X56.592 Y53.309 Z-4.387
G01 X56.592 Y53.013 Z-4.774
G01 X56.592 Y52.716 Z-5.134
G01 X56.592 Y52.321 Z-5.556
G01 X56.592 Y52.024 Z-5.843
G01 X56.592 Y51.827 Z-6
G01 X56.592 Y48.169 Z-6
G01 X56.592 Y48.071 Z-5.924
G01 X56.592 Y47.576 Z-5.46
G01 X56.592 Y47.28 Z-5.137
G01 X56.592 Y46.983 Z-4.783
G01 X56.592 Y46.588 Z-4.263
G01 X56.592 Y46.291 Z-3.838
G01 X56.592 Y46.193 Z-3.683
G01 X56.506 Y46.143 Z-3.837
G01 X56.335 Y46.044 Z-4.114
G01 X56.249 Y45.995 Z-4.264
G01 X55.907 Y45.797 Z-4.775
G01 X55.65 Y45.649 Z-5.137
G01 X55.478 Y45.55 Z-5.344
G01 X55.307 Y45.451 Z-5.556
G01 X54.879 Y45.204 Z-5.995
G01 X51.711 Y43.374 Z-5.994
G01 X51.625 Y43.325 Z-5.923
G01 X51.197 Y43.078 Z-5.452
G01 X50.855 Y42.88 Z-5.013
G01 X50.683 Y42.781 Z-4.781
G01 X50.255 Y42.534 Z-4.11
G01 X49.999 Y42.386 Z-3.675
G01 X49.827 Y42.484 Z-3.969
G01 X49.57 Y42.633 Z-4.388
G01 X49.314 Y42.781 Z-4.78
G01 X48.886 Y43.028 Z-5.343
G01 X48.714 Y43.127 Z-5.558
G01 X48.372 Y43.325 Z-5.921
G01 X48.286 Y43.374 Z-5.993
G01 X45.204 Y45.154 Z-6
G01 X45.119 Y45.204 Z-5.993
G01 X44.947 Y45.303 Z-5.833
G01 X44.519 Y45.55 Z-5.341
G01 X44.263 Y45.698 Z-5.013
G01 X44.006 Y45.846 Z-4.652
G01 X43.578 Y46.094 Z-3.967
G01 X43.492 Y46.143 Z-3.835
G01 X43.407 Y46.193 Z-3.68
G01 X43.407 Y46.489 Z-4.118
G01 X43.407 Y46.687 Z-4.4
G01 X43.407 Y47.181 Z-5.021
G01 X43.407 Y47.477 Z-5.355
G01 X43.407 Y47.774 Z-5.655
G01 X43.407 Y48.169 Z-6
G01 X43.407 Y51.827 Z-5.999
G01 X43.407 Y52.024 Z-5.84
G01 X43.407 Y52.519 Z-5.347
G01 X43.407 Y52.815 Z-5.02
G01 X43.407 Y53.013 Z-4.772
G01 X43.407 Y53.112 Z-4.658
G01 X43.407 Y53.507 Z-4.12
G01 X43.407 Y53.804 Z-3.693
G01 X43.749 Y54.001 Z-4.261
G01 X44.006 Y54.15 Z-4.655
G01 X44.263 Y54.298 Z-5.022
G01 X44.691 Y54.545 Z-5.559
G01 X44.947 Y54.693 Z-5.843
G01 X45.033 Y54.743 Z-5.928
G01 X45.119 Y54.792 Z-6
G01 X48.286 Y56.622 Z-6
G01 X48.458 Y56.721 Z-5.843
G01 X48.543 Y56.77 Z-5.755
G01 X48.886 Y56.968 Z-5.356
G01 X49.228 Y57.166 Z-4.898
G01 X49.57 Y57.363 Z-4.401
G01 X49.913 Y57.561 Z-3.852
G01 X49.999 Y57.611 Z-3.707
G01 X49.999 Y58.477 Z-1.107 F50
G01 X49.999 Y58.573 Z-0.874
G01 X49.999 Y58.669 Z-0.71 F100
G01 X49.999 Y58.766 Z-0.581
G01 X50.171 Y58.666 Z-0.711
G01 X50.344 Y58.566 Z-0.873
G01 X50.43 Y58.516 Z-0.97
G01 X51.034 Y58.168 Z-1.821
G01 X51.12 Y58.118 Z-1.925
G01 X51.293 Y58.018 Z-2.16
G01 X51.552 Y57.869 Z-2.46
G01 X51.638 Y57.819 Z-2.559
G01 X51.897 Y57.67 Z-2.817
G01 X51.983 Y57.62 Z-2.908
G01 X52.414 Y57.371 Z-3.264
G01 X52.76 Y57.171 Z-3.477
G01 X53.277 Y56.872 Z-3.689
G01 X53.709 Y56.623 Z-3.754
G01 X53.968 Y56.474 Z-3.748
G01 X54.399 Y56.225 Z-3.666
G01 X54.917 Y55.926 Z-3.429
G01 X55.348 Y55.677 Z-3.134
G01 X55.693 Y55.478 Z-2.828
G01 X56.125 Y55.228 Z-2.357
G01 X56.384 Y55.079 Z-2.056
G01 X56.988 Y54.73 Z-1.221
G01 X57.16 Y54.631 Z-0.97
G01 X57.333 Y54.531 Z-0.789
G01 X57.505 Y54.431 Z-0.643
G01 X57.592 Y54.382 Z-0.581
G01 X57.592 Y54.182 Z-0.711
G01 X57.592 Y53.983 Z-0.873
G01 X57.592 Y53.883 Z-0.97
G01 X57.592 Y53.286 Z-1.713
G01 X57.592 Y52.987 Z-2.042
G01 X57.592 Y52.887 Z-2.16
G01 X57.592 Y52.588 Z-2.454
G01 X57.592 Y52.489 Z-2.559
G01 X57.592 Y51.991 Z-2.98
G01 X57.592 Y51.493 Z-3.318
G01 X57.592 Y51.194 Z-3.475
G01 X57.592 Y51.094 Z-3.518
G01 X57.592 Y50.497 Z-3.707
G01 X57.592 Y50.297 Z-3.731
G01 X57.592 Y49.899 Z-3.752
G01 X57.592 Y49.7 Z-3.736
G01 X57.592 Y49.202 Z-3.63
G01 X57.592 Y48.704 Z-3.42
G01 X57.592 Y48.604 Z-3.37
G01 X57.592 Y48.106 Z-3.057
G01 X57.592 Y47.707 Z-2.739
G01 X57.592 Y47.309 Z-2.363
G01 X57.592 Y46.91 Z-1.936
G01 X57.592 Y46.313 Z-1.217
G01 X57.592 Y46.114 Z-0.968
G01 X57.592 Y45.914 Z-0.787
G01 X57.592 Y45.715 Z-0.641
G01 X57.592 Y45.616 Z-0.58
G01 X57.419 Y45.516 Z-0.71
G01 X57.246 Y45.416 Z-0.871
G01 X57.16 Y45.366 Z-0.968
G01 X56.556 Y45.018 Z-1.827
G01 X56.211 Y44.818 Z-2.265
G01 X56.038 Y44.719 Z-2.453
G01 X55.866 Y44.619 Z-2.651
G01 X55.607 Y44.47 Z-2.894
G01 X55.521 Y44.42 Z-2.98
G01 X55.003 Y44.121 Z-3.368
G01 X54.744 Y43.972 Z-3.52
G01 X54.226 Y43.673 Z-3.703
G01 X54.054 Y43.573 Z-3.736
G01 X53.622 Y43.324 Z-3.744
G01 X53.45 Y43.224 Z-3.72
G01 X52.932 Y42.925 Z-3.558
G01 X52.587 Y42.726 Z-3.368
G01 X52.069 Y42.427 Z-2.975
G01 X51.724 Y42.228 Z-2.649
G01 X51.293 Y41.979 Z-2.157
G01 X51.034 Y41.829 Z-1.826
G01 X50.43 Y41.481 Z-0.965
G01 X50.257 Y41.381 Z-0.785
G01 X50.085 Y41.281 Z-0.64
G01 X49.999 Y41.232 Z-0.578
G01 X49.826 Y41.331 Z-0.708
G01 X49.653 Y41.431 Z-0.869
G01 X49.567 Y41.481 Z-0.965
G01 X48.877 Y41.879 Z-1.938
G01 X48.532 Y42.078 Z-2.362
G01 X48.187 Y42.278 Z-2.732
G01 X47.842 Y42.477 Z-3.053
G01 X47.583 Y42.626 Z-3.239
G01 X47.41 Y42.726 Z-3.367
G01 X47.065 Y42.925 Z-3.556
G01 X46.548 Y43.224 Z-3.718
G01 X46.375 Y43.324 Z-3.742
G01 X45.944 Y43.573 Z-3.734
G01 X45.771 Y43.673 Z-3.7
G01 X45.254 Y43.972 Z-3.518
G01 X44.908 Y44.171 Z-3.314
G01 X44.65 Y44.32 Z-3.109
G01 X44.477 Y44.42 Z-2.977
G01 X44.218 Y44.569 Z-2.724
G01 X44.132 Y44.619 Z-2.648
G01 X43.701 Y44.868 Z-2.152
G01 X43.356 Y45.068 Z-1.715
G01 X42.838 Y45.366 Z-0.966
G01 X42.665 Y45.466 Z-0.785
G01 X42.493 Y45.566 Z-0.64
G01 X42.407 Y45.616 Z-0.579
G01 X42.407 Y45.815 Z-0.709
G01 X42.407 Y46.014 Z-0.869
G01 X42.407 Y46.114 Z-0.966
G01 X42.407 Y46.612 Z-1.579
G01 X42.407 Y47.11 Z-2.153
G01 X42.407 Y47.409 Z-2.462
G01 X42.407 Y47.807 Z-2.823
G01 X42.407 Y48.205 Z-3.122
G01 X42.407 Y48.704 Z-3.417
G01 X42.407 Y49.202 Z-3.627
G01 X42.407 Y49.7 Z-3.732
G01 X42.407 Y49.999 Z-3.749
G01 X42.407 Y50.497 Z-3.704
G01 X42.407 Y50.596 Z-3.68
G01 X42.407 Y51.194 Z-3.472
G01 X42.407 Y51.493 Z-3.315
G01 X42.407 Y51.592 Z-3.258
G01 X42.407 Y52.09 Z-2.898
G01 X42.407 Y52.489 Z-2.556
G01 X42.407 Y52.788 Z-2.255
G01 X42.407 Y52.887 Z-2.157
G01 X42.407 Y53.186 Z-1.816
G01 X42.407 Y53.385 Z-1.597
G01 X42.407 Y53.883 Z-0.968
G01 X42.407 Y54.083 Z-0.787
G01 X42.407 Y54.282 Z-0.642
G01 X42.407 Y54.382 Z-0.58
G01 X42.579 Y54.481 Z-0.71
G01 X42.752 Y54.581 Z-0.871
G01 X42.838 Y54.631 Z-0.968
G01 X43.269 Y54.88 Z-1.585
G01 X43.701 Y55.129 Z-2.154
G01 X44.132 Y55.378 Z-2.642
G01 X44.391 Y55.527 Z-2.905
G01 X44.65 Y55.677 Z-3.131
G01 X45.081 Y55.926 Z-3.426
G01 X45.599 Y56.225 Z-3.663
G01 X46.03 Y56.474 Z-3.746
G01 X46.289 Y56.623 Z-3.752
G01 X46.72 Y56.872 Z-3.687
G01 X46.806 Y56.922 Z-3.658
G01 X47.324 Y57.221 Z-3.424
G01 X47.583 Y57.371 Z-3.262
G01 X48.014 Y57.62 Z-2.907
G01 X48.273 Y57.769 Z-2.642
G01 X48.359 Y57.819 Z-2.558
G01 X48.618 Y57.968 Z-2.254
G01 X48.704 Y58.018 Z-2.159
G01 X48.963 Y58.168 Z-1.82
G01 X49.05 Y58.218 Z-1.716
G01 X49.567 Y58.516 Z-0.97
G01 X49.74 Y58.616 Z-0.788
G01 X49.912 Y58.716 Z-0.643
G01 X49.999 Y58.766 Z-0.581
G01 X49.999 Y58.862 Z-0.474
G01 X49.999 Y58.958 Z-0.385
G01 X49.999 Y59.151 Z-0.243
G01 X49.999 Y59.343 Z-0.14
G01 X49.999 Y59.536 Z-0.068
G01 X49.999 Y59.728 Z-0.023
G01 X49.999 Y59.921 Z-0.001
G01 X50.428 Y59.672 Z-0.031
G01 X50.944 Y59.375 Z-0.107
G01 X51.545 Y59.028 Z-0.237
G01 X52.662 Y58.383 Z-0.545
G01 X53.264 Y58.035 Z-0.704
G01 X53.693 Y57.787 Z-0.79
G01 X54.037 Y57.589 Z-0.829
G01 X54.381 Y57.39 Z-0.838
G01 X54.725 Y57.192 Z-0.813
G01 X55.068 Y56.994 Z-0.759
G01 X55.584 Y56.696 Z-0.64
G01 X57.045 Y55.852 Z-0.237
G01 X57.646 Y55.505 Z-0.107
G01 X58.162 Y55.208 Z-0.031
G01 X58.592 Y54.96 Z-0.001
G01 X58.592 Y54.463 Z-0.031
G01 X58.592 Y53.868 Z-0.107
G01 X58.592 Y53.174 Z-0.237
G01 X58.592 Y51.884 Z-0.544
G01 X58.592 Y51.19 Z-0.703
G01 X58.592 Y50.693 Z-0.789
G01 X58.592 Y50.297 Z-0.828
G01 X58.592 Y49.9 Z-0.837
G01 X58.592 Y49.503 Z-0.812
G01 X58.592 Y49.106 Z-0.758
G01 X58.592 Y48.511 Z-0.639
G01 X58.592 Y46.824 Z-0.237
G01 X58.592 Y46.13 Z-0.107
G01 X58.592 Y45.535 Z-0.031
G01 X58.592 Y45.039 Z-0.001
G01 X58.162 Y44.79 Z-0.031
G01 X57.646 Y44.493 Z-0.107
G01 X57.045 Y44.146 Z-0.237
G01 X55.928 Y43.501 Z-0.544
G01 X55.326 Y43.153 Z-0.703
G01 X54.897 Y42.905 Z-0.789
G01 X54.553 Y42.707 Z-0.827
G01 X54.209 Y42.508 Z-0.837
G01 X53.865 Y42.31 Z-0.811
G01 X53.522 Y42.112 Z-0.757
G01 X53.006 Y41.814 Z-0.638
G01 X51.545 Y40.97 Z-0.237
G01 X50.944 Y40.623 Z-0.107
G01 X50.428 Y40.326 Z-0.031
G01 X49.999 Y40.078 Z-0.001
G01 X49.569 Y40.326 Z-0.031
G01 X49.053 Y40.623 Z-0.107
G01 X48.452 Y40.97 Z-0.237
G01 X47.335 Y41.615 Z-0.543
G01 X46.734 Y41.963 Z-0.701
G01 X46.304 Y42.211 Z-0.787
G01 X45.96 Y42.409 Z-0.826
G01 X45.617 Y42.608 Z-0.835
G01 X45.273 Y42.806 Z-0.81
G01 X44.929 Y43.004 Z-0.756
G01 X44.414 Y43.302 Z-0.637
G01 X42.953 Y44.146 Z-0.236
G01 X42.352 Y44.493 Z-0.106
G01 X41.836 Y44.79 Z-0.031
G01 X41.407 Y45.039 Z-0.001
G01 X41.407 Y45.535 Z-0.031
G01 X41.407 Y46.13 Z-0.106
G01 X41.407 Y46.824 Z-0.236
G01 X41.407 Y48.114 Z-0.543
G01 X41.407 Y48.808 Z-0.701
G01 X41.407 Y49.305 Z-0.787
G01 X41.407 Y49.701 Z-0.826
G01 X41.407 Y50.098 Z-0.835
G01 X41.407 Y50.495 Z-0.81
G01 X41.407 Y50.892 Z-0.756
G01 X41.407 Y51.487 Z-0.638
G01 X41.407 Y53.174 Z-0.237
G01 X41.407 Y53.868 Z-0.107
G01 X41.407 Y54.463 Z-0.031
G01 X41.407 Y54.96 Z-0.001
G01 X41.836 Y55.208 Z-0.031
G01 X42.352 Y55.505 Z-0.107
G01 X42.953 Y55.852 Z-0.237
G01 X44.07 Y56.497 Z-0.544
G01 X44.671 Y56.845 Z-0.702
G01 X45.101 Y57.093 Z-0.789
G01 X45.445 Y57.291 Z-0.828
G01 X45.788 Y57.49 Z-0.837
G01 X46.132 Y57.688 Z-0.811
G01 X46.476 Y57.886 Z-0.758
G01 X46.991 Y58.184 Z-0.639
G01 X48.452 Y59.028 Z-0.237
G01 X49.053 Y59.375 Z-0.107
G01 X49.569 Y59.672 Z-0.031
G01 X49.999 Y59.921 Z-0.001
G00 Z2
G01 X49.999 Y50.68
G01 Z-4
G01 X49.999 Y50.68 Z-7 F50
G01 X50.592 Y50.337 Z-7 F100
G01 X50.592 Y49.654 Z-7
G01 X49.999 Y49.311 Z-7
G01 X49.407 Y49.654 Z-7
G01 X49.407 Y50.337 Z-7
G01 X49.999 Y50.68 Z-7
G01 X49.999 Y51.835 Z-7
G01 X51.592 Y50.915 Z-7
G01 X51.592 Y49.077 Z-7
G01 X49.999 Y48.157 Z-7
G01 X48.407 Y49.077 Z-7
G01 X48.407 Y50.915 Z-7
G01 X49.999 Y51.835 Z-7
G01 X49.999 Y52.991 Z-7
G01 X52.592 Y51.492 Z-7
G01 X52.592 Y48.501 Z-7
G01 X49.999 Y47.002 Z-7
G01 X47.407 Y48.501 Z-7
G01 X47.407 Y51.492 Z-7
G01 X49.999 Y52.991 Z-7
G01 X49.999 Y54.146 Z-7
G01 X53.592 Y52.07 Z-7
G01 X53.592 Y47.924 Z-7
G01 X49.999 Y45.848 Z-7
G01 X46.407 Y47.924 Z-7
G01 X46.407 Y52.07 Z-7
G01 X49.999 Y54.146 Z-7
G01 X49.999 Y55.301 Z-7
G01 X54.592 Y52.648 Z-7
G01 X54.592 Y47.347 Z-7
G01 X49.999 Y44.694 Z-7
G01 X45.407 Y47.347 Z-7
G01 X45.407 Y52.648 Z-7
G01 X49.999 Y55.301 Z-7
G01 X49.999 Y56.456 Z-7
G01 X55.592 Y53.226 Z-7
G01 X55.592 Y46.77 Z-7
G01 X49.999 Y43.54 Z-7
G01 X44.407 Y46.77 Z-7
G01 X44.407 Y53.226 Z-7
G01 X49.999 Y56.456 Z-7
G01 X49.999 Y56.552 Z-6.883
G01 X49.999 Y57.611 Z-3.707 F50
G01 X50.255 Y57.462 Z-4.135 F100
G01 X50.598 Y57.264 Z-4.657
G01 X50.94 Y57.067 Z-5.133
G01 X51.197 Y56.918 Z-5.462
G01 X51.625 Y56.671 Z-5.927
G01 X51.882 Y56.523 Z-6.159
G01 X52.053 Y56.424 Z-6.289
G01 X52.225 Y56.325 Z-6.409
G01 X52.653 Y56.078 Z-6.631
G01 X52.91 Y55.929 Z-6.717
G01 X53.081 Y55.831 Z-6.738
G01 X53.423 Y55.633 Z-6.76
G01 X53.852 Y55.386 Z-6.662
G01 X54.108 Y55.237 Z-6.563
G01 X54.537 Y54.99 Z-6.296
G01 X54.965 Y54.743 Z-5.93
G01 X55.222 Y54.595 Z-5.661
G01 X55.478 Y54.446 Z-5.364
G01 X55.907 Y54.199 Z-4.779
G01 X56.163 Y54.051 Z-4.396
G01 X56.42 Y53.902 Z-3.988
G01 X56.592 Y53.804 Z-3.696
G01 X56.592 Y53.309 Z-4.387
G01 X56.592 Y53.013 Z-4.774
G01 X56.592 Y52.716 Z-5.134
G01 X56.592 Y52.321 Z-5.556
G01 X56.592 Y52.024 Z-5.843
G01 X56.592 Y51.629 Z-6.163
G01 X56.592 Y51.036 Z-6.516
G01 X56.592 Y50.443 Z-6.714
G01 X56.592 Y49.85 Z-6.754
G01 X56.592 Y49.257 Z-6.633
G01 X56.592 Y48.664 Z-6.357
G01 X56.592 Y48.071 Z-5.924
G01 X56.592 Y47.576 Z-5.46
G01 X56.592 Y47.28 Z-5.137
G01 X56.592 Y46.983 Z-4.783
G01 X56.592 Y46.588 Z-4.263
G01 X56.592 Y46.291 Z-3.838
G01 X56.592 Y46.193 Z-3.683
G01 X56.506 Y46.143 Z-3.837
G01 X56.335 Y46.044 Z-4.114
G01 X56.249 Y45.995 Z-4.264
G01 X55.907 Y45.797 Z-4.775
G01 X55.65 Y45.649 Z-5.137
G01 X55.478 Y45.55 Z-5.344
G01 X55.307 Y45.451 Z-5.556
G01 X54.879 Y45.204 Z-5.995
G01 X54.622 Y45.055 Z-6.229
G01 X54.108 Y44.759 Z-6.556
G01 X53.595 Y44.462 Z-6.728
G01 X53.081 Y44.165 Z-6.741
G01 X52.567 Y43.869 Z-6.594
G01 X52.053 Y43.572 Z-6.292
G01 X51.54 Y43.275 Z-5.829
G01 X51.197 Y43.078 Z-5.452
G01 X50.855 Y42.88 Z-5.013
G01 X50.598 Y42.732 Z-4.65
G01 X50.255 Y42.534 Z-4.11
G01 X50.084 Y42.435 Z-3.834
G01 X49.999 Y42.386 Z-3.675
G01 X49.913 Y42.435 Z-3.834
G01 X49.57 Y42.633 Z-4.388
G01 X49.314 Y42.781 Z-4.78
G01 X48.886 Y43.028 Z-5.343
G01 X48.714 Y43.127 Z-5.558
G01 X48.372 Y43.325 Z-5.921
G01 X47.944 Y43.572 Z-6.291
G01 X47.43 Y43.869 Z-6.592
G01 X46.917 Y44.165 Z-6.739
G01 X46.403 Y44.462 Z-6.726
G01 X45.889 Y44.759 Z-6.553
G01 X45.376 Y45.055 Z-6.227
G01 X44.947 Y45.303 Z-5.833
G01 X44.605 Y45.5 Z-5.453
G01 X44.177 Y45.748 Z-4.888
G01 X44.006 Y45.846 Z-4.652
G01 X43.835 Y45.945 Z-4.383
G01 X43.749 Y45.995 Z-4.261
G01 X43.407 Y46.193 Z-3.68
G01 X43.407 Y46.489 Z-4.118
G01 X43.407 Y46.786 Z-4.527
G01 X43.407 Y47.181 Z-5.021
G01 X43.407 Y47.477 Z-5.355
G01 X43.407 Y47.774 Z-5.655
G01 X43.407 Y48.169 Z-6.001
G01 X43.407 Y48.664 Z-6.354
G01 X43.407 Y49.257 Z-6.63
G01 X43.407 Y49.85 Z-6.751
G01 X43.407 Y50.443 Z-6.711
G01 X43.407 Y51.036 Z-6.513
G01 X43.407 Y51.629 Z-6.16
G01 X43.407 Y52.024 Z-5.84
G01 X43.407 Y52.519 Z-5.347
G01 X43.407 Y52.815 Z-5.02
G01 X43.407 Y53.013 Z-4.772
G01 X43.407 Y53.112 Z-4.658
G01 X43.407 Y53.507 Z-4.12
G01 X43.407 Y53.804 Z-3.693
G01 X43.749 Y54.001 Z-4.261
G01 X44.006 Y54.15 Z-4.655
G01 X44.263 Y54.298 Z-5.022
G01 X44.691 Y54.545 Z-5.559
G01 X44.947 Y54.693 Z-5.843
G01 X45.204 Y54.842 Z-6.079
G01 X45.461 Y54.99 Z-6.294
G01 X45.632 Y55.089 Z-6.404
G01 X45.975 Y55.287 Z-6.597
G01 X46.232 Y55.435 Z-6.684
G01 X46.574 Y55.633 Z-6.758
G01 X47.088 Y55.929 Z-6.715
G01 X47.43 Y56.127 Z-6.599
G01 X47.858 Y56.374 Z-6.349
G01 X48.029 Y56.473 Z-6.228
G01 X48.286 Y56.622 Z-6.009
G01 X48.543 Y56.77 Z-5.755
G01 X48.886 Y56.968 Z-5.356
G01 X49.228 Y57.166 Z-4.898
G01 X49.57 Y57.363 Z-4.401
G01 X49.913 Y57.561 Z-3.852
G01 X49.999 Y57.611 Z-3.707
G01 X49.999 Y58.477 Z-1.107 F50
G01 X49.999 Y58.573 Z-0.874
G01 X49.999 Y58.669 Z-0.71 F100
G01 X49.999 Y58.766 Z-0.581
G01 X50.171 Y58.666 Z-0.711
G01 X50.344 Y58.566 Z-0.873
G01 X50.43 Y58.516 Z-0.97
G01 X51.034 Y58.168 Z-1.821
G01 X51.12 Y58.118 Z-1.925
G01 X51.293 Y58.018 Z-2.16
G01 X51.465 Y57.919 Z-2.351
G01 X51.638 Y57.819 Z-2.559
G01 X51.897 Y57.67 Z-2.817
G01 X51.983 Y57.62 Z-2.908
G01 X52.414 Y57.371 Z-3.264
G01 X52.76 Y57.171 Z-3.477
G01 X53.277 Y56.872 Z-3.689
G01 X53.709 Y56.623 Z-3.754
G01 X53.968 Y56.474 Z-3.748
G01 X54.399 Y56.225 Z-3.666
G01 X54.917 Y55.926 Z-3.429
G01 X55.348 Y55.677 Z-3.134
G01 X55.693 Y55.478 Z-2.828
G01 X56.038 Y55.278 Z-2.47
G01 X56.211 Y55.179 Z-2.256
G01 X56.384 Y55.079 Z-2.056
G01 X56.988 Y54.73 Z-1.221
G01 X57.16 Y54.631 Z-0.97
G01 X57.333 Y54.531 Z-0.789
G01 X57.505 Y54.431 Z-0.643
G01 X57.592 Y54.382 Z-0.581
G01 X57.592 Y54.182 Z-0.711
G01 X57.592 Y53.983 Z-0.873
G01 X57.592 Y53.883 Z-0.97
G01 X57.592 Y53.286 Z-1.713
G01 X57.592 Y52.987 Z-2.042
G01 X57.592 Y52.887 Z-2.16
G01 X57.592 Y52.588 Z-2.454
G01 X57.592 Y52.489 Z-2.559
G01 X57.592 Y51.991 Z-2.98
G01 X57.592 Y51.493 Z-3.318
G01 X57.592 Y51.194 Z-3.475
G01 X57.592 Y51.094 Z-3.518
G01 X57.592 Y50.497 Z-3.707
G01 X57.592 Y50.297 Z-3.731
G01 X57.592 Y49.899 Z-3.752
G01 X57.592 Y49.7 Z-3.736
G01 X57.592 Y49.202 Z-3.63
G01 X57.592 Y48.704 Z-3.42
G01 X57.592 Y48.604 Z-3.37
G01 X57.592 Y48.106 Z-3.057
G01 X57.592 Y47.707 Z-2.739
G01 X57.592 Y47.309 Z-2.363
G01 X57.592 Y46.91 Z-1.936
G01 X57.592 Y46.313 Z-1.217
G01 X57.592 Y46.114 Z-0.968
G01 X57.592 Y45.914 Z-0.787
G01 X57.592 Y45.715 Z-0.641
G01 X57.592 Y45.616 Z-0.58
G01 X57.419 Y45.516 Z-0.71
G01 X57.246 Y45.416 Z-0.871
G01 X57.16 Y45.366 Z-0.968
G01 X56.556 Y45.018 Z-1.827
G01 X56.211 Y44.818 Z-2.265
G01 X56.038 Y44.719 Z-2.453
G01 X55.866 Y44.619 Z-2.651
G01 X55.607 Y44.47 Z-2.894
G01 X55.521 Y44.42 Z-2.98
G01 X55.003 Y44.121 Z-3.368
G01 X54.744 Y43.972 Z-3.52
G01 X54.226 Y43.673 Z-3.703
G01 X54.054 Y43.573 Z-3.736
G01 X53.622 Y43.324 Z-3.744
G01 X53.45 Y43.224 Z-3.72
G01 X52.932 Y42.925 Z-3.558
G01 X52.587 Y42.726 Z-3.368
G01 X52.069 Y42.427 Z-2.975
G01 X51.724 Y42.228 Z-2.649
G01 X51.293 Y41.979 Z-2.157
G01 X51.034 Y41.829 Z-1.826
G01 X50.43 Y41.481 Z-0.965
G01 X50.257 Y41.381 Z-0.785
G01 X50.085 Y41.281 Z-0.64
G01 X49.999 Y41.232 Z-0.578
G01 X49.826 Y41.331 Z-0.708
G01 X49.653 Y41.431 Z-0.869
G01 X49.567 Y41.481 Z-0.965
G01 X48.877 Y41.879 Z-1.938
G01 X48.532 Y42.078 Z-2.362
G01 X48.187 Y42.278 Z-2.732
G01 X47.842 Y42.477 Z-3.053
G01 X47.583 Y42.626 Z-3.239
G01 X47.41 Y42.726 Z-3.367
G01 X47.065 Y42.925 Z-3.556
G01 X46.548 Y43.224 Z-3.718
G01 X46.375 Y43.324 Z-3.742
G01 X45.944 Y43.573 Z-3.734
G01 X45.771 Y43.673 Z-3.7
G01 X45.254 Y43.972 Z-3.518
G01 X44.908 Y44.171 Z-3.314
G01 X44.65 Y44.32 Z-3.109
G01 X44.477 Y44.42 Z-2.977
G01 X44.218 Y44.569 Z-2.724
G01 X44.132 Y44.619 Z-2.648
G01 X43.701 Y44.868 Z-2.152
G01 X43.356 Y45.068 Z-1.715
G01 X42.838 Y45.366 Z-0.966
G01 X42.665 Y45.466 Z-0.785
G01 X42.493 Y45.566 Z-0.64
G01 X42.407 Y45.616 Z-0.579
G01 X42.407 Y45.815 Z-0.709
G01 X42.407 Y46.014 Z-0.869
G01 X42.407 Y46.114 Z-0.966
G01 X42.407 Y46.612 Z-1.579
G01 X42.407 Y47.11 Z-2.153
G01 X42.407 Y47.409 Z-2.462
G01 X42.407 Y47.807 Z-2.823
G01 X42.407 Y48.205 Z-3.122
G01 X42.407 Y48.704 Z-3.417
G01 X42.407 Y49.202 Z-3.627
G01 X42.407 Y49.7 Z-3.732
G01 X42.407 Y49.999 Z-3.749
G01 X42.407 Y50.497 Z-3.704
G01 X42.407 Y50.596 Z-3.68
G01 X42.407 Y51.194 Z-3.472
G01 X42.407 Y51.493 Z-3.315
G01 X42.407 Y51.592 Z-3.258
G01 X42.407 Y52.09 Z-2.898
G01 X42.407 Y52.489 Z-2.556
G01 X42.407 Y52.788 Z-2.255
G01 X42.407 Y52.887 Z-2.157
G01 X42.407 Y53.186 Z-1.816
G01 X42.407 Y53.385 Z-1.597
G01 X42.407 Y53.883 Z-0.968
G01 X42.407 Y54.083 Z-0.787
G01 X42.407 Y54.282 Z-0.642
G01 X42.407 Y54.382 Z-0.58
G01 X42.579 Y54.481 Z-0.71
G01 X42.752 Y54.581 Z-0.871
G01 X42.838 Y54.631 Z-0.968
G01 X43.269 Y54.88 Z-1.585
G01 X43.701 Y55.129 Z-2.154
G01 X44.132 Y55.378 Z-2.642
G01 X44.391 Y55.527 Z-2.905
G01 X44.65 Y55.677 Z-3.131
G01 X45.081 Y55.926 Z-3.426
G01 X45.599 Y56.225 Z-3.663
G01 X46.03 Y56.474 Z-3.746
G01 X46.289 Y56.623 Z-3.752
G01 X46.72 Y56.872 Z-3.687
G01 X46.806 Y56.922 Z-3.658
G01 X47.324 Y57.221 Z-3.424
G01 X47.583 Y57.371 Z-3.262
G01 X48.014 Y57.62 Z-2.907
G01 X48.273 Y57.769 Z-2.642
G01 X48.359 Y57.819 Z-2.558
G01 X48.618 Y57.968 Z-2.254
G01 X48.704 Y58.018 Z-2.159
G01 X48.963 Y58.168 Z-1.82
G01 X49.05 Y58.218 Z-1.716
G01 X49.567 Y58.516 Z-0.97
G01 X49.74 Y58.616 Z-0.788
G01 X49.912 Y58.716 Z-0.643
G01 X49.999 Y58.766 Z-0.581
G01 X49.999 Y58.862 Z-0.474
G01 X49.999 Y58.958 Z-0.385
G01 X49.999 Y59.151 Z-0.243
G01 X49.999 Y59.343 Z-0.14
G01 X49.999 Y59.536 Z-0.068
G01 X49.999 Y59.728 Z-0.023
G01 X49.999 Y59.921 Z-0.001
G01 X50.428 Y59.672 Z-0.031
G01 X50.944 Y59.375 Z-0.107
G01 X51.545 Y59.028 Z-0.237
G01 X52.662 Y58.383 Z-0.545
G01 X53.264 Y58.035 Z-0.704
G01 X53.693 Y57.787 Z-0.79
G01 X54.037 Y57.589 Z-0.829
G01 X54.381 Y57.39 Z-0.838
G01 X54.725 Y57.192 Z-0.813
G01 X55.068 Y56.994 Z-0.759
G01 X55.584 Y56.696 Z-0.64
G01 X57.045 Y55.852 Z-0.237
G01 X57.646 Y55.505 Z-0.107
G01 X58.162 Y55.208 Z-0.031
G01 X58.592 Y54.96 Z-0.001
G01 X58.592 Y54.463 Z-0.031
G01 X58.592 Y53.868 Z-0.107
G01 X58.592 Y53.174 Z-0.237
G01 X58.592 Y51.884 Z-0.544
G01 X58.592 Y51.19 Z-0.703
G01 X58.592 Y50.693 Z-0.789
G01 X58.592 Y50.297 Z-0.828
G01 X58.592 Y49.9 Z-0.837
G01 X58.592 Y49.503 Z-0.812
G01 X58.592 Y49.106 Z-0.758
G01 X58.592 Y48.511 Z-0.639
G01 X58.592 Y46.824 Z-0.237
G01 X58.592 Y46.13 Z-0.107
G01 X58.592 Y45.535 Z-0.031
G01 X58.592 Y45.039 Z-0.001
G01 X58.162 Y44.79 Z-0.031
G01 X57.646 Y44.493 Z-0.107
G01 X57.045 Y44.146 Z-0.237
G01 X55.928 Y43.501 Z-0.544
G01 X55.326 Y43.153 Z-0.703
G01 X54.897 Y42.905 Z-0.789
G01 X54.553 Y42.707 Z-0.827
G01 X54.209 Y42.508 Z-0.837
G01 X53.865 Y42.31 Z-0.811
G01 X53.522 Y42.112 Z-0.757
G01 X53.006 Y41.814 Z-0.638
G01 X51.545 Y40.97 Z-0.237
G01 X50.944 Y40.623 Z-0.107
G01 X50.428 Y40.326 Z-0.031
G01 X49.999 Y40.078 Z-0.001
G01 X49.569 Y40.326 Z-0.031
G01 X49.053 Y40.623 Z-0.107
G01 X48.452 Y40.97 Z-0.237
G01 X47.335 Y41.615 Z-0.543
G01 X46.734 Y41.963 Z-0.701
G01 X46.304 Y42.211 Z-0.787
G01 X45.96 Y42.409 Z-0.826
G01 X45.617 Y42.608 Z-0.835
G01 X45.273 Y42.806 Z-0.81
G01 X44.929 Y43.004 Z-0.756
G01 X44.414 Y43.302 Z-0.637
G01 X42.953 Y44.146 Z-0.236
G01 X42.352 Y44.493 Z-0.106
G01 X41.836 Y44.79 Z-0.031
G01 X41.407 Y45.039 Z-0.001
G01 X41.407 Y45.535 Z-0.031
G01 X41.407 Y46.13 Z-0.106
G01 X41.407 Y46.824 Z-0.236
G01 X41.407 Y48.114 Z-0.543
G01 X41.407 Y48.808 Z-0.701
G01 X41.407 Y49.305 Z-0.787
G01 X41.407 Y49.701 Z-0.826
G01 X41.407 Y50.098 Z-0.835
G01 X41.407 Y50.495 Z-0.81
G01 X41.407 Y50.892 Z-0.756
G01 X41.407 Y51.487 Z-0.638
G01 X41.407 Y53.174 Z-0.237
G01 X41.407 Y53.868 Z-0.107
G01 X41.407 Y54.463 Z-0.031
G01 X41.407 Y54.96 Z-0.001
G01 X41.836 Y55.208 Z-0.031
G01 X42.352 Y55.505 Z-0.107
G01 X42.953 Y55.852 Z-0.237
G01 X44.07 Y56.497 Z-0.544
G01 X44.671 Y56.845 Z-0.702
G01 X45.101 Y57.093 Z-0.789
G01 X45.445 Y57.291 Z-0.828
G01 X45.788 Y57.49 Z-0.837
G01 X46.132 Y57.688 Z-0.811
G01 X46.476 Y57.886 Z-0.758
G01 X46.991 Y58.184 Z-0.639
G01 X48.452 Y59.028 Z-0.237
G01 X49.053 Y59.375 Z-0.107
G01 X49.569 Y59.672 Z-0.031
G01 X49.999 Y59.921 Z-0.001
G00 Z2
G01 X49.999 Y50.68
G01 Z-5
G01 X49.999 Y50.68 Z-8 F50
G01 X50.592 Y50.337 Z-8 F100
G01 X50.592 Y49.654 Z-8
G01 X49.999 Y49.311 Z-8
G01 X49.407 Y49.654 Z-8
G01 X49.407 Y50.337 Z-8
G01 X49.999 Y50.68 Z-8
G01 X49.999 Y51.835 Z-8
G01 X51.592 Y50.915 Z-8
G01 X51.592 Y49.077 Z-8
G01 X49.999 Y48.157 Z-8
G01 X48.407 Y49.077 Z-8
G01 X48.407 Y50.915 Z-8
G01 X49.999 Y51.835 Z-8
G01 X49.999 Y52.991 Z-8
G01 X52.592 Y51.492 Z-8
G01 X52.592 Y48.501 Z-8
G01 X49.999 Y47.002 Z-8
G01 X47.407 Y48.501 Z-8
G01 X47.407 Y51.492 Z-8
G01 X49.999 Y52.991 Z-8
G01 X49.999 Y54.146 Z-8
G01 X53.592 Y52.07 Z-8
G01 X53.592 Y47.924 Z-8
G01 X49.999 Y45.848 Z-8
G01 X46.407 Y47.924 Z-8
G01 X46.407 Y52.07 Z-8
G01 X49.999 Y54.146 Z-8
G01 X49.999 Y55.301 Z-8
G01 X54.592 Y52.648 Z-8
G01 X54.592 Y47.347 Z-8
G01 X49.999 Y44.694 Z-8
G01 X45.407 Y47.347 Z-8
G01 X45.407 Y52.648 Z-8
G01 X49.999 Y55.301 Z-8
G01 X49.999 Y56.167 Z-8
G01 X49.999 Y56.263 Z-7.749 F50
G01 X49.999 Y56.456 Z-7.172
G01 X50.343 Y56.257 Z-7.733 F100
G01 X50.515 Y56.157 Z-7.992
G01 X54.989 Y53.573 Z-8
G01 X55.075 Y53.524 Z-7.967
G01 X55.247 Y53.424 Z-7.708
G01 X55.333 Y53.375 Z-7.553
G01 X55.592 Y53.226 Z-7.146
G01 X55.592 Y53.126 Z-7.308
G01 X55.592 Y52.63 Z-7.984
G01 X55.592 Y52.53 Z-8
G01 X55.592 Y47.465 Z-8
G01 X55.592 Y47.365 Z-7.977
G01 X55.592 Y47.167 Z-7.726
G01 X55.592 Y46.77 Z-7.145
G01 X55.419 Y46.67 Z-7.451
G01 X55.075 Y46.471 Z-7.974
G01 X54.989 Y46.422 Z-8
G01 X50.601 Y43.887 Z-8
G01 X50.515 Y43.838 Z-7.967
G01 X50.257 Y43.689 Z-7.584
G01 X49.999 Y43.54 Z-7.136
G01 X49.74 Y43.689 Z-7.584
G01 X49.482 Y43.838 Z-7.967
G01 X49.396 Y43.887 Z-8
G01 X45.009 Y46.422 Z-8
G01 X44.923 Y46.471 Z-7.971
G01 X44.579 Y46.67 Z-7.448
G01 X44.407 Y46.77 Z-7.143
G01 X44.407 Y47.167 Z-7.724
G01 X44.407 Y47.365 Z-7.974
G01 X44.407 Y47.465 Z-8
G01 X44.407 Y52.53 Z-8
G01 X44.407 Y52.63 Z-7.981
G01 X44.407 Y53.126 Z-7.306
G01 X44.407 Y53.226 Z-7.143
G01 X44.665 Y53.375 Z-7.551
G01 X44.837 Y53.474 Z-7.843
G01 X44.923 Y53.524 Z-7.965
G01 X45.009 Y53.573 Z-8
G01 X49.482 Y56.157 Z-7.992
G01 X49.826 Y56.356 Z-7.46
G01 X49.999 Y56.456 Z-7.172
G01 X49.999 Y57.611 Z-3.707 F50
G01 X50.255 Y57.462 Z-4.135 F100
G01 X50.598 Y57.264 Z-4.657
G01 X50.94 Y57.067 Z-5.133
G01 X51.197 Y56.918 Z-5.462
G01 X51.54 Y56.721 Z-5.844
G01 X51.797 Y56.572 Z-6.092
G01 X52.053 Y56.424 Z-6.289
G01 X52.225 Y56.325 Z-6.409
G01 X52.567 Y56.127 Z-6.6
G01 X52.91 Y55.929 Z-6.717
G01 X53.423 Y55.633 Z-6.76
G01 X53.852 Y55.386 Z-6.662
G01 X54.108 Y55.237 Z-6.563
G01 X54.537 Y54.99 Z-6.296
G01 X54.965 Y54.743 Z-5.93
G01 X55.222 Y54.595 Z-5.661
G01 X55.478 Y54.446 Z-5.364
G01 X55.907 Y54.199 Z-4.779
G01 X56.163 Y54.051 Z-4.396
G01 X56.42 Y53.902 Z-3.988
G01 X56.592 Y53.804 Z-3.696
G01 X56.592 Y53.309 Z-4.387
G01 X56.592 Y53.013 Z-4.774
G01 X56.592 Y52.716 Z-5.134
G01 X56.592 Y52.321 Z-5.556
G01 X56.592 Y52.024 Z-5.843
G01 X56.592 Y51.629 Z-6.163
G01 X56.592 Y51.036 Z-6.516
G01 X56.592 Y50.443 Z-6.714
G01 X56.592 Y49.85 Z-6.754
G01 X56.592 Y49.257 Z-6.633
G01 X56.592 Y48.664 Z-6.357
G01 X56.592 Y48.071 Z-5.924
G01 X56.592 Y47.576 Z-5.46
G01 X56.592 Y47.28 Z-5.137
G01 X56.592 Y46.983 Z-4.783
G01 X56.592 Y46.588 Z-4.263
G01 X56.592 Y46.291 Z-3.838
G01 X56.592 Y46.193 Z-3.683
G01 X56.506 Y46.143 Z-3.837
G01 X56.335 Y46.044 Z-4.114
G01 X56.249 Y45.995 Z-4.264
G01 X55.907 Y45.797 Z-4.775
G01 X55.65 Y45.649 Z-5.137
G01 X55.478 Y45.55 Z-5.344
G01 X55.307 Y45.451 Z-5.556
G01 X54.879 Y45.204 Z-5.995
G01 X54.622 Y45.055 Z-6.229
G01 X54.108 Y44.759 Z-6.556
G01 X53.595 Y44.462 Z-6.728
G01 X53.081 Y44.165 Z-6.741
G01 X52.567 Y43.869 Z-6.594
G01 X52.053 Y43.572 Z-6.292
G01 X51.54 Y43.275 Z-5.829
G01 X51.197 Y43.078 Z-5.452
G01 X50.855 Y42.88 Z-5.013
G01 X50.598 Y42.732 Z-4.65
G01 X50.255 Y42.534 Z-4.11
G01 X50.084 Y42.435 Z-3.834
G01 X49.999 Y42.386 Z-3.675
G01 X49.913 Y42.435 Z-3.834
G01 X49.57 Y42.633 Z-4.388
G01 X49.314 Y42.781 Z-4.78
G01 X48.886 Y43.028 Z-5.343
G01 X48.714 Y43.127 Z-5.558
G01 X48.372 Y43.325 Z-5.921
G01 X47.944 Y43.572 Z-6.291
G01 X47.43 Y43.869 Z-6.592
G01 X46.917 Y44.165 Z-6.739
G01 X46.403 Y44.462 Z-6.726
G01 X45.889 Y44.759 Z-6.553
G01 X45.376 Y45.055 Z-6.227
G01 X44.947 Y45.303 Z-5.833
G01 X44.605 Y45.5 Z-5.453
G01 X44.177 Y45.748 Z-4.888
G01 X44.006 Y45.846 Z-4.652
G01 X43.835 Y45.945 Z-4.383
G01 X43.749 Y45.995 Z-4.261
G01 X43.407 Y46.193 Z-3.68
G01 X43.407 Y46.489 Z-4.118
G01 X43.407 Y46.786 Z-4.527
G01 X43.407 Y47.181 Z-5.021
G01 X43.407 Y47.477 Z-5.355
G01 X43.407 Y47.774 Z-5.655
G01 X43.407 Y48.169 Z-6.001
G01 X43.407 Y48.664 Z-6.354
G01 X43.407 Y49.257 Z-6.63
G01 X43.407 Y49.85 Z-6.751
G01 X43.407 Y50.443 Z-6.711
G01 X43.407 Y51.036 Z-6.513
G01 X43.407 Y51.629 Z-6.16
G01 X43.407 Y52.024 Z-5.84
G01 X43.407 Y52.519 Z-5.347
G01 X43.407 Y52.815 Z-5.02
G01 X43.407 Y53.013 Z-4.772
G01 X43.407 Y53.112 Z-4.658
G01 X43.407 Y53.507 Z-4.12
G01 X43.407 Y53.804 Z-3.693
G01 X43.749 Y54.001 Z-4.261
G01 X44.006 Y54.15 Z-4.655
G01 X44.263 Y54.298 Z-5.022
G01 X44.691 Y54.545 Z-5.559
G01 X44.947 Y54.693 Z-5.843
G01 X45.204 Y54.842 Z-6.079
G01 X45.461 Y54.99 Z-6.294
G01 X45.632 Y55.089 Z-6.404
G01 X45.975 Y55.287 Z-6.597
G01 X46.232 Y55.435 Z-6.684
G01 X46.574 Y55.633 Z-6.758
G01 X47.088 Y55.929 Z-6.715
G01 X47.43 Y56.127 Z-6.599
G01 X47.858 Y56.374 Z-6.349
G01 X48.029 Y56.473 Z-6.228
G01 X48.286 Y56.622 Z-6.009
G01 X48.543 Y56.77 Z-5.755
G01 X48.886 Y56.968 Z-5.356
G01 X49.228 Y57.166 Z-4.898
G01 X49.57 Y57.363 Z-4.401
G01 X49.913 Y57.561 Z-3.852
G01 X49.999 Y57.611 Z-3.707
G01 X49.999 Y58.477 Z-1.107 F50
G01 X49.999 Y58.573 Z-0.874
G01 X49.999 Y58.669 Z-0.71 F100
G01 X49.999 Y58.766 Z-0.581
G01 X50.171 Y58.666 Z-0.711
G01 X50.344 Y58.566 Z-0.873
G01 X50.43 Y58.516 Z-0.97
G01 X51.034 Y58.168 Z-1.821
G01 X51.12 Y58.118 Z-1.925
G01 X51.293 Y58.018 Z-2.16
G01 X51.465 Y57.919 Z-2.351
G01 X51.638 Y57.819 Z-2.559
G01 X51.897 Y57.67 Z-2.817
G01 X51.983 Y57.62 Z-2.908
G01 X52.414 Y57.371 Z-3.264
G01 X52.76 Y57.171 Z-3.477
G01 X53.277 Y56.872 Z-3.689
G01 X53.709 Y56.623 Z-3.754
G01 X53.968 Y56.474 Z-3.748
G01 X54.399 Y56.225 Z-3.666
G01 X54.917 Y55.926 Z-3.429
G01 X55.348 Y55.677 Z-3.134
G01 X55.693 Y55.478 Z-2.828
G01 X56.038 Y55.278 Z-2.47
G01 X56.211 Y55.179 Z-2.256
G01 X56.384 Y55.079 Z-2.056
G01 X56.988 Y54.73 Z-1.221
G01 X57.16 Y54.631 Z-0.97
G01 X57.333 Y54.531 Z-0.789
G01 X57.505 Y54.431 Z-0.643
G01 X57.592 Y54.382 Z-0.581
G01 X57.592 Y54.182 Z-0.711
G01 X57.592 Y53.983 Z-0.873
G01 X57.592 Y53.883 Z-0.97
G01 X57.592 Y53.286 Z-1.713
G01 X57.592 Y52.987 Z-2.042
G01 X57.592 Y52.887 Z-2.16
G01 X57.592 Y52.588 Z-2.454
G01 X57.592 Y52.489 Z-2.559
G01 X57.592 Y51.991 Z-2.98
G01 X57.592 Y51.493 Z-3.318
G01 X57.592 Y51.194 Z-3.475
G01 X57.592 Y51.094 Z-3.518
G01 X57.592 Y50.497 Z-3.707
G01 X57.592 Y50.297 Z-3.731
G01 X57.592 Y49.899 Z-3.752
G01 X57.592 Y49.7 Z-3.736
G01 X57.592 Y49.202 Z-3.63
G01 X57.592 Y48.704 Z-3.42
G01 X57.592 Y48.604 Z-3.37
G01 X57.592 Y48.106 Z-3.057
G01 X57.592 Y47.707 Z-2.739
G01 X57.592 Y47.309 Z-2.363
G01 X57.592 Y46.91 Z-1.936
G01 X57.592 Y46.313 Z-1.217
G01 X57.592 Y46.114 Z-0.968
G01 X57.592 Y45.914 Z-0.787
G01 X57.592 Y45.715 Z-0.641
G01 X57.592 Y45.616 Z-0.58
G01 X57.419 Y45.516 Z-0.71
G01 X57.246 Y45.416 Z-0.871
G01 X57.16 Y45.366 Z-0.968
G01 X56.556 Y45.018 Z-1.827
G01 X56.211 Y44.818 Z-2.265
G01 X56.038 Y44.719 Z-2.453
G01 X55.866 Y44.619 Z-2.651
G01 X55.607 Y44.47 Z-2.894
G01 X55.521 Y44.42 Z-2.98
G01 X55.003 Y44.121 Z-3.368
G01 X54.744 Y43.972 Z-3.52
G01 X54.226 Y43.673 Z-3.703
G01 X54.054 Y43.573 Z-3.736
G01 X53.622 Y43.324 Z-3.744
G01 X53.45 Y43.224 Z-3.72
G01 X52.932 Y42.925 Z-3.558
G01 X52.587 Y42.726 Z-3.368
G01 X52.069 Y42.427 Z-2.975
G01 X51.724 Y42.228 Z-2.649
G01 X51.293 Y41.979 Z-2.157
G01 X51.034 Y41.829 Z-1.826
G01 X50.43 Y41.481 Z-0.965
G01 X50.257 Y41.381 Z-0.785
G01 X50.085 Y41.281 Z-0.64
G01 X49.999 Y41.232 Z-0.578
G01 X49.826 Y41.331 Z-0.708
G01 X49.653 Y41.431 Z-0.869
G01 X49.567 Y41.481 Z-0.965
G01 X48.877 Y41.879 Z-1.938
G01 X48.532 Y42.078 Z-2.362
G01 X48.187 Y42.278 Z-2.732
G01 X47.842 Y42.477 Z-3.053
G01 X47.583 Y42.626 Z-3.239
G01 X47.41 Y42.726 Z-3.367
G01 X47.065 Y42.925 Z-3.556
G01 X46.548 Y43.224 Z-3.718
G01 X46.375 Y43.324 Z-3.742
G01 X45.944 Y43.573 Z-3.734
G01 X45.771 Y43.673 Z-3.7
G01 X45.254 Y43.972 Z-3.518
G01 X44.908 Y44.171 Z-3.314
G01 X44.65 Y44.32 Z-3.109
G01 X44.477 Y44.42 Z-2.977
G01 X44.218 Y44.569 Z-2.724
G01 X44.132 Y44.619 Z-2.648
G01 X43.701 Y44.868 Z-2.152
G01 X43.356 Y45.068 Z-1.715
G01 X42.838 Y45.366 Z-0.966
G01 X42.665 Y45.466 Z-0.785
G01 X42.493 Y45.566 Z-0.64
G01 X42.407 Y45.616 Z-0.579
G01 X42.407 Y45.815 Z-0.709
G01 X42.407 Y46.014 Z-0.869
G01 X42.407 Y46.114 Z-0.966
G01 X42.407 Y46.612 Z-1.579
G01 X42.407 Y47.11 Z-2.153
G01 X42.407 Y47.409 Z-2.462
G01 X42.407 Y47.807 Z-2.823
G01 X42.407 Y48.205 Z-3.122
G01 X42.407 Y48.704 Z-3.417
G01 X42.407 Y49.202 Z-3.627
G01 X42.407 Y49.7 Z-3.732
G01 X42.407 Y49.999 Z-3.749
G01 X42.407 Y50.497 Z-3.704
G01 X42.407 Y50.596 Z-3.68
G01 X42.407 Y51.194 Z-3.472
G01 X42.407 Y51.493 Z-3.315
G01 X42.407 Y51.592 Z-3.258
G01 X42.407 Y52.09 Z-2.898
G01 X42.407 Y52.489 Z-2.556
G01 X42.407 Y52.788 Z-2.255
G01 X42.407 Y52.887 Z-2.157
G01 X42.407 Y53.186 Z-1.816
G01 X42.407 Y53.385 Z-1.597
G01 X42.407 Y53.883 Z-0.968
G01 X42.407 Y54.083 Z-0.787
G01 X42.407 Y54.282 Z-0.642
G01 X42.407 Y54.382 Z-0.58
G01 X42.579 Y54.481 Z-0.71
G01 X42.752 Y54.581 Z-0.871
G01 X42.838 Y54.631 Z-0.968
G01 X43.269 Y54.88 Z-1.585
G01 X43.701 Y55.129 Z-2.154
G01 X44.132 Y55.378 Z-2.642
G01 X44.391 Y55.527 Z-2.905
G01 X44.65 Y55.677 Z-3.131
G01 X45.081 Y55.926 Z-3.426
G01 X45.599 Y56.225 Z-3.663
G01 X46.03 Y56.474 Z-3.746
G01 X46.289 Y56.623 Z-3.752
G01 X46.72 Y56.872 Z-3.687
G01 X46.806 Y56.922 Z-3.658
G01 X47.324 Y57.221 Z-3.424
G01 X47.583 Y57.371 Z-3.262
G01 X48.014 Y57.62 Z-2.907
G01 X48.273 Y57.769 Z-2.642
G01 X48.359 Y57.819 Z-2.558
G01 X48.618 Y57.968 Z-2.254
G01 X48.704 Y58.018 Z-2.159
G01 X48.963 Y58.168 Z-1.82
G01 X49.05 Y58.218 Z-1.716
G01 X49.567 Y58.516 Z-0.97
G01 X49.74 Y58.616 Z-0.788
G01 X49.912 Y58.716 Z-0.643
G01 X49.999 Y58.766 Z-0.581
G01 X49.999 Y58.862 Z-0.474
G01 X49.999 Y58.958 Z-0.385
G01 X49.999 Y59.151 Z-0.243
G01 X49.999 Y59.343 Z-0.14
G01 X49.999 Y59.536 Z-0.068
G01 X49.999 Y59.728 Z-0.023
G01 X49.999 Y59.921 Z-0.001
G01 X50.428 Y59.672 Z-0.031
G01 X50.944 Y59.375 Z-0.107
G01 X51.545 Y59.028 Z-0.237
G01 X52.662 Y58.383 Z-0.545
G01 X53.264 Y58.035 Z-0.704
G01 X53.693 Y57.787 Z-0.79
G01 X54.037 Y57.589 Z-0.829
G01 X54.381 Y57.39 Z-0.838
G01 X54.725 Y57.192 Z-0.813
G01 X55.068 Y56.994 Z-0.759
G01 X55.584 Y56.696 Z-0.64
G01 X57.045 Y55.852 Z-0.237
G01 X57.646 Y55.505 Z-0.107
G01 X58.162 Y55.208 Z-0.031
G01 X58.592 Y54.96 Z-0.001
G01 X58.592 Y54.463 Z-0.031
G01 X58.592 Y53.868 Z-0.107
G01 X58.592 Y53.174 Z-0.237
G01 X58.592 Y51.884 Z-0.544
G01 X58.592 Y51.19 Z-0.703
G01 X58.592 Y50.693 Z-0.789
G01 X58.592 Y50.297 Z-0.828
G01 X58.592 Y49.9 Z-0.837
G01 X58.592 Y49.503 Z-0.812
G01 X58.592 Y49.106 Z-0.758
G01 X58.592 Y48.511 Z-0.639
G01 X58.592 Y46.824 Z-0.237
G01 X58.592 Y46.13 Z-0.107
G01 X58.592 Y45.535 Z-0.031
G01 X58.592 Y45.039 Z-0.001
G01 X58.162 Y44.79 Z-0.031
G01 X57.646 Y44.493 Z-0.107
G01 X57.045 Y44.146 Z-0.237
G01 X55.928 Y43.501 Z-0.544
G01 X55.326 Y43.153 Z-0.703
G01 X54.897 Y42.905 Z-0.789
G01 X54.553 Y42.707 Z-0.827
G01 X54.209 Y42.508 Z-0.837
G01 X53.865 Y42.31 Z-0.811
G01 X53.522 Y42.112 Z-0.757
G01 X53.006 Y41.814 Z-0.638
G01 X51.545 Y40.97 Z-0.237
G01 X50.944 Y40.623 Z-0.107
G01 X50.428 Y40.326 Z-0.031
G01 X49.999 Y40.078 Z-0.001
G01 X49.569 Y40.326 Z-0.031
G01 X49.053 Y40.623 Z-0.107
G01 X48.452 Y40.97 Z-0.237
G01 X47.335 Y41.615 Z-0.543
G01 X46.734 Y41.963 Z-0.701
G01 X46.304 Y42.211 Z-0.787
G01 X45.96 Y42.409 Z-0.826
G01 X45.617 Y42.608 Z-0.835
G01 X45.273 Y42.806 Z-0.81
G01 X44.929 Y43.004 Z-0.756
G01 X44.414 Y43.302 Z-0.637
G01 X42.953 Y44.146 Z-0.236
G01 X42.352 Y44.493 Z-0.106
G01 X41.836 Y44.79 Z-0.031
G01 X41.407 Y45.039 Z-0.001
G01 X41.407 Y45.535 Z-0.031
G01 X41.407 Y46.13 Z-0.106
G01 X41.407 Y46.824 Z-0.236
G01 X41.407 Y48.114 Z-0.543
G01 X41.407 Y48.808 Z-0.701
G01 X41.407 Y49.305 Z-0.787
G01 X41.407 Y49.701 Z-0.826
G01 X41.407 Y50.098 Z-0.835
G01 X41.407 Y50.495 Z-0.81
G01 X41.407 Y50.892 Z-0.756
G01 X41.407 Y51.487 Z-0.638
G01 X41.407 Y53.174 Z-0.237
G01 X41.407 Y53.868 Z-0.107
G01 X41.407 Y54.463 Z-0.031
G01 X41.407 Y54.96 Z-0.001
G01 X41.836 Y55.208 Z-0.031
G01 X42.352 Y55.505 Z-0.107
G01 X42.953 Y55.852 Z-0.237
G01 X44.07 Y56.497 Z-0.544
G01 X44.671 Y56.845 Z-0.702
G01 X45.101 Y57.093 Z-0.789
G01 X45.445 Y57.291 Z-0.828
G01 X45.788 Y57.49 Z-0.837
G01 X46.132 Y57.688 Z-0.811
G01 X46.476 Y57.886 Z-0.758
G01 X46.991 Y58.184 Z-0.639
G01 X48.452 Y59.028 Z-0.237
G01 X49.053 Y59.375 Z-0.107
G01 X49.569 Y59.672 Z-0.031
G01 X49.999 Y59.921 Z-0.001
G00 Z2
G01 X49.999 Y50.68
G01 Z-6
G01 X49.999 Y50.68 Z-9 F50
G01 X50.592 Y50.337 Z-9 F100
G01 X50.592 Y49.654 Z-9
G01 X49.999 Y49.311 Z-9
G01 X49.407 Y49.654 Z-9
G01 X49.407 Y50.337 Z-9
G01 X49.999 Y50.68 Z-9
G01 X49.999 Y51.835 Z-9
G01 X51.592 Y50.915 Z-9
G01 X51.592 Y49.077 Z-9
G01 X49.999 Y48.157 Z-9
G01 X48.407 Y49.077 Z-9
G01 X48.407 Y50.915 Z-9
G01 X49.999 Y51.835 Z-9
G01 X49.999 Y52.991 Z-9
G01 X52.592 Y51.492 Z-9
G01 X52.592 Y48.501 Z-9
G01 X49.999 Y47.002 Z-9
G01 X47.407 Y48.501 Z-9
G01 X47.407 Y51.492 Z-9
G01 X49.999 Y52.991 Z-9
G01 X49.999 Y54.146 Z-9
G01 X53.592 Y52.07 Z-9
G01 X53.592 Y47.924 Z-9
G01 X49.999 Y45.848 Z-9
G01 X46.407 Y47.924 Z-9
G01 X46.407 Y52.07 Z-9
G01 X49.999 Y54.146 Z-9
G01 X49.999 Y55.301 Z-9
G01 X54.592 Y52.648 Z-9
G01 X54.592 Y47.347 Z-9
G01 X49.999 Y44.694 Z-9
G01 X45.407 Y47.347 Z-9
G01 X45.407 Y52.648 Z-9
G01 X49.999 Y55.301 Z-9
G01 X49.999 Y55.782 Z-9
G01 X49.999 Y55.878 Z-8.904
G01 X49.999 Y56.456 Z-7.172 F50
G01 X50.343 Y56.257 Z-7.733 F100
G01 X50.601 Y56.108 Z-8.109
G01 X50.859 Y55.959 Z-8.462
G01 X51.117 Y55.81 Z-8.777
G01 X51.289 Y55.71 Z-8.955
G01 X51.375 Y55.66 Z-9
G01 X54.215 Y54.021 Z-9
G01 X54.301 Y53.971 Z-8.957
G01 X54.645 Y53.772 Z-8.58
G01 X54.903 Y53.623 Z-8.232
G01 X55.333 Y53.375 Z-7.553
G01 X55.592 Y53.226 Z-7.146
G01 X55.592 Y53.126 Z-7.308
G01 X55.592 Y52.53 Z-8.118
G01 X55.592 Y51.934 Z-8.783
G01 X55.592 Y51.736 Z-8.954
G01 X55.592 Y51.636 Z-9
G01 X55.592 Y48.359 Z-9
G01 X55.592 Y48.259 Z-8.957
G01 X55.592 Y47.763 Z-8.464
G01 X55.592 Y47.167 Z-7.726
G01 X55.592 Y46.77 Z-7.145
G01 X55.419 Y46.67 Z-7.451
G01 X54.903 Y46.372 Z-8.233
G01 X54.387 Y46.074 Z-8.873
G01 X54.301 Y46.024 Z-8.954
G01 X54.215 Y45.974 Z-9
G01 X51.375 Y44.335 Z-9
G01 X51.289 Y44.285 Z-8.96
G01 X50.773 Y43.987 Z-8.345
G01 X50.257 Y43.689 Z-7.584
G01 X49.999 Y43.54 Z-7.136
G01 X49.74 Y43.689 Z-7.584
G01 X49.224 Y43.987 Z-8.344
G01 X48.708 Y44.285 Z-8.958
G01 X48.622 Y44.335 Z-9
G01 X45.783 Y45.974 Z-9
G01 X45.697 Y46.024 Z-8.951
G01 X45.611 Y46.074 Z-8.871
G01 X45.095 Y46.372 Z-8.23
G01 X44.579 Y46.67 Z-7.448
G01 X44.407 Y46.77 Z-7.143
G01 X44.407 Y47.167 Z-7.724
G01 X44.407 Y47.763 Z-8.461
G01 X44.407 Y48.259 Z-8.954
G01 X44.407 Y48.359 Z-9
G01 X44.407 Y51.636 Z-9
G01 X44.407 Y51.736 Z-8.951
G01 X44.407 Y51.934 Z-8.78
G01 X44.407 Y52.53 Z-8.115
G01 X44.407 Y53.126 Z-7.306
G01 X44.407 Y53.226 Z-7.143
G01 X44.665 Y53.375 Z-7.551
G01 X44.837 Y53.474 Z-7.843
G01 X45.267 Y53.722 Z-8.468
G01 X45.439 Y53.822 Z-8.676
G01 X45.697 Y53.971 Z-8.955
G01 X45.783 Y54.021 Z-9
G01 X48.622 Y55.66 Z-9
G01 X48.708 Y55.71 Z-8.954
G01 X48.966 Y55.859 Z-8.683
G01 X49.31 Y56.058 Z-8.233
G01 X49.568 Y56.207 Z-7.862
G01 X49.826 Y56.356 Z-7.46
G01 X49.999 Y56.456 Z-7.172
G01 X49.999 Y57.611 Z-3.707 F50
G01 X50.255 Y57.462 Z-4.135 F100
G01 X50.598 Y57.264 Z-4.657
G01 X50.94 Y57.067 Z-5.133
G01 X51.197 Y56.918 Z-5.462
G01 X51.625 Y56.671 Z-5.927
G01 X51.882 Y56.523 Z-6.159
G01 X52.053 Y56.424 Z-6.289
G01 X52.225 Y56.325 Z-6.409
G01 X52.653 Y56.078 Z-6.631
G01 X52.91 Y55.929 Z-6.717
G01 X53.081 Y55.831 Z-6.738
G01 X53.423 Y55.633 Z-6.76
G01 X53.852 Y55.386 Z-6.662
G01 X54.108 Y55.237 Z-6.563
G01 X54.537 Y54.99 Z-6.296
G01 X54.965 Y54.743 Z-5.93
G01 X55.222 Y54.595 Z-5.661
G01 X55.478 Y54.446 Z-5.364
G01 X55.907 Y54.199 Z-4.779
G01 X56.163 Y54.051 Z-4.396
G01 X56.42 Y53.902 Z-3.988
G01 X56.592 Y53.804 Z-3.696
G01 X56.592 Y53.309 Z-4.387
G01 X56.592 Y53.013 Z-4.774
G01 X56.592 Y52.716 Z-5.134
G01 X56.592 Y52.321 Z-5.556
G01 X56.592 Y52.024 Z-5.843
G01 X56.592 Y51.629 Z-6.163
G01 X56.592 Y51.036 Z-6.516
G01 X56.592 Y50.443 Z-6.714
G01 X56.592 Y49.85 Z-6.754
G01 X56.592 Y49.257 Z-6.633
G01 X56.592 Y48.664 Z-6.357
G01 X56.592 Y48.071 Z-5.924
G01 X56.592 Y47.576 Z-5.46
G01 X56.592 Y47.28 Z-5.137
G01 X56.592 Y46.983 Z-4.783
G01 X56.592 Y46.588 Z-4.263
G01 X56.592 Y46.291 Z-3.838
G01 X56.592 Y46.193 Z-3.683
G01 X56.506 Y46.143 Z-3.837
G01 X56.335 Y46.044 Z-4.114
G01 X56.249 Y45.995 Z-4.264
G01 X55.907 Y45.797 Z-4.775
G01 X55.65 Y45.649 Z-5.137
G01 X55.478 Y45.55 Z-5.344
G01 X55.307 Y45.451 Z-5.556
G01 X54.879 Y45.204 Z-5.995
G01 X54.622 Y45.055 Z-6.229
G01 X54.108 Y44.759 Z-6.556
G01 X53.595 Y44.462 Z-6.728
G01 X53.081 Y44.165 Z-6.741
G01 X52.567 Y43.869 Z-6.594
G01 X52.053 Y43.572 Z-6.292
G01 X51.54 Y43.275 Z-5.829
G01 X51.197 Y43.078 Z-5.452
G01 X50.855 Y42.88 Z-5.013
G01 X50.598 Y42.732 Z-4.65
G01 X50.255 Y42.534 Z-4.11
G01 X50.084 Y42.435 Z-3.834
G01 X49.999 Y42.386 Z-3.675
G01 X49.913 Y42.435 Z-3.834
G01 X49.57 Y42.633 Z-4.388
G01 X49.314 Y42.781 Z-4.78
G01 X48.886 Y43.028 Z-5.343
G01 X48.714 Y43.127 Z-5.558
G01 X48.372 Y43.325 Z-5.921
G01 X47.944 Y43.572 Z-6.291
G01 X47.43 Y43.869 Z-6.592
G01 X46.917 Y44.165 Z-6.739
G01 X46.403 Y44.462 Z-6.726
G01 X45.889 Y44.759 Z-6.553
G01 X45.376 Y45.055 Z-6.227
G01 X44.947 Y45.303 Z-5.833
G01 X44.605 Y45.5 Z-5.453
G01 X44.177 Y45.748 Z-4.888
G01 X44.006 Y45.846 Z-4.652
G01 X43.835 Y45.945 Z-4.383
G01 X43.749 Y45.995 Z-4.261
G01 X43.407 Y46.193 Z-3.68
G01 X43.407 Y46.489 Z-4.118
G01 X43.407 Y46.786 Z-4.527
G01 X43.407 Y47.181 Z-5.021
G01 X43.407 Y47.477 Z-5.355
G01 X43.407 Y47.774 Z-5.655
G01 X43.407 Y48.169 Z-6.001
G01 X43.407 Y48.664 Z-6.354
G01 X43.407 Y49.257 Z-6.63
G01 X43.407 Y49.85 Z-6.751
G01 X43.407 Y50.443 Z-6.711
G01 X43.407 Y51.036 Z-6.513
G01 X43.407 Y51.629 Z-6.16
G01 X43.407 Y52.024 Z-5.84
G01 X43.407 Y52.519 Z-5.347
G01 X43.407 Y52.815 Z-5.02
G01 X43.407 Y53.013 Z-4.772
G01 X43.407 Y53.112 Z-4.658
G01 X43.407 Y53.507 Z-4.12
G01 X43.407 Y53.804 Z-3.693
G01 X43.749 Y54.001 Z-4.261
G01 X44.006 Y54.15 Z-4.655
G01 X44.263 Y54.298 Z-5.022
G01 X44.691 Y54.545 Z-5.559
G01 X44.947 Y54.693 Z-5.843
G01 X45.204 Y54.842 Z-6.079
G01 X45.461 Y54.99 Z-6.294
G01 X45.632 Y55.089 Z-6.404
G01 X45.975 Y55.287 Z-6.597
G01 X46.232 Y55.435 Z-6.684
G01 X46.574 Y55.633 Z-6.758
G01 X47.088 Y55.929 Z-6.715
G01 X47.43 Y56.127 Z-6.599
G01 X47.858 Y56.374 Z-6.349
G01 X48.029 Y56.473 Z-6.228
G01 X48.286 Y56.622 Z-6.009
G01 X48.543 Y56.77 Z-5.755
G01 X48.886 Y56.968 Z-5.356
G01 X49.228 Y57.166 Z-4.898
G01 X49.57 Y57.363 Z-4.401
G01 X49.913 Y57.561 Z-3.852
G01 X49.999 Y57.611 Z-3.707
G01 X49.999 Y58.477 Z-1.107 F50
G01 X49.999 Y58.573 Z-0.874
G01 X49.999 Y58.669 Z-0.71 F100
G01 X49.999 Y58.766 Z-0.581
G01 X50.171 Y58.666 Z-0.711
G01 X50.344 Y58.566 Z-0.873
G01 X50.43 Y58.516 Z-0.97
G01 X51.034 Y58.168 Z-1.821
G01 X51.12 Y58.118 Z-1.925
G01 X51.293 Y58.018 Z-2.16
G01 X51.465 Y57.919 Z-2.351
G01 X51.638 Y57.819 Z-2.559
G01 X51.897 Y57.67 Z-2.817
G01 X51.983 Y57.62 Z-2.908
G01 X52.414 Y57.371 Z-3.264
G01 X52.76 Y57.171 Z-3.477
G01 X53.277 Y56.872 Z-3.689
G01 X53.709 Y56.623 Z-3.754
G01 X53.968 Y56.474 Z-3.748
G01 X54.399 Y56.225 Z-3.666
G01 X54.917 Y55.926 Z-3.429
G01 X55.348 Y55.677 Z-3.134
G01 X55.693 Y55.478 Z-2.828
G01 X56.038 Y55.278 Z-2.47
G01 X56.211 Y55.179 Z-2.256
G01 X56.384 Y55.079 Z-2.056
G01 X56.988 Y54.73 Z-1.221
G01 X57.16 Y54.631 Z-0.97
G01 X57.333 Y54.531 Z-0.789
G01 X57.505 Y54.431 Z-0.643
G01 X57.592 Y54.382 Z-0.581
G01 X57.592 Y54.182 Z-0.711
G01 X57.592 Y53.983 Z-0.873
G01 X57.592 Y53.883 Z-0.97
G01 X57.592 Y53.286 Z-1.713
G01 X57.592 Y52.987 Z-2.042
G01 X57.592 Y52.887 Z-2.16
G01 X57.592 Y52.588 Z-2.454
G01 X57.592 Y52.489 Z-2.559
G01 X57.592 Y51.991 Z-2.98
G01 X57.592 Y51.493 Z-3.318
G01 X57.592 Y51.194 Z-3.475
G01 X57.592 Y51.094 Z-3.518
G01 X57.592 Y50.497 Z-3.707
G01 X57.592 Y50.297 Z-3.731
G01 X57.592 Y49.899 Z-3.752
G01 X57.592 Y49.7 Z-3.736
G01 X57.592 Y49.202 Z-3.63
G01 X57.592 Y48.704 Z-3.42
G01 X57.592 Y48.604 Z-3.37
G01 X57.592 Y48.106 Z-3.057
G01 X57.592 Y47.707 Z-2.739
G01 X57.592 Y47.309 Z-2.363
G01 X57.592 Y46.91 Z-1.936
G01 X57.592 Y46.313 Z-1.217
G01 X57.592 Y46.114 Z-0.968
G01 X57.592 Y45.914 Z-0.787
G01 X57.592 Y45.715 Z-0.641
G01 X57.592 Y45.616 Z-0.58
G01 X57.419 Y45.516 Z-0.71
G01 X57.246 Y45.416 Z-0.871
G01 X57.16 Y45.366 Z-0.968
G01 X56.556 Y45.018 Z-1.827
G01 X56.211 Y44.818 Z-2.265
G01 X56.038 Y44.719 Z-2.453
G01 X55.866 Y44.619 Z-2.651
G01 X55.607 Y44.47 Z-2.894
G01 X55.521 Y44.42 Z-2.98
G01 X55.003 Y44.121 Z-3.368
G01 X54.744 Y43.972 Z-3.52
G01 X54.226 Y43.673 Z-3.703
G01 X54.054 Y43.573 Z-3.736
G01 X53.622 Y43.324 Z-3.744
G01 X53.45 Y43.224 Z-3.72
G01 X52.932 Y42.925 Z-3.558
G01 X52.587 Y42.726 Z-3.368
G01 X52.069 Y42.427 Z-2.975
G01 X51.724 Y42.228 Z-2.649
G01 X51.293 Y41.979 Z-2.157
G01 X51.034 Y41.829 Z-1.826
G01 X50.43 Y41.481 Z-0.965
G01 X50.257 Y41.381 Z-0.785
G01 X50.085 Y41.281 Z-0.64
G01 X49.999 Y41.232 Z-0.578
G01 X49.826 Y41.331 Z-0.708
G01 X49.653 Y41.431 Z-0.869
G01 X49.567 Y41.481 Z-0.965
G01 X48.877 Y41.879 Z-1.938
G01 X48.532 Y42.078 Z-2.362
G01 X48.187 Y42.278 Z-2.732
G01 X47.842 Y42.477 Z-3.053
G01 X47.583 Y42.626 Z-3.239
G01 X47.41 Y42.726 Z-3.367
G01 X47.065 Y42.925 Z-3.556
G01 X46.548 Y43.224 Z-3.718
G01 X46.375 Y43.324 Z-3.742
G01 X45.944 Y43.573 Z-3.734
G01 X45.771 Y43.673 Z-3.7
G01 X45.254 Y43.972 Z-3.518
G01 X44.908 Y44.171 Z-3.314
G01 X44.65 Y44.32 Z-3.109
G01 X44.477 Y44.42 Z-2.977
G01 X44.218 Y44.569 Z-2.724
G01 X44.132 Y44.619 Z-2.648
G01 X43.701 Y44.868 Z-2.152
G01 X43.356 Y45.068 Z-1.715
G01 X42.838 Y45.366 Z-0.966
G01 X42.665 Y45.466 Z-0.785
G01 X42.493 Y45.566 Z-0.64
G01 X42.407 Y45.616 Z-0.579
G01 X42.407 Y45.815 Z-0.709
G01 X42.407 Y46.014 Z-0.869
G01 X42.407 Y46.114 Z-0.966
G01 X42.407 Y46.612 Z-1.579
G01 X42.407 Y47.11 Z-2.153
G01 X42.407 Y47.409 Z-2.462
G01 X42.407 Y47.807 Z-2.823
G01 X42.407 Y48.205 Z-3.122
G01 X42.407 Y48.704 Z-3.417
G01 X42.407 Y49.202 Z-3.627
G01 X42.407 Y49.7 Z-3.732
G01 X42.407 Y49.999 Z-3.749
G01 X42.407 Y50.497 Z-3.704
G01 X42.407 Y50.596 Z-3.68
G01 X42.407 Y51.194 Z-3.472
G01 X42.407 Y51.493 Z-3.315
G01 X42.407 Y51.592 Z-3.258
G01 X42.407 Y52.09 Z-2.898
G01 X42.407 Y52.489 Z-2.556
G01 X42.407 Y52.788 Z-2.255
G01 X42.407 Y52.887 Z-2.157
G01 X42.407 Y53.186 Z-1.816
G01 X42.407 Y53.385 Z-1.597
G01 X42.407 Y53.883 Z-0.968
G01 X42.407 Y54.083 Z-0.787
G01 X42.407 Y54.282 Z-0.642
G01 X42.407 Y54.382 Z-0.58
G01 X42.579 Y54.481 Z-0.71
G01 X42.752 Y54.581 Z-0.871
G01 X42.838 Y54.631 Z-0.968
G01 X43.269 Y54.88 Z-1.585
G01 X43.701 Y55.129 Z-2.154
G01 X44.132 Y55.378 Z-2.642
G01 X44.391 Y55.527 Z-2.905
G01 X44.65 Y55.677 Z-3.131
G01 X45.081 Y55.926 Z-3.426
G01 X45.599 Y56.225 Z-3.663
G01 X46.03 Y56.474 Z-3.746
G01 X46.289 Y56.623 Z-3.752
G01 X46.72 Y56.872 Z-3.687
G01 X46.806 Y56.922 Z-3.658
G01 X47.324 Y57.221 Z-3.424
G01 X47.583 Y57.371 Z-3.262
G01 X48.014 Y57.62 Z-2.907
G01 X48.273 Y57.769 Z-2.642
G01 X48.359 Y57.819 Z-2.558
G01 X48.618 Y57.968 Z-2.254
G01 X48.704 Y58.018 Z-2.159
G01 X48.963 Y58.168 Z-1.82
G01 X49.05 Y58.218 Z-1.716
G01 X49.567 Y58.516 Z-0.97
G01 X49.74 Y58.616 Z-0.788
G01 X49.912 Y58.716 Z-0.643
G01 X49.999 Y58.766 Z-0.581
G01 X49.999 Y58.862 Z-0.474
G01 X49.999 Y58.958 Z-0.385
G01 X49.999 Y59.151 Z-0.243
G01 X49.999 Y59.343 Z-0.14
G01 X49.999 Y59.536 Z-0.068
G01 X49.999 Y59.728 Z-0.023
G01 X49.999 Y59.921 Z-0.001
G01 X50.428 Y59.672 Z-0.031
G01 X50.944 Y59.375 Z-0.107
G01 X51.545 Y59.028 Z-0.237
G01 X52.662 Y58.383 Z-0.545
G01 X53.264 Y58.035 Z-0.704
G01 X53.693 Y57.787 Z-0.79
G01 X54.037 Y57.589 Z-0.829
G01 X54.381 Y57.39 Z-0.838
G01 X54.725 Y57.192 Z-0.813
G01 X55.068 Y56.994 Z-0.759
G01 X55.584 Y56.696 Z-0.64
G01 X57.045 Y55.852 Z-0.237
G01 X57.646 Y55.505 Z-0.107
G01 X58.162 Y55.208 Z-0.031
G01 X58.592 Y54.96 Z-0.001
G01 X58.592 Y54.463 Z-0.031
G01 X58.592 Y53.868 Z-0.107
G01 X58.592 Y53.174 Z-0.237
G01 X58.592 Y51.884 Z-0.544
G01 X58.592 Y51.19 Z-0.703
G01 X58.592 Y50.693 Z-0.789
G01 X58.592 Y50.297 Z-0.828
G01 X58.592 Y49.9 Z-0.837
G01 X58.592 Y49.503 Z-0.812
G01 X58.592 Y49.106 Z-0.758
G01 X58.592 Y48.511 Z-0.639
G01 X58.592 Y46.824 Z-0.237
G01 X58.592 Y46.13 Z-0.107
G01 X58.592 Y45.535 Z-0.031
G01 X58.592 Y45.039 Z-0.001
G01 X58.162 Y44.79 Z-0.031
G01 X57.646 Y44.493 Z-0.107
G01 X57.045 Y44.146 Z-0.237
G01 X55.928 Y43.501 Z-0.544
G01 X55.326 Y43.153 Z-0.703
G01 X54.897 Y42.905 Z-0.789
G01 X54.553 Y42.707 Z-0.827
G01 X54.209 Y42.508 Z-0.837
G01 X53.865 Y42.31 Z-0.811
G01 X53.522 Y42.112 Z-0.757
G01 X53.006 Y41.814 Z-0.638
G01 X51.545 Y40.97 Z-0.237
G01 X50.944 Y40.623 Z-0.107
G01 X50.428 Y40.326 Z-0.031
G01 X49.999 Y40.078 Z-0.001
G01 X49.569 Y40.326 Z-0.031
G01 X49.053 Y40.623 Z-0.107
G01 X48.452 Y40.97 Z-0.237
G01 X47.335 Y41.615 Z-0.543
G01 X46.734 Y41.963 Z-0.701
G01 X46.304 Y42.211 Z-0.787
G01 X45.96 Y42.409 Z-0.826
G01 X45.617 Y42.608 Z-0.835
G01 X45.273 Y42.806 Z-0.81
G01 X44.929 Y43.004 Z-0.756
G01 X44.414 Y43.302 Z-0.637
G01 X42.953 Y44.146 Z-0.236
G01 X42.352 Y44.493 Z-0.106
G01 X41.836 Y44.79 Z-0.031
G01 X41.407 Y45.039 Z-0.001
G01 X41.407 Y45.535 Z-0.031
G01 X41.407 Y46.13 Z-0.106
G01 X41.407 Y46.824 Z-0.236
G01 X41.407 Y48.114 Z-0.543
G01 X41.407 Y48.808 Z-0.701
G01 X41.407 Y49.305 Z-0.787
G01 X41.407 Y49.701 Z-0.826
G01 X41.407 Y50.098 Z-0.835
G01 X41.407 Y50.495 Z-0.81
G01 X41.407 Y50.892 Z-0.756
G01 X41.407 Y51.487 Z-0.638
G01 X41.407 Y53.174 Z-0.237
G01 X41.407 Y53.868 Z-0.107
G01 X41.407 Y54.463 Z-0.031
G01 X41.407 Y54.96 Z-0.001
G01 X41.836 Y55.208 Z-0.031
G01 X42.352 Y55.505 Z-0.107
G01 X42.953 Y55.852 Z-0.237
G01 X44.07 Y56.497 Z-0.544
G01 X44.671 Y56.845 Z-0.702
G01 X45.101 Y57.093 Z-0.789
G01 X45.445 Y57.291 Z-0.828
G01 X45.788 Y57.49 Z-0.837
G01 X46.132 Y57.688 Z-0.811
G01 X46.476 Y57.886 Z-0.758
G01 X46.991 Y58.184 Z-0.639
G01 X48.452 Y59.028 Z-0.237
G01 X49.053 Y59.375 Z-0.107
G01 X49.569 Y59.672 Z-0.031
G01 X49.999 Y59.921 Z-0.001
G00 Z2
G01 X49.999 Y50.68
G01 Z-7
G01 X49.999 Y50.68 Z-10 F50
G01 X50.592 Y50.337 Z-10 F100
G01 X50.592 Y49.654 Z-10
G01 X49.999 Y49.311 Z-10
G01 X49.407 Y49.654 Z-10
G01 X49.407 Y50.337 Z-10
G01 X49.999 Y50.68 Z-10
G01 X49.999 Y51.835 Z-10
G01 X51.592 Y50.915 Z-10
G01 X51.592 Y49.077 Z-10
G01 X49.999 Y48.157 Z-10
G01 X48.407 Y49.077 Z-10
G01 X48.407 Y50.915 Z-10
G01 X49.999 Y51.835 Z-10
G01 X49.999 Y52.991 Z-10
G01 X52.592 Y51.492 Z-10
G01 X52.592 Y48.501 Z-10
G01 X49.999 Y47.002 Z-10
G01 X47.407 Y48.501 Z-10
G01 X47.407 Y51.492 Z-10
G01 X49.999 Y52.991 Z-10
G01 X49.999 Y54.146 Z-10
G01 X53.592 Y52.07 Z-10
G01 X53.592 Y47.924 Z-10
G01 X49.999 Y45.848 Z-10
G01 X46.407 Y47.924 Z-10
G01 X46.407 Y52.07 Z-10
G01 X49.999 Y54.146 Z-10
G01 X49.999 Y55.301 Z-10
G01 X54.592 Y52.648 Z-10
G01 X54.592 Y47.347 Z-10
G01 X49.999 Y44.694 Z-10
G01 X45.407 Y47.347 Z-10
G01 X45.407 Y52.648 Z-10
G01 X49.999 Y55.301 Z-10
G01 X49.999 Y55.493 Z-10
G01 X49.999 Y55.589 Z-9.771 F50
G01 X49.999 Y56.456 Z-7.172
G01 X50.343 Y56.257 Z-7.733 F100
G01 X50.601 Y56.108 Z-8.109
G01 X50.859 Y55.959 Z-8.462
G01 X51.117 Y55.81 Z-8.777
G01 X51.547 Y55.561 Z-9.212
G01 X51.978 Y55.313 Z-9.526
G01 X52.408 Y55.064 Z-9.71
G01 X52.838 Y54.816 Z-9.763
G01 X53.268 Y54.567 Z-9.684
G01 X53.698 Y54.319 Z-9.475
G01 X54.129 Y54.07 Z-9.137
G01 X54.645 Y53.772 Z-8.58
G01 X54.817 Y53.673 Z-8.359
G01 X55.247 Y53.424 Z-7.708
G01 X55.333 Y53.375 Z-7.553
G01 X55.592 Y53.226 Z-7.146
G01 X55.592 Y53.126 Z-7.308
G01 X55.592 Y52.53 Z-8.118
G01 X55.592 Y51.934 Z-8.783
G01 X55.592 Y51.438 Z-9.208
G01 X55.592 Y51.338 Z-9.279
G01 X55.592 Y50.842 Z-9.566
G01 X55.592 Y50.345 Z-9.724
G01 X55.592 Y49.849 Z-9.75
G01 X55.592 Y49.352 Z-9.644
G01 X55.592 Y48.855 Z-9.41
G01 X55.592 Y48.359 Z-9.05
G01 X55.592 Y47.763 Z-8.464
G01 X55.592 Y47.167 Z-7.726
G01 X55.592 Y46.77 Z-7.145
G01 X55.419 Y46.67 Z-7.451
G01 X54.903 Y46.372 Z-8.233
G01 X54.387 Y46.074 Z-8.873
G01 X53.957 Y45.825 Z-9.276
G01 X53.785 Y45.726 Z-9.395
G01 X53.526 Y45.577 Z-9.559
G01 X53.44 Y45.527 Z-9.602
G01 X53.096 Y45.328 Z-9.716
G01 X53.01 Y45.279 Z-9.733
G01 X52.58 Y45.03 Z-9.732
G01 X52.15 Y44.782 Z-9.6
G01 X51.719 Y44.533 Z-9.341
G01 X51.289 Y44.285 Z-8.96
G01 X50.773 Y43.987 Z-8.345
G01 X50.257 Y43.689 Z-7.584
G01 X49.999 Y43.54 Z-7.136
G01 X49.74 Y43.689 Z-7.584
G01 X49.224 Y43.987 Z-8.344
G01 X48.708 Y44.285 Z-8.958
G01 X48.278 Y44.533 Z-9.339
G01 X47.848 Y44.782 Z-9.599
G01 X47.762 Y44.832 Z-9.633
G01 X47.418 Y45.03 Z-9.73
G01 X47.332 Y45.08 Z-9.739
G01 X46.987 Y45.279 Z-9.731
G01 X46.901 Y45.328 Z-9.713
G01 X46.557 Y45.527 Z-9.599
G01 X46.471 Y45.577 Z-9.556
G01 X46.041 Y45.825 Z-9.273
G01 X45.611 Y46.074 Z-8.871
G01 X45.095 Y46.372 Z-8.23
G01 X44.579 Y46.67 Z-7.448
G01 X44.407 Y46.77 Z-7.143
G01 X44.407 Y47.266 Z-7.852
G01 X44.407 Y47.763 Z-8.461
G01 X44.407 Y48.359 Z-9.048
G01 X44.407 Y48.855 Z-9.407
G01 X44.407 Y49.352 Z-9.641
G01 X44.407 Y49.849 Z-9.747
G01 X44.407 Y50.345 Z-9.721
G01 X44.407 Y50.842 Z-9.563
G01 X44.407 Y51.338 Z-9.277
G01 X44.407 Y51.438 Z-9.205
G01 X44.407 Y51.934 Z-8.78
G01 X44.407 Y52.53 Z-8.115
G01 X44.407 Y53.126 Z-7.306
G01 X44.407 Y53.226 Z-7.143
G01 X44.665 Y53.375 Z-7.551
G01 X44.837 Y53.474 Z-7.843
G01 X45.181 Y53.673 Z-8.357
G01 X45.439 Y53.822 Z-8.676
G01 X45.869 Y54.07 Z-9.135
G01 X46.299 Y54.319 Z-9.472
G01 X46.729 Y54.567 Z-9.681
G01 X47.159 Y54.816 Z-9.761
G01 X47.59 Y55.064 Z-9.708
G01 X48.02 Y55.313 Z-9.524
G01 X48.45 Y55.561 Z-9.211
G01 X48.88 Y55.81 Z-8.776
G01 X48.966 Y55.859 Z-8.683
G01 X49.396 Y56.108 Z-8.109
G01 X49.568 Y56.207 Z-7.862
G01 X49.826 Y56.356 Z-7.46
G01 X49.999 Y56.456 Z-7.172
G01 X49.999 Y57.611 Z-3.707 F50
G01 X50.255 Y57.462 Z-4.135 F100
G01 X50.598 Y57.264 Z-4.657
G01 X50.94 Y57.067 Z-5.133
G01 X51.197 Y56.918 Z-5.462
G01 X51.54 Y56.721 Z-5.844
G01 X51.797 Y56.572 Z-6.092
G01 X52.053 Y56.424 Z-6.289
G01 X52.225 Y56.325 Z-6.409
G01 X52.567 Y56.127 Z-6.6
G01 X52.91 Y55.929 Z-6.717
G01 X53.423 Y55.633 Z-6.76
G01 X53.852 Y55.386 Z-6.662
G01 X54.108 Y55.237 Z-6.563
G01 X54.537 Y54.99 Z-6.296
G01 X54.965 Y54.743 Z-5.93
G01 X55.222 Y54.595 Z-5.661
G01 X55.478 Y54.446 Z-5.364
G01 X55.907 Y54.199 Z-4.779
G01 X56.163 Y54.051 Z-4.396
G01 X56.42 Y53.902 Z-3.988
G01 X56.592 Y53.804 Z-3.696
G01 X56.592 Y53.309 Z-4.387
G01 X56.592 Y53.013 Z-4.774
G01 X56.592 Y52.716 Z-5.134
G01 X56.592 Y52.321 Z-5.556
G01 X56.592 Y52.024 Z-5.843
G01 X56.592 Y51.629 Z-6.163
G01 X56.592 Y51.036 Z-6.516
G01 X56.592 Y50.443 Z-6.714
G01 X56.592 Y49.85 Z-6.754
G01 X56.592 Y49.257 Z-6.633
G01 X56.592 Y48.664 Z-6.357
G01 X56.592 Y48.071 Z-5.924
G01 X56.592 Y47.576 Z-5.46
G01 X56.592 Y47.28 Z-5.137
G01 X56.592 Y46.983 Z-4.783
G01 X56.592 Y46.588 Z-4.263
G01 X56.592 Y46.291 Z-3.838
G01 X56.592 Y46.193 Z-3.683
G01 X56.506 Y46.143 Z-3.837
G01 X56.335 Y46.044 Z-4.114
G01 X56.249 Y45.995 Z-4.264
G01 X55.907 Y45.797 Z-4.775
G01 X55.65 Y45.649 Z-5.137
G01 X55.478 Y45.55 Z-5.344
G01 X55.307 Y45.451 Z-5.556
G01 X54.879 Y45.204 Z-5.995
G01 X54.622 Y45.055 Z-6.229
G01 X54.108 Y44.759 Z-6.556
G01 X53.595 Y44.462 Z-6.728
G01 X53.081 Y44.165 Z-6.741
G01 X52.567 Y43.869 Z-6.594
G01 X52.053 Y43.572 Z-6.292
G01 X51.54 Y43.275 Z-5.829
G01 X51.197 Y43.078 Z-5.452
G01 X50.855 Y42.88 Z-5.013
G01 X50.598 Y42.732 Z-4.65
G01 X50.255 Y42.534 Z-4.11
G01 X50.084 Y42.435 Z-3.834
G01 X49.999 Y42.386 Z-3.675
G01 X49.913 Y42.435 Z-3.834
G01 X49.57 Y42.633 Z-4.388
G01 X49.314 Y42.781 Z-4.78
G01 X48.886 Y43.028 Z-5.343
G01 X48.714 Y43.127 Z-5.558
G01 X48.372 Y43.325 Z-5.921
G01 X47.944 Y43.572 Z-6.291
G01 X47.43 Y43.869 Z-6.592
G01 X46.917 Y44.165 Z-6.739
G01 X46.403 Y44.462 Z-6.726
G01 X45.889 Y44.759 Z-6.553
G01 X45.376 Y45.055 Z-6.227
G01 X44.947 Y45.303 Z-5.833
G01 X44.605 Y45.5 Z-5.453
G01 X44.177 Y45.748 Z-4.888
G01 X44.006 Y45.846 Z-4.652
G01 X43.835 Y45.945 Z-4.383
G01 X43.749 Y45.995 Z-4.261
G01 X43.407 Y46.193 Z-3.68
G01 X43.407 Y46.489 Z-4.118
G01 X43.407 Y46.786 Z-4.527
G01 X43.407 Y47.181 Z-5.021
G01 X43.407 Y47.477 Z-5.355
G01 X43.407 Y47.774 Z-5.655
G01 X43.407 Y48.169 Z-6.001
G01 X43.407 Y48.664 Z-6.354
G01 X43.407 Y49.257 Z-6.63
G01 X43.407 Y49.85 Z-6.751
G01 X43.407 Y50.443 Z-6.711
G01 X43.407 Y51.036 Z-6.513
G01 X43.407 Y51.629 Z-6.16
G01 X43.407 Y52.024 Z-5.84
G01 X43.407 Y52.519 Z-5.347
G01 X43.407 Y52.815 Z-5.02
G01 X43.407 Y53.013 Z-4.772
G01 X43.407 Y53.112 Z-4.658
G01 X43.407 Y53.507 Z-4.12
G01 X43.407 Y53.804 Z-3.693
G01 X43.749 Y54.001 Z-4.261
G01 X44.006 Y54.15 Z-4.655
G01 X44.263 Y54.298 Z-5.022
G01 X44.691 Y54.545 Z-5.559
G01 X44.947 Y54.693 Z-5.843
G01 X45.204 Y54.842 Z-6.079
G01 X45.461 Y54.99 Z-6.294
G01 X45.632 Y55.089 Z-6.404
G01 X45.975 Y55.287 Z-6.597
G01 X46.232 Y55.435 Z-6.684
G01 X46.574 Y55.633 Z-6.758
G01 X47.088 Y55.929 Z-6.715
G01 X47.43 Y56.127 Z-6.599
G01 X47.858 Y56.374 Z-6.349
G01 X48.029 Y56.473 Z-6.228
G01 X48.286 Y56.622 Z-6.009
G01 X48.543 Y56.77 Z-5.755
G01 X48.886 Y56.968 Z-5.356
G01 X49.228 Y57.166 Z-4.898
G01 X49.57 Y57.363 Z-4.401
G01 X49.913 Y57.561 Z-3.852
G01 X49.999 Y57.611 Z-3.707
G01 X49.999 Y58.477 Z-1.107 F50
G01 X49.999 Y58.573 Z-0.874
G01 X49.999 Y58.669 Z-0.71 F100
G01 X49.999 Y58.766 Z-0.581
G01 X50.171 Y58.666 Z-0.711
G01 X50.344 Y58.566 Z-0.873
G01 X50.43 Y58.516 Z-0.97
G01 X51.034 Y58.168 Z-1.821
G01 X51.12 Y58.118 Z-1.925
G01 X51.293 Y58.018 Z-2.16
G01 X51.465 Y57.919 Z-2.351
G01 X51.638 Y57.819 Z-2.559
G01 X51.897 Y57.67 Z-2.817
G01 X51.983 Y57.62 Z-2.908
G01 X52.414 Y57.371 Z-3.264
G01 X52.76 Y57.171 Z-3.477
G01 X53.277 Y56.872 Z-3.689
G01 X53.709 Y56.623 Z-3.754
G01 X53.968 Y56.474 Z-3.748
G01 X54.399 Y56.225 Z-3.666
G01 X54.917 Y55.926 Z-3.429
G01 X55.348 Y55.677 Z-3.134
G01 X55.693 Y55.478 Z-2.828
G01 X56.038 Y55.278 Z-2.47
G01 X56.211 Y55.179 Z-2.256
G01 X56.384 Y55.079 Z-2.056
G01 X56.988 Y54.73 Z-1.221
G01 X57.16 Y54.631 Z-0.97
G01 X57.333 Y54.531 Z-0.789
G01 X57.505 Y54.431 Z-0.643
G01 X57.592 Y54.382 Z-0.581
G01 X57.592 Y54.182 Z-0.711
G01 X57.592 Y53.983 Z-0.873
G01 X57.592 Y53.883 Z-0.97
G01 X57.592 Y53.286 Z-1.713
G01 X57.592 Y52.987 Z-2.042
G01 X57.592 Y52.887 Z-2.16
G01 X57.592 Y52.588 Z-2.454
G01 X57.592 Y52.489 Z-2.559
G01 X57.592 Y51.991 Z-2.98
G01 X57.592 Y51.493 Z-3.318
G01 X57.592 Y51.194 Z-3.475
G01 X57.592 Y51.094 Z-3.518
G01 X57.592 Y50.497 Z-3.707
G01 X57.592 Y50.297 Z-3.731
G01 X57.592 Y49.899 Z-3.752
G01 X57.592 Y49.7 Z-3.736
G01 X57.592 Y49.202 Z-3.63
G01 X57.592 Y48.704 Z-3.42
G01 X57.592 Y48.604 Z-3.37
G01 X57.592 Y48.106 Z-3.057
G01 X57.592 Y47.707 Z-2.739
G01 X57.592 Y47.309 Z-2.363
G01 X57.592 Y46.91 Z-1.936
G01 X57.592 Y46.313 Z-1.217
G01 X57.592 Y46.114 Z-0.968
G01 X57.592 Y45.914 Z-0.787
G01 X57.592 Y45.715 Z-0.641
G01 X57.592 Y45.616 Z-0.58
G01 X57.419 Y45.516 Z-0.71
G01 X57.246 Y45.416 Z-0.871
G01 X57.16 Y45.366 Z-0.968
G01 X56.556 Y45.018 Z-1.827
G01 X56.211 Y44.818 Z-2.265
G01 X56.038 Y44.719 Z-2.453
G01 X55.866 Y44.619 Z-2.651
G01 X55.607 Y44.47 Z-2.894
G01 X55.521 Y44.42 Z-2.98
G01 X55.003 Y44.121 Z-3.368
G01 X54.744 Y43.972 Z-3.52
G01 X54.226 Y43.673 Z-3.703
G01 X54.054 Y43.573 Z-3.736
G01 X53.622 Y43.324 Z-3.744
G01 X53.45 Y43.224 Z-3.72
G01 X52.932 Y42.925 Z-3.558
G01 X52.587 Y42.726 Z-3.368
G01 X52.069 Y42.427 Z-2.975
G01 X51.724 Y42.228 Z-2.649
G01 X51.293 Y41.979 Z-2.157
G01 X51.034 Y41.829 Z-1.826
G01 X50.43 Y41.481 Z-0.965
G01 X50.257 Y41.381 Z-0.785
G01 X50.085 Y41.281 Z-0.64
G01 X49.999 Y41.232 Z-0.578
G01 X49.826 Y41.331 Z-0.708
G01 X49.653 Y41.431 Z-0.869
G01 X49.567 Y41.481 Z-0.965
G01 X48.877 Y41.879 Z-1.938
G01 X48.532 Y42.078 Z-2.362
G01 X48.187 Y42.278 Z-2.732
G01 X47.842 Y42.477 Z-3.053
G01 X47.583 Y42.626 Z-3.239
G01 X47.41 Y42.726 Z-3.367
G01 X47.065 Y42.925 Z-3.556
G01 X46.548 Y43.224 Z-3.718
G01 X46.375 Y43.324 Z-3.742
G01 X45.944 Y43.573 Z-3.734
G01 X45.771 Y43.673 Z-3.7
G01 X45.254 Y43.972 Z-3.518
G01 X44.908 Y44.171 Z-3.314
G01 X44.65 Y44.32 Z-3.109
G01 X44.477 Y44.42 Z-2.977
G01 X44.218 Y44.569 Z-2.724
G01 X44.132 Y44.619 Z-2.648
G01 X43.701 Y44.868 Z-2.152
G01 X43.356 Y45.068 Z-1.715
G01 X42.838 Y45.366 Z-0.966
G01 X42.665 Y45.466 Z-0.785
G01 X42.493 Y45.566 Z-0.64
G01 X42.407 Y45.616 Z-0.579
G01 X42.407 Y45.815 Z-0.709
G01 X42.407 Y46.014 Z-0.869
G01 X42.407 Y46.114 Z-0.966
G01 X42.407 Y46.612 Z-1.579
G01 X42.407 Y47.11 Z-2.153
G01 X42.407 Y47.409 Z-2.462
G01 X42.407 Y47.807 Z-2.823
G01 X42.407 Y48.205 Z-3.122
G01 X42.407 Y48.704 Z-3.417
G01 X42.407 Y49.202 Z-3.627
G01 X42.407 Y49.7 Z-3.732
G01 X42.407 Y49.999 Z-3.749
G01 X42.407 Y50.497 Z-3.704
G01 X42.407 Y50.596 Z-3.68
G01 X42.407 Y51.194 Z-3.472
G01 X42.407 Y51.493 Z-3.315
G01 X42.407 Y51.592 Z-3.258
G01 X42.407 Y52.09 Z-2.898
G01 X42.407 Y52.489 Z-2.556
G01 X42.407 Y52.788 Z-2.255
G01 X42.407 Y52.887 Z-2.157
G01 X42.407 Y53.186 Z-1.816
G01 X42.407 Y53.385 Z-1.597
G01 X42.407 Y53.883 Z-0.968
G01 X42.407 Y54.083 Z-0.787
G01 X42.407 Y54.282 Z-0.642
G01 X42.407 Y54.382 Z-0.58
G01 X42.579 Y54.481 Z-0.71
G01 X42.752 Y54.581 Z-0.871
G01 X42.838 Y54.631 Z-0.968
G01 X43.269 Y54.88 Z-1.585
G01 X43.701 Y55.129 Z-2.154
G01 X44.132 Y55.378 Z-2.642
G01 X44.391 Y55.527 Z-2.905
G01 X44.65 Y55.677 Z-3.131
G01 X45.081 Y55.926 Z-3.426
G01 X45.599 Y56.225 Z-3.663
G01 X46.03 Y56.474 Z-3.746
G01 X46.289 Y56.623 Z-3.752
G01 X46.72 Y56.872 Z-3.687
G01 X46.806 Y56.922 Z-3.658
G01 X47.324 Y57.221 Z-3.424
G01 X47.583 Y57.371 Z-3.262
G01 X48.014 Y57.62 Z-2.907
G01 X48.273 Y57.769 Z-2.642
G01 X48.359 Y57.819 Z-2.558
G01 X48.618 Y57.968 Z-2.254
G01 X48.704 Y58.018 Z-2.159
G01 X48.963 Y58.168 Z-1.82
G01 X49.05 Y58.218 Z-1.716
G01 X49.567 Y58.516 Z-0.97
G01 X49.74 Y58.616 Z-0.788
G01 X49.912 Y58.716 Z-0.643
G01 X49.999 Y58.766 Z-0.581
G01 X49.999 Y58.862 Z-0.474
G01 X49.999 Y58.958 Z-0.385
G01 X49.999 Y59.151 Z-0.243
G01 X49.999 Y59.343 Z-0.14
G01 X49.999 Y59.536 Z-0.068
G01 X49.999 Y59.728 Z-0.023
G01 X49.999 Y59.921 Z-0.001
G01 X50.428 Y59.672 Z-0.031
G01 X50.944 Y59.375 Z-0.107
G01 X51.545 Y59.028 Z-0.237
G01 X52.662 Y58.383 Z-0.545
G01 X53.264 Y58.035 Z-0.704
G01 X53.693 Y57.787 Z-0.79
G01 X54.037 Y57.589 Z-0.829
G01 X54.381 Y57.39 Z-0.838
G01 X54.725 Y57.192 Z-0.813
G01 X55.068 Y56.994 Z-0.759
G01 X55.584 Y56.696 Z-0.64
G01 X57.045 Y55.852 Z-0.237
G01 X57.646 Y55.505 Z-0.107
G01 X58.162 Y55.208 Z-0.031
G01 X58.592 Y54.96 Z-0.001
G01 X58.592 Y54.463 Z-0.031
G01 X58.592 Y53.868 Z-0.107
G01 X58.592 Y53.174 Z-0.237
G01 X58.592 Y51.884 Z-0.544
G01 X58.592 Y51.19 Z-0.703
G01 X58.592 Y50.693 Z-0.789
G01 X58.592 Y50.297 Z-0.828
G01 X58.592 Y49.9 Z-0.837
G01 X58.592 Y49.503 Z-0.812
G01 X58.592 Y49.106 Z-0.758
G01 X58.592 Y48.511 Z-0.639
G01 X58.592 Y46.824 Z-0.237
G01 X58.592 Y46.13 Z-0.107
G01 X58.592 Y45.535 Z-0.031
G01 X58.592 Y45.039 Z-0.001
G01 X58.162 Y44.79 Z-0.031
G01 X57.646 Y44.493 Z-0.107
G01 X57.045 Y44.146 Z-0.237
G01 X55.928 Y43.501 Z-0.544
G01 X55.326 Y43.153 Z-0.703
G01 X54.897 Y42.905 Z-0.789
G01 X54.553 Y42.707 Z-0.827
G01 X54.209 Y42.508 Z-0.837
G01 X53.865 Y42.31 Z-0.811
G01 X53.522 Y42.112 Z-0.757
G01 X53.006 Y41.814 Z-0.638
G01 X51.545 Y40.97 Z-0.237
G01 X50.944 Y40.623 Z-0.107
G01 X50.428 Y40.326 Z-0.031
G01 X49.999 Y40.078 Z-0.001
G01 X49.569 Y40.326 Z-0.031
G01 X49.053 Y40.623 Z-0.107
G01 X48.452 Y40.97 Z-0.237
G01 X47.335 Y41.615 Z-0.543
G01 X46.734 Y41.963 Z-0.701
G01 X46.304 Y42.211 Z-0.787
G01 X45.96 Y42.409 Z-0.826
G01 X45.617 Y42.608 Z-0.835
G01 X45.273 Y42.806 Z-0.81
G01 X44.929 Y43.004 Z-0.756
G01 X44.414 Y43.302 Z-0.637
G01 X42.953 Y44.146 Z-0.236
G01 X42.352 Y44.493 Z-0.106
G01 X41.836 Y44.79 Z-0.031
G01 X41.407 Y45.039 Z-0.001
G01 X41.407 Y45.535 Z-0.031
G01 X41.407 Y46.13 Z-0.106
G01 X41.407 Y46.824 Z-0.236
G01 X41.407 Y48.114 Z-0.543
G01 X41.407 Y48.808 Z-0.701
