(Created with emc2b post processor 2014/08/11 16:31)
(tool change to 0.55 mm End Mill)
(T2 M06 G43)
(G17 G90 G21)
(G00 Z2 S7000 M03)
G01 X49.977 Y25.019
G01 Z-1 F50
G02 X49.976 Y24.951 I-0.005 J-0.033 F100
G01 X49.977 Y25.019 I0.015 J0.033
G01 X49.995 Y25.228
G02 X50.142 Y25.133 I0.016 J-0.135
G01 X50.194 Y24.962 I-0.068 J-0.114
G01 X50.133 Y24.792 I-0.128 J-0.049
G01 X49.761 Y25.059 I-0.144 J0.191
G01 X49.995 Y25.228 I0.233 J-0.077
G01 X49.994 Y25.439
G03 X50.235 Y25.362 I0.404 J0.851
G01 X50.406 Y25.131 I0.868 J0.464
G01 X50.408 Y24.832 I0.906 J-0.143
G01 X50.258 Y24.623 I0.712 J-0.669
G01 X49.991 Y24.536 I0.237 J-1.181
G01 X49.723 Y24.621 I-0.465 J-1.003
G01 X49.562 Y24.84 I-1.001 J-0.567
G01 X49.561 Y25.123 I-1.156 J0.137
G01 X49.721 Y25.348 I-0.825 J0.756
G01 X49.994 Y25.439 I-0.192 J1.031
G01 X49.994 Y25.656
G03 X50.362 Y25.538 I0.584 J1.188
G01 X50.612 Y25.2 I1.215 J0.637
G01 X50.615 Y24.769 I1.3 J-0.206
G01 X50.386 Y24.45 I1.057 J-1.001
G01 X49.992 Y24.321 I0.276 J-1.509
G01 X49.598 Y24.447 I-0.654 J-1.367
G01 X49.358 Y24.774 I-1.369 J-0.753
G01 X49.356 Y25.189 I-1.516 J0.2
G01 X49.594 Y25.523 I-1.094 J1.031
G01 X49.994 Y25.656 I-0.242 J1.397
G01 X49.993 Y25.874
G03 X50.489 Y25.714 I0.754 J1.49
G01 X50.818 Y25.269 I1.563 J0.811
G01 X50.823 Y24.705 I1.664 J-0.267
G01 X50.514 Y24.276 I1.28 J-1.248
G01 X49.994 Y24.105 I0.292 J-1.766
G01 X49.473 Y24.272 I-0.806 J-1.619
G01 X49.153 Y24.707 I-1.648 J-0.877
G01 X49.151 Y25.256 I-1.863 J0.267
G01 X49.467 Y25.698 I-1.288 J1.254
G01 X49.993 Y25.874 I-0.274 J1.694
G01 X49.992 Y26.092
G03 X50.616 Y25.89 I0.934 J1.82
G01 X51.024 Y25.338 I1.875 J0.959
G01 X51.031 Y24.641 I2.028 J-0.328
G01 X50.642 Y24.102 I1.539 J-1.52
G01 X49.995 Y23.889 I0.323 J-2.071
G01 X49.348 Y24.096 I-0.93 J-1.794
G01 X48.948 Y24.64 I-1.895 J-0.974
G01 X48.945 Y25.323 I-2.177 J0.331
G01 X49.339 Y25.873 I-1.448 J1.454
G01 X49.992 Y26.092 I-0.3 J1.979
G01 X49.991 Y26.31
G03 X50.743 Y26.067 I1.092 J2.097
G01 X51.231 Y25.407 I2.174 J1.097
G01 X51.239 Y24.576 I2.382 J-0.392
G01 X50.77 Y23.927 I1.751 J-1.759
G01 X49.996 Y23.672 I0.324 J-2.285
G01 X49.222 Y23.92 I-1.077 J-2.029
G01 X48.743 Y24.572 I-2.149 J-1.077
G01 X48.739 Y25.39 I-2.449 J0.397
G01 X49.211 Y26.049 I-1.623 J1.661
G01 X49.991 Y26.31 I-0.325 J2.269
G01 X49.989 Y26.532
G03 X50.874 Y26.246 I1.226 J2.281
G01 X51.441 Y25.477 I2.327 J1.122
G01 X51.45 Y24.511 I2.519 J-0.459
G01 X50.899 Y23.749 I1.914 J-1.964
G01 X49.997 Y23.451 I0.301 J-2.425
G01 X49.094 Y23.741 I-1.171 J-2.095
G01 X48.534 Y24.503 I-2.248 J-1.065
G01 X48.529 Y25.458 I-2.505 J0.464
G01 X49.08 Y26.228 I-1.67 J1.777
G01 X49.989 Y26.532 I-0.305 J2.424
G01 X49.988 Y26.756
G03 X51.005 Y26.426 I1.341 J2.4
G01 X51.652 Y25.548 I2.453 J1.13
G01 X51.663 Y24.446 I2.608 J-0.525
G01 X51.029 Y23.57 I1.999 J-2.114
G01 X49.999 Y23.229 I0.267 J-2.533
G01 X48.965 Y23.561 I-1.278 J-2.206
G01 X48.323 Y24.434 I-2.333 J-1.043
G01 X48.317 Y25.527 I-2.528 J0.532
G01 X48.948 Y26.408 I-1.691 J1.877
G01 X49.988 Y26.756 I-0.272 J2.541
G01 X49.986 Y26.98
G03 X51.136 Y26.607 I1.452 J2.52
G01 X51.865 Y25.619 I2.568 J1.132
G01 X51.877 Y24.381 I2.715 J-0.592
G01 X51.16 Y23.39 I2.066 J-2.249
G01 X50 Y23.005 I0.229 J-2.63
G01 X48.834 Y23.379 I-1.354 J-2.218
G01 X48.11 Y24.364 I-2.379 J-0.99
G01 X48.104 Y25.596 I-2.559 J0.603
G01 X48.815 Y26.589 I-1.716 J1.98
G01 X49.986 Y26.98 I-0.237 J2.66
G01 X49.983 Y27.205
G03 X51.268 Y26.788 I1.576 J2.669
G01 X52.079 Y25.69 I2.69 J1.138
G01 X52.092 Y24.316 I2.803 J-0.66
G01 X51.291 Y23.208 I2.156 J-2.402
G01 X50.001 Y22.779 I0.184 J-2.707
G01 X48.703 Y23.196 I-1.437 J-2.246
G01 X47.896 Y24.294 I-2.485 J-0.981
G01 X47.889 Y25.665 I-2.61 J0.672
G01 X48.682 Y26.771 I-1.741 J2.086
G01 X49.983 Y27.205 I-0.195 J2.753
G01 X49.98 Y27.436
G03 X51.412 Y26.971 I1.645 J2.631
G01 X51.471 Y26.818 I0.819 J0.228
G01 X51.827 Y26.234 I3.659 J1.83
G01 X52.305 Y25.763 I1.628 J1.174
G01 X52.263 Y25.604 I0.91 J-0.325
G01 X52.204 Y24.922 I3.698 J-0.663
G01 X52.315 Y24.255 I2.007 J-0.008
G01 X51.527 Y23.268 I2.443 J-2.758
G01 X51.436 Y23.023
G03 X50.003 Y22.548 I0.09 J-2.671
G01 X48.569 Y23.009 I-1.497 J-2.198
G01 X47.676 Y24.223 I-2.49 J-0.896
G01 X47.669 Y25.736 I-2.559 J0.744
G01 X48.546 Y26.958 I-1.669 J2.124
G01 X49.98 Y27.436 I-0.108 J2.715
G01 X49.974 Y27.668
G03 X51.288 Y27.173 I1.831 J2.869
G01 X51.554 Y27.169
G03 X51.778 Y26.697 I1.333 J0.343
G01 X52.534 Y25.837 I1.982 J0.98
G01 X52.439 Y25.328 I1.368 J-0.518
G01 X52.544 Y24.181 I2.128 J-0.383
G01 X52.168 Y23.828 I0.792 J-1.22
G01 X51.579 Y22.835 I1.532 J-1.58
G01 X50.004 Y22.313 I0.004 J-2.651
G01 X48.433 Y22.819 I-1.546 J-2.109
G01 X47.454 Y24.15 I-2.508 J-0.819
G01 X47.446 Y25.807 I-2.501 J0.816
G01 X48.407 Y27.148 I-1.577 J2.145
G01 X49.974 Y27.668 I-0.017 J2.674
G01 X49.975 Y27.913
G03 X50.511 Y27.607 I1.091 J1.289
G01 X51.701 Y27.367 I1.021 J1.996
G01 X51.948 Y26.804 I1.475 J0.311
G01 X52.77 Y25.912 I1.994 J1.013
G01 X52.639 Y25.314 I1.395 J-0.619
G01 X52.779 Y24.103 I2.171 J-0.362
G01 X52.322 Y23.7 I0.75 J-1.311
G01 X51.724 Y22.64 I1.581 J-1.59
G01 X50.007 Y22.071 I-0.105 J-2.555
G01 X48.286 Y22.623 I-1.59 J-2
G01 X48.042 Y23.192 I-1.535 J-0.321
G01 X47.22 Y24.077 I-2.018 J-1.05
G01 X47.355 Y24.668 I-1.473 J0.647
G01 X47.213 Y25.886 I-2.201 J0.36
G01 X47.672 Y26.293 I-0.794 J1.358
G01 X48.265 Y27.348 I-1.586 J1.586
G01 X48.885 Y27.411 I0.149 J1.606
G01 X49.975 Y27.913 I-0.363 J2.224
G01 X49.98 Y28.176
G03 X50.589 Y27.792 I1.135 J1.126
G01 X51.851 Y27.577 I0.975 J1.912
G01 X52.12 Y26.908 I1.632 J0.267
G01 X53.014 Y25.994 I1.913 J0.977
G01 X52.839 Y25.297 I1.505 J-0.748
G01 X53.026 Y24.026 I2.09 J-0.341
G01 X52.474 Y23.57 I0.743 J-1.461
G01 X51.878 Y22.434 I1.501 J-1.512
G01 X51.155 Y22.387 I-0.251 J-1.71
G01 X50.01 Y21.814 I0.343 J-2.116
G01 X49.076 Y22.333 I-1.489 J-1.579
G01 X48.137 Y22.414 I-0.648 J-2.036
G01 X47.873 Y23.087 I-1.667 J-0.265
G01 X46.976 Y23.997 I-1.916 J-0.992
G01 X47.156 Y24.686 I-1.508 J0.761
G01 X46.967 Y25.964 I-2.065 J0.347
G01 X47.521 Y26.424 I-0.752 J1.469
G01 X48.113 Y27.555 I-1.506 J1.508
G01 X48.838 Y27.606 I0.244 J1.705
G01 X49.98 Y28.176 I-0.35 J2.13
G01 X49.987 Y28.458
G03 X50.665 Y27.978 I1.176 J0.943
G01 X52.019 Y27.801 I0.925 J1.814
G01 X52.29 Y27.014 I1.579 J0.103
G01 X53.282 Y26.077 I1.815 J0.928
G01 X53.039 Y25.283 I1.328 J-0.84
G01 X53.292 Y23.935 I1.986 J-0.324
G01 X52.627 Y23.442 I0.552 J-1.44
G01 X52.039 Y22.207 I1.435 J-1.44
G01 X51.205 Y22.194 I-0.392 J-1.549
G01 X50.005 Y21.534 I0.33 J-2.022
G01 X49.328 Y22.019 I-1.226 J-0.996
G01 X47.967 Y22.191 I-0.923 J-1.834
G01 X47.704 Y22.981 I-1.54 J-0.073
G01 X46.707 Y23.917 I-1.817 J-0.937
G01 X46.957 Y24.702 I-1.297 J0.845
G01 X46.701 Y26.057 I-1.96 J0.331
G01 X47.368 Y26.553 I-0.543 J1.427
G01 X47.953 Y27.784 I-1.43 J1.434
G01 X48.79 Y27.801 I0.387 J1.541
G01 X49.987 Y28.458 I-0.328 J2.018
G01 X49.993 Y28.791
G03 X50.74 Y28.164 I1.204 J0.676
G01 X52.145 Y28.029 I0.873 J1.707
G01 X52.226 Y28.069
G03 X52.46 Y27.121 I1.36 J-0.167
G01 X53.516 Y26.188 I1.71 J0.872
G01 X53.606 Y26.173
G03 X53.239 Y25.27 I1.009 J-0.936
G01 X53.545 Y23.891 I1.885 J-0.305
G01 X53.606 Y23.829
G03 X52.781 Y23.315 I0.283 J-1.374
G01 X52.217 Y22.017 I1.356 J-1.361
G01 X52.229 Y21.93
G03 X51.256 Y22.001 I-0.58 J-1.249
G01 X50.042 Y21.282 I0.307 J-1.903
G01 X50.001 Y21.203
G03 X49.255 Y21.833 I-1.218 J-0.685
G01 X47.849 Y21.965 I-0.87 J-1.719
G01 X47.768 Y21.925
G03 X47.536 Y22.875 I-1.383 J0.165
G01 X46.478 Y23.806 I-1.716 J-0.883
G01 X46.391 Y23.821
G03 X46.758 Y24.721 I-1.022 J0.941
G01 X46.388 Y26.166 I-1.781 J0.313
G01 X47.215 Y26.681 I-0.268 J1.352
G01 X47.777 Y27.977 I-1.352 J1.356
G01 X47.765 Y28.062
G03 X48.74 Y27.995 I0.575 J1.246
G01 X49.952 Y28.712 I-0.307 J1.902
G01 X49.993 Y28.791
G01 X50.008 Y30.31
G02 X50.062 Y29.841 I-0.36 J-0.279
G03 X50.813 Y28.351 I1.137 J-0.36
G01 X51.762 Y28.146 I0.897 J1.856
G01 X52.832 Y29.072 I-0.102 J1.199
G02 X53.11 Y29.304 I0.495 J-0.311
G01 X53.13 Y29.29
G02 X52.897 Y28.88 I-0.462 J-0.008
G03 X52.629 Y27.23 I0.715 J-0.963
G01 X53.275 Y26.51 I1.782 J0.949
G01 X54.686 Y26.628 I0.624 J1.022
G02 X55.046 Y26.652 I0.217 J-0.552
G01 X55.054 Y26.63
G02 X54.624 Y26.435 I-0.379 J0.264
G03 X53.439 Y25.259 I0.012 J-1.198
G01 X53.538 Y24.293 I2.023 J-0.28
G01 X54.746 Y23.563 I1.105 J0.465
G02 X55.054 Y23.369 I-0.149 J-0.578
G01 X55.047 Y23.346
G02 X54.559 Y23.458 I-0.155 J0.442
G03 X52.936 Y23.188 I-0.669 J-0.99
G01 X52.448 Y22.348 I1.452 J-1.405
G01 X52.997 Y21.044 I1.163 J-0.277
G02 X53.132 Y20.708 I-0.458 J-0.379
G01 X53.113 Y20.694
G02 X52.794 Y21.043 I0.131 J0.44
G03 X51.308 Y21.808 I-1.136 J-0.381
G01 X50.423 Y21.414 I0.36 J-1.999
G01 X50.101 Y20.037 I0.777 J-0.907
G02 X50.012 Y19.688 I-0.589 J-0.035
G01 X49.987 Y19.688
G02 X49.935 Y20.157 I0.373 J0.278
G03 X49.183 Y21.647 I-1.143 J0.357
G01 X48.234 Y21.85 I-0.89 J-1.841
G01 X47.165 Y20.925 I0.101 J-1.197
G02 X46.887 Y20.693 I-0.486 J0.3
G01 X46.867 Y20.707
G02 X47.1 Y21.117 I0.457 J0.011
G03 X47.368 Y22.767 I-0.718 J0.963
G01 X46.721 Y23.486 I-1.776 J-0.947
G01 X45.311 Y23.369 I-0.624 J-1.023
G02 X44.951 Y23.344 I-0.218 J0.54
G01 X44.943 Y23.367
G02 X45.405 Y23.564 I0.39 J-0.275
G03 X46.559 Y24.737 I-0.043 J1.197
G01 X46.295 Y25.977 I-1.691 J0.288
G01 X45.25 Y26.435 I-0.945 J-0.736
G02 X44.942 Y26.627 I0.153 J0.589
G01 X44.95 Y26.65
G02 X45.437 Y26.539 I0.155 J-0.442
G03 X47.061 Y26.809 I0.67 J0.988
G01 X47.548 Y27.648 I-1.439 J1.396
G01 X46.999 Y28.953 I-1.166 J0.277
G02 X46.864 Y29.288 I0.448 J0.375
G01 X46.884 Y29.302
G02 X47.215 Y28.925 I-0.137 J-0.454
G03 X48.689 Y28.189 I1.121 J0.402
G01 X49.573 Y28.582 I-0.361 J2.003
G01 X49.897 Y29.959 I-0.782 J0.91
G02 X49.985 Y30.31 I0.568 J0.044
G01 X50.008 Y30.31
G01 X50.131 Y30.511
G02 X50.304 Y30.081 I-1.033 J-0.665
G01 X50.252 Y29.777 I-0.493 J-0.072
G03 X50.882 Y28.539 I0.946 J-0.297
G01 X51.456 Y28.362 I1.161 J2.748
G01 X52.655 Y29.173 I0.201 J0.993
G02 X53.132 Y29.536 I0.801 J-0.558
G01 X53.346 Y29.381
G02 X53.232 Y28.931 I-1.176 J0.058
G01 X53.013 Y28.717 I-0.436 J0.227
G03 X52.795 Y27.343 I0.594 J-0.798
G01 X53.154 Y26.865 I2.745 J1.688
G01 X54.601 Y26.814 I0.748 J0.683
G02 X55.2 Y26.828 I0.32 J-0.907
G01 X55.282 Y26.577
G02 X54.926 Y26.28 I-0.946 J0.772
G01 X54.622 Y26.236 I-0.221 J0.454
G03 X53.639 Y25.253 I0.012 J-0.995
G01 X53.648 Y24.652 I3.143 J-0.253
G01 X54.788 Y23.763 I1.006 J0.115
G02 X55.282 Y23.421 I-0.287 J-0.943
G01 X55.2 Y23.17
G02 X54.738 Y23.139 I-0.307 J1.131
G01 X54.466 Y23.282 I0.086 J0.495
G03 X53.094 Y23.065 I-0.575 J-0.808
G01 X52.747 Y22.574 I2.398 J-2.063
G01 X53.148 Y21.183 I0.882 J-0.498
G02 X53.346 Y20.617 I-0.774 J-0.588
G01 X53.132 Y20.462
G02 X52.74 Y20.709 I0.422 J1.105
G01 X52.603 Y20.985 I0.35 J0.345
G03 X51.364 Y21.616 I-0.941 J-0.317
G01 X50.797 Y21.422 I0.727 J-3.051
G01 X50.304 Y20.061 I0.421 J-0.922
G02 X50.131 Y19.488 I-0.978 J-0.017
G01 X49.867 Y19.488
G02 X49.695 Y19.917 I0.989 J0.645
G01 X49.746 Y20.221 I0.502 J0.072
G03 X49.116 Y21.459 I-0.946 J0.297
G01 X48.542 Y21.636 I-1.161 J-2.748
G01 X47.343 Y20.825 I-0.201 J-0.993
G02 X46.866 Y20.462 I-0.801 J0.558
G01 X46.652 Y20.617
G02 X46.766 Y21.067 I1.176 J-0.058
G01 X46.985 Y21.281 I0.436 J-0.227
G03 X47.203 Y22.655 I-0.594 J0.798
G01 X46.844 Y23.133 I-2.745 J-1.688
G01 X45.397 Y23.184 I-0.748 J-0.683
G02 X44.798 Y23.17 I-0.32 J0.907
G01 X44.716 Y23.421
G02 X45.072 Y23.718 I0.946 J-0.772
G01 X45.377 Y23.763 I0.224 J-0.465
G03 X46.36 Y24.746 I-0.012 J0.995
G01 X46.35 Y25.346 I-2.794 J0.253
G01 X45.21 Y26.236 I-1.008 J-0.116
G02 X44.716 Y26.577 I0.28 J0.935
G01 X44.798 Y26.828
G02 X45.26 Y26.859 I0.307 J-1.131
G01 X45.532 Y26.716 I-0.086 J-0.495
G03 X46.904 Y26.933 I0.575 J0.808
G01 X47.251 Y27.424 I-2.398 J2.063
G01 X46.85 Y28.815 I-0.882 J0.498
G02 X46.652 Y29.381 I0.774 J0.588
G01 X46.866 Y29.536
G02 X47.258 Y29.289 I-0.422 J-1.105
G01 X47.395 Y29.013 I-0.35 J-0.345
G03 X48.634 Y28.382 I0.941 J0.317
G01 X49.201 Y28.576 I-0.727 J3.051
G01 X49.695 Y29.937 I-0.422 J0.923
G02 X49.867 Y30.511 I0.974 J0.02
G01 X50.131 Y30.511
G00 Z2
G01 X49.977 Y25.019
G01 Z1
G01 Z-2 F50
G02 X49.976 Y24.951 I-0.005 J-0.033 F100
G01 X49.977 Y25.019 I0.015 J0.033
G01 X49.995 Y25.228
G02 X50.142 Y25.133 I0.016 J-0.135
G01 X50.194 Y24.962 I-0.068 J-0.114
G01 X50.133 Y24.792 I-0.128 J-0.049
G01 X49.761 Y25.059 I-0.144 J0.191
G01 X49.995 Y25.228 I0.233 J-0.077
G01 X49.994 Y25.439
G03 X50.235 Y25.362 I0.404 J0.851
G01 X50.406 Y25.131 I0.868 J0.464
G01 X50.408 Y24.832 I0.906 J-0.143
G01 X50.258 Y24.623 I0.712 J-0.669
G01 X49.991 Y24.536 I0.237 J-1.181
G01 X49.723 Y24.621 I-0.465 J-1.003
G01 X49.562 Y24.84 I-1.001 J-0.567
G01 X49.561 Y25.123 I-1.156 J0.137
G01 X49.721 Y25.348 I-0.825 J0.756
G01 X49.994 Y25.439 I-0.192 J1.031
G01 X49.994 Y25.656
G03 X50.362 Y25.538 I0.584 J1.188
G01 X50.612 Y25.2 I1.215 J0.637
G01 X50.615 Y24.769 I1.3 J-0.206
G01 X50.386 Y24.45 I1.057 J-1.001
G01 X49.992 Y24.321 I0.276 J-1.509
G01 X49.598 Y24.447 I-0.654 J-1.367
G01 X49.358 Y24.774 I-1.369 J-0.753
G01 X49.356 Y25.189 I-1.516 J0.2
G01 X49.594 Y25.523 I-1.094 J1.031
G01 X49.994 Y25.656 I-0.242 J1.397
G01 X49.993 Y25.874
G03 X50.489 Y25.714 I0.754 J1.49
G01 X50.818 Y25.269 I1.563 J0.811
G01 X50.823 Y24.705 I1.664 J-0.267
G01 X50.514 Y24.276 I1.28 J-1.248
G01 X49.994 Y24.105 I0.292 J-1.766
G01 X49.473 Y24.272 I-0.806 J-1.619
G01 X49.153 Y24.707 I-1.648 J-0.877
G01 X49.151 Y25.256 I-1.863 J0.267
G01 X49.467 Y25.698 I-1.288 J1.254
G01 X49.993 Y25.874 I-0.274 J1.694
G01 X49.992 Y26.092
G03 X50.616 Y25.89 I0.934 J1.82
G01 X51.024 Y25.338 I1.875 J0.959
G01 X51.031 Y24.641 I2.028 J-0.328
G01 X50.642 Y24.102 I1.539 J-1.52
G01 X49.995 Y23.889 I0.323 J-2.071
G01 X49.348 Y24.096 I-0.93 J-1.794
G01 X48.948 Y24.64 I-1.895 J-0.974
G01 X48.945 Y25.323 I-2.177 J0.331
G01 X49.339 Y25.873 I-1.448 J1.454
G01 X49.992 Y26.092 I-0.3 J1.979
G01 X49.991 Y26.31
G03 X50.743 Y26.067 I1.092 J2.097
G01 X51.231 Y25.407 I2.174 J1.097
G01 X51.239 Y24.576 I2.382 J-0.392
G01 X50.77 Y23.927 I1.751 J-1.759
G01 X49.996 Y23.672 I0.324 J-2.285
G01 X49.222 Y23.92 I-1.077 J-2.029
G01 X48.743 Y24.572 I-2.149 J-1.077
G01 X48.739 Y25.39 I-2.449 J0.397
G01 X49.211 Y26.049 I-1.623 J1.661
G01 X49.991 Y26.31 I-0.325 J2.269
G01 X49.989 Y26.532
G03 X50.874 Y26.246 I1.226 J2.281
G01 X51.441 Y25.477 I2.327 J1.122
G01 X51.45 Y24.511 I2.519 J-0.459
G01 X50.899 Y23.749 I1.914 J-1.964
G01 X49.997 Y23.451 I0.301 J-2.425
G01 X49.094 Y23.741 I-1.171 J-2.095
G01 X48.534 Y24.503 I-2.248 J-1.065
G01 X48.529 Y25.458 I-2.505 J0.464
G01 X49.08 Y26.228 I-1.67 J1.777
G01 X49.989 Y26.532 I-0.305 J2.424
G01 X49.988 Y26.756
G03 X51.005 Y26.426 I1.341 J2.4
G01 X51.652 Y25.548 I2.453 J1.13
G01 X51.663 Y24.446 I2.608 J-0.525
G01 X51.029 Y23.57 I1.999 J-2.114
G01 X49.999 Y23.229 I0.267 J-2.533
G01 X48.965 Y23.561 I-1.278 J-2.206
G01 X48.323 Y24.434 I-2.333 J-1.043
G01 X48.317 Y25.527 I-2.528 J0.532
G01 X48.948 Y26.408 I-1.691 J1.877
G01 X49.988 Y26.756 I-0.272 J2.541
G01 X49.986 Y26.98
G03 X51.136 Y26.607 I1.452 J2.52
G01 X51.865 Y25.619 I2.568 J1.132
G01 X51.877 Y24.381 I2.715 J-0.592
G01 X51.16 Y23.39 I2.066 J-2.249
G01 X50 Y23.005 I0.229 J-2.63
G01 X48.834 Y23.379 I-1.354 J-2.218
G01 X48.11 Y24.364 I-2.379 J-0.99
G01 X48.104 Y25.596 I-2.559 J0.603
G01 X48.815 Y26.589 I-1.716 J1.98
G01 X49.986 Y26.98 I-0.237 J2.66
G01 X49.983 Y27.205
G03 X51.268 Y26.788 I1.576 J2.669
G01 X52.079 Y25.69 I2.69 J1.138
G01 X52.092 Y24.316 I2.803 J-0.66
G01 X51.291 Y23.208 I2.156 J-2.402
G01 X50.001 Y22.779 I0.184 J-2.707
G01 X48.703 Y23.196 I-1.437 J-2.246
G01 X47.896 Y24.294 I-2.485 J-0.981
G01 X47.889 Y25.665 I-2.61 J0.672
G01 X48.682 Y26.771 I-1.741 J2.086
G01 X49.983 Y27.205 I-0.195 J2.753
G01 X49.98 Y27.436
G03 X51.412 Y26.971 I1.645 J2.631
G01 X51.471 Y26.818 I0.819 J0.228
G01 X51.827 Y26.234 I3.659 J1.83
G01 X52.305 Y25.763 I1.628 J1.174
G01 X52.263 Y25.604 I0.91 J-0.325
G01 X52.204 Y24.922 I3.698 J-0.663
G01 X52.315 Y24.255 I2.007 J-0.008
G01 X51.527 Y23.268 I2.443 J-2.758
G01 X51.436 Y23.023
G03 X50.003 Y22.548 I0.09 J-2.671
G01 X48.569 Y23.009 I-1.497 J-2.198
G01 X47.676 Y24.223 I-2.49 J-0.896
G01 X47.669 Y25.736 I-2.559 J0.744
G01 X48.546 Y26.958 I-1.669 J2.124
G01 X49.98 Y27.436 I-0.108 J2.715
G01 X49.974 Y27.668
G03 X51.288 Y27.173 I1.831 J2.869
G01 X51.554 Y27.169
G03 X51.778 Y26.697 I1.333 J0.343
G01 X52.534 Y25.837 I1.982 J0.98
G01 X52.439 Y25.328 I1.368 J-0.518
G01 X52.544 Y24.181 I2.128 J-0.383
G01 X52.168 Y23.828 I0.792 J-1.22
G01 X51.579 Y22.835 I1.532 J-1.58
G01 X50.004 Y22.313 I0.004 J-2.651
G01 X48.433 Y22.819 I-1.546 J-2.109
G01 X47.454 Y24.15 I-2.508 J-0.819
G01 X47.446 Y25.807 I-2.501 J0.816
G01 X48.407 Y27.148 I-1.577 J2.145
G01 X49.974 Y27.668 I-0.017 J2.674
G01 X49.975 Y27.913
G03 X50.511 Y27.607 I1.091 J1.289
G01 X51.701 Y27.367 I1.021 J1.996
G01 X51.948 Y26.804 I1.475 J0.311
G01 X52.77 Y25.912 I1.994 J1.013
G01 X52.639 Y25.314 I1.395 J-0.619
G01 X52.779 Y24.103 I2.171 J-0.362
G01 X52.322 Y23.7 I0.75 J-1.311
G01 X51.724 Y22.64 I1.581 J-1.59
G01 X50.007 Y22.071 I-0.105 J-2.555
G01 X48.286 Y22.623 I-1.59 J-2
G01 X48.042 Y23.192 I-1.535 J-0.321
G01 X47.22 Y24.077 I-2.018 J-1.05
G01 X47.355 Y24.668 I-1.473 J0.647
G01 X47.213 Y25.886 I-2.201 J0.36
G01 X47.672 Y26.293 I-0.794 J1.358
G01 X48.265 Y27.348 I-1.586 J1.586
G01 X48.885 Y27.411 I0.149 J1.606
G01 X49.975 Y27.913 I-0.363 J2.224
G01 X49.98 Y28.176
G03 X50.589 Y27.792 I1.135 J1.126
G01 X51.851 Y27.577 I0.975 J1.912
G01 X52.12 Y26.908 I1.632 J0.267
G01 X53.014 Y25.994 I1.913 J0.977
G01 X52.839 Y25.297 I1.505 J-0.748
G01 X53.026 Y24.026 I2.09 J-0.341
G01 X52.474 Y23.57 I0.743 J-1.461
G01 X51.878 Y22.434 I1.501 J-1.512
G01 X51.155 Y22.387 I-0.251 J-1.71
G01 X50.01 Y21.814 I0.343 J-2.116
G01 X49.076 Y22.333 I-1.489 J-1.579
G01 X48.137 Y22.414 I-0.648 J-2.036
G01 X47.873 Y23.087 I-1.667 J-0.265
G01 X46.976 Y23.997 I-1.916 J-0.992
G01 X47.156 Y24.686 I-1.508 J0.761
G01 X46.967 Y25.964 I-2.065 J0.347
G01 X47.521 Y26.424 I-0.752 J1.469
G01 X48.113 Y27.555 I-1.506 J1.508
G01 X48.838 Y27.606 I0.244 J1.705
G01 X49.98 Y28.176 I-0.35 J2.13
G01 X49.987 Y28.458
G03 X50.665 Y27.978 I1.176 J0.943
G01 X52.019 Y27.801 I0.925 J1.814
G01 X52.29 Y27.014 I1.579 J0.103
G01 X53.282 Y26.077 I1.815 J0.928
G01 X53.039 Y25.283 I1.328 J-0.84
G01 X53.292 Y23.935 I1.986 J-0.324
G01 X52.627 Y23.442 I0.552 J-1.44
G01 X52.039 Y22.207 I1.435 J-1.44
G01 X51.205 Y22.194 I-0.392 J-1.549
G01 X50.005 Y21.534 I0.33 J-2.022
G01 X49.328 Y22.019 I-1.226 J-0.996
G01 X47.967 Y22.191 I-0.923 J-1.834
G01 X47.704 Y22.981 I-1.54 J-0.073
G01 X46.707 Y23.917 I-1.817 J-0.937
G01 X46.957 Y24.702 I-1.297 J0.845
G01 X46.701 Y26.057 I-1.96 J0.331
G01 X47.368 Y26.553 I-0.543 J1.427
G01 X47.953 Y27.784 I-1.43 J1.434
G01 X48.79 Y27.801 I0.387 J1.541
G01 X49.987 Y28.458 I-0.328 J2.018
G01 X49.993 Y28.791
G03 X50.74 Y28.164 I1.204 J0.676
G01 X52.145 Y28.029 I0.873 J1.707
G01 X52.226 Y28.069
G03 X52.46 Y27.121 I1.36 J-0.167
G01 X53.516 Y26.188 I1.71 J0.872
G01 X53.606 Y26.173
G03 X53.239 Y25.27 I1.009 J-0.936
G01 X53.545 Y23.891 I1.885 J-0.305
G01 X53.606 Y23.829
G03 X52.781 Y23.315 I0.283 J-1.374
G01 X52.217 Y22.017 I1.356 J-1.361
G01 X52.229 Y21.93
G03 X51.256 Y22.001 I-0.58 J-1.249
G01 X50.042 Y21.282 I0.307 J-1.903
G01 X50.001 Y21.203
G03 X49.255 Y21.833 I-1.218 J-0.685
G01 X47.849 Y21.965 I-0.87 J-1.719
G01 X47.768 Y21.925
G03 X47.536 Y22.875 I-1.383 J0.165
G01 X46.478 Y23.806 I-1.716 J-0.883
G01 X46.391 Y23.821
G03 X46.758 Y24.721 I-1.022 J0.941
G01 X46.388 Y26.166 I-1.781 J0.313
G01 X47.215 Y26.681 I-0.268 J1.352
G01 X47.777 Y27.977 I-1.352 J1.356
G01 X47.765 Y28.062
G03 X48.74 Y27.995 I0.575 J1.246
G01 X49.952 Y28.712 I-0.307 J1.902
G01 X49.993 Y28.791
G01 X50.008 Y30.31
G02 X50.062 Y29.841 I-0.36 J-0.279
G03 X50.813 Y28.351 I1.137 J-0.36
G01 X51.762 Y28.146 I0.897 J1.856
G01 X52.832 Y29.072 I-0.102 J1.199
G02 X53.11 Y29.304 I0.495 J-0.311
G01 X53.13 Y29.29
G02 X52.897 Y28.88 I-0.462 J-0.008
G03 X52.629 Y27.23 I0.715 J-0.963
G01 X53.275 Y26.51 I1.782 J0.949
G01 X54.686 Y26.628 I0.624 J1.022
G02 X55.046 Y26.652 I0.217 J-0.552
G01 X55.054 Y26.63
G02 X54.624 Y26.435 I-0.379 J0.264
G03 X53.439 Y25.259 I0.012 J-1.198
G01 X53.538 Y24.293 I2.023 J-0.28
G01 X54.746 Y23.563 I1.105 J0.465
G02 X55.054 Y23.369 I-0.149 J-0.578
G01 X55.047 Y23.346
G02 X54.559 Y23.458 I-0.155 J0.442
G03 X52.936 Y23.188 I-0.669 J-0.99
G01 X52.448 Y22.348 I1.452 J-1.405
G01 X52.997 Y21.044 I1.163 J-0.277
G02 X53.132 Y20.708 I-0.458 J-0.379
G01 X53.113 Y20.694
G02 X52.794 Y21.043 I0.131 J0.44
G03 X51.308 Y21.808 I-1.136 J-0.381
G01 X50.423 Y21.414 I0.36 J-1.999
G01 X50.101 Y20.037 I0.777 J-0.907
G02 X50.012 Y19.688 I-0.589 J-0.035
G01 X49.987 Y19.688
G02 X49.935 Y20.157 I0.373 J0.278
G03 X49.183 Y21.647 I-1.143 J0.357
G01 X48.234 Y21.85 I-0.89 J-1.841
G01 X47.165 Y20.925 I0.101 J-1.197
G02 X46.887 Y20.693 I-0.486 J0.3
G01 X46.867 Y20.707
G02 X47.1 Y21.117 I0.457 J0.011
G03 X47.368 Y22.767 I-0.718 J0.963
G01 X46.721 Y23.486 I-1.776 J-0.947
G01 X45.311 Y23.369 I-0.624 J-1.023
G02 X44.951 Y23.344 I-0.218 J0.54
G01 X44.943 Y23.367
G02 X45.405 Y23.564 I0.39 J-0.275
G03 X46.559 Y24.737 I-0.043 J1.197
G01 X46.295 Y25.977 I-1.691 J0.288
G01 X45.25 Y26.435 I-0.945 J-0.736
G02 X44.942 Y26.627 I0.153 J0.589
G01 X44.95 Y26.65
G02 X45.437 Y26.539 I0.155 J-0.442
G03 X47.061 Y26.809 I0.67 J0.988
G01 X47.548 Y27.648 I-1.439 J1.396
G01 X46.999 Y28.953 I-1.166 J0.277
G02 X46.864 Y29.288 I0.448 J0.375
G01 X46.884 Y29.302
G02 X47.215 Y28.925 I-0.137 J-0.454
G03 X48.689 Y28.189 I1.121 J0.402
G01 X49.573 Y28.582 I-0.361 J2.003
G01 X49.897 Y29.959 I-0.782 J0.91
G02 X49.985 Y30.31 I0.568 J0.044
G01 X50.008 Y30.31
G01 X50.131 Y30.511
G02 X50.304 Y30.081 I-1.033 J-0.665
G01 X50.252 Y29.777 I-0.493 J-0.072
G03 X50.882 Y28.539 I0.946 J-0.297
G01 X51.456 Y28.362 I1.161 J2.748
G01 X52.655 Y29.173 I0.201 J0.993
G02 X53.132 Y29.536 I0.801 J-0.558
G01 X53.346 Y29.381
G02 X53.232 Y28.931 I-1.176 J0.058
G01 X53.013 Y28.717 I-0.436 J0.227
G03 X52.795 Y27.343 I0.594 J-0.798
G01 X53.154 Y26.865 I2.745 J1.688
G01 X54.601 Y26.814 I0.748 J0.683
G02 X55.2 Y26.828 I0.32 J-0.907
G01 X55.282 Y26.577
G02 X54.926 Y26.28 I-0.946 J0.772
G01 X54.622 Y26.236 I-0.221 J0.454
G03 X53.639 Y25.253 I0.012 J-0.995
G01 X53.648 Y24.652 I3.143 J-0.253
G01 X54.788 Y23.763 I1.006 J0.115
G02 X55.282 Y23.421 I-0.287 J-0.943
G01 X55.2 Y23.17
G02 X54.738 Y23.139 I-0.307 J1.131
G01 X54.466 Y23.282 I0.086 J0.495
G03 X53.094 Y23.065 I-0.575 J-0.808
G01 X52.747 Y22.574 I2.398 J-2.063
G01 X53.148 Y21.183 I0.882 J-0.498
G02 X53.346 Y20.617 I-0.774 J-0.588
G01 X53.132 Y20.462
G02 X52.74 Y20.709 I0.422 J1.105
G01 X52.603 Y20.985 I0.35 J0.345
G03 X51.364 Y21.616 I-0.941 J-0.317
G01 X50.797 Y21.422 I0.727 J-3.051
G01 X50.304 Y20.061 I0.421 J-0.922
G02 X50.131 Y19.488 I-0.978 J-0.017
G01 X49.867 Y19.488
G02 X49.695 Y19.917 I0.989 J0.645
G01 X49.746 Y20.221 I0.502 J0.072
G03 X49.116 Y21.459 I-0.946 J0.297
G01 X48.542 Y21.636 I-1.161 J-2.748
G01 X47.343 Y20.825 I-0.201 J-0.993
G02 X46.866 Y20.462 I-0.801 J0.558
G01 X46.652 Y20.617
G02 X46.766 Y21.067 I1.176 J-0.058
G01 X46.985 Y21.281 I0.436 J-0.227
G03 X47.203 Y22.655 I-0.594 J0.798
G01 X46.844 Y23.133 I-2.745 J-1.688
G01 X45.397 Y23.184 I-0.748 J-0.683
G02 X44.798 Y23.17 I-0.32 J0.907
G01 X44.716 Y23.421
G02 X45.072 Y23.718 I0.946 J-0.772
G01 X45.377 Y23.763 I0.224 J-0.465
G03 X46.36 Y24.746 I-0.012 J0.995
G01 X46.35 Y25.346 I-2.794 J0.253
G01 X45.21 Y26.236 I-1.008 J-0.116
G02 X44.716 Y26.577 I0.28 J0.935
G01 X44.798 Y26.828
G02 X45.26 Y26.859 I0.307 J-1.131
G01 X45.532 Y26.716 I-0.086 J-0.495
G03 X46.904 Y26.933 I0.575 J0.808
G01 X47.251 Y27.424 I-2.398 J2.063
G01 X46.85 Y28.815 I-0.882 J0.498
G02 X46.652 Y29.381 I0.774 J0.588
G01 X46.866 Y29.536
G02 X47.258 Y29.289 I-0.422 J-1.105
G01 X47.395 Y29.013 I-0.35 J-0.345
G03 X48.634 Y28.382 I0.941 J0.317
G01 X49.201 Y28.576 I-0.727 J3.051
G01 X49.695 Y29.937 I-0.422 J0.923
G02 X49.867 Y30.511 I0.974 J0.02
G01 X50.131 Y30.511
G00 Z2
G01 X49.977 Y25.019
G01 Z0
G01 Z-3 F50
G02 X49.976 Y24.951 I-0.005 J-0.033 F100
G01 X49.977 Y25.019 I0.015 J0.033
G01 X49.995 Y25.228
G02 X50.142 Y25.133 I0.016 J-0.135
G01 X50.194 Y24.962 I-0.068 J-0.114
G01 X50.133 Y24.792 I-0.128 J-0.049
G01 X49.761 Y25.059 I-0.144 J0.191
G01 X49.995 Y25.228 I0.233 J-0.077
G01 X49.994 Y25.439
G03 X50.235 Y25.362 I0.404 J0.851
G01 X50.406 Y25.131 I0.868 J0.464
G01 X50.408 Y24.832 I0.906 J-0.143
G01 X50.258 Y24.623 I0.712 J-0.669
G01 X49.991 Y24.536 I0.237 J-1.181
G01 X49.723 Y24.621 I-0.465 J-1.003
G01 X49.562 Y24.84 I-1.001 J-0.567
G01 X49.561 Y25.123 I-1.156 J0.137
G01 X49.721 Y25.348 I-0.825 J0.756
G01 X49.994 Y25.439 I-0.192 J1.031
G01 X49.994 Y25.656
G03 X50.362 Y25.538 I0.584 J1.188
G01 X50.612 Y25.2 I1.215 J0.637
G01 X50.615 Y24.769 I1.3 J-0.206
G01 X50.386 Y24.45 I1.057 J-1.001
G01 X49.992 Y24.321 I0.276 J-1.509
G01 X49.598 Y24.447 I-0.654 J-1.367
G01 X49.358 Y24.774 I-1.369 J-0.753
G01 X49.356 Y25.189 I-1.516 J0.2
G01 X49.594 Y25.523 I-1.094 J1.031
G01 X49.994 Y25.656 I-0.242 J1.397
G01 X49.993 Y25.874
G03 X50.489 Y25.714 I0.754 J1.49
G01 X50.818 Y25.269 I1.563 J0.811
G01 X50.823 Y24.705 I1.664 J-0.267
G01 X50.514 Y24.276 I1.28 J-1.248
G01 X49.994 Y24.105 I0.292 J-1.766
G01 X49.473 Y24.272 I-0.806 J-1.619
G01 X49.153 Y24.707 I-1.648 J-0.877
G01 X49.151 Y25.256 I-1.863 J0.267
G01 X49.467 Y25.698 I-1.288 J1.254
G01 X49.993 Y25.874 I-0.274 J1.694
G01 X49.992 Y26.092
G03 X50.616 Y25.89 I0.934 J1.82
G01 X51.024 Y25.338 I1.875 J0.959
G01 X51.031 Y24.641 I2.028 J-0.328
G01 X50.642 Y24.102 I1.539 J-1.52
G01 X49.995 Y23.889 I0.323 J-2.071
G01 X49.348 Y24.096 I-0.93 J-1.794
G01 X48.948 Y24.64 I-1.895 J-0.974
G01 X48.945 Y25.323 I-2.177 J0.331
G01 X49.339 Y25.873 I-1.448 J1.454
G01 X49.992 Y26.092 I-0.3 J1.979
G01 X49.991 Y26.31
G03 X50.743 Y26.067 I1.092 J2.097
G01 X51.231 Y25.407 I2.174 J1.097
G01 X51.239 Y24.576 I2.382 J-0.392
G01 X50.77 Y23.927 I1.751 J-1.759
G01 X49.996 Y23.672 I0.324 J-2.285
G01 X49.222 Y23.92 I-1.077 J-2.029
G01 X48.743 Y24.572 I-2.149 J-1.077
G01 X48.739 Y25.39 I-2.449 J0.397
G01 X49.211 Y26.049 I-1.623 J1.661
G01 X49.991 Y26.31 I-0.325 J2.269
G01 X49.989 Y26.532
G03 X50.874 Y26.246 I1.226 J2.281
G01 X51.441 Y25.477 I2.327 J1.122
G01 X51.45 Y24.511 I2.519 J-0.459
G01 X50.899 Y23.749 I1.914 J-1.964
G01 X49.997 Y23.451 I0.301 J-2.425
G01 X49.094 Y23.741 I-1.171 J-2.095
G01 X48.534 Y24.503 I-2.248 J-1.065
G01 X48.529 Y25.458 I-2.505 J0.464
G01 X49.08 Y26.228 I-1.67 J1.777
G01 X49.989 Y26.532 I-0.305 J2.424
G01 X49.988 Y26.756
G03 X51.005 Y26.426 I1.341 J2.4
G01 X51.652 Y25.548 I2.453 J1.13
G01 X51.663 Y24.446 I2.608 J-0.525
G01 X51.029 Y23.57 I1.999 J-2.114
G01 X49.999 Y23.229 I0.267 J-2.533
G01 X48.965 Y23.561 I-1.278 J-2.206
G01 X48.323 Y24.434 I-2.333 J-1.043
G01 X48.317 Y25.527 I-2.528 J0.532
G01 X48.948 Y26.408 I-1.691 J1.877
G01 X49.988 Y26.756 I-0.272 J2.541
G01 X49.986 Y26.98
G03 X51.136 Y26.607 I1.452 J2.52
G01 X51.865 Y25.619 I2.568 J1.132
G01 X51.877 Y24.381 I2.715 J-0.592
G01 X51.16 Y23.39 I2.066 J-2.249
G01 X50 Y23.005 I0.229 J-2.63
G01 X48.834 Y23.379 I-1.354 J-2.218
G01 X48.11 Y24.364 I-2.379 J-0.99
G01 X48.104 Y25.596 I-2.559 J0.603
G01 X48.815 Y26.589 I-1.716 J1.98
G01 X49.986 Y26.98 I-0.237 J2.66
G01 X49.983 Y27.205
G03 X51.268 Y26.788 I1.576 J2.669
G01 X52.079 Y25.69 I2.69 J1.138
G01 X52.092 Y24.316 I2.803 J-0.66
G01 X51.291 Y23.208 I2.156 J-2.402
G01 X50.001 Y22.779 I0.184 J-2.707
G01 X48.703 Y23.196 I-1.437 J-2.246
G01 X47.896 Y24.294 I-2.485 J-0.981
G01 X47.889 Y25.665 I-2.61 J0.672
G01 X48.682 Y26.771 I-1.741 J2.086
G01 X49.983 Y27.205 I-0.195 J2.753
G01 X49.98 Y27.436
G03 X51.412 Y26.971 I1.645 J2.631
G01 X51.471 Y26.818 I0.819 J0.228
G01 X51.827 Y26.234 I3.659 J1.83
G01 X52.305 Y25.763 I1.628 J1.174
G01 X52.263 Y25.604 I0.91 J-0.325
G01 X52.204 Y24.922 I3.698 J-0.663
G01 X52.315 Y24.255 I2.007 J-0.008
G01 X51.527 Y23.268 I2.443 J-2.758
G01 X51.436 Y23.023
G03 X50.003 Y22.548 I0.09 J-2.671
G01 X48.569 Y23.009 I-1.497 J-2.198
G01 X47.676 Y24.223 I-2.49 J-0.896
G01 X47.669 Y25.736 I-2.559 J0.744
G01 X48.546 Y26.958 I-1.669 J2.124
G01 X49.98 Y27.436 I-0.108 J2.715
G01 X49.974 Y27.668
G03 X51.288 Y27.173 I1.831 J2.869
G01 X51.554 Y27.169
G03 X51.778 Y26.697 I1.333 J0.343
G01 X52.534 Y25.837 I1.982 J0.98
G01 X52.439 Y25.328 I1.368 J-0.518
G01 X52.544 Y24.181 I2.128 J-0.383
G01 X52.168 Y23.828 I0.792 J-1.22
G01 X51.579 Y22.835 I1.532 J-1.58
G01 X50.004 Y22.313 I0.004 J-2.651
G01 X48.433 Y22.819 I-1.546 J-2.109
G01 X47.454 Y24.15 I-2.508 J-0.819
G01 X47.446 Y25.807 I-2.501 J0.816
G01 X48.407 Y27.148 I-1.577 J2.145
G01 X49.974 Y27.668 I-0.017 J2.674
G01 X49.975 Y27.913
G03 X50.511 Y27.607 I1.091 J1.289
G01 X51.701 Y27.367 I1.021 J1.996
G01 X51.948 Y26.804 I1.475 J0.311
G01 X52.77 Y25.912 I1.994 J1.013
G01 X52.639 Y25.314 I1.395 J-0.619
G01 X52.779 Y24.103 I2.171 J-0.362
G01 X52.322 Y23.7 I0.75 J-1.311
G01 X51.724 Y22.64 I1.581 J-1.59
G01 X50.007 Y22.071 I-0.105 J-2.555
G01 X48.286 Y22.623 I-1.59 J-2
G01 X48.042 Y23.192 I-1.535 J-0.321
G01 X47.22 Y24.077 I-2.018 J-1.05
G01 X47.355 Y24.668 I-1.473 J0.647
G01 X47.213 Y25.886 I-2.201 J0.36
G01 X47.672 Y26.293 I-0.794 J1.358
G01 X48.265 Y27.348 I-1.586 J1.586
G01 X48.885 Y27.411 I0.149 J1.606
G01 X49.975 Y27.913 I-0.363 J2.224
G01 X49.98 Y28.176
G03 X50.589 Y27.792 I1.135 J1.126
G01 X51.851 Y27.577 I0.975 J1.912
G01 X52.12 Y26.908 I1.632 J0.267
G01 X53.014 Y25.994 I1.913 J0.977
G01 X52.839 Y25.297 I1.505 J-0.748
G01 X53.026 Y24.026 I2.09 J-0.341
G01 X52.474 Y23.57 I0.743 J-1.461
G01 X51.878 Y22.434 I1.501 J-1.512
G01 X51.155 Y22.387 I-0.251 J-1.71
G01 X50.01 Y21.814 I0.343 J-2.116
G01 X49.076 Y22.333 I-1.489 J-1.579
G01 X48.137 Y22.414 I-0.648 J-2.036
G01 X47.873 Y23.087 I-1.667 J-0.265
G01 X46.976 Y23.997 I-1.916 J-0.992
G01 X47.156 Y24.686 I-1.508 J0.761
G01 X46.967 Y25.964 I-2.065 J0.347
G01 X47.521 Y26.424 I-0.752 J1.469
G01 X48.113 Y27.555 I-1.506 J1.508
G01 X48.838 Y27.606 I0.244 J1.705
G01 X49.98 Y28.176 I-0.35 J2.13
G01 X49.987 Y28.458
G03 X50.665 Y27.978 I1.176 J0.943
G01 X52.019 Y27.801 I0.925 J1.814
G01 X52.29 Y27.014 I1.579 J0.103
G01 X53.282 Y26.077 I1.815 J0.928
G01 X53.039 Y25.283 I1.328 J-0.84
G01 X53.292 Y23.935 I1.986 J-0.324
G01 X52.627 Y23.442 I0.552 J-1.44
G01 X52.039 Y22.207 I1.435 J-1.44
G01 X51.205 Y22.194 I-0.392 J-1.549
G01 X50.005 Y21.534 I0.33 J-2.022
G01 X49.328 Y22.019 I-1.226 J-0.996
G01 X47.967 Y22.191 I-0.923 J-1.834
G01 X47.704 Y22.981 I-1.54 J-0.073
G01 X46.707 Y23.917 I-1.817 J-0.937
G01 X46.957 Y24.702 I-1.297 J0.845
G01 X46.701 Y26.057 I-1.96 J0.331
G01 X47.368 Y26.553 I-0.543 J1.427
G01 X47.953 Y27.784 I-1.43 J1.434
G01 X48.79 Y27.801 I0.387 J1.541
G01 X49.987 Y28.458 I-0.328 J2.018
G01 X49.993 Y28.791
G03 X50.74 Y28.164 I1.204 J0.676
G01 X52.145 Y28.029 I0.873 J1.707
G01 X52.226 Y28.069
G03 X52.46 Y27.121 I1.36 J-0.167
G01 X53.516 Y26.188 I1.71 J0.872
G01 X53.606 Y26.173
G03 X53.239 Y25.27 I1.009 J-0.936
G01 X53.545 Y23.891 I1.885 J-0.305
G01 X53.606 Y23.829
G03 X52.781 Y23.315 I0.283 J-1.374
G01 X52.217 Y22.017 I1.356 J-1.361
G01 X52.229 Y21.93
G03 X51.256 Y22.001 I-0.58 J-1.249
G01 X50.042 Y21.282 I0.307 J-1.903
G01 X50.001 Y21.203
G03 X49.255 Y21.833 I-1.218 J-0.685
G01 X47.849 Y21.965 I-0.87 J-1.719
G01 X47.768 Y21.925
G03 X47.536 Y22.875 I-1.383 J0.165
G01 X46.478 Y23.806 I-1.716 J-0.883
G01 X46.391 Y23.821
G03 X46.758 Y24.721 I-1.022 J0.941
G01 X46.388 Y26.166 I-1.781 J0.313
G01 X47.215 Y26.681 I-0.268 J1.352
G01 X47.777 Y27.977 I-1.352 J1.356
G01 X47.765 Y28.062
G03 X48.74 Y27.995 I0.575 J1.246
G01 X49.952 Y28.712 I-0.307 J1.902
G01 X49.993 Y28.791
G01 X50.008 Y30.31
G02 X50.062 Y29.841 I-0.36 J-0.279
G03 X50.813 Y28.351 I1.137 J-0.36
G01 X51.762 Y28.146 I0.897 J1.856
G01 X52.832 Y29.072 I-0.102 J1.199
G02 X53.11 Y29.304 I0.495 J-0.311
G01 X53.13 Y29.29
G02 X52.897 Y28.88 I-0.462 J-0.008
G03 X52.629 Y27.23 I0.715 J-0.963
G01 X53.275 Y26.51 I1.782 J0.949
G01 X54.686 Y26.628 I0.624 J1.022
G02 X55.046 Y26.652 I0.217 J-0.552
G01 X55.054 Y26.63
G02 X54.624 Y26.435 I-0.379 J0.264
G03 X53.439 Y25.259 I0.012 J-1.198
G01 X53.538 Y24.293 I2.023 J-0.28
G01 X54.746 Y23.563 I1.105 J0.465
G02 X55.054 Y23.369 I-0.149 J-0.578
G01 X55.047 Y23.346
G02 X54.559 Y23.458 I-0.155 J0.442
G03 X52.936 Y23.188 I-0.669 J-0.99
G01 X52.448 Y22.348 I1.452 J-1.405
G01 X52.997 Y21.044 I1.163 J-0.277
G02 X53.132 Y20.708 I-0.458 J-0.379
G01 X53.113 Y20.694
G02 X52.794 Y21.043 I0.131 J0.44
G03 X51.308 Y21.808 I-1.136 J-0.381
G01 X50.423 Y21.414 I0.36 J-1.999
G01 X50.101 Y20.037 I0.777 J-0.907
G02 X50.012 Y19.688 I-0.589 J-0.035
G01 X49.987 Y19.688
G02 X49.935 Y20.157 I0.373 J0.278
G03 X49.183 Y21.647 I-1.143 J0.357
G01 X48.234 Y21.85 I-0.89 J-1.841
G01 X47.165 Y20.925 I0.101 J-1.197
G02 X46.887 Y20.693 I-0.486 J0.3
G01 X46.867 Y20.707
G02 X47.1 Y21.117 I0.457 J0.011
G03 X47.368 Y22.767 I-0.718 J0.963
G01 X46.721 Y23.486 I-1.776 J-0.947
G01 X45.311 Y23.369 I-0.624 J-1.023
G02 X44.951 Y23.344 I-0.218 J0.54
G01 X44.943 Y23.367
G02 X45.405 Y23.564 I0.39 J-0.275
G03 X46.559 Y24.737 I-0.043 J1.197
G01 X46.295 Y25.977 I-1.691 J0.288
G01 X45.25 Y26.435 I-0.945 J-0.736
G02 X44.942 Y26.627 I0.153 J0.589
G01 X44.95 Y26.65
G02 X45.437 Y26.539 I0.155 J-0.442
G03 X47.061 Y26.809 I0.67 J0.988
G01 X47.548 Y27.648 I-1.439 J1.396
G01 X46.999 Y28.953 I-1.166 J0.277
G02 X46.864 Y29.288 I0.448 J0.375
G01 X46.884 Y29.302
G02 X47.215 Y28.925 I-0.137 J-0.454
G03 X48.689 Y28.189 I1.121 J0.402
G01 X49.573 Y28.582 I-0.361 J2.003
G01 X49.897 Y29.959 I-0.782 J0.91
G02 X49.985 Y30.31 I0.568 J0.044
G01 X50.008 Y30.31
G01 X50.131 Y30.511
G02 X50.304 Y30.081 I-1.033 J-0.665
G01 X50.252 Y29.777 I-0.493 J-0.072
G03 X50.882 Y28.539 I0.946 J-0.297
G01 X51.456 Y28.362 I1.161 J2.748
G01 X52.655 Y29.173 I0.201 J0.993
G02 X53.132 Y29.536 I0.801 J-0.558
G01 X53.346 Y29.381
G02 X53.232 Y28.931 I-1.176 J0.058
G01 X53.013 Y28.717 I-0.436 J0.227
G03 X52.795 Y27.343 I0.594 J-0.798
G01 X53.154 Y26.865 I2.745 J1.688
G01 X54.601 Y26.814 I0.748 J0.683
G02 X55.2 Y26.828 I0.32 J-0.907
G01 X55.282 Y26.577
G02 X54.926 Y26.28 I-0.946 J0.772
G01 X54.622 Y26.236 I-0.221 J0.454
G03 X53.639 Y25.253 I0.012 J-0.995
G01 X53.648 Y24.652 I3.143 J-0.253
G01 X54.788 Y23.763 I1.006 J0.115
G02 X55.282 Y23.421 I-0.287 J-0.943
G01 X55.2 Y23.17
G02 X54.738 Y23.139 I-0.307 J1.131
G01 X54.466 Y23.282 I0.086 J0.495
G03 X53.094 Y23.065 I-0.575 J-0.808
G01 X52.747 Y22.574 I2.398 J-2.063
G01 X53.148 Y21.183 I0.882 J-0.498
G02 X53.346 Y20.617 I-0.774 J-0.588
G01 X53.132 Y20.462
G02 X52.74 Y20.709 I0.422 J1.105
G01 X52.603 Y20.985 I0.35 J0.345
G03 X51.364 Y21.616 I-0.941 J-0.317
G01 X50.797 Y21.422 I0.727 J-3.051
G01 X50.304 Y20.061 I0.421 J-0.922
G02 X50.131 Y19.488 I-0.978 J-0.017
G01 X49.867 Y19.488
G02 X49.695 Y19.917 I0.989 J0.645
G01 X49.746 Y20.221 I0.502 J0.072
G03 X49.116 Y21.459 I-0.946 J0.297
G01 X48.542 Y21.636 I-1.161 J-2.748
G01 X47.343 Y20.825 I-0.201 J-0.993
G02 X46.866 Y20.462 I-0.801 J0.558
G01 X46.652 Y20.617
G02 X46.766 Y21.067 I1.176 J-0.058
G01 X46.985 Y21.281 I0.436 J-0.227
G03 X47.203 Y22.655 I-0.594 J0.798
G01 X46.844 Y23.133 I-2.745 J-1.688
G01 X45.397 Y23.184 I-0.748 J-0.683
G02 X44.798 Y23.17 I-0.32 J0.907
G01 X44.716 Y23.421
G02 X45.072 Y23.718 I0.946 J-0.772
G01 X45.377 Y23.763 I0.224 J-0.465
G03 X46.36 Y24.746 I-0.012 J0.995
G01 X46.35 Y25.346 I-2.794 J0.253
G01 X45.21 Y26.236 I-1.008 J-0.116
G02 X44.716 Y26.577 I0.28 J0.935
G01 X44.798 Y26.828
G02 X45.26 Y26.859 I0.307 J-1.131
G01 X45.532 Y26.716 I-0.086 J-0.495
G03 X46.904 Y26.933 I0.575 J0.808
G01 X47.251 Y27.424 I-2.398 J2.063
G01 X46.85 Y28.815 I-0.882 J0.498
G02 X46.652 Y29.381 I0.774 J0.588
G01 X46.866 Y29.536
G02 X47.258 Y29.289 I-0.422 J-1.105
G01 X47.395 Y29.013 I-0.35 J-0.345
G03 X48.634 Y28.382 I0.941 J0.317
G01 X49.201 Y28.576 I-0.727 J3.051
G01 X49.695 Y29.937 I-0.422 J0.923
G02 X49.867 Y30.511 I0.974 J0.02
G01 X50.131 Y30.511
G00 Z2
(T0 M06 M02)
