(Created with emc2b post processor 2014/08/11 12:36)
(tool change to 1 mm End Mill)
(T1 M06 G43)
(G17 G90 G21)
(G00 Z5 S7000 M03)
G01 X20.299 Y20.299
G01 Z2
G01 X20.299 Y20.299 Z-1 F50
G01 X20.299 Y19.7 Z-1 F100
G01 X19.7 Y19.7 Z-1
G01 X19.7 Y20.299 Z-1
G01 X20.299 Y20.299 Z-1
G01 X21.299 Y21.299 Z-1
G01 X21.299 Y18.7 Z-1
G01 X18.7 Y18.7 Z-1
G01 X18.7 Y21.299 Z-1
G01 X21.299 Y21.299 Z-1
G01 X22.299 Y22.299 Z-1
G01 X22.299 Y17.7 Z-1
G01 X17.7 Y17.7 Z-1
G01 X17.7 Y22.299 Z-1
G01 X22.299 Y22.299 Z-1
G01 X23.299 Y23.299 Z-1
G01 X23.299 Y16.7 Z-1
G01 X16.7 Y16.7 Z-1
G01 X16.7 Y23.299 Z-1
G01 X23.299 Y23.299 Z-1
G01 X24.299 Y24.299 Z-1
G01 X24.299 Y15.7 Z-1
G01 X15.7 Y15.7 Z-1
G01 X15.7 Y24.299 Z-1
G01 X24.299 Y24.299 Z-1
G01 X25.299 Y25.299 Z-1
G01 X25.299 Y14.7 Z-1
G01 X14.7 Y14.7 Z-1
G01 X14.7 Y25.299 Z-1
G01 X25.299 Y25.299 Z-1
G01 X26.299 Y26.299 Z-1
G01 X26.299 Y13.7 Z-1
G01 X13.7 Y13.7 Z-1
G01 X13.7 Y26.299 Z-1
G01 X26.299 Y26.299 Z-1
G01 X27.299 Y27.299 Z-1
G01 X27.299 Y12.7 Z-1
G01 X12.7 Y12.7 Z-1
G01 X12.7 Y27.299 Z-1
G01 X27.299 Y27.299 Z-1
G01 X28.299 Y28.299 Z-1
G01 X28.299 Y11.7 Z-1
G01 X11.7 Y11.7 Z-1
G01 X11.7 Y28.299 Z-1
G01 X28.299 Y28.299 Z-1
G01 X29.299 Y29.299 Z-1
G01 X29.299 Y10.7 Z-1
G01 X10.7 Y10.7 Z-1
G01 X10.7 Y29.299 Z-1
G01 X29.299 Y29.299 Z-1
G01 X29.365 Y29.365 Z-0.989
G01 X29.499 Y29.499 Z-0.543 F50
G01 X29.632 Y29.632 Z-0.049
G01 X29.699 Y29.699 Z0 F100
G01 X30.299 Y30.299 Z0
G01 X30.299 Y28.999 Z0
G01 X30.299 Y28.899 Z-0.078
G01 X30.299 Y28.499 Z-0.74
G01 X30.299 Y28.399 Z-0.888
G01 X30.299 Y28.299 Z-1
G01 X30.299 Y11.699 Z-1
G01 X30.299 Y11.599 Z-0.887
G01 X30.299 Y11.299 Z-0.412
G01 X30.299 Y11.099 Z-0.076
G01 X30.299 Y10.999 Z0
G01 X30.299 Y9.7 Z0
G01 X28.999 Y9.7 Z0
G01 X28.899 Y9.7 Z-0.076
G01 X28.499 Y9.7 Z-0.745
G01 X28.399 Y9.7 Z-0.887
G01 X28.299 Y9.7 Z-1
G01 X11.699 Y9.7 Z-1
G01 X11.599 Y9.7 Z-0.881
G01 X11.299 Y9.7 Z-0.413
G01 X11.099 Y9.7 Z-0.075
G01 X10.999 Y9.7 Z0
G01 X9.7 Y9.7 Z0
G01 X9.7 Y10.999 Z0
G01 X9.7 Y11.099 Z-0.075
G01 X9.7 Y11.499 Z-0.739
G01 X9.7 Y11.599 Z-0.883
G01 X9.7 Y11.699 Z-1
G01 X9.7 Y28.299 Z-1
G01 X9.7 Y28.399 Z-0.884
G01 X9.7 Y28.599 Z-0.585
G01 X9.7 Y28.899 Z-0.077
G01 X9.7 Y28.999 Z0
G01 X9.7 Y30.299 Z0
G01 X10.999 Y30.299 Z0
G01 X11.099 Y30.299 Z-0.077
G01 X11.499 Y30.299 Z-0.737
G01 X11.599 Y30.299 Z-0.883
G01 X11.699 Y30.299 Z-1
G01 X28.299 Y30.299 Z-1
G01 X28.399 Y30.299 Z-0.889
G01 X28.499 Y30.299 Z-0.747
G01 X28.899 Y30.299 Z-0.078
G01 X28.999 Y30.299 Z0
G01 X30.299 Y30.299 Z0
G01 X31.299 Y31.299 Z0
G01 X31.299 Y27.699 Z0
G01 X31.299 Y27.599 Z-0.063
G01 X31.299 Y27.199 Z-0.637
G01 X31.299 Y26.899 Z-1
G01 X31.299 Y13.099 Z-1
G01 X31.299 Y12.799 Z-0.636
G01 X31.299 Y12.399 Z-0.062
G01 X31.299 Y12.299 Z0
G01 X31.299 Y8.7 Z0
G01 X27.699 Y8.7 Z0
G01 X27.599 Y8.7 Z-0.062
G01 X27.199 Y8.7 Z-0.629
G01 X26.899 Y8.7 Z-1
G01 X13.099 Y8.7 Z-0.999
G01 X12.899 Y8.7 Z-0.764
G01 X12.399 Y8.7 Z-0.06
G01 X12.299 Y8.7 Z0
G01 X8.7 Y8.7 Z0
G01 X8.7 Y12.299 Z0
G01 X8.7 Y12.399 Z-0.06
G01 X8.7 Y12.899 Z-0.757
G01 X8.7 Y13.099 Z-1
G01 X8.7 Y26.899 Z-1
G01 X8.7 Y27.199 Z-0.627
G01 X8.7 Y27.599 Z-0.062
G01 X8.7 Y27.699 Z0
G01 X8.7 Y31.299 Z0
G01 X12.299 Y31.299 Z0
G01 X12.399 Y31.299 Z-0.062
G01 X12.899 Y31.299 Z-0.766
G01 X13.099 Y31.299 Z-1
G01 X26.899 Y31.299 Z-1
G01 X27.199 Y31.299 Z-0.631
G01 X27.599 Y31.299 Z-0.064
G01 X27.699 Y31.299 Z0
G01 X31.299 Y31.299 Z0
G01 X32.3 Y32.3 Z0
G01 X32.3 Y25.9 Z0
G01 X32.3 Y25.3 Z-0.646
G01 X32.3 Y24.9 Z-1
G01 X32.3 Y15.1 Z-1
G01 X32.3 Y14.7 Z-0.646
G01 X32.3 Y14.4 Z-0.329
G01 X32.3 Y14.1 Z0
G01 X32.3 Y7.7 Z0
G01 X25.9 Y7.7 Z0
G01 X25.5 Y7.7 Z-0.438
G01 X25.2 Y7.7 Z-0.736
G01 X24.9 Y7.7 Z-1
G01 X15.1 Y7.7 Z-0.997
G01 X14.7 Y7.7 Z-0.648
G01 X14.1 Y7.7 Z0
G01 X7.7 Y7.7 Z0
G01 X7.7 Y14.1 Z0
G01 X7.7 Y14.5 Z-0.433
G01 X7.7 Y14.8 Z-0.74
G01 X7.7 Y15.1 Z-1
G01 X7.7 Y24.9 Z-1
G01 X7.7 Y25.2 Z-0.74
G01 X7.7 Y25.7 Z-0.222
G01 X7.7 Y25.9 Z0
G01 X7.7 Y32.3 Z0
G01 X14.1 Y32.3 Z0
G01 X14.7 Y32.3 Z-0.648
G01 X15.1 Y32.3 Z-0.997
G01 X24.9 Y32.3 Z-1
G01 X25.3 Y32.3 Z-0.641
G01 X25.7 Y32.3 Z-0.221
G01 X25.9 Y32.3 Z0
G01 X32.3 Y32.3 Z0
G01 X33.3 Y33.3 Z0
G01 X33.3 Y23.1 Z0
G01 X33.3 Y23 Z-0.017
G01 X33.3 Y22.6 Z-0.234
G01 X33.3 Y22.1 Z-0.464
G01 X33.3 Y21.4 Z-0.701
G01 X33.3 Y20.7 Z-0.825
G01 X33.3 Y20 Z-0.875
G01 X33.3 Y19.3 Z-0.825
G01 X33.3 Y18.6 Z-0.701
G01 X33.3 Y17.9 Z-0.464
G01 X33.3 Y17.3 Z-0.182
G01 X33.3 Y17 Z-0.017
G01 X33.3 Y16.9 Z0
G01 X33.3 Y6.7 Z0
G01 X23.1 Y6.7 Z0
G01 X23 Y6.7 Z-0.018
G01 X22.5 Y6.7 Z-0.281
G01 X22.2 Y6.7 Z-0.421
G01 X21.5 Y6.7 Z-0.671
G01 X20.9 Y6.7 Z-0.798
G01 X20.2 Y6.7 Z-0.864
G01 X19.5 Y6.7 Z-0.846
G01 X18.8 Y6.7 Z-0.745
G01 X18.2 Y6.7 Z-0.573
G01 X17.9 Y6.7 Z-0.458
G01 X17.4 Y6.7 Z-0.235
G01 X17 Y6.7 Z-0.017
G01 X16.9 Y6.7 Z0
G01 X6.7 Y6.7 Z0
G01 X6.7 Y16.9 Z0
G01 X6.7 Y17 Z-0.018
G01 X6.7 Y17.5 Z-0.285
G01 X6.7 Y17.8 Z-0.416
G01 X6.7 Y18.3 Z-0.611
G01 X6.7 Y18.9 Z-0.763
G01 X6.7 Y19.6 Z-0.853
G01 X6.7 Y20.2 Z-0.861
G01 X6.7 Y20.5 Z-0.843
G01 X6.7 Y21.1 Z-0.763
G01 X6.7 Y21.7 Z-0.611
G01 X6.7 Y22.4 Z-0.331
G01 X6.7 Y22.9 Z-0.076
G01 X6.7 Y23 Z-0.018
G01 X6.7 Y23.1 Z0
G01 X6.7 Y33.3 Z0
G01 X16.9 Y33.3 Z0
G01 X17 Y33.3 Z-0.017
G01 X17.4 Y33.3 Z-0.235
G01 X18.1 Y33.3 Z-0.542
G01 X18.7 Y33.3 Z-0.72
G01 X18.9 Y33.3 Z-0.76
G01 X19.5 Y33.3 Z-0.846
G01 X20.2 Y33.3 Z-0.864
G01 X20.9 Y33.3 Z-0.798
G01 X21.6 Y33.3 Z-0.643
G01 X22.3 Y33.3 Z-0.377
G01 X22.9 Y33.3 Z-0.077
G01 X23 Y33.3 Z-0.018
G01 X23.1 Y33.3 Z0
G01 X33.3 Y33.3 Z0
G01 X34.3 Y34.3 Z0
G01 X34.3 Y5.7 Z0
G01 X5.7 Y5.7 Z0
G01 X5.7 Y34.3 Z0
G01 X34.3 Y34.3 Z0
G01 X35.3 Y35.3 Z0
G01 X35.3 Y4.7 Z0
G01 X4.7 Y4.7 Z0
G01 X4.7 Y35.3 Z0
G01 X35.3 Y35.3 Z0
G00 Z5
G01 X20.299 Y20.299
G01 Z1
G01 X20.299 Y20.299 Z-2 F50
G01 X20.299 Y19.7 Z-2 F100
G01 X19.7 Y19.7 Z-2
G01 X19.7 Y20.299 Z-2
G01 X20.299 Y20.299 Z-2
G01 X21.299 Y21.299 Z-2
G01 X21.299 Y18.7 Z-2
G01 X18.7 Y18.7 Z-2
G01 X18.7 Y21.299 Z-2
G01 X21.299 Y21.299 Z-2
G01 X22.299 Y22.299 Z-2
G01 X22.299 Y17.7 Z-2
G01 X17.7 Y17.7 Z-2
G01 X17.7 Y22.299 Z-2
G01 X22.299 Y22.299 Z-2
G01 X23.299 Y23.299 Z-2
G01 X23.299 Y16.7 Z-2
G01 X16.7 Y16.7 Z-2
G01 X16.7 Y23.299 Z-2
G01 X23.299 Y23.299 Z-2
G01 X24.299 Y24.299 Z-2
G01 X24.299 Y15.7 Z-2
G01 X15.7 Y15.7 Z-2
G01 X15.7 Y24.299 Z-2
G01 X24.299 Y24.299 Z-2
G01 X25.299 Y25.299 Z-2
G01 X25.299 Y14.7 Z-2
G01 X14.7 Y14.7 Z-2
G01 X14.7 Y25.299 Z-2
G01 X25.299 Y25.299 Z-2
G01 X26.299 Y26.299 Z-2
G01 X26.299 Y13.7 Z-2
G01 X13.7 Y13.7 Z-2
G01 X13.7 Y26.299 Z-2
G01 X26.299 Y26.299 Z-2
G01 X27.299 Y27.299 Z-2
G01 X27.299 Y12.7 Z-2
G01 X12.7 Y12.7 Z-2
G01 X12.7 Y27.299 Z-2
G01 X27.299 Y27.299 Z-2
G01 X28.299 Y28.299 Z-2
G01 X28.299 Y11.7 Z-2
G01 X11.7 Y11.7 Z-2
G01 X11.7 Y28.299 Z-2
G01 X28.299 Y28.299 Z-2
G01 X28.965 Y28.965 Z-2
G01 X29.032 Y29.032 Z-1.975
G01 X29.299 Y29.299 Z-1.201 F50
G01 X29.299 Y29.099 Z-1.506 F100
G01 X29.299 Y28.799 Z-1.924
G01 X29.299 Y28.699 Z-2
G01 X29.299 Y11.299 Z-2
G01 X29.299 Y11.199 Z-1.922
G01 X29.299 Y10.799 Z-1.36
G01 X29.299 Y10.7 Z-1.199
G01 X29.099 Y10.7 Z-1.501
G01 X28.799 Y10.7 Z-1.921
G01 X28.699 Y10.7 Z-2
G01 X11.299 Y10.7 Z-2
G01 X11.199 Y10.7 Z-1.916
G01 X10.799 Y10.7 Z-1.365
G01 X10.7 Y10.7 Z-1.202
G01 X10.7 Y10.899 Z-1.5
G01 X10.7 Y11.199 Z-1.916
G01 X10.7 Y11.299 Z-2
G01 X10.7 Y28.699 Z-2
G01 X10.7 Y28.799 Z-1.917
G01 X10.7 Y29.199 Z-1.36
G01 X10.7 Y29.299 Z-1.204
G01 X10.799 Y29.299 Z-1.367
G01 X11.199 Y29.299 Z-1.917
G01 X11.299 Y29.299 Z-2
G01 X28.699 Y29.299 Z-2
G01 X28.799 Y29.299 Z-1.923
G01 X29.199 Y29.299 Z-1.359
G01 X29.299 Y29.299 Z-1.201
G01 X29.499 Y29.499 Z-0.543 F50
G01 X29.632 Y29.632 Z-0.049
G01 X29.699 Y29.699 Z0 F100
G01 X30.299 Y30.299 Z0
G01 X30.299 Y28.999 Z0
G01 X30.299 Y28.899 Z-0.078
G01 X30.299 Y28.499 Z-0.74
G01 X30.299 Y27.999 Z-1.448
G01 X30.299 Y27.599 Z-1.928
G01 X30.299 Y27.499 Z-2
G01 X30.299 Y12.499 Z-2
G01 X30.299 Y12.399 Z-1.927
G01 X30.299 Y11.999 Z-1.446
G01 X30.299 Y11.499 Z-0.739
G01 X30.299 Y11.099 Z-0.076
G01 X30.299 Y10.999 Z0
G01 X30.299 Y9.7 Z0
G01 X28.999 Y9.7 Z0
G01 X28.899 Y9.7 Z-0.076
G01 X28.499 Y9.7 Z-0.745
G01 X27.999 Y9.7 Z-1.441
G01 X27.599 Y9.7 Z-1.923
G01 X27.499 Y9.7 Z-2
G01 X12.499 Y9.7 Z-2
G01 X12.399 Y9.7 Z-1.927
G01 X11.899 Y9.7 Z-1.312
G01 X11.499 Y9.7 Z-0.735
G01 X11.099 Y9.7 Z-0.075
G01 X10.999 Y9.7 Z0
G01 X9.7 Y9.7 Z0
G01 X9.7 Y10.999 Z0
G01 X9.7 Y11.099 Z-0.075
G01 X9.7 Y11.499 Z-0.739
G01 X9.7 Y11.899 Z-1.307
G01 X9.7 Y12.299 Z-1.804
G01 X9.7 Y12.399 Z-1.922
G01 X9.7 Y12.499 Z-2
G01 X9.7 Y27.499 Z-2
G01 X9.7 Y27.599 Z-1.924
G01 X9.7 Y27.999 Z-1.439
G01 X9.7 Y28.299 Z-1.028
G01 X9.7 Y28.599 Z-0.585
G01 X9.7 Y28.899 Z-0.077
G01 X9.7 Y28.999 Z0
G01 X9.7 Y30.299 Z0
G01 X10.999 Y30.299 Z0
G01 X11.099 Y30.299 Z-0.077
G01 X11.499 Y30.299 Z-0.737
G01 X11.899 Y30.299 Z-1.314
G01 X12.399 Y30.299 Z-1.929
G01 X12.499 Y30.299 Z-2
G01 X27.499 Y30.299 Z-2
G01 X27.599 Y30.299 Z-1.924
G01 X27.999 Y30.299 Z-1.442
G01 X28.499 Y30.299 Z-0.747
G01 X28.899 Y30.299 Z-0.078
G01 X28.999 Y30.299 Z0
G01 X30.299 Y30.299 Z0
G01 X31.299 Y31.299 Z0
G01 X31.299 Y27.699 Z0
G01 X31.299 Y27.599 Z-0.063
G01 X31.299 Y27.199 Z-0.637
G01 X31.299 Y26.699 Z-1.235
G01 X31.299 Y26.399 Z-1.555
G01 X31.299 Y25.999 Z-1.943
G01 X31.299 Y25.899 Z-2
G01 X31.299 Y14.099 Z-2
G01 X31.299 Y13.999 Z-1.942
G01 X31.299 Y13.499 Z-1.451
G01 X31.299 Y13.199 Z-1.121
G01 X31.299 Y12.799 Z-0.636
G01 X31.299 Y12.399 Z-0.062
G01 X31.299 Y12.299 Z0
G01 X31.299 Y8.7 Z0
G01 X27.699 Y8.7 Z0
G01 X27.599 Y8.7 Z-0.062
G01 X27.199 Y8.7 Z-0.629
G01 X26.699 Y8.7 Z-1.238
G01 X26.099 Y8.7 Z-1.848
G01 X25.999 Y8.7 Z-1.939
G01 X25.899 Y8.7 Z-2
G01 X14.099 Y8.7 Z-2
G01 X13.999 Y8.7 Z-1.934
G01 X13.499 Y8.7 Z-1.454
G01 X12.899 Y8.7 Z-0.764
G01 X12.399 Y8.7 Z-0.06
G01 X12.299 Y8.7 Z0
G01 X8.7 Y8.7 Z0
G01 X8.7 Y12.299 Z0
G01 X8.7 Y12.399 Z-0.06
G01 X8.7 Y12.899 Z-0.757
G01 X8.7 Y13.399 Z-1.355
G01 X8.7 Y13.999 Z-1.934
G01 X8.7 Y14.099 Z-2
G01 X8.7 Y25.899 Z-2
G01 X8.7 Y25.999 Z-1.935
G01 X8.7 Y26.599 Z-1.356
G01 X8.7 Y27.099 Z-0.759
G01 X8.7 Y27.599 Z-0.062
G01 X8.7 Y27.699 Z0
G01 X8.7 Y31.299 Z0
G01 X12.299 Y31.299 Z0
G01 X12.399 Y31.299 Z-0.062
G01 X12.899 Y31.299 Z-0.766
G01 X13.499 Y31.299 Z-1.455
G01 X13.999 Y31.299 Z-1.936
G01 X14.099 Y31.299 Z-2
G01 X25.899 Y31.299 Z-2
G01 X25.999 Y31.299 Z-1.94
G01 X26.599 Y31.299 Z-1.351
G01 X26.899 Y31.299 Z-1.002
G01 X27.199 Y31.299 Z-0.631
G01 X27.599 Y31.299 Z-0.064
G01 X27.699 Y31.299 Z0
G01 X31.299 Y31.299 Z0
G01 X32.3 Y32.3 Z0
G01 X32.3 Y25.9 Z0
G01 X32.3 Y25.3 Z-0.646
G01 X32.3 Y24.8 Z-1.083
G01 X32.3 Y24.4 Z-1.403
G01 X32.3 Y23.8 Z-1.777
G01 X32.3 Y23.4 Z-2
G01 X32.3 Y16.6 Z-2
G01 X32.3 Y16.1 Z-1.72
G01 X32.3 Y15.6 Z-1.403
G01 X32.3 Y15 Z-0.913
G01 X32.3 Y14.7 Z-0.646
G01 X32.3 Y14.4 Z-0.329
G01 X32.3 Y14.1 Z0
G01 X32.3 Y7.7 Z0
G01 X25.9 Y7.7 Z0
G01 X25.4 Y7.7 Z-0.54
G01 X25.1 Y7.7 Z-0.826
G01 X24.8 Y7.7 Z-1.084
G01 X24.3 Y7.7 Z-1.466
G01 X23.6 Y7.7 Z-1.896
G01 X23.4 Y7.7 Z-2
G01 X16.6 Y7.7 Z-2
G01 X16.1 Y7.7 Z-1.723
G01 X15.5 Y7.7 Z-1.327
G01 X14.8 Y7.7 Z-0.744
G01 X14.3 Y7.7 Z-0.22
G01 X14.1 Y7.7 Z0
G01 X7.7 Y7.7 Z0
G01 X7.7 Y14.1 Z0
G01 X7.7 Y14.6 Z-0.537
G01 X7.7 Y14.9 Z-0.831
G01 X7.7 Y15.4 Z-1.246
G01 X7.7 Y15.8 Z-1.531
G01 X7.7 Y16.3 Z-1.839
G01 X7.7 Y16.6 Z-1.999
G01 X7.7 Y23.4 Z-1.999
G01 X7.7 Y23.8 Z-1.781
G01 X7.7 Y24.3 Z-1.462
G01 X7.7 Y24.6 Z-1.246
G01 X7.7 Y25.1 Z-0.831
G01 X7.7 Y25.4 Z-0.537
G01 X7.7 Y25.9 Z0
G01 X7.7 Y32.3 Z0
G01 X14.1 Y32.3 Z0
G01 X14.7 Y32.3 Z-0.648
G01 X14.9 Y32.3 Z-0.829
G01 X15.5 Y32.3 Z-1.327
G01 X16.1 Y32.3 Z-1.723
G01 X16.6 Y32.3 Z-2
G01 X23.4 Y32.3 Z-2
G01 X23.6 Y32.3 Z-1.896
G01 X24.3 Y32.3 Z-1.466
G01 X24.9 Y32.3 Z-1.005
G01 X25.4 Y32.3 Z-0.54
G01 X25.7 Y32.3 Z-0.221
G01 X25.9 Y32.3 Z0
G01 X32.3 Y32.3 Z0
G01 X33.3 Y33.3 Z0
G01 X33.3 Y23.1 Z0
G01 X33.3 Y23 Z-0.017
G01 X33.3 Y22.6 Z-0.234
G01 X33.3 Y22.1 Z-0.464
G01 X33.3 Y21.4 Z-0.701
G01 X33.3 Y20.7 Z-0.825
G01 X33.3 Y20 Z-0.875
G01 X33.3 Y19.3 Z-0.825
G01 X33.3 Y18.6 Z-0.701
G01 X33.3 Y17.9 Z-0.464
G01 X33.3 Y17.3 Z-0.182
G01 X33.3 Y17 Z-0.017
G01 X33.3 Y16.9 Z0
G01 X33.3 Y6.7 Z0
G01 X23.1 Y6.7 Z0
G01 X23 Y6.7 Z-0.018
G01 X22.6 Y6.7 Z-0.231
G01 X22.2 Y6.7 Z-0.421
G01 X21.5 Y6.7 Z-0.671
G01 X20.8 Y6.7 Z-0.811
G01 X20.1 Y6.7 Z-0.864
G01 X19.4 Y6.7 Z-0.834
G01 X18.7 Y6.7 Z-0.72
G01 X18.1 Y6.7 Z-0.542
G01 X17.4 Y6.7 Z-0.235
G01 X17 Y6.7 Z-0.017
G01 X16.9 Y6.7 Z0
G01 X6.7 Y6.7 Z0
G01 X6.7 Y16.9 Z0
G01 X6.7 Y17 Z-0.018
G01 X6.7 Y17.5 Z-0.285
G01 X6.7 Y17.8 Z-0.416
G01 X6.7 Y18.3 Z-0.611
G01 X6.7 Y18.9 Z-0.763
G01 X6.7 Y19.6 Z-0.853
G01 X6.7 Y20.2 Z-0.861
G01 X6.7 Y20.5 Z-0.843
G01 X6.7 Y21.1 Z-0.763
G01 X6.7 Y21.7 Z-0.611
G01 X6.7 Y22.4 Z-0.331
G01 X6.7 Y22.9 Z-0.076
G01 X6.7 Y23 Z-0.018
G01 X6.7 Y23.1 Z0
G01 X6.7 Y33.3 Z0
G01 X16.9 Y33.3 Z0
G01 X17 Y33.3 Z-0.017
G01 X17.4 Y33.3 Z-0.235
G01 X18.1 Y33.3 Z-0.542
G01 X18.7 Y33.3 Z-0.72
G01 X18.9 Y33.3 Z-0.76
G01 X19.5 Y33.3 Z-0.846
G01 X20.2 Y33.3 Z-0.864
G01 X20.9 Y33.3 Z-0.798
G01 X21.6 Y33.3 Z-0.643
G01 X22.3 Y33.3 Z-0.377
G01 X22.9 Y33.3 Z-0.077
G01 X23 Y33.3 Z-0.018
G01 X23.1 Y33.3 Z0
G01 X33.3 Y33.3 Z0
G01 X34.3 Y34.3 Z0
G01 X34.3 Y5.7 Z0
G01 X5.7 Y5.7 Z0
G01 X5.7 Y34.3 Z0
G01 X34.3 Y34.3 Z0
G01 X35.3 Y35.3 Z0
G01 X35.3 Y4.7 Z0
G01 X4.7 Y4.7 Z0
G01 X4.7 Y35.3 Z0
G01 X35.3 Y35.3 Z0
G00 Z5
G01 X20.299 Y20.299
G01 Z0
G01 X20.299 Y20.299 Z-3 F50
G01 X20.299 Y19.7 Z-3 F100
G01 X19.7 Y19.7 Z-3
G01 X19.7 Y20.299 Z-3
G01 X20.299 Y20.299 Z-3
G01 X21.299 Y21.299 Z-3
G01 X21.299 Y18.7 Z-3
G01 X18.7 Y18.7 Z-3
G01 X18.7 Y21.299 Z-3
G01 X21.299 Y21.299 Z-3
G01 X22.299 Y22.299 Z-3
G01 X22.299 Y17.7 Z-3
G01 X17.7 Y17.7 Z-3
G01 X17.7 Y22.299 Z-3
G01 X22.299 Y22.299 Z-3
G01 X23.299 Y23.299 Z-3
G01 X23.299 Y16.7 Z-3
G01 X16.7 Y16.7 Z-3
G01 X16.7 Y23.299 Z-3
G01 X23.299 Y23.299 Z-3
G01 X24.299 Y24.299 Z-3
G01 X24.299 Y15.7 Z-3
G01 X15.7 Y15.7 Z-3
G01 X15.7 Y24.299 Z-3
G01 X24.299 Y24.299 Z-3
G01 X25.299 Y25.299 Z-3
G01 X25.299 Y14.7 Z-3
G01 X14.7 Y14.7 Z-3
G01 X14.7 Y25.299 Z-3
G01 X25.299 Y25.299 Z-3
G01 X26.299 Y26.299 Z-3
G01 X26.299 Y13.7 Z-3
G01 X13.7 Y13.7 Z-3
G01 X13.7 Y26.299 Z-3
G01 X26.299 Y26.299 Z-3
G01 X27.299 Y27.299 Z-3
G01 X27.299 Y12.7 Z-3
G01 X12.7 Y12.7 Z-3
G01 X12.7 Y27.299 Z-3
G01 X27.299 Y27.299 Z-3
G01 X28.299 Y28.299 Z-3
G01 X28.299 Y11.7 Z-3
G01 X11.7 Y11.7 Z-3
G01 X11.7 Y28.299 Z-3
G01 X28.299 Y28.299 Z-3
G01 X28.565 Y28.565 Z-3
G01 X28.632 Y28.632 Z-2.958
G01 X28.832 Y28.832 Z-2.488
G01 X29.032 Y29.032 Z-1.975
G01 X29.299 Y29.299 Z-1.201 F50
G01 X29.299 Y29.099 Z-1.506 F100
G01 X29.299 Y28.699 Z-2.059
G01 X29.299 Y28.199 Z-2.651
G01 X29.299 Y27.899 Z-2.966
G01 X29.299 Y27.799 Z-3
G01 X29.299 Y12.199 Z-3
G01 X29.299 Y12.099 Z-2.965
G01 X29.299 Y11.699 Z-2.535
G01 X29.299 Y11.199 Z-1.922
G01 X29.299 Y10.799 Z-1.36
G01 X29.299 Y10.7 Z-1.199
G01 X29.099 Y10.7 Z-1.501
G01 X28.799 Y10.7 Z-1.921
G01 X28.199 Y10.7 Z-2.655
G01 X27.899 Y10.7 Z-2.963
G01 X27.799 Y10.7 Z-3
G01 X12.199 Y10.7 Z-3
G01 X12.099 Y10.7 Z-2.965
G01 X11.799 Y10.7 Z-2.647
G01 X11.299 Y10.7 Z-2.051
G01 X10.799 Y10.7 Z-1.365
G01 X10.7 Y10.7 Z-1.202
G01 X10.7 Y10.899 Z-1.5
G01 X10.7 Y11.299 Z-2.049
G01 X10.7 Y11.799 Z-2.649
G01 X10.7 Y12.099 Z-2.965
G01 X10.7 Y12.199 Z-3
G01 X10.7 Y27.799 Z-3
G01 X10.7 Y27.899 Z-2.966
G01 X10.7 Y28.199 Z-2.65
G01 X10.7 Y28.699 Z-2.05
G01 X10.7 Y29.199 Z-1.36
G01 X10.7 Y29.299 Z-1.204
G01 X10.799 Y29.299 Z-1.367
G01 X11.299 Y29.299 Z-2.052
G01 X11.799 Y29.299 Z-2.648
G01 X12.099 Y29.299 Z-2.966
G01 X12.199 Y29.299 Z-3
G01 X27.799 Y29.299 Z-3
G01 X27.899 Y29.299 Z-2.965
G01 X28.199 Y29.299 Z-2.657
G01 X28.799 Y29.299 Z-1.923
G01 X29.199 Y29.299 Z-1.359
G01 X29.299 Y29.299 Z-1.201
G01 X29.499 Y29.499 Z-0.543 F50
G01 X29.632 Y29.632 Z-0.049
G01 X29.699 Y29.699 Z0 F100
G01 X30.299 Y30.299 Z0
G01 X30.299 Y28.999 Z0
G01 X30.299 Y28.899 Z-0.078
G01 X30.299 Y28.499 Z-0.74
G01 X30.299 Y27.999 Z-1.448
G01 X30.299 Y27.499 Z-2.042
G01 X30.299 Y26.899 Z-2.653
G01 X30.299 Y26.599 Z-2.921
G01 X30.299 Y26.499 Z-3
G01 X30.299 Y13.499 Z-3
G01 X30.299 Y13.199 Z-2.744
G01 X30.299 Y12.699 Z-2.249
G01 X30.299 Y12.399 Z-1.927
G01 X30.299 Y11.999 Z-1.446
G01 X30.299 Y11.499 Z-0.739
G01 X30.299 Y11.099 Z-0.076
G01 X30.299 Y10.999 Z0
G01 X30.299 Y9.7 Z0
G01 X28.999 Y9.7 Z0
G01 X28.899 Y9.7 Z-0.076
G01 X28.499 Y9.7 Z-0.745
G01 X27.999 Y9.7 Z-1.441
G01 X27.499 Y9.7 Z-2.039
G01 X27.099 Y9.7 Z-2.454
G01 X26.699 Y9.7 Z-2.837
G01 X26.499 Y9.7 Z-3
G01 X13.499 Y9.7 Z-3
G01 X13.099 Y9.7 Z-2.655
G01 X12.399 Y9.7 Z-1.927
G01 X11.899 Y9.7 Z-1.312
G01 X11.499 Y9.7 Z-0.735
G01 X11.099 Y9.7 Z-0.075
G01 X10.999 Y9.7 Z0
G01 X9.7 Y9.7 Z0
G01 X9.7 Y10.999 Z0
G01 X9.7 Y11.099 Z-0.075
G01 X9.7 Y11.499 Z-0.739
G01 X9.7 Y11.899 Z-1.307
G01 X9.7 Y12.299 Z-1.804
G01 X9.7 Y12.599 Z-2.148
G01 X9.7 Y13.099 Z-2.652
G01 X9.7 Y13.499 Z-3
G01 X9.7 Y26.499 Z-3
G01 X9.7 Y26.999 Z-2.557
G01 X9.7 Y27.499 Z-2.041
G01 X9.7 Y27.999 Z-1.439
G01 X9.7 Y28.299 Z-1.028
G01 X9.7 Y28.599 Z-0.585
G01 X9.7 Y28.899 Z-0.077
G01 X9.7 Y28.999 Z0
G01 X9.7 Y30.299 Z0
G01 X10.999 Y30.299 Z0
G01 X11.099 Y30.299 Z-0.077
G01 X11.499 Y30.299 Z-0.737
G01 X11.899 Y30.299 Z-1.314
G01 X12.499 Y30.299 Z-2.046
G01 X13.199 Y30.299 Z-2.747
G01 X13.499 Y30.299 Z-3
G01 X26.499 Y30.299 Z-3
G01 X26.699 Y30.299 Z-2.838
G01 X27.199 Y30.299 Z-2.357
G01 X27.599 Y30.299 Z-1.924
G01 X27.999 Y30.299 Z-1.442
G01 X28.499 Y30.299 Z-0.747
G01 X28.899 Y30.299 Z-0.078
G01 X28.999 Y30.299 Z0
G01 X30.299 Y30.299 Z0
G01 X31.299 Y31.299 Z0
G01 X31.299 Y27.699 Z0
G01 X31.299 Y27.599 Z-0.063
G01 X31.299 Y27.199 Z-0.637
G01 X31.299 Y26.699 Z-1.235
G01 X31.299 Y26.399 Z-1.555
G01 X31.299 Y25.899 Z-2.036
G01 X31.299 Y25.299 Z-2.504
G01 X31.299 Y24.999 Z-2.722
G01 X31.299 Y24.599 Z-2.97
G01 X31.299 Y24.499 Z-3
G01 X31.299 Y15.499 Z-3
G01 X31.299 Y15.399 Z-2.969
G01 X31.299 Y14.999 Z-2.722
G01 X31.299 Y14.399 Z-2.273
G01 X31.299 Y14.099 Z-2.035
G01 X31.299 Y13.499 Z-1.451
G01 X31.299 Y13.199 Z-1.121
G01 X31.299 Y12.799 Z-0.636
G01 X31.299 Y12.399 Z-0.062
G01 X31.299 Y12.299 Z0
G01 X31.299 Y8.7 Z0
G01 X27.699 Y8.7 Z0
G01 X27.599 Y8.7 Z-0.062
G01 X27.199 Y8.7 Z-0.629
G01 X26.699 Y8.7 Z-1.238
G01 X26.099 Y8.7 Z-1.848
G01 X25.799 Y8.7 Z-2.109
G01 X25.299 Y8.7 Z-2.504
G01 X24.899 Y8.7 Z-2.786
G01 X24.599 Y8.7 Z-2.969
G01 X24.499 Y8.7 Z-3
G01 X15.499 Y8.7 Z-3
G01 X15.399 Y8.7 Z-2.969
G01 X14.899 Y8.7 Z-2.657
G01 X14.099 Y8.7 Z-2.029
G01 X13.499 Y8.7 Z-1.454
G01 X12.899 Y8.7 Z-0.764
G01 X12.399 Y8.7 Z-0.06
G01 X12.299 Y8.7 Z0
G01 X8.7 Y8.7 Z0
G01 X8.7 Y12.299 Z0
G01 X8.7 Y12.399 Z-0.06
G01 X8.7 Y12.899 Z-0.757
G01 X8.7 Y13.399 Z-1.355
G01 X8.7 Y13.999 Z-1.934
G01 X8.7 Y14.399 Z-2.273
G01 X8.7 Y14.899 Z-2.651
G01 X8.7 Y15.399 Z-2.971
G01 X8.7 Y15.499 Z-3
G01 X8.7 Y24.499 Z-3
G01 X8.7 Y24.599 Z-2.972
G01 X8.7 Y25.199 Z-2.582
G01 X8.7 Y25.699 Z-2.194
G01 X8.7 Y25.999 Z-1.935
G01 X8.7 Y26.599 Z-1.356
G01 X8.7 Y27.099 Z-0.759
G01 X8.7 Y27.599 Z-0.062
G01 X8.7 Y27.699 Z0
G01 X8.7 Y31.299 Z0
G01 X12.299 Y31.299 Z0
G01 X12.399 Y31.299 Z-0.062
G01 X12.899 Y31.299 Z-0.766
G01 X13.499 Y31.299 Z-1.455
G01 X14.099 Y31.299 Z-2.03
G01 X14.499 Y31.299 Z-2.35
G01 X14.899 Y31.299 Z-2.658
G01 X15.399 Y31.299 Z-2.97
G01 X15.499 Y31.299 Z-3
G01 X24.499 Y31.299 Z-3
G01 X24.599 Y31.299 Z-2.97
G01 X24.999 Y31.299 Z-2.722
G01 X25.499 Y31.299 Z-2.354
G01 X25.999 Y31.299 Z-1.94
G01 X26.599 Y31.299 Z-1.351
G01 X26.899 Y31.299 Z-1.002
G01 X27.199 Y31.299 Z-0.631
G01 X27.599 Y31.299 Z-0.064
G01 X27.699 Y31.299 Z0
G01 X31.299 Y31.299 Z0
G01 X32.3 Y32.3 Z0
G01 X32.3 Y25.9 Z0
G01 X32.3 Y25.3 Z-0.646
G01 X32.3 Y24.8 Z-1.083
G01 X32.3 Y24.4 Z-1.403
G01 X32.3 Y23.7 Z-1.835
G01 X32.3 Y23.3 Z-2.054
G01 X32.3 Y22.7 Z-2.306
G01 X32.3 Y22.3 Z-2.449
G01 X32.3 Y21.7 Z-2.622
G01 X32.3 Y21 Z-2.748
G01 X32.3 Y20.2 Z-2.812
G01 X32.3 Y19.9 Z-2.817
G01 X32.3 Y19.4 Z-2.785
G01 X32.3 Y18.9 Z-2.733
G01 X32.3 Y18.3 Z-2.622
G01 X32.3 Y17.6 Z-2.415
G01 X32.3 Y17.1 Z-2.226
G01 X32.3 Y16.6 Z-2.007
G01 X32.3 Y15.9 Z-1.593
G01 X32.3 Y15.6 Z-1.403
G01 X32.3 Y15 Z-0.913
G01 X32.3 Y14.7 Z-0.646
G01 X32.3 Y14.4 Z-0.329
G01 X32.3 Y14.1 Z0
G01 X32.3 Y7.7 Z0
G01 X25.9 Y7.7 Z0
G01 X25.4 Y7.7 Z-0.54
G01 X25.1 Y7.7 Z-0.826
G01 X24.8 Y7.7 Z-1.084
G01 X24.3 Y7.7 Z-1.466
G01 X23.6 Y7.7 Z-1.896
G01 X23.3 Y7.7 Z-2.049
G01 X22.8 Y7.7 Z-2.268
G01 X22.1 Y7.7 Z-2.512
G01 X21.5 Y7.7 Z-2.668
G01 X20.8 Y7.7 Z-2.771
G01 X20.1 Y7.7 Z-2.811
G01 X19.4 Y7.7 Z-2.788
G01 X18.8 Y7.7 Z-2.72
G01 X18.1 Y7.7 Z-2.572
G01 X17.5 Y7.7 Z-2.383
G01 X16.7 Y7.7 Z-2.053
G01 X16.1 Y7.7 Z-1.723
G01 X15.5 Y7.7 Z-1.327
G01 X14.8 Y7.7 Z-0.744
G01 X14.6 Y7.7 Z-0.541
G01 X14.1 Y7.7 Z0
G01 X7.7 Y7.7 Z0
G01 X7.7 Y14.1 Z0
G01 X7.7 Y14.5 Z-0.433
G01 X7.7 Y14.8 Z-0.74
G01 X7.7 Y15.2 Z-1.086
G01 X7.7 Y15.6 Z-1.394
G01 X7.7 Y16.1 Z-1.721
G01 X7.7 Y16.5 Z-1.947
G01 X7.7 Y16.9 Z-2.145
G01 X7.7 Y17.5 Z-2.38
G01 X7.7 Y18 Z-2.542
G01 X7.7 Y18.7 Z-2.704
G01 X7.7 Y19.3 Z-2.784
G01 X7.7 Y19.9 Z-2.814
G01 X7.7 Y20.4 Z-2.803
G01 X7.7 Y20.8 Z-2.776
G01 X7.7 Y21.4 Z-2.685
G01 X7.7 Y22.1 Z-2.513
G01 X7.7 Y22.7 Z-2.305
G01 X7.7 Y23.1 Z-2.145
G01 X7.7 Y23.6 Z-1.894
G01 X7.7 Y24.1 Z-1.596
G01 X7.7 Y24.5 Z-1.322
G01 X7.7 Y25 Z-0.918
G01 X7.7 Y25.3 Z-0.642
G01 X7.7 Y25.8 Z-0.11
G01 X7.7 Y25.9 Z0
G01 X7.7 Y32.3 Z0
G01 X14.1 Y32.3 Z0
G01 X14.7 Y32.3 Z-0.648
G01 X15.4 Y32.3 Z-1.25
G01 X15.7 Y32.3 Z-1.462
G01 X16.2 Y32.3 Z-1.779
G01 X16.8 Y32.3 Z-2.102
G01 X17.6 Y32.3 Z-2.416
G01 X18.2 Y32.3 Z-2.598
G01 X18.9 Y32.3 Z-2.733
G01 X19.6 Y32.3 Z-2.801
G01 X20.3 Y32.3 Z-2.804
G01 X20.9 Y32.3 Z-2.759
G01 X21.5 Y32.3 Z-2.668
G01 X22.2 Y32.3 Z-2.483
G01 X22.9 Y32.3 Z-2.23
G01 X23.5 Y32.3 Z-1.951
G01 X24.2 Y32.3 Z-1.534
G01 X24.5 Y32.3 Z-1.321
G01 X25 Y32.3 Z-0.916
G01 X25.3 Y32.3 Z-0.641
G01 X25.7 Y32.3 Z-0.221
G01 X25.9 Y32.3 Z0
G01 X32.3 Y32.3 Z0
G01 X33.3 Y33.3 Z0
G01 X33.3 Y23.1 Z0
G01 X33.3 Y23 Z-0.017
G01 X33.3 Y22.6 Z-0.234
G01 X33.3 Y22.1 Z-0.464
G01 X33.3 Y21.4 Z-0.701
G01 X33.3 Y20.7 Z-0.825
G01 X33.3 Y20 Z-0.875
G01 X33.3 Y19.3 Z-0.825
G01 X33.3 Y18.6 Z-0.701
G01 X33.3 Y17.9 Z-0.464
G01 X33.3 Y17.3 Z-0.182
G01 X33.3 Y17 Z-0.017
G01 X33.3 Y16.9 Z0
G01 X33.3 Y6.7 Z0
G01 X23.1 Y6.7 Z0
G01 X23 Y6.7 Z-0.018
G01 X22.6 Y6.7 Z-0.231
G01 X22.2 Y6.7 Z-0.421
G01 X21.5 Y6.7 Z-0.671
G01 X20.8 Y6.7 Z-0.811
G01 X20.1 Y6.7 Z-0.864
G01 X19.4 Y6.7 Z-0.834
G01 X18.7 Y6.7 Z-0.72
G01 X18.1 Y6.7 Z-0.542
G01 X17.4 Y6.7 Z-0.235
G01 X17 Y6.7 Z-0.017
G01 X16.9 Y6.7 Z0
G01 X6.7 Y6.7 Z0
G01 X6.7 Y16.9 Z0
G01 X6.7 Y17 Z-0.018
G01 X6.7 Y17.5 Z-0.285
G01 X6.7 Y17.8 Z-0.416
G01 X6.7 Y18.3 Z-0.611
G01 X6.7 Y18.9 Z-0.763
G01 X6.7 Y19.6 Z-0.853
G01 X6.7 Y20.2 Z-0.861
G01 X6.7 Y20.5 Z-0.843
G01 X6.7 Y21.1 Z-0.763
G01 X6.7 Y21.7 Z-0.611
G01 X6.7 Y22.4 Z-0.331
G01 X6.7 Y22.9 Z-0.076
G01 X6.7 Y23 Z-0.018
G01 X6.7 Y23.1 Z0
G01 X6.7 Y33.3 Z0
G01 X16.9 Y33.3 Z0
G01 X17 Y33.3 Z-0.017
G01 X17.4 Y33.3 Z-0.235
G01 X18.1 Y33.3 Z-0.542
G01 X18.7 Y33.3 Z-0.72
G01 X18.9 Y33.3 Z-0.76
G01 X19.5 Y33.3 Z-0.846
G01 X20.2 Y33.3 Z-0.864
G01 X20.9 Y33.3 Z-0.798
G01 X21.6 Y33.3 Z-0.643
G01 X22.3 Y33.3 Z-0.377
G01 X22.9 Y33.3 Z-0.077
G01 X23 Y33.3 Z-0.018
G01 X23.1 Y33.3 Z0
G01 X33.3 Y33.3 Z0
G01 X34.3 Y34.3 Z0
G01 X34.3 Y5.7 Z0
G01 X5.7 Y5.7 Z0
G01 X5.7 Y34.3 Z0
G01 X34.3 Y34.3 Z0
G01 X35.3 Y35.3 Z0
G01 X35.3 Y4.7 Z0
G01 X4.7 Y4.7 Z0
G01 X4.7 Y35.3 Z0
G01 X35.3 Y35.3 Z0
G00 Z5
G01 X20.299 Y20.299
G01 Z-1
G01 X20.299 Y20.299 Z-4 F50
G01 X20.299 Y19.7 Z-4 F100
G01 X19.7 Y19.7 Z-4
G01 X19.7 Y20.299 Z-4
G01 X20.299 Y20.299 Z-4
G01 X21.299 Y21.299 Z-4
G01 X21.299 Y18.7 Z-4
G01 X18.7 Y18.7 Z-4
G01 X18.7 Y21.299 Z-4
G01 X21.299 Y21.299 Z-4
G01 X22.299 Y22.299 Z-4
G01 X22.299 Y17.7 Z-4
G01 X17.7 Y17.7 Z-4
G01 X17.7 Y22.299 Z-4
G01 X22.299 Y22.299 Z-4
G01 X23.299 Y23.299 Z-4
G01 X23.299 Y16.7 Z-4
G01 X16.7 Y16.7 Z-4
G01 X16.7 Y23.299 Z-4
G01 X23.299 Y23.299 Z-4
G01 X24.299 Y24.299 Z-4
G01 X24.299 Y15.7 Z-4
G01 X15.7 Y15.7 Z-4
G01 X15.7 Y24.299 Z-4
G01 X24.299 Y24.299 Z-4
G01 X25.299 Y25.299 Z-4
G01 X25.299 Y14.7 Z-4
G01 X14.7 Y14.7 Z-4
G01 X14.7 Y25.299 Z-4
G01 X25.299 Y25.299 Z-4
G01 X26.299 Y26.299 Z-4
G01 X26.299 Y13.7 Z-4
G01 X13.7 Y13.7 Z-4
G01 X13.7 Y26.299 Z-4
G01 X26.299 Y26.299 Z-4
G01 X27.299 Y27.299 Z-4
G01 X27.299 Y12.7 Z-4
G01 X12.7 Y12.7 Z-4
G01 X12.7 Y27.299 Z-4
G01 X27.299 Y27.299 Z-4
G01 X28.099 Y28.099 Z-4
G01 X28.165 Y28.165 Z-3.931
G01 X28.299 Y28.299 Z-3.666
G01 X28.299 Y27.999 Z-3.958
G01 X28.299 Y27.899 Z-4
G01 X28.299 Y12.099 Z-4
G01 X28.299 Y11.999 Z-3.957
G01 X28.299 Y11.7 Z-3.665
G01 X27.999 Y11.7 Z-3.954
G01 X27.899 Y11.7 Z-4
G01 X12.099 Y11.7 Z-4
G01 X11.999 Y11.7 Z-3.959
G01 X11.7 Y11.7 Z-3.662
G01 X11.7 Y11.999 Z-3.955
G01 X11.7 Y12.099 Z-4
G01 X11.7 Y27.899 Z-4
G01 X11.7 Y27.999 Z-3.955
G01 X11.7 Y28.299 Z-3.663
G01 X11.999 Y28.299 Z-3.959
G01 X12.099 Y28.299 Z-4
G01 X27.899 Y28.299 Z-4
G01 X27.999 Y28.299 Z-3.955
G01 X28.299 Y28.299 Z-3.666
G01 X28.499 Y28.499 Z-3.26
G01 X28.765 Y28.765 Z-2.655
G01 X29.099 Y29.099 Z-1.788
G01 X29.299 Y29.299 Z-1.201 F50
G01 X29.299 Y29.099 Z-1.506 F100
G01 X29.299 Y28.699 Z-2.059
G01 X29.299 Y28.199 Z-2.651
G01 X29.299 Y27.599 Z-3.271
G01 X29.299 Y27.199 Z-3.631
G01 X29.299 Y26.799 Z-3.964
G01 X29.299 Y26.699 Z-4
G01 X29.299 Y13.299 Z-4
G01 X29.299 Y13.199 Z-3.963
G01 X29.299 Y12.699 Z-3.544
G01 X29.299 Y12.399 Z-3.27
G01 X29.299 Y11.799 Z-2.65
G01 X29.299 Y11.299 Z-2.058
G01 X29.299 Y10.799 Z-1.36
G01 X29.299 Y10.7 Z-1.199
G01 X28.899 Y10.7 Z-1.785
G01 X28.599 Y10.7 Z-2.173
G01 X28.099 Y10.7 Z-2.759
G01 X27.399 Y10.7 Z-3.459
G01 X26.899 Y10.7 Z-3.886
G01 X26.799 Y10.7 Z-3.968
G01 X26.699 Y10.7 Z-4
G01 X13.299 Y10.7 Z-4
G01 X13.199 Y10.7 Z-3.964
G01 X12.899 Y10.7 Z-3.717
G01 X12.399 Y10.7 Z-3.269
G01 X11.799 Y10.7 Z-2.647
G01 X11.299 Y10.7 Z-2.051
G01 X10.799 Y10.7 Z-1.365
G01 X10.7 Y10.7 Z-1.202
G01 X10.7 Y11.099 Z-1.78
G01 X10.7 Y11.399 Z-2.172
G01 X10.7 Y11.899 Z-2.759
G01 X10.7 Y12.499 Z-3.364
G01 X10.7 Y13.199 Z-3.967
G01 X10.7 Y13.299 Z-4
G01 X10.7 Y26.699 Z-4
G01 X10.7 Y26.799 Z-3.968
G01 X10.7 Y27.499 Z-3.365
G01 X10.7 Y28.099 Z-2.76
G01 X10.7 Y28.599 Z-2.173
G01 X10.7 Y28.899 Z-1.782
G01 X10.7 Y29.299 Z-1.204
G01 X10.899 Y29.299 Z-1.506
G01 X11.399 Y29.299 Z-2.177
G01 X11.899 Y29.299 Z-2.757
G01 X12.499 Y29.299 Z-3.366
G01 X13.099 Y29.299 Z-3.888
G01 X13.199 Y29.299 Z-3.965
G01 X13.299 Y29.299 Z-4
G01 X26.699 Y29.299 Z-4
G01 X26.799 Y29.299 Z-3.969
G01 X27.299 Y29.299 Z-3.549
G01 X27.599 Y29.299 Z-3.271
G01 X28.199 Y29.299 Z-2.657
G01 X28.799 Y29.299 Z-1.923
G01 X29.199 Y29.299 Z-1.359
G01 X29.299 Y29.299 Z-1.201
G01 X29.432 Y29.432 Z-0.776 F50
G01 X29.632 Y29.632 Z-0.049
G01 X29.699 Y29.699 Z0 F100
G01 X30.299 Y30.299 Z0
G01 X30.299 Y28.999 Z0
G01 X30.299 Y28.899 Z-0.078
G01 X30.299 Y28.499 Z-0.74
G01 X30.299 Y27.999 Z-1.448
G01 X30.299 Y27.499 Z-2.042
G01 X30.299 Y26.899 Z-2.653
G01 X30.299 Y26.499 Z-3.005
G01 X30.299 Y26.099 Z-3.328
G01 X30.299 Y25.499 Z-3.754
G01 X30.299 Y25.099 Z-4
G01 X30.299 Y14.899 Z-3.999
G01 X30.299 Y14.499 Z-3.753
G01 X30.299 Y13.899 Z-3.327
G01 X30.299 Y13.399 Z-2.92
G01 X30.299 Y13.099 Z-2.652
G01 X30.299 Y12.499 Z-2.041
G01 X30.299 Y11.999 Z-1.446
G01 X30.299 Y11.499 Z-0.739
G01 X30.299 Y11.099 Z-0.076
G01 X30.299 Y10.999 Z0
G01 X30.299 Y9.7 Z0
G01 X28.999 Y9.7 Z0
G01 X28.899 Y9.7 Z-0.076
G01 X28.499 Y9.7 Z-0.745
G01 X27.999 Y9.7 Z-1.441
G01 X27.599 Y9.7 Z-1.923
G01 X27.199 Y9.7 Z-2.356
G01 X26.699 Y9.7 Z-2.837
G01 X26.199 Y9.7 Z-3.252
G01 X25.699 Y9.7 Z-3.619
G01 X25.399 Y9.7 Z-3.818
G01 X25.099 Y9.7 Z-4
G01 X14.899 Y9.7 Z-4
G01 X14.699 Y9.7 Z-3.886
G01 X13.999 Y9.7 Z-3.4
G01 X13.599 Y9.7 Z-3.087
G01 X13.099 Y9.7 Z-2.655
G01 X12.499 Y9.7 Z-2.045
G01 X11.899 Y9.7 Z-1.312
G01 X11.499 Y9.7 Z-0.735
G01 X11.099 Y9.7 Z-0.075
G01 X10.999 Y9.7 Z0
G01 X9.7 Y9.7 Z0
G01 X9.7 Y10.999 Z0
G01 X9.7 Y11.099 Z-0.075
G01 X9.7 Y11.499 Z-0.739
G01 X9.7 Y11.899 Z-1.307
G01 X9.7 Y12.299 Z-1.804
G01 X9.7 Y12.599 Z-2.148
G01 X9.7 Y13.099 Z-2.652
G01 X9.7 Y13.699 Z-3.169
G01 X9.7 Y14.099 Z-3.473
G01 X9.7 Y14.799 Z-3.944
G01 X9.7 Y14.899 Z-4
G01 X9.7 Y25.099 Z-4
G01 X9.7 Y25.299 Z-3.882
G01 X9.7 Y25.899 Z-3.473
G01 X9.7 Y26.299 Z-3.17
G01 X9.7 Y26.899 Z-2.653
G01 X9.7 Y27.399 Z-2.149
G01 X9.7 Y27.799 Z-1.686
G01 X9.7 Y28.099 Z-1.309
G01 X9.7 Y28.499 Z-0.74
G01 X9.7 Y28.799 Z-0.247
G01 X9.7 Y28.899 Z-0.077
G01 X9.7 Y28.999 Z0
G01 X9.7 Y30.299 Z0
G01 X10.999 Y30.299 Z0
G01 X11.099 Y30.299 Z-0.077
G01 X11.499 Y30.299 Z-0.737
G01 X11.899 Y30.299 Z-1.314
G01 X12.499 Y30.299 Z-2.046
G01 X13.199 Y30.299 Z-2.747
G01 X13.799 Y30.299 Z-3.25
G01 X14.299 Y30.299 Z-3.614
G01 X14.699 Y30.299 Z-3.887
G01 X14.899 Y30.299 Z-4
G01 X25.099 Y30.299 Z-4
G01 X25.499 Y30.299 Z-3.757
G01 X25.999 Y30.299 Z-3.406
G01 X26.399 Y30.299 Z-3.093
G01 X26.799 Y30.299 Z-2.745
G01 X27.299 Y30.299 Z-2.252
G01 X27.599 Y30.299 Z-1.924
G01 X27.999 Y30.299 Z-1.442
G01 X28.499 Y30.299 Z-0.747
G01 X28.899 Y30.299 Z-0.078
G01 X28.999 Y30.299 Z0
G01 X30.299 Y30.299 Z0
G01 X31.299 Y31.299 Z0
G01 X31.299 Y27.699 Z0
G01 X31.299 Y27.599 Z-0.063
G01 X31.299 Y27.199 Z-0.637
G01 X31.299 Y26.699 Z-1.235
G01 X31.299 Y26.399 Z-1.555
G01 X31.299 Y25.899 Z-2.036
G01 X31.299 Y25.299 Z-2.504
G01 X31.299 Y24.999 Z-2.722
G01 X31.299 Y24.399 Z-3.087
G01 X31.299 Y23.999 Z-3.31
G01 X31.299 Y23.299 Z-3.615
G01 X31.299 Y22.899 Z-3.768
G01 X31.299 Y22.299 Z-3.955
G01 X31.299 Y22.099 Z-4
G01 X31.299 Y17.899 Z-4
G01 X31.299 Y17.599 Z-3.927
G01 X31.299 Y16.899 Z-3.695
G01 X31.299 Y16.299 Z-3.444
G01 X31.299 Y15.999 Z-3.309
G01 X31.299 Y15.299 Z-2.909
G01 X31.299 Y14.999 Z-2.722
G01 X31.299 Y14.399 Z-2.273
G01 X31.299 Y14.099 Z-2.035
G01 X31.299 Y13.499 Z-1.451
G01 X31.299 Y13.199 Z-1.121
G01 X31.299 Y12.799 Z-0.636
G01 X31.299 Y12.399 Z-0.062
G01 X31.299 Y12.299 Z0
G01 X31.299 Y8.7 Z0
G01 X27.699 Y8.7 Z0
G01 X27.599 Y8.7 Z-0.062
G01 X27.199 Y8.7 Z-0.629
G01 X26.699 Y8.7 Z-1.238
G01 X26.099 Y8.7 Z-1.848
G01 X25.799 Y8.7 Z-2.109
G01 X25.299 Y8.7 Z-2.504
G01 X24.899 Y8.7 Z-2.786
G01 X24.399 Y8.7 Z-3.084
G01 X23.999 Y8.7 Z-3.309
G01 X23.199 Y8.7 Z-3.656
G01 X22.499 Y8.7 Z-3.9
G01 X22.099 Y8.7 Z-3.998
G01 X17.899 Y8.7 Z-4
G01 X17.399 Y8.7 Z-3.864
G01 X17.099 Y8.7 Z-3.766
G01 X16.499 Y8.7 Z-3.531
G01 X15.999 Y8.7 Z-3.308
G01 X15.299 Y8.7 Z-2.907
G01 X14.899 Y8.7 Z-2.657
G01 X14.099 Y8.7 Z-2.029
G01 X13.499 Y8.7 Z-1.454
G01 X12.899 Y8.7 Z-0.764
G01 X12.399 Y8.7 Z-0.06
G01 X12.299 Y8.7 Z0
G01 X8.7 Y8.7 Z0
G01 X8.7 Y12.299 Z0
G01 X8.7 Y12.399 Z-0.06
G01 X8.7 Y12.899 Z-0.757
G01 X8.7 Y13.399 Z-1.355
G01 X8.7 Y13.999 Z-1.934
G01 X8.7 Y14.399 Z-2.273
G01 X8.7 Y14.799 Z-2.581
G01 X8.7 Y15.399 Z-2.971
G01 X8.7 Y15.999 Z-3.308
G01 X8.7 Y16.699 Z-3.616
G01 X8.7 Y17.399 Z-3.867
G01 X8.7 Y17.899 Z-4
G01 X8.7 Y22.099 Z-4
G01 X8.7 Y22.699 Z-3.835
G01 X8.7 Y23.399 Z-3.574
G01 X8.7 Y23.999 Z-3.308
G01 X8.7 Y24.699 Z-2.909
G01 X8.7 Y25.199 Z-2.582
G01 X8.7 Y25.699 Z-2.194
G01 X8.7 Y25.999 Z-1.935
G01 X8.7 Y26.599 Z-1.356
G01 X8.7 Y27.099 Z-0.759
G01 X8.7 Y27.599 Z-0.062
G01 X8.7 Y27.699 Z0
G01 X8.7 Y31.299 Z0
G01 X12.299 Y31.299 Z0
G01 X12.399 Y31.299 Z-0.062
G01 X12.899 Y31.299 Z-0.766
G01 X13.499 Y31.299 Z-1.455
G01 X14.099 Y31.299 Z-2.03
G01 X14.899 Y31.299 Z-2.658
G01 X15.599 Y31.299 Z-3.086
G01 X16.099 Y31.299 Z-3.357
G01 X16.799 Y31.299 Z-3.653
G01 X17.299 Y31.299 Z-3.835
G01 X17.799 Y31.299 Z-3.979
G01 X17.899 Y31.299 Z-4
G01 X22.099 Y31.299 Z-3.999
G01 X22.499 Y31.299 Z-3.901
G01 X23.299 Y31.299 Z-3.616
G01 X23.999 Y31.299 Z-3.311
G01 X24.799 Y31.299 Z-2.851
G01 X25.099 Y31.299 Z-2.651
G01 X25.599 Y31.299 Z-2.273
G01 X25.999 Y31.299 Z-1.94
G01 X26.599 Y31.299 Z-1.351
G01 X26.899 Y31.299 Z-1.002
G01 X27.199 Y31.299 Z-0.631
G01 X27.599 Y31.299 Z-0.064
G01 X27.699 Y31.299 Z0
G01 X31.299 Y31.299 Z0
G01 X32.3 Y32.3 Z0
G01 X32.3 Y25.9 Z0
G01 X32.3 Y25.3 Z-0.646
G01 X32.3 Y24.8 Z-1.083
G01 X32.3 Y24.4 Z-1.403
G01 X32.3 Y23.8 Z-1.777
G01 X32.3 Y23.3 Z-2.054
G01 X32.3 Y22.6 Z-2.344
G01 X32.3 Y22.1 Z-2.508
G01 X32.3 Y21.6 Z-2.643
G01 X32.3 Y21 Z-2.748
G01 X32.3 Y20.2 Z-2.812
G01 X32.3 Y19.9 Z-2.817
G01 X32.3 Y19.4 Z-2.785
G01 X32.3 Y18.9 Z-2.733
G01 X32.3 Y18.3 Z-2.622
G01 X32.3 Y17.6 Z-2.415
G01 X32.3 Y17.1 Z-2.226
G01 X32.3 Y16.6 Z-2.007
G01 X32.3 Y16 Z-1.657
G01 X32.3 Y15.5 Z-1.326
G01 X32.3 Y15 Z-0.913
G01 X32.3 Y14.7 Z-0.646
G01 X32.3 Y14.4 Z-0.329
G01 X32.3 Y14.1 Z0
G01 X32.3 Y7.7 Z0
G01 X25.9 Y7.7 Z0
G01 X25.5 Y7.7 Z-0.438
G01 X25.2 Y7.7 Z-0.736
G01 X24.8 Y7.7 Z-1.084
G01 X24.4 Y7.7 Z-1.396
G01 X24.1 Y7.7 Z-1.594
G01 X23.5 Y7.7 Z-1.951
G01 X22.9 Y7.7 Z-2.23
G01 X22.1 Y7.7 Z-2.512
G01 X21.5 Y7.7 Z-2.668
G01 X20.8 Y7.7 Z-2.771
G01 X20.1 Y7.7 Z-2.811
G01 X19.4 Y7.7 Z-2.788
G01 X18.7 Y7.7 Z-2.701
G01 X18.1 Y7.7 Z-2.572
G01 X17.5 Y7.7 Z-2.383
G01 X16.7 Y7.7 Z-2.053
G01 X16.1 Y7.7 Z-1.723
G01 X15.5 Y7.7 Z-1.327
G01 X14.8 Y7.7 Z-0.744
G01 X14.3 Y7.7 Z-0.22
G01 X14.1 Y7.7 Z0
G01 X7.7 Y7.7 Z0
G01 X7.7 Y14.1 Z0
G01 X7.7 Y14.6 Z-0.537
G01 X7.7 Y14.9 Z-0.831
G01 X7.7 Y15.4 Z-1.246
G01 X7.7 Y15.8 Z-1.531
G01 X7.7 Y16.3 Z-1.839
G01 X7.7 Y16.8 Z-2.097
G01 X7.7 Y17.1 Z-2.228
G01 X7.7 Y17.6 Z-2.413
G01 X7.7 Y18.1 Z-2.567
G01 X7.7 Y18.7 Z-2.704
G01 X7.7 Y19.3 Z-2.784
G01 X7.7 Y19.9 Z-2.814
G01 X7.7 Y20.4 Z-2.803
G01 X7.7 Y20.8 Z-2.776
G01 X7.7 Y21.4 Z-2.685
G01 X7.7 Y22.1 Z-2.513
G01 X7.7 Y22.7 Z-2.305
G01 X7.7 Y23.1 Z-2.145
G01 X7.7 Y23.6 Z-1.894
G01 X7.7 Y24.1 Z-1.596
G01 X7.7 Y24.5 Z-1.322
G01 X7.7 Y24.9 Z-1.003
G01 X7.7 Y25.2 Z-0.74
G01 X7.7 Y25.7 Z-0.222
G01 X7.7 Y25.9 Z0
G01 X7.7 Y32.3 Z0
G01 X14.1 Y32.3 Z0
G01 X14.7 Y32.3 Z-0.648
G01 X14.9 Y32.3 Z-0.829
G01 X15.5 Y32.3 Z-1.327
G01 X16.1 Y32.3 Z-1.723
G01 X16.7 Y32.3 Z-2.053
G01 X17.5 Y32.3 Z-2.383
G01 X18.2 Y32.3 Z-2.598
G01 X18.8 Y32.3 Z-2.72
G01 X19.5 Y32.3 Z-2.796
G01 X20.2 Y32.3 Z-2.809
G01 X20.9 Y32.3 Z-2.759
G01 X21.6 Y32.3 Z-2.643
G01 X22.2 Y32.3 Z-2.483
G01 X22.9 Y32.3 Z-2.23
G01 X23.5 Y32.3 Z-1.951
G01 X24.2 Y32.3 Z-1.534
G01 X24.5 Y32.3 Z-1.321
G01 X25 Y32.3 Z-0.916
G01 X25.3 Y32.3 Z-0.641
G01 X25.7 Y32.3 Z-0.221
G01 X25.9 Y32.3 Z0
G01 X32.3 Y32.3 Z0
G01 X33.3 Y33.3 Z0
G01 X33.3 Y23.1 Z0
G01 X33.3 Y23 Z-0.017
G01 X33.3 Y22.6 Z-0.234
G01 X33.3 Y22.1 Z-0.464
G01 X33.3 Y21.4 Z-0.701
G01 X33.3 Y20.7 Z-0.825
G01 X33.3 Y20 Z-0.875
G01 X33.3 Y19.3 Z-0.825
G01 X33.3 Y18.6 Z-0.701
G01 X33.3 Y17.9 Z-0.464
G01 X33.3 Y17.3 Z-0.182
G01 X33.3 Y17 Z-0.017
G01 X33.3 Y16.9 Z0
G01 X33.3 Y6.7 Z0
G01 X23.1 Y6.7 Z0
G01 X23 Y6.7 Z-0.018
G01 X22.5 Y6.7 Z-0.281
G01 X22.2 Y6.7 Z-0.421
G01 X21.5 Y6.7 Z-0.671
G01 X20.9 Y6.7 Z-0.798
G01 X20.2 Y6.7 Z-0.864
G01 X19.5 Y6.7 Z-0.846
G01 X18.8 Y6.7 Z-0.745
G01 X18.2 Y6.7 Z-0.573
G01 X17.9 Y6.7 Z-0.458
G01 X17.4 Y6.7 Z-0.235
G01 X17 Y6.7 Z-0.017
G01 X16.9 Y6.7 Z0
G01 X6.7 Y6.7 Z0
G01 X6.7 Y16.9 Z0
G01 X6.7 Y17 Z-0.018
G01 X6.7 Y17.5 Z-0.285
G01 X6.7 Y17.8 Z-0.416
G01 X6.7 Y18.3 Z-0.611
G01 X6.7 Y18.9 Z-0.763
G01 X6.7 Y19.6 Z-0.853
G01 X6.7 Y20.2 Z-0.861
G01 X6.7 Y20.5 Z-0.843
G01 X6.7 Y21.1 Z-0.763
G01 X6.7 Y21.7 Z-0.611
G01 X6.7 Y22.4 Z-0.331
G01 X6.7 Y22.9 Z-0.076
G01 X6.7 Y23 Z-0.018
G01 X6.7 Y23.1 Z0
G01 X6.7 Y33.3 Z0
G01 X16.9 Y33.3 Z0
G01 X17 Y33.3 Z-0.017
G01 X17.4 Y33.3 Z-0.235
G01 X18.1 Y33.3 Z-0.542
G01 X18.7 Y33.3 Z-0.72
G01 X18.9 Y33.3 Z-0.76
G01 X19.5 Y33.3 Z-0.846
G01 X20.2 Y33.3 Z-0.864
G01 X20.9 Y33.3 Z-0.798
G01 X21.6 Y33.3 Z-0.643
G01 X22.3 Y33.3 Z-0.377
G01 X22.9 Y33.3 Z-0.077
G01 X23 Y33.3 Z-0.018
G01 X23.1 Y33.3 Z0
G01 X33.3 Y33.3 Z0
G01 X34.3 Y34.3 Z0
G01 X34.3 Y5.7 Z0
G01 X5.7 Y5.7 Z0
G01 X5.7 Y34.3 Z0
G01 X34.3 Y34.3 Z0
G01 X35.3 Y35.3 Z0
G01 X35.3 Y4.7 Z0
G01 X4.7 Y4.7 Z0
G01 X4.7 Y35.3 Z0
G01 X35.3 Y35.3 Z0
G00 Z5
G01 X20.299 Y20.299
G01 Z-2
G01 X20.299 Y20.299 Z-5 F50
G01 X20.299 Y19.7 Z-5 F100
G01 X19.7 Y19.7 Z-5
G01 X19.7 Y20.299 Z-5
G01 X20.299 Y20.299 Z-5
G01 X21.299 Y21.299 Z-5
G01 X21.299 Y18.7 Z-5
G01 X18.7 Y18.7 Z-5
G01 X18.7 Y21.299 Z-5
G01 X21.299 Y21.299 Z-5
G01 X22.299 Y22.299 Z-5
G01 X22.299 Y17.7 Z-5
G01 X17.7 Y17.7 Z-5
G01 X17.7 Y22.299 Z-5
G01 X22.299 Y22.299 Z-5
G01 X23.299 Y23.299 Z-5
G01 X23.299 Y16.7 Z-5
G01 X16.7 Y16.7 Z-5
G01 X16.7 Y23.299 Z-5
G01 X23.299 Y23.299 Z-5
G01 X24.299 Y24.299 Z-5
G01 X24.299 Y15.7 Z-5
G01 X15.7 Y15.7 Z-5
G01 X15.7 Y24.299 Z-5
G01 X24.299 Y24.299 Z-5
G01 X25.299 Y25.299 Z-5
G01 X25.299 Y14.7 Z-5
G01 X14.7 Y14.7 Z-5
G01 X14.7 Y25.299 Z-5
G01 X25.299 Y25.299 Z-5
G01 X26.299 Y26.299 Z-5
G01 X26.299 Y13.7 Z-5
G01 X13.7 Y13.7 Z-5
G01 X13.7 Y26.299 Z-5
G01 X26.299 Y26.299 Z-5
G01 X27.299 Y27.299 Z-5
G01 X27.299 Y12.7 Z-5
G01 X12.7 Y12.7 Z-5
G01 X12.7 Y27.299 Z-5
G01 X27.299 Y27.299 Z-5
G01 X27.499 Y27.499 Z-5
G01 X27.565 Y27.565 Z-4.973
G01 X27.832 Y27.832 Z-4.533
G01 X28.232 Y28.232 Z-3.8
G01 X28.299 Y28.299 Z-3.666
G01 X28.299 Y27.999 Z-3.958
G01 X28.299 Y27.299 Z-4.561
G01 X28.299 Y26.799 Z-4.937
G01 X28.299 Y26.699 Z-5
G01 X28.299 Y13.299 Z-5
G01 X28.299 Y13.099 Z-4.864
G01 X28.299 Y12.599 Z-4.481
G01 X28.299 Y11.899 Z-3.865
G01 X28.299 Y11.7 Z-3.665
G01 X27.999 Y11.7 Z-3.954
G01 X27.399 Y11.7 Z-4.482
G01 X26.899 Y11.7 Z-4.867
G01 X26.799 Y11.7 Z-4.941
G01 X26.699 Y11.7 Z-5
G01 X13.299 Y11.7 Z-5
G01 X12.899 Y11.7 Z-4.712
G01 X12.499 Y11.7 Z-4.398
G01 X11.899 Y11.7 Z-3.863
G01 X11.7 Y11.7 Z-3.662
G01 X11.7 Y12.099 Z-4.046
G01 X11.7 Y12.699 Z-4.56
G01 X11.7 Y13.199 Z-4.936
G01 X11.7 Y13.299 Z-5
G01 X11.7 Y26.699 Z-5
G01 X11.7 Y27.199 Z-4.639
G01 X11.7 Y27.499 Z-4.395
G01 X11.7 Y27.999 Z-3.955
G01 X11.7 Y28.299 Z-3.663
G01 X11.999 Y28.299 Z-3.959
G01 X12.599 Y28.299 Z-4.482
G01 X13.199 Y28.299 Z-4.936
G01 X13.299 Y28.299 Z-5
G01 X26.699 Y28.299 Z-5
G01 X26.799 Y28.299 Z-4.942
G01 X27.199 Y28.299 Z-4.642
G01 X27.599 Y28.299 Z-4.313
G01 X28.199 Y28.299 Z-3.764
G01 X28.299 Y28.299 Z-3.666
G01 X28.499 Y28.499 Z-3.26
G01 X28.765 Y28.765 Z-2.655
G01 X29.099 Y29.099 Z-1.788
G01 X29.299 Y29.299 Z-1.201 F50
G01 X29.299 Y29.099 Z-1.506 F100
G01 X29.299 Y28.699 Z-2.059
G01 X29.299 Y28.199 Z-2.651
G01 X29.299 Y27.599 Z-3.271
G01 X29.299 Y27.199 Z-3.631
G01 X29.299 Y26.799 Z-3.964
G01 X29.299 Y26.199 Z-4.411
G01 X29.299 Y25.499 Z-4.851
G01 X29.299 Y25.299 Z-4.97
G01 X29.299 Y25.199 Z-5
G01 X29.299 Y14.799 Z-5
G01 X29.299 Y14.699 Z-4.97
G01 X29.299 Y13.899 Z-4.479
G01 X29.299 Y13.299 Z-4.04
G01 X29.299 Y12.999 Z-3.801
G01 X29.299 Y12.499 Z-3.365
G01 X29.299 Y11.899 Z-2.756
G01 X29.299 Y11.599 Z-2.416
G01 X29.299 Y11.299 Z-2.058
G01 X29.299 Y10.799 Z-1.36
G01 X29.299 Y10.7 Z-1.199
G01 X28.899 Y10.7 Z-1.785
G01 X28.599 Y10.7 Z-2.173
G01 X28.099 Y10.7 Z-2.759
G01 X27.399 Y10.7 Z-3.459
G01 X26.899 Y10.7 Z-3.886
G01 X26.399 Y10.7 Z-4.27
G01 X25.899 Y10.7 Z-4.61
G01 X25.399 Y10.7 Z-4.912
G01 X25.299 Y10.7 Z-4.969
G01 X25.199 Y10.7 Z-5
G01 X14.799 Y10.7 Z-5
G01 X14.699 Y10.7 Z-4.966
G01 X14.099 Y10.7 Z-4.608
G01 X13.699 Y10.7 Z-4.335
G01 X13.099 Y10.7 Z-3.887
G01 X12.499 Y10.7 Z-3.364
G01 X11.899 Y10.7 Z-2.755
G01 X11.399 Y10.7 Z-2.175
G01 X10.999 Y10.7 Z-1.641
G01 X10.799 Y10.7 Z-1.365
G01 X10.7 Y10.7 Z-1.202
G01 X10.7 Y11.099 Z-1.78
G01 X10.7 Y11.399 Z-2.172
G01 X10.7 Y11.899 Z-2.759
G01 X10.7 Y12.499 Z-3.364
G01 X10.7 Y13.199 Z-3.967
G01 X10.7 Y13.899 Z-4.478
G01 X10.7 Y14.499 Z-4.849
G01 X10.7 Y14.699 Z-4.964
G01 X10.7 Y14.799 Z-5
G01 X10.7 Y25.199 Z-5
G01 X10.7 Y25.299 Z-4.965
G01 X10.7 Y25.799 Z-4.667
G01 X10.7 Y26.199 Z-4.41
G01 X10.7 Y26.899 Z-3.89
G01 X10.7 Y27.599 Z-3.27
G01 X10.7 Y28.199 Z-2.65
G01 X10.7 Y28.699 Z-2.05
G01 X10.7 Y29.199 Z-1.36
G01 X10.7 Y29.299 Z-1.204
G01 X10.799 Y29.299 Z-1.367
G01 X11.299 Y29.299 Z-2.052
G01 X11.799 Y29.299 Z-2.648
G01 X12.399 Y29.299 Z-3.27
G01 X12.999 Y29.299 Z-3.805
G01 X13.599 Y29.299 Z-4.264
G01 X14.099 Y29.299 Z-4.608
G01 X14.699 Y29.299 Z-4.967
G01 X14.799 Y29.299 Z-5
G01 X25.199 Y29.299 Z-5
G01 X25.299 Y29.299 Z-4.97
G01 X25.799 Y29.299 Z-4.673
G01 X26.199 Y29.299 Z-4.41
G01 X26.699 Y29.299 Z-4.046
G01 X27.199 Y29.299 Z-3.638
G01 X27.599 Y29.299 Z-3.271
G01 X28.199 Y29.299 Z-2.657
G01 X28.799 Y29.299 Z-1.923
G01 X29.199 Y29.299 Z-1.359
G01 X29.299 Y29.299 Z-1.201
G01 X29.499 Y29.499 Z-0.543 F50
G01 X29.632 Y29.632 Z-0.049
G01 X29.699 Y29.699 Z0 F100
G01 X30.299 Y30.299 Z0
G01 X30.299 Y28.999 Z0
G01 X30.299 Y28.899 Z-0.078
G01 X30.299 Y28.499 Z-0.74
G01 X30.299 Y27.999 Z-1.448
G01 X30.299 Y27.499 Z-2.042
G01 X30.299 Y26.899 Z-2.653
G01 X30.299 Y26.399 Z-3.089
G01 X30.299 Y25.999 Z-3.401
G01 X30.299 Y25.399 Z-3.82
G01 X30.299 Y24.799 Z-4.17
G01 X30.299 Y24.299 Z-4.428
G01 X30.299 Y23.799 Z-4.65
G01 X30.299 Y23.199 Z-4.872
G01 X30.299 Y22.899 Z-4.975
G01 X30.299 Y22.799 Z-5
G01 X30.299 Y17.199 Z-5
G01 X30.299 Y16.899 Z-4.906
G01 X30.299 Y16.199 Z-4.649
G01 X30.299 Y15.699 Z-4.427
G01 X30.299 Y15.299 Z-4.224
G01 X30.299 Y14.699 Z-3.882
G01 X30.299 Y14.199 Z-3.545
G01 X30.299 Y13.799 Z-3.25
G01 X30.299 Y13.299 Z-2.833
G01 X30.299 Y12.999 Z-2.552
G01 X30.299 Y12.499 Z-2.041
G01 X30.299 Y11.999 Z-1.446
G01 X30.299 Y11.499 Z-0.739
G01 X30.299 Y11.099 Z-0.076
G01 X30.299 Y10.999 Z0
G01 X30.299 Y9.7 Z0
G01 X28.999 Y9.7 Z0
G01 X28.899 Y9.7 Z-0.076
G01 X28.499 Y9.7 Z-0.745
G01 X27.999 Y9.7 Z-1.441
G01 X27.499 Y9.7 Z-2.039
G01 X27.099 Y9.7 Z-2.454
G01 X26.699 Y9.7 Z-2.837
G01 X26.199 Y9.7 Z-3.252
G01 X25.799 Y9.7 Z-3.549
G01 X25.299 Y9.7 Z-3.881
G01 X24.899 Y9.7 Z-4.117
G01 X24.499 Y9.7 Z-4.332
G01 X23.999 Y9.7 Z-4.567
G01 X23.499 Y9.7 Z-4.768
G01 X22.999 Y9.7 Z-4.941
G01 X22.799 Y9.7 Z-5
G01 X17.199 Y9.7 Z-5
G01 X16.799 Y9.7 Z-4.873
G01 X16.199 Y9.7 Z-4.645
G01 X15.699 Y9.7 Z-4.428
G01 X14.999 Y9.7 Z-4.056
G01 X14.699 Y9.7 Z-3.886
G01 X13.999 Y9.7 Z-3.4
G01 X13.599 Y9.7 Z-3.087
G01 X13.099 Y9.7 Z-2.655
G01 X12.499 Y9.7 Z-2.045
G01 X11.899 Y9.7 Z-1.312
G01 X11.499 Y9.7 Z-0.735
G01 X11.099 Y9.7 Z-0.075
G01 X10.999 Y9.7 Z0
G01 X9.7 Y9.7 Z0
G01 X9.7 Y10.999 Z0
G01 X9.7 Y11.099 Z-0.075
G01 X9.7 Y11.499 Z-0.739
G01 X9.7 Y11.899 Z-1.307
G01 X9.7 Y12.299 Z-1.804
G01 X9.7 Y12.599 Z-2.148
G01 X9.7 Y13.099 Z-2.652
G01 X9.7 Y13.699 Z-3.169
G01 X9.7 Y14.099 Z-3.473
G01 X9.7 Y14.799 Z-3.944
G01 X9.7 Y15.499 Z-4.33
G01 X9.7 Y15.999 Z-4.563
G01 X9.7 Y16.699 Z-4.837
G01 X9.7 Y17.199 Z-5
G01 X9.7 Y22.799 Z-5
G01 X9.7 Y23.299 Z-4.837
G01 X9.7 Y23.999 Z-4.564
G01 X9.7 Y24.499 Z-4.33
G01 X9.7 Y25.199 Z-3.944
G01 X9.7 Y25.899 Z-3.473
G01 X9.7 Y26.299 Z-3.17
G01 X9.7 Y26.899 Z-2.653
G01 X9.7 Y27.399 Z-2.149
G01 X9.7 Y27.799 Z-1.686
G01 X9.7 Y28.099 Z-1.309
G01 X9.7 Y28.499 Z-0.74
G01 X9.7 Y28.799 Z-0.247
G01 X9.7 Y28.899 Z-0.077
G01 X9.7 Y28.999 Z0
G01 X9.7 Y30.299 Z0
G01 X10.999 Y30.299 Z0
G01 X11.099 Y30.299 Z-0.077
G01 X11.499 Y30.299 Z-0.737
G01 X11.899 Y30.299 Z-1.314
G01 X12.499 Y30.299 Z-2.046
G01 X13.199 Y30.299 Z-2.747
G01 X13.799 Y30.299 Z-3.25
G01 X14.299 Y30.299 Z-3.614
G01 X14.699 Y30.299 Z-3.887
G01 X15.399 Y30.299 Z-4.275
G01 X15.899 Y30.299 Z-4.523
G01 X16.599 Y30.299 Z-4.801
G01 X17.099 Y30.299 Z-4.971
G01 X17.199 Y30.299 Z-5
G01 X22.799 Y30.299 Z-5
G01 X23.299 Y30.299 Z-4.843
G01 X23.899 Y30.299 Z-4.61
G01 X24.299 Y30.299 Z-4.432
G01 X24.699 Y30.299 Z-4.23
G01 X25.199 Y30.299 Z-3.944
G01 X25.699 Y30.299 Z-3.62
G01 X25.999 Y30.299 Z-3.406
G01 X26.499 Y30.299 Z-3.008
G01 X26.799 Y30.299 Z-2.745
G01 X27.299 Y30.299 Z-2.252
G01 X27.599 Y30.299 Z-1.924
G01 X27.999 Y30.299 Z-1.442
G01 X28.499 Y30.299 Z-0.747
G01 X28.899 Y30.299 Z-0.078
G01 X28.999 Y30.299 Z0
G01 X30.299 Y30.299 Z0
G01 X31.299 Y31.299 Z0
G01 X31.299 Y27.699 Z0
G01 X31.299 Y27.599 Z-0.063
G01 X31.299 Y27.199 Z-0.637
G01 X31.299 Y26.699 Z-1.235
G01 X31.299 Y26.399 Z-1.555
G01 X31.299 Y25.899 Z-2.036
G01 X31.299 Y25.199 Z-2.579
G01 X31.299 Y24.899 Z-2.788
G01 X31.299 Y24.199 Z-3.199
G01 X31.299 Y23.899 Z-3.357
G01 X31.299 Y23.199 Z-3.655
G01 X31.299 Y22.799 Z-3.8
G01 X31.299 Y22.299 Z-3.955
G01 X31.299 Y21.599 Z-4.107
G01 X31.299 Y20.999 Z-4.194
G01 X31.299 Y20.499 Z-4.238
G01 X31.299 Y19.899 Z-4.256
G01 X31.299 Y19.199 Z-4.216
G01 X31.299 Y18.599 Z-4.14
G01 X31.299 Y18.199 Z-4.068
G01 X31.299 Y17.599 Z-3.927
G01 X31.299 Y16.899 Z-3.695
G01 X31.299 Y16.299 Z-3.444
G01 X31.299 Y15.999 Z-3.309
G01 X31.299 Y15.299 Z-2.909
G01 X31.299 Y14.999 Z-2.722
G01 X31.299 Y14.399 Z-2.273
G01 X31.299 Y14.099 Z-2.035
G01 X31.299 Y13.499 Z-1.451
G01 X31.299 Y13.199 Z-1.121
G01 X31.299 Y12.799 Z-0.636
G01 X31.299 Y12.399 Z-0.062
G01 X31.299 Y12.299 Z0
G01 X31.299 Y8.7 Z0
G01 X27.699 Y8.7 Z0
G01 X27.599 Y8.7 Z-0.062
G01 X27.199 Y8.7 Z-0.629
G01 X26.699 Y8.7 Z-1.238
G01 X26.099 Y8.7 Z-1.848
G01 X25.799 Y8.7 Z-2.109
G01 X25.299 Y8.7 Z-2.504
G01 X24.899 Y8.7 Z-2.786
G01 X24.399 Y8.7 Z-3.084
G01 X23.999 Y8.7 Z-3.309
G01 X23.199 Y8.7 Z-3.656
G01 X22.499 Y8.7 Z-3.9
G01 X21.699 Y8.7 Z-4.087
G01 X20.999 Y8.7 Z-4.194
G01 X20.299 Y8.7 Z-4.245
G01 X19.699 Y8.7 Z-4.247
G01 X18.999 Y8.7 Z-4.194
G01 X18.399 Y8.7 Z-4.106
G01 X17.699 Y8.7 Z-3.95
G01 X17.199 Y8.7 Z-3.802
G01 X16.499 Y8.7 Z-3.531
G01 X15.999 Y8.7 Z-3.308
G01 X15.299 Y8.7 Z-2.907
G01 X14.899 Y8.7 Z-2.657
G01 X14.099 Y8.7 Z-2.029
G01 X13.499 Y8.7 Z-1.454
G01 X12.899 Y8.7 Z-0.764
G01 X12.399 Y8.7 Z-0.06
G01 X12.299 Y8.7 Z0
G01 X8.7 Y8.7 Z0
G01 X8.7 Y12.299 Z0
G01 X8.7 Y12.399 Z-0.06
G01 X8.7 Y12.899 Z-0.757
G01 X8.7 Y13.399 Z-1.355
G01 X8.7 Y13.999 Z-1.934
G01 X8.7 Y14.399 Z-2.273
G01 X8.7 Y14.799 Z-2.581
G01 X8.7 Y15.399 Z-2.971
G01 X8.7 Y15.999 Z-3.308
G01 X8.7 Y16.699 Z-3.616
G01 X8.7 Y17.399 Z-3.867
G01 X8.7 Y18.199 Z-4.072
G01 X8.7 Y18.699 Z-4.158
G01 X8.7 Y19.099 Z-4.211
G01 X8.7 Y19.799 Z-4.254
G01 X8.7 Y20.399 Z-4.249
G01 X8.7 Y21.099 Z-4.188
G01 X8.7 Y21.699 Z-4.092
G01 X8.7 Y22.199 Z-3.974
G01 X8.7 Y22.699 Z-3.835
G01 X8.7 Y23.399 Z-3.574
G01 X8.7 Y23.999 Z-3.308
G01 X8.7 Y24.699 Z-2.909
G01 X8.7 Y25.199 Z-2.582
G01 X8.7 Y25.699 Z-2.194
G01 X8.7 Y25.999 Z-1.935
G01 X8.7 Y26.599 Z-1.356
G01 X8.7 Y27.099 Z-0.759
G01 X8.7 Y27.599 Z-0.062
G01 X8.7 Y27.699 Z0
G01 X8.7 Y31.299 Z0
G01 X12.299 Y31.299 Z0
G01 X12.399 Y31.299 Z-0.062
G01 X12.899 Y31.299 Z-0.766
G01 X13.499 Y31.299 Z-1.455
G01 X14.099 Y31.299 Z-2.03
G01 X14.899 Y31.299 Z-2.658
G01 X15.599 Y31.299 Z-3.086
G01 X16.099 Y31.299 Z-3.357
G01 X16.799 Y31.299 Z-3.653
G01 X17.299 Y31.299 Z-3.835
G01 X17.899 Y31.299 Z-4.003
G01 X18.599 Y31.299 Z-4.14
G01 X19.199 Y31.299 Z-4.215
G01 X19.799 Y31.299 Z-4.25
G01 X20.399 Y31.299 Z-4.245
G01 X21.099 Y31.299 Z-4.185
G01 X21.799 Y31.299 Z-4.07
G01 X22.499 Y31.299 Z-3.901
G01 X23.299 Y31.299 Z-3.616
G01 X23.999 Y31.299 Z-3.311
G01 X24.799 Y31.299 Z-2.851
G01 X25.099 Y31.299 Z-2.651
G01 X25.599 Y31.299 Z-2.273
G01 X25.999 Y31.299 Z-1.94
G01 X26.599 Y31.299 Z-1.351
G01 X26.899 Y31.299 Z-1.002
G01 X27.199 Y31.299 Z-0.631
G01 X27.599 Y31.299 Z-0.064
G01 X27.699 Y31.299 Z0
G01 X31.299 Y31.299 Z0
G01 X32.3 Y32.3 Z0
G01 X32.3 Y25.9 Z0
G01 X32.3 Y25.3 Z-0.646
G01 X32.3 Y24.8 Z-1.083
G01 X32.3 Y24.4 Z-1.403
G01 X32.3 Y23.8 Z-1.777
G01 X32.3 Y23.3 Z-2.054
G01 X32.3 Y22.6 Z-2.344
G01 X32.3 Y22.1 Z-2.508
G01 X32.3 Y21.6 Z-2.643
G01 X32.3 Y21 Z-2.748
G01 X32.3 Y20.2 Z-2.812
G01 X32.3 Y19.9 Z-2.817
G01 X32.3 Y19.4 Z-2.785
G01 X32.3 Y18.9 Z-2.733
G01 X32.3 Y18.3 Z-2.622
G01 X32.3 Y17.6 Z-2.415
G01 X32.3 Y17.1 Z-2.226
G01 X32.3 Y16.6 Z-2.007
G01 X32.3 Y16 Z-1.657
G01 X32.3 Y15.5 Z-1.326
G01 X32.3 Y15 Z-0.913
G01 X32.3 Y14.7 Z-0.646
G01 X32.3 Y14.4 Z-0.329
G01 X32.3 Y14.1 Z0
G01 X32.3 Y7.7 Z0
G01 X25.9 Y7.7 Z0
G01 X25.5 Y7.7 Z-0.438
G01 X25.2 Y7.7 Z-0.736
G01 X24.8 Y7.7 Z-1.084
G01 X24.4 Y7.7 Z-1.396
G01 X24.1 Y7.7 Z-1.594
G01 X23.5 Y7.7 Z-1.951
G01 X22.9 Y7.7 Z-2.23
G01 X22.1 Y7.7 Z-2.512
G01 X21.5 Y7.7 Z-2.668
G01 X20.8 Y7.7 Z-2.771
G01 X20.1 Y7.7 Z-2.811
G01 X19.4 Y7.7 Z-2.788
G01 X18.7 Y7.7 Z-2.701
G01 X18.1 Y7.7 Z-2.572
G01 X17.5 Y7.7 Z-2.383
G01 X16.7 Y7.7 Z-2.053
G01 X16.1 Y7.7 Z-1.723
G01 X15.5 Y7.7 Z-1.327
G01 X14.8 Y7.7 Z-0.744
G01 X14.3 Y7.7 Z-0.22
G01 X14.1 Y7.7 Z0
G01 X7.7 Y7.7 Z0
G01 X7.7 Y14.1 Z0
G01 X7.7 Y14.6 Z-0.537
G01 X7.7 Y14.9 Z-0.831
G01 X7.7 Y15.4 Z-1.246
G01 X7.7 Y15.8 Z-1.531
G01 X7.7 Y16.3 Z-1.839
G01 X7.7 Y16.8 Z-2.097
G01 X7.7 Y17.1 Z-2.228
G01 X7.7 Y17.6 Z-2.413
G01 X7.7 Y18.1 Z-2.567
G01 X7.7 Y18.7 Z-2.704
G01 X7.7 Y19.3 Z-2.784
G01 X7.7 Y19.9 Z-2.814
G01 X7.7 Y20.4 Z-2.803
G01 X7.7 Y20.8 Z-2.776
G01 X7.7 Y21.4 Z-2.685
G01 X7.7 Y22.1 Z-2.513
G01 X7.7 Y22.7 Z-2.305
G01 X7.7 Y23.1 Z-2.145
G01 X7.7 Y23.6 Z-1.894
G01 X7.7 Y24.1 Z-1.596
G01 X7.7 Y24.5 Z-1.322
G01 X7.7 Y24.9 Z-1.003
G01 X7.7 Y25.2 Z-0.74
G01 X7.7 Y25.7 Z-0.222
G01 X7.7 Y25.9 Z0
G01 X7.7 Y32.3 Z0
G01 X14.1 Y32.3 Z0
G01 X14.7 Y32.3 Z-0.648
G01 X14.9 Y32.3 Z-0.829
G01 X15.5 Y32.3 Z-1.327
G01 X16.1 Y32.3 Z-1.723
G01 X16.7 Y32.3 Z-2.053
G01 X17.5 Y32.3 Z-2.383
G01 X18.2 Y32.3 Z-2.598
G01 X18.8 Y32.3 Z-2.72
G01 X19.5 Y32.3 Z-2.796
G01 X20.2 Y32.3 Z-2.809
G01 X20.9 Y32.3 Z-2.759
G01 X21.6 Y32.3 Z-2.643
G01 X22.2 Y32.3 Z-2.483
G01 X22.9 Y32.3 Z-2.23
G01 X23.5 Y32.3 Z-1.951
G01 X24.2 Y32.3 Z-1.534
G01 X24.5 Y32.3 Z-1.321
G01 X25 Y32.3 Z-0.916
G01 X25.3 Y32.3 Z-0.641
G01 X25.7 Y32.3 Z-0.221
G01 X25.9 Y32.3 Z0
G01 X32.3 Y32.3 Z0
G01 X33.3 Y33.3 Z0
G01 X33.3 Y23.1 Z0
G01 X33.3 Y23 Z-0.017
G01 X33.3 Y22.6 Z-0.234
G01 X33.3 Y22.1 Z-0.464
G01 X33.3 Y21.4 Z-0.701
G01 X33.3 Y20.7 Z-0.825
G01 X33.3 Y20 Z-0.875
G01 X33.3 Y19.3 Z-0.825
G01 X33.3 Y18.6 Z-0.701
G01 X33.3 Y17.9 Z-0.464
G01 X33.3 Y17.3 Z-0.182
G01 X33.3 Y17 Z-0.017
G01 X33.3 Y16.9 Z0
G01 X33.3 Y6.7 Z0
G01 X23.1 Y6.7 Z0
G01 X23 Y6.7 Z-0.018
G01 X22.5 Y6.7 Z-0.281
G01 X22.2 Y6.7 Z-0.421
G01 X21.5 Y6.7 Z-0.671
G01 X20.9 Y6.7 Z-0.798
G01 X20.2 Y6.7 Z-0.864
G01 X19.5 Y6.7 Z-0.846
G01 X18.8 Y6.7 Z-0.745
G01 X18.2 Y6.7 Z-0.573
G01 X17.9 Y6.7 Z-0.458
G01 X17.4 Y6.7 Z-0.235
G01 X17 Y6.7 Z-0.017
G01 X16.9 Y6.7 Z0
G01 X6.7 Y6.7 Z0
G01 X6.7 Y16.9 Z0
G01 X6.7 Y17 Z-0.018
G01 X6.7 Y17.5 Z-0.285
G01 X6.7 Y17.8 Z-0.416
G01 X6.7 Y18.3 Z-0.611
G01 X6.7 Y18.9 Z-0.763
G01 X6.7 Y19.6 Z-0.853
G01 X6.7 Y20.2 Z-0.861
G01 X6.7 Y20.5 Z-0.843
G01 X6.7 Y21.1 Z-0.763
G01 X6.7 Y21.7 Z-0.611
G01 X6.7 Y22.4 Z-0.331
G01 X6.7 Y22.9 Z-0.076
G01 X6.7 Y23 Z-0.018
G01 X6.7 Y23.1 Z0
G01 X6.7 Y33.3 Z0
G01 X16.9 Y33.3 Z0
G01 X17 Y33.3 Z-0.017
G01 X17.4 Y33.3 Z-0.235
G01 X18.1 Y33.3 Z-0.542
G01 X18.7 Y33.3 Z-0.72
G01 X18.9 Y33.3 Z-0.76
G01 X19.5 Y33.3 Z-0.846
G01 X20.2 Y33.3 Z-0.864
G01 X20.9 Y33.3 Z-0.798
G01 X21.6 Y33.3 Z-0.643
G01 X22.3 Y33.3 Z-0.377
G01 X22.9 Y33.3 Z-0.077
G01 X23 Y33.3 Z-0.018
G01 X23.1 Y33.3 Z0
G01 X33.3 Y33.3 Z0
G01 X34.3 Y34.3 Z0
G01 X34.3 Y5.7 Z0
G01 X5.7 Y5.7 Z0
G01 X5.7 Y34.3 Z0
G01 X34.3 Y34.3 Z0
G01 X35.3 Y35.3 Z0
G01 X35.3 Y4.7 Z0
G01 X4.7 Y4.7 Z0
G01 X4.7 Y35.3 Z0
G01 X35.3 Y35.3 Z0
G00 Z5
G01 X20.299 Y20.299
G01 Z-3
G01 X20.299 Y20.299 Z-6 F50
G01 X20.299 Y19.7 Z-6 F100
G01 X19.7 Y19.7 Z-6
G01 X19.7 Y20.299 Z-6
G01 X20.299 Y20.299 Z-6
G01 X21.299 Y21.299 Z-6
G01 X21.299 Y18.7 Z-6
G01 X18.7 Y18.7 Z-6
G01 X18.7 Y21.299 Z-6
G01 X21.299 Y21.299 Z-6
G01 X22.299 Y22.299 Z-6
G01 X22.299 Y17.7 Z-6
G01 X17.7 Y17.7 Z-6
G01 X17.7 Y22.299 Z-6
G01 X22.299 Y22.299 Z-6
G01 X23.299 Y23.299 Z-6
G01 X23.299 Y16.7 Z-6
G01 X16.7 Y16.7 Z-6
G01 X16.7 Y23.299 Z-6
G01 X23.299 Y23.299 Z-6
G01 X24.299 Y24.299 Z-6
G01 X24.299 Y15.7 Z-6
G01 X15.7 Y15.7 Z-6
G01 X15.7 Y24.299 Z-6
G01 X24.299 Y24.299 Z-6
G01 X25.299 Y25.299 Z-6
G01 X25.299 Y14.7 Z-6
G01 X14.7 Y14.7 Z-6
G01 X14.7 Y25.299 Z-6
G01 X25.299 Y25.299 Z-6
G01 X26.299 Y26.299 Z-6
G01 X26.299 Y13.7 Z-6
G01 X13.7 Y13.7 Z-6
G01 X13.7 Y26.299 Z-6
G01 X26.299 Y26.299 Z-6
G01 X26.832 Y26.832 Z-6
G01 X26.899 Y26.899 Z-5.941
G01 X27.299 Y27.299 Z-5.383
G01 X27.299 Y26.799 Z-5.732
G01 X27.299 Y26.399 Z-5.987
G01 X27.299 Y26.299 Z-6
G01 X27.299 Y13.699 Z-6
G01 X27.299 Y13.599 Z-5.986
G01 X27.299 Y12.999 Z-5.596
G01 X27.299 Y12.7 Z-5.382
G01 X26.799 Y12.7 Z-5.731
G01 X26.399 Y12.7 Z-5.986
G01 X26.299 Y12.7 Z-6
G01 X13.699 Y12.7 Z-6
G01 X13.599 Y12.7 Z-5.986
G01 X12.999 Y12.7 Z-5.596
G01 X12.7 Y12.7 Z-5.375
G01 X12.7 Y13.199 Z-5.73
G01 X12.7 Y13.599 Z-5.986
G01 X12.7 Y13.699 Z-6
G01 X12.7 Y26.299 Z-6
G01 X12.7 Y26.399 Z-5.986
G01 X12.7 Y26.999 Z-5.596
G01 X12.7 Y27.299 Z-5.375
G01 X13.199 Y27.299 Z-5.731
G01 X13.599 Y27.299 Z-5.986
G01 X13.699 Y27.299 Z-6
G01 X26.299 Y27.299 Z-6
G01 X26.399 Y27.299 Z-5.987
G01 X26.999 Y27.299 Z-5.597
G01 X27.299 Y27.299 Z-5.383
G01 X27.699 Y27.699 Z-4.758
G01 X28.032 Y28.032 Z-4.173
G01 X28.232 Y28.232 Z-3.8
G01 X28.299 Y28.299 Z-3.666
G01 X28.299 Y27.999 Z-3.958
G01 X28.299 Y27.299 Z-4.561
G01 X28.299 Y26.699 Z-5.009
G01 X28.299 Y25.999 Z-5.465
G01 X28.299 Y25.399 Z-5.804
G01 X28.299 Y24.999 Z-6
G01 X28.299 Y14.999 Z-6
G01 X28.299 Y14.499 Z-5.752
G01 X28.299 Y13.999 Z-5.464
G01 X28.299 Y13.299 Z-5.009
G01 X28.299 Y12.699 Z-4.56
G01 X28.299 Y11.999 Z-3.957
G01 X28.299 Y11.7 Z-3.665
G01 X27.999 Y11.7 Z-3.954
G01 X27.399 Y11.7 Z-4.482
G01 X26.999 Y11.7 Z-4.794
G01 X26.499 Y11.7 Z-5.148
G01 X25.899 Y11.7 Z-5.526
G01 X25.299 Y11.7 Z-5.854
G01 X24.999 Y11.7 Z-6
G01 X14.999 Y11.7 Z-6
G01 X14.499 Y11.7 Z-5.751
G01 X13.999 Y11.7 Z-5.464
G01 X13.399 Y11.7 Z-5.078
G01 X12.799 Y11.7 Z-4.635
G01 X12.499 Y11.7 Z-4.398
G01 X11.899 Y11.7 Z-3.863
G01 X11.7 Y11.7 Z-3.662
G01 X11.7 Y12.099 Z-4.046
G01 X11.7 Y12.699 Z-4.56
G01 X11.7 Y13.399 Z-5.082
G01 X11.7 Y14.199 Z-5.582
G01 X11.7 Y14.599 Z-5.803
G01 X11.7 Y14.999 Z-6
G01 X11.7 Y24.999 Z-6
G01 X11.7 Y25.499 Z-5.752
G01 X11.7 Y25.999 Z-5.465
G01 X11.7 Y26.699 Z-5.011
G01 X11.7 Y27.399 Z-4.481
G01 X11.7 Y27.999 Z-3.955
G01 X11.7 Y28.299 Z-3.663
G01 X11.999 Y28.299 Z-3.959
G01 X12.599 Y28.299 Z-4.482
G01 X13.199 Y28.299 Z-4.936
G01 X13.599 Y28.299 Z-5.211
G01 X14.199 Y28.299 Z-5.583
G01 X14.699 Y28.299 Z-5.854
G01 X14.999 Y28.299 Z-6
G01 X24.999 Y28.299 Z-6
G01 X25.499 Y28.299 Z-5.752
G01 X26.099 Y28.299 Z-5.405
G01 X26.499 Y28.299 Z-5.149
G01 X26.999 Y28.299 Z-4.795
G01 X27.499 Y28.299 Z-4.401
G01 X28.099 Y28.299 Z-3.862
G01 X28.299 Y28.299 Z-3.666
G01 X28.499 Y28.499 Z-3.26
G01 X28.832 Y28.832 Z-2.488
G01 X29.032 Y29.032 Z-1.975
G01 X29.299 Y29.299 Z-1.201 F50
G01 X29.299 Y29.099 Z-1.506 F100
G01 X29.299 Y28.699 Z-2.059
G01 X29.299 Y28.199 Z-2.651
G01 X29.299 Y27.599 Z-3.271
G01 X29.299 Y27.099 Z-3.718
G01 X29.299 Y26.799 Z-3.964
G01 X29.299 Y26.199 Z-4.411
G01 X29.299 Y25.499 Z-4.851
G01 X29.299 Y25.199 Z-5.025
G01 X29.299 Y24.499 Z-5.37
G01 X29.299 Y23.999 Z-5.585
G01 X29.299 Y23.499 Z-5.766
G01 X29.299 Y22.799 Z-5.982
G01 X29.299 Y22.699 Z-6
G01 X29.299 Y17.299 Z-6
G01 X29.299 Y16.999 Z-5.923
G01 X29.299 Y16.299 Z-5.698
G01 X29.299 Y15.799 Z-5.502
G01 X29.299 Y15.299 Z-5.274
G01 X29.299 Y14.699 Z-4.97
G01 X29.299 Y13.899 Z-4.479
G01 X29.299 Y13.299 Z-4.04
G01 X29.299 Y12.999 Z-3.801
G01 X29.299 Y12.499 Z-3.365
G01 X29.299 Y11.899 Z-2.756
G01 X29.299 Y11.599 Z-2.416
G01 X29.299 Y11.299 Z-2.058
G01 X29.299 Y10.799 Z-1.36
G01 X29.299 Y10.7 Z-1.199
G01 X29.099 Y10.7 Z-1.501
G01 X28.799 Y10.7 Z-1.921
G01 X28.199 Y10.7 Z-2.655
G01 X27.499 Y10.7 Z-3.369
G01 X26.999 Y10.7 Z-3.804
G01 X26.599 Y10.7 Z-4.121
G01 X26.099 Y10.7 Z-4.478
G01 X25.499 Y10.7 Z-4.856
G01 X24.999 Y10.7 Z-5.131
G01 X24.499 Y10.7 Z-5.372
G01 X23.999 Y10.7 Z-5.584
G01 X23.499 Y10.7 Z-5.765
G01 X22.799 Y10.7 Z-5.981
G01 X22.699 Y10.7 Z-6
G01 X17.299 Y10.7 Z-6
G01 X16.999 Y10.7 Z-5.922
G01 X16.299 Y10.7 Z-5.697
G01 X15.699 Y10.7 Z-5.459
G01 X14.999 Y10.7 Z-5.126
G01 X14.499 Y10.7 Z-4.85
G01 X13.899 Y10.7 Z-4.477
G01 X13.299 Y10.7 Z-4.039
G01 X12.999 Y10.7 Z-3.804
G01 X12.399 Y10.7 Z-3.269
G01 X11.799 Y10.7 Z-2.647
G01 X11.299 Y10.7 Z-2.051
G01 X10.799 Y10.7 Z-1.365
G01 X10.7 Y10.7 Z-1.202
G01 X10.7 Y11.099 Z-1.78
G01 X10.7 Y11.399 Z-2.172
G01 X10.7 Y11.899 Z-2.759
G01 X10.7 Y12.499 Z-3.364
G01 X10.7 Y13.199 Z-3.967
G01 X10.7 Y13.899 Z-4.478
G01 X10.7 Y14.499 Z-4.849
G01 X10.7 Y14.999 Z-5.129
G01 X10.7 Y15.799 Z-5.5
G01 X10.7 Y16.299 Z-5.697
G01 X10.7 Y17.099 Z-5.953
G01 X10.7 Y17.299 Z-6
G01 X10.7 Y22.699 Z-6
G01 X10.7 Y22.899 Z-5.953
G01 X10.7 Y23.699 Z-5.697
G01 X10.7 Y24.199 Z-5.501
G01 X10.7 Y24.999 Z-5.129
G01 X10.7 Y25.599 Z-4.793
G01 X10.7 Y26.199 Z-4.41
G01 X10.7 Y26.899 Z-3.89
G01 X10.7 Y27.599 Z-3.27
G01 X10.7 Y28.199 Z-2.65
G01 X10.7 Y28.699 Z-2.05
G01 X10.7 Y29.199 Z-1.36
G01 X10.7 Y29.299 Z-1.204
G01 X10.799 Y29.299 Z-1.367
G01 X11.299 Y29.299 Z-2.052
G01 X11.799 Y29.299 Z-2.648
G01 X12.399 Y29.299 Z-3.27
G01 X12.999 Y29.299 Z-3.805
G01 X13.599 Y29.299 Z-4.264
G01 X14.099 Y29.299 Z-4.608
G01 X14.799 Y29.299 Z-5.022
G01 X15.299 Y29.299 Z-5.275
G01 X15.799 Y29.299 Z-5.502
G01 X16.399 Y29.299 Z-5.733
G01 X17.199 Y29.299 Z-5.982
G01 X17.299 Y29.299 Z-6
G01 X22.699 Y29.299 Z-6
G01 X22.799 Y29.299 Z-5.982
G01 X23.599 Y29.299 Z-5.733
G01 X24.199 Y29.299 Z-5.505
G01 X24.799 Y29.299 Z-5.233
G01 X25.299 Y29.299 Z-4.97
G01 X25.799 Y29.299 Z-4.673
G01 X26.199 Y29.299 Z-4.41
G01 X26.699 Y29.299 Z-4.046
G01 X27.199 Y29.299 Z-3.638
G01 X27.599 Y29.299 Z-3.271
G01 X28.199 Y29.299 Z-2.657
G01 X28.799 Y29.299 Z-1.923
G01 X29.199 Y29.299 Z-1.359
G01 X29.299 Y29.299 Z-1.201
G01 X29.499 Y29.499 Z-0.543 F50
G01 X29.632 Y29.632 Z-0.049
G01 X29.699 Y29.699 Z0 F100
G01 X30.299 Y30.299 Z0
G01 X30.299 Y28.999 Z0
G01 X30.299 Y28.899 Z-0.078
G01 X30.299 Y28.499 Z-0.74
G01 X30.299 Y27.999 Z-1.448
G01 X30.299 Y27.499 Z-2.042
G01 X30.299 Y26.899 Z-2.653
G01 X30.299 Y26.399 Z-3.089
G01 X30.299 Y25.999 Z-3.401
G01 X30.299 Y25.399 Z-3.82
G01 X30.299 Y24.799 Z-4.17
G01 X30.299 Y24.299 Z-4.428
G01 X30.299 Y23.799 Z-4.65
G01 X30.299 Y23.199 Z-4.872
G01 X30.299 Y22.799 Z-5.004
G01 X30.299 Y22.199 Z-5.158
G01 X30.299 Y21.499 Z-5.288
G01 X30.299 Y20.899 Z-5.36
G01 X30.299 Y20.399 Z-5.394
G01 X30.299 Y19.899 Z-5.406
G01 X30.299 Y19.199 Z-5.37
G01 X30.299 Y18.599 Z-5.302
G01 X30.299 Y18.099 Z-5.217
G01 X30.299 Y17.599 Z-5.109
G01 X30.299 Y17.099 Z-4.974
G01 X30.299 Y16.299 Z-4.689
G01 X30.299 Y15.799 Z-4.475
G01 X30.299 Y15.299 Z-4.224
G01 X30.299 Y14.699 Z-3.882
G01 X30.299 Y14.299 Z-3.615
G01 X30.299 Y13.799 Z-3.25
G01 X30.299 Y13.299 Z-2.833
G01 X30.299 Y12.999 Z-2.552
G01 X30.299 Y12.499 Z-2.041
G01 X30.299 Y11.999 Z-1.446
G01 X30.299 Y11.499 Z-0.739
G01 X30.299 Y11.099 Z-0.076
G01 X30.299 Y10.999 Z0
G01 X30.299 Y9.7 Z0
G01 X28.999 Y9.7 Z0
G01 X28.899 Y9.7 Z-0.076
G01 X28.499 Y9.7 Z-0.745
G01 X27.999 Y9.7 Z-1.441
G01 X27.599 Y9.7 Z-1.923
G01 X27.199 Y9.7 Z-2.356
G01 X26.699 Y9.7 Z-2.837
G01 X26.199 Y9.7 Z-3.252
G01 X25.699 Y9.7 Z-3.619
G01 X25.399 Y9.7 Z-3.818
G01 X24.899 Y9.7 Z-4.117
G01 X24.499 Y9.7 Z-4.332
G01 X24.099 Y9.7 Z-4.524
G01 X23.599 Y9.7 Z-4.731
G01 X23.099 Y9.7 Z-4.909
G01 X22.599 Y9.7 Z-5.06
G01 X22.099 Y9.7 Z-5.18
G01 X21.299 Y9.7 Z-5.315
G01 X20.599 Y9.7 Z-5.383
G01 X19.999 Y9.7 Z-5.402
G01 X19.299 Y9.7 Z-5.376
G01 X18.699 Y9.7 Z-5.315
G01 X18.099 Y9.7 Z-5.217
G01 X17.499 Y9.7 Z-5.085
G01 X16.899 Y9.7 Z-4.907
G01 X16.199 Y9.7 Z-4.645
G01 X15.699 Y9.7 Z-4.428
G01 X14.999 Y9.7 Z-4.056
G01 X14.699 Y9.7 Z-3.886
G01 X13.999 Y9.7 Z-3.4
G01 X13.599 Y9.7 Z-3.087
G01 X13.099 Y9.7 Z-2.655
G01 X12.499 Y9.7 Z-2.045
G01 X11.899 Y9.7 Z-1.312
G01 X11.499 Y9.7 Z-0.735
G01 X11.099 Y9.7 Z-0.075
G01 X10.999 Y9.7 Z0
G01 X9.7 Y9.7 Z0
G01 X9.7 Y10.999 Z0
G01 X9.7 Y11.099 Z-0.075
G01 X9.7 Y11.499 Z-0.739
G01 X9.7 Y11.899 Z-1.307
G01 X9.7 Y12.299 Z-1.804
G01 X9.7 Y12.599 Z-2.148
G01 X9.7 Y13.099 Z-2.652
G01 X9.7 Y13.699 Z-3.169
G01 X9.7 Y14.099 Z-3.473
G01 X9.7 Y14.799 Z-3.944
G01 X9.7 Y15.499 Z-4.33
G01 X9.7 Y15.999 Z-4.563
G01 X9.7 Y16.699 Z-4.837
G01 X9.7 Y17.399 Z-5.062
G01 X9.7 Y17.999 Z-5.201
G01 X9.7 Y18.499 Z-5.292
G01 X9.7 Y19.199 Z-5.373
G01 X9.7 Y19.799 Z-5.404
G01 X9.7 Y20.399 Z-5.398
G01 X9.7 Y21.099 Z-5.344
G01 X9.7 Y21.699 Z-5.26
G01 X9.7 Y22.299 Z-5.134
G01 X9.7 Y22.699 Z-5.031
G01 X9.7 Y23.299 Z-4.837
G01 X9.7 Y23.999 Z-4.564
G01 X9.7 Y24.499 Z-4.33
G01 X9.7 Y25.199 Z-3.944
G01 X9.7 Y25.899 Z-3.473
G01 X9.7 Y26.299 Z-3.17
G01 X9.7 Y26.899 Z-2.653
G01 X9.7 Y27.399 Z-2.149
G01 X9.7 Y27.799 Z-1.686
G01 X9.7 Y28.099 Z-1.309
G01 X9.7 Y28.499 Z-0.74
G01 X9.7 Y28.799 Z-0.247
G01 X9.7 Y28.899 Z-0.077
G01 X9.7 Y28.999 Z0
G01 X9.7 Y30.299 Z0
G01 X10.999 Y30.299 Z0
G01 X11.099 Y30.299 Z-0.077
G01 X11.499 Y30.299 Z-0.737
G01 X11.899 Y30.299 Z-1.314
G01 X12.499 Y30.299 Z-2.046
G01 X13.199 Y30.299 Z-2.747
G01 X13.799 Y30.299 Z-3.25
G01 X14.299 Y30.299 Z-3.614
G01 X14.699 Y30.299 Z-3.887
G01 X15.399 Y30.299 Z-4.275
G01 X15.899 Y30.299 Z-4.523
G01 X16.599 Y30.299 Z-4.801
G01 X17.099 Y30.299 Z-4.971
G01 X17.599 Y30.299 Z-5.112
G01 X18.299 Y30.299 Z-5.255
G01 X18.899 Y30.299 Z-5.34
G01 X19.499 Y30.299 Z-5.389
G01 X20.099 Y30.299 Z-5.402
G01 X20.699 Y30.299 Z-5.379
G01 X21.399 Y30.299 Z-5.303
G01 X22.199 Y30.299 Z-5.161
G01 X22.799 Y30.299 Z-5.006
G01 X23.399 Y30.299 Z-4.806
G01 X23.799 Y30.299 Z-4.653
G01 X24.299 Y30.299 Z-4.432
G01 X24.799 Y30.299 Z-4.174
G01 X25.299 Y30.299 Z-3.882
G01 X25.599 Y30.299 Z-3.689
G01 X26.099 Y30.299 Z-3.329
G01 X26.399 Y30.299 Z-3.093
G01 X26.799 Y30.299 Z-2.745
G01 X27.299 Y30.299 Z-2.252
G01 X27.599 Y30.299 Z-1.924
G01 X27.999 Y30.299 Z-1.442
G01 X28.499 Y30.299 Z-0.747
G01 X28.899 Y30.299 Z-0.078
G01 X28.999 Y30.299 Z0
G01 X30.299 Y30.299 Z0
G01 X31.299 Y31.299 Z0
G01 X31.299 Y27.699 Z0
G01 X31.299 Y27.599 Z-0.063
G01 X31.299 Y27.199 Z-0.637
G01 X31.299 Y26.699 Z-1.235
G01 X31.299 Y26.399 Z-1.555
G01 X31.299 Y25.899 Z-2.036
G01 X31.299 Y25.299 Z-2.504
G01 X31.299 Y24.999 Z-2.722
G01 X31.299 Y24.399 Z-3.087
G01 X31.299 Y23.999 Z-3.31
G01 X31.299 Y23.299 Z-3.615
G01 X31.299 Y22.899 Z-3.768
G01 X31.299 Y22.299 Z-3.955
G01 X31.299 Y21.599 Z-4.107
G01 X31.299 Y20.999 Z-4.194
G01 X31.299 Y20.499 Z-4.238
G01 X31.299 Y19.899 Z-4.256
G01 X31.299 Y19.199 Z-4.216
G01 X31.299 Y18.599 Z-4.14
G01 X31.299 Y18.199 Z-4.068
G01 X31.299 Y17.599 Z-3.927
G01 X31.299 Y16.999 Z-3.732
G01 X31.299 Y16.399 Z-3.488
G01 X31.299 Y15.999 Z-3.309
G01 X31.299 Y15.299 Z-2.909
G01 X31.299 Y14.999 Z-2.722
G01 X31.299 Y14.399 Z-2.273
G01 X31.299 Y14.099 Z-2.035
G01 X31.299 Y13.499 Z-1.451
G01 X31.299 Y13.199 Z-1.121
G01 X31.299 Y12.799 Z-0.636
G01 X31.299 Y12.399 Z-0.062
G01 X31.299 Y12.299 Z0
G01 X31.299 Y8.7 Z0
G01 X27.699 Y8.7 Z0
G01 X27.599 Y8.7 Z-0.062
G01 X27.199 Y8.7 Z-0.629
G01 X26.699 Y8.7 Z-1.238
G01 X26.499 Y8.7 Z-1.45
G01 X25.999 Y8.7 Z-1.939
G01 X25.399 Y8.7 Z-2.432
G01 X24.899 Y8.7 Z-2.786
G01 X24.499 Y8.7 Z-3.026
G01 X23.999 Y8.7 Z-3.309
G01 X23.199 Y8.7 Z-3.656
G01 X22.499 Y8.7 Z-3.9
G01 X21.699 Y8.7 Z-4.087
G01 X20.999 Y8.7 Z-4.194
G01 X20.399 Y8.7 Z-4.244
G01 X19.699 Y8.7 Z-4.247
G01 X18.999 Y8.7 Z-4.194
G01 X18.399 Y8.7 Z-4.106
G01 X17.799 Y8.7 Z-3.978
G01 X17.199 Y8.7 Z-3.802
G01 X16.499 Y8.7 Z-3.531
G01 X15.999 Y8.7 Z-3.308
G01 X15.399 Y8.7 Z-2.969
G01 X14.899 Y8.7 Z-2.657
G01 X14.099 Y8.7 Z-2.029
G01 X13.499 Y8.7 Z-1.454
G01 X12.899 Y8.7 Z-0.764
G01 X12.399 Y8.7 Z-0.06
G01 X12.299 Y8.7 Z0
G01 X8.7 Y8.7 Z0
G01 X8.7 Y12.299 Z0
G01 X8.7 Y12.399 Z-0.06
G01 X8.7 Y12.899 Z-0.757
G01 X8.7 Y13.399 Z-1.355
G01 X8.7 Y13.999 Z-1.934
G01 X8.7 Y14.399 Z-2.273
G01 X8.7 Y14.899 Z-2.651
G01 X8.7 Y15.499 Z-3.028
G01 X8.7 Y16.099 Z-3.355
G01 X8.7 Y16.799 Z-3.653
G01 X8.7 Y17.499 Z-3.896
G01 X8.7 Y18.199 Z-4.072
G01 X8.7 Y18.699 Z-4.158
G01 X8.7 Y19.099 Z-4.211
G01 X8.7 Y19.699 Z-4.253
G01 X8.7 Y20.399 Z-4.249
G01 X8.7 Y21.099 Z-4.188
G01 X8.7 Y21.799 Z-4.072
G01 X8.7 Y22.599 Z-3.868
G01 X8.7 Y23.299 Z-3.617
G01 X8.7 Y23.999 Z-3.308
G01 X8.7 Y24.699 Z-2.909
G01 X8.7 Y25.199 Z-2.582
G01 X8.7 Y25.699 Z-2.194
G01 X8.7 Y25.999 Z-1.935
G01 X8.7 Y26.599 Z-1.356
G01 X8.7 Y27.099 Z-0.759
G01 X8.7 Y27.599 Z-0.062
G01 X8.7 Y27.699 Z0
G01 X8.7 Y31.299 Z0
G01 X12.299 Y31.299 Z0
G01 X12.399 Y31.299 Z-0.062
G01 X12.899 Y31.299 Z-0.766
G01 X13.499 Y31.299 Z-1.455
G01 X14.099 Y31.299 Z-2.03
G01 X14.899 Y31.299 Z-2.658
G01 X15.599 Y31.299 Z-3.086
G01 X16.099 Y31.299 Z-3.357
G01 X16.799 Y31.299 Z-3.653
G01 X17.299 Y31.299 Z-3.835
G01 X17.899 Y31.299 Z-4.003
G01 X18.599 Y31.299 Z-4.14
G01 X19.199 Y31.299 Z-4.215
G01 X19.799 Y31.299 Z-4.25
G01 X20.399 Y31.299 Z-4.245
G01 X21.099 Y31.299 Z-4.185
G01 X21.799 Y31.299 Z-4.07
G01 X22.499 Y31.299 Z-3.901
G01 X23.299 Y31.299 Z-3.616
G01 X23.999 Y31.299 Z-3.311
G01 X24.799 Y31.299 Z-2.851
G01 X25.099 Y31.299 Z-2.651
G01 X25.599 Y31.299 Z-2.273
G01 X25.999 Y31.299 Z-1.94
G01 X26.599 Y31.299 Z-1.351
G01 X26.899 Y31.299 Z-1.002
G01 X27.199 Y31.299 Z-0.631
G01 X27.599 Y31.299 Z-0.064
G01 X27.699 Y31.299 Z0
G01 X31.299 Y31.299 Z0
G01 X32.3 Y32.3 Z0
G01 X32.3 Y25.9 Z0
G01 X32.3 Y25.3 Z-0.646
G01 X32.3 Y24.8 Z-1.083
G01 X32.3 Y24.4 Z-1.403
G01 X32.3 Y23.8 Z-1.777
G01 X32.3 Y23.3 Z-2.054
G01 X32.3 Y22.6 Z-2.344
G01 X32.3 Y22.1 Z-2.508
G01 X32.3 Y21.6 Z-2.643
G01 X32.3 Y21 Z-2.748
G01 X32.3 Y20.2 Z-2.812
G01 X32.3 Y19.9 Z-2.817
G01 X32.3 Y19.4 Z-2.785
G01 X32.3 Y18.9 Z-2.733
G01 X32.3 Y18.3 Z-2.622
G01 X32.3 Y17.6 Z-2.415
G01 X32.3 Y17.1 Z-2.226
G01 X32.3 Y16.6 Z-2.007
G01 X32.3 Y16 Z-1.657
G01 X32.3 Y15.5 Z-1.326
G01 X32.3 Y15 Z-0.913
G01 X32.3 Y14.7 Z-0.646
G01 X32.3 Y14.4 Z-0.329
G01 X32.3 Y14.1 Z0
G01 X32.3 Y7.7 Z0
G01 X25.9 Y7.7 Z0
G01 X25.5 Y7.7 Z-0.438
G01 X25.2 Y7.7 Z-0.736
G01 X24.8 Y7.7 Z-1.084
G01 X24.4 Y7.7 Z-1.396
G01 X24.1 Y7.7 Z-1.594
G01 X23.5 Y7.7 Z-1.951
G01 X22.9 Y7.7 Z-2.23
G01 X22.1 Y7.7 Z-2.512
G01 X21.5 Y7.7 Z-2.668
G01 X20.8 Y7.7 Z-2.771
G01 X20.1 Y7.7 Z-2.811
G01 X19.4 Y7.7 Z-2.788
G01 X18.7 Y7.7 Z-2.701
G01 X18.1 Y7.7 Z-2.572
G01 X17.5 Y7.7 Z-2.383
G01 X16.7 Y7.7 Z-2.053
G01 X16.1 Y7.7 Z-1.723
G01 X15.5 Y7.7 Z-1.327
G01 X14.8 Y7.7 Z-0.744
G01 X14.3 Y7.7 Z-0.22
G01 X14.1 Y7.7 Z0
G01 X7.7 Y7.7 Z0
G01 X7.7 Y14.1 Z0
G01 X7.7 Y14.6 Z-0.537
G01 X7.7 Y14.9 Z-0.831
G01 X7.7 Y15.4 Z-1.246
G01 X7.7 Y15.8 Z-1.531
G01 X7.7 Y16.3 Z-1.839
G01 X7.7 Y16.8 Z-2.097
G01 X7.7 Y17.1 Z-2.228
G01 X7.7 Y17.6 Z-2.413
G01 X7.7 Y18.1 Z-2.567
G01 X7.7 Y18.7 Z-2.704
G01 X7.7 Y19.3 Z-2.784
G01 X7.7 Y19.9 Z-2.814
G01 X7.7 Y20.4 Z-2.803
G01 X7.7 Y20.8 Z-2.776
G01 X7.7 Y21.4 Z-2.685
G01 X7.7 Y22.1 Z-2.513
G01 X7.7 Y22.7 Z-2.305
G01 X7.7 Y23.1 Z-2.145
G01 X7.7 Y23.6 Z-1.894
G01 X7.7 Y24.1 Z-1.596
G01 X7.7 Y24.5 Z-1.322
G01 X7.7 Y24.9 Z-1.003
G01 X7.7 Y25.2 Z-0.74
G01 X7.7 Y25.7 Z-0.222
G01 X7.7 Y25.9 Z0
G01 X7.7 Y32.3 Z0
G01 X14.1 Y32.3 Z0
G01 X14.7 Y32.3 Z-0.648
G01 X14.9 Y32.3 Z-0.829
G01 X15.5 Y32.3 Z-1.327
G01 X16.1 Y32.3 Z-1.723
G01 X16.7 Y32.3 Z-2.053
G01 X17.5 Y32.3 Z-2.383
G01 X18.2 Y32.3 Z-2.598
G01 X18.8 Y32.3 Z-2.72
G01 X19.5 Y32.3 Z-2.796
G01 X20.2 Y32.3 Z-2.809
G01 X20.9 Y32.3 Z-2.759
G01 X21.6 Y32.3 Z-2.643
G01 X22.2 Y32.3 Z-2.483
G01 X22.9 Y32.3 Z-2.23
G01 X23.5 Y32.3 Z-1.951
G01 X24.2 Y32.3 Z-1.534
G01 X24.5 Y32.3 Z-1.321
G01 X25 Y32.3 Z-0.916
G01 X25.3 Y32.3 Z-0.641
G01 X25.7 Y32.3 Z-0.221
G01 X25.9 Y32.3 Z0
G01 X32.3 Y32.3 Z0
G01 X33.3 Y33.3 Z0
G01 X33.3 Y23.1 Z0
G01 X33.3 Y23 Z-0.017
G01 X33.3 Y22.6 Z-0.234
G01 X33.3 Y22.1 Z-0.464
G01 X33.3 Y21.4 Z-0.701
G01 X33.3 Y20.7 Z-0.825
G01 X33.3 Y20 Z-0.875
G01 X33.3 Y19.3 Z-0.825
G01 X33.3 Y18.6 Z-0.701
G01 X33.3 Y17.9 Z-0.464
G01 X33.3 Y17.3 Z-0.182
G01 X33.3 Y17 Z-0.017
G01 X33.3 Y16.9 Z0
G01 X33.3 Y6.7 Z0
G01 X23.1 Y6.7 Z0
G01 X23 Y6.7 Z-0.018
G01 X22.5 Y6.7 Z-0.281
G01 X22.2 Y6.7 Z-0.421
G01 X21.5 Y6.7 Z-0.671
G01 X20.9 Y6.7 Z-0.798
G01 X20.2 Y6.7 Z-0.864
G01 X19.5 Y6.7 Z-0.846
G01 X18.8 Y6.7 Z-0.745
G01 X18.2 Y6.7 Z-0.573
G01 X17.9 Y6.7 Z-0.458
G01 X17.4 Y6.7 Z-0.235
G01 X17 Y6.7 Z-0.017
G01 X16.9 Y6.7 Z0
G01 X6.7 Y6.7 Z0
G01 X6.7 Y16.9 Z0
G01 X6.7 Y17 Z-0.018
G01 X6.7 Y17.5 Z-0.285
G01 X6.7 Y17.8 Z-0.416
G01 X6.7 Y18.3 Z-0.611
G01 X6.7 Y18.9 Z-0.763
G01 X6.7 Y19.6 Z-0.853
G01 X6.7 Y20.2 Z-0.861
G01 X6.7 Y20.5 Z-0.843
G01 X6.7 Y21.1 Z-0.763
G01 X6.7 Y21.7 Z-0.611
G01 X6.7 Y22.4 Z-0.331
G01 X6.7 Y22.9 Z-0.076
G01 X6.7 Y23 Z-0.018
G01 X6.7 Y23.1 Z0
G01 X6.7 Y33.3 Z0
G01 X16.9 Y33.3 Z0
G01 X17 Y33.3 Z-0.017
G01 X17.4 Y33.3 Z-0.235
G01 X18.1 Y33.3 Z-0.542
G01 X18.7 Y33.3 Z-0.72
G01 X18.9 Y33.3 Z-0.76
G01 X19.5 Y33.3 Z-0.846
G01 X20.2 Y33.3 Z-0.864
G01 X20.9 Y33.3 Z-0.798
G01 X21.6 Y33.3 Z-0.643
G01 X22.3 Y33.3 Z-0.377
G01 X22.9 Y33.3 Z-0.077
G01 X23 Y33.3 Z-0.018
G01 X23.1 Y33.3 Z0
G01 X33.3 Y33.3 Z0
G01 X34.3 Y34.3 Z0
G01 X34.3 Y5.7 Z0
G01 X5.7 Y5.7 Z0
G01 X5.7 Y34.3 Z0
G01 X34.3 Y34.3 Z0
G01 X35.3 Y35.3 Z0
G01 X35.3 Y4.7 Z0
G01 X4.7 Y4.7 Z0
G01 X4.7 Y35.3 Z0
G01 X35.3 Y35.3 Z0
G00 Z5
G01 X20.299 Y20.299
G01 Z-4
G01 X20.299 Y20.299 Z-7 F50
G01 X20.299 Y19.7 Z-7 F100
G01 X19.7 Y19.7 Z-7
G01 X19.7 Y20.299 Z-7
G01 X20.299 Y20.299 Z-7
G01 X21.299 Y21.299 Z-7
G01 X21.299 Y18.7 Z-7
G01 X18.7 Y18.7 Z-7
G01 X18.7 Y21.299 Z-7
G01 X21.299 Y21.299 Z-7
G01 X22.299 Y22.299 Z-7
G01 X22.299 Y17.7 Z-7
G01 X17.7 Y17.7 Z-7
G01 X17.7 Y22.299 Z-7
G01 X22.299 Y22.299 Z-7
G01 X23.299 Y23.299 Z-7
G01 X23.299 Y16.7 Z-7
G01 X16.7 Y16.7 Z-7
G01 X16.7 Y23.299 Z-7
G01 X23.299 Y23.299 Z-7
G01 X24.299 Y24.299 Z-7
G01 X24.299 Y15.7 Z-7
G01 X15.7 Y15.7 Z-7
G01 X15.7 Y24.299 Z-7
G01 X24.299 Y24.299 Z-7
G01 X25.299 Y25.299 Z-7
G01 X25.299 Y14.7 Z-7
G01 X14.7 Y14.7 Z-7
G01 X14.7 Y25.299 Z-7
G01 X25.299 Y25.299 Z-7
G01 X25.965 Y25.965 Z-7
G01 X26.032 Y26.032 Z-6.972
G01 X26.299 Y26.299 Z-6.678
G01 X26.299 Y25.699 Z-7
G01 X26.299 Y14.299 Z-7
G01 X26.299 Y13.7 Z-6.678
G01 X25.699 Y13.7 Z-7
G01 X14.299 Y13.7 Z-7
G01 X13.7 Y13.7 Z-6.677
G01 X13.7 Y14.299 Z-7
G01 X13.7 Y25.699 Z-7
G01 X13.7 Y26.299 Z-6.678
G01 X14.299 Y26.299 Z-7
G01 X25.699 Y26.299 Z-7
G01 X26.299 Y26.299 Z-6.678
G01 X26.699 Y26.699 Z-6.199
G01 X27.032 Y27.032 Z-5.762
G01 X27.299 Y27.299 Z-5.383
G01 X27.299 Y26.799 Z-5.732
G01 X27.299 Y26.299 Z-6.047
G01 X27.299 Y25.699 Z-6.387
G01 X27.299 Y25.099 Z-6.682
G01 X27.299 Y24.599 Z-6.9
G01 X27.299 Y24.399 Z-6.981
G01 X27.299 Y24.299 Z-7
G01 X27.299 Y15.699 Z-7
G01 X27.299 Y15.599 Z-6.98
G01 X27.299 Y14.999 Z-6.727
G01 X27.299 Y14.399 Z-6.438
G01 X27.299 Y13.799 Z-6.107
G01 X27.299 Y13.299 Z-5.797
G01 X27.299 Y12.799 Z-5.454
G01 X27.299 Y12.7 Z-5.382
G01 X26.799 Y12.7 Z-5.731
G01 X26.299 Y12.7 Z-6.046
G01 X25.699 Y12.7 Z-6.386
G01 X25.099 Y12.7 Z-6.682
G01 X24.599 Y12.7 Z-6.899
G01 X24.399 Y12.7 Z-6.98
G01 X24.299 Y12.7 Z-7
G01 X15.699 Y12.7 Z-7
G01 X15.599 Y12.7 Z-6.98
G01 X14.999 Y12.7 Z-6.726
G01 X14.399 Y12.7 Z-6.437
G01 X13.799 Y12.7 Z-6.106
G01 X13.299 Y12.7 Z-5.796
G01 X12.899 Y12.7 Z-5.523
G01 X12.7 Y12.7 Z-5.375
G01 X12.7 Y13.199 Z-5.73
G01 X12.7 Y13.699 Z-6.046
G01 X12.7 Y14.299 Z-6.386
G01 X12.7 Y14.899 Z-6.681
G01 X12.7 Y15.399 Z-6.899
G01 X12.7 Y15.599 Z-6.98
G01 X12.7 Y15.699 Z-7
G01 X12.7 Y24.299 Z-7
G01 X12.7 Y24.399 Z-6.98
G01 X12.7 Y24.999 Z-6.727
G01 X12.7 Y25.599 Z-6.438
G01 X12.7 Y26.199 Z-6.107
G01 X12.7 Y26.699 Z-5.797
G01 X12.7 Y27.099 Z-5.523
G01 X12.7 Y27.299 Z-5.375
G01 X13.199 Y27.299 Z-5.731
G01 X13.699 Y27.299 Z-6.047
G01 X14.299 Y27.299 Z-6.386
G01 X14.899 Y27.299 Z-6.682
G01 X15.399 Y27.299 Z-6.9
G01 X15.599 Y27.299 Z-6.98
G01 X15.699 Y27.299 Z-7
G01 X24.299 Y27.299 Z-7
G01 X24.399 Y27.299 Z-6.981
G01 X24.999 Y27.299 Z-6.727
G01 X25.599 Y27.299 Z-6.438
G01 X26.199 Y27.299 Z-6.107
G01 X26.699 Y27.299 Z-5.797
G01 X27.199 Y27.299 Z-5.455
G01 X27.299 Y27.299 Z-5.383
G01 X27.699 Y27.699 Z-4.758
G01 X28.032 Y28.032 Z-4.173
G01 X28.232 Y28.232 Z-3.8
G01 X28.299 Y28.299 Z-3.666
G01 X28.299 Y27.999 Z-3.958
G01 X28.299 Y27.299 Z-4.561
G01 X28.299 Y26.699 Z-5.009
G01 X28.299 Y25.999 Z-5.465
G01 X28.299 Y25.399 Z-5.804
G01 X28.299 Y24.899 Z-6.051
G01 X28.299 Y24.399 Z-6.27
G01 X28.299 Y23.899 Z-6.463
G01 X28.299 Y23.499 Z-6.599
G01 X28.299 Y22.799 Z-6.794
G01 X28.299 Y22.099 Z-6.95
G01 X28.299 Y21.799 Z-7
G01 X28.299 Y18.199 Z-7
G01 X28.299 Y17.699 Z-6.908
G01 X28.299 Y16.999 Z-6.742
G01 X28.299 Y16.299 Z-6.534
G01 X28.299 Y15.699 Z-6.31
G01 X28.299 Y15.199 Z-6.096
G01 X28.299 Y14.699 Z-5.854
G01 X28.299 Y14.199 Z-5.583
G01 X28.299 Y13.699 Z-5.274
G01 X28.299 Y13.199 Z-4.937
G01 X28.299 Y12.699 Z-4.56
G01 X28.299 Y11.999 Z-3.957
G01 X28.299 Y11.7 Z-3.665
G01 X27.999 Y11.7 Z-3.954
G01 X27.399 Y11.7 Z-4.482
G01 X26.999 Y11.7 Z-4.794
G01 X26.499 Y11.7 Z-5.148
G01 X25.899 Y11.7 Z-5.526
G01 X25.299 Y11.7 Z-5.854
G01 X24.799 Y11.7 Z-6.096
G01 X24.299 Y11.7 Z-6.31
G01 X23.899 Y11.7 Z-6.462
G01 X23.499 Y11.7 Z-6.598
G01 X22.799 Y11.7 Z-6.793
G01 X22.099 Y11.7 Z-6.949
G01 X21.799 Y11.7 Z-6.999
G01 X18.199 Y11.7 Z-6.999
G01 X17.699 Y11.7 Z-6.907
G01 X16.999 Y11.7 Z-6.741
G01 X16.299 Y11.7 Z-6.533
G01 X15.699 Y11.7 Z-6.309
G01 X15.199 Y11.7 Z-6.095
G01 X14.699 Y11.7 Z-5.854
G01 X14.299 Y11.7 Z-5.639
G01 X13.799 Y11.7 Z-5.339
G01 X13.299 Y11.7 Z-5.008
G01 X12.599 Y11.7 Z-4.481
G01 X11.999 Y11.7 Z-3.959
G01 X11.7 Y11.7 Z-3.662
G01 X11.7 Y12.099 Z-4.046
G01 X11.7 Y12.699 Z-4.56
G01 X11.7 Y13.399 Z-5.082
G01 X11.7 Y14.199 Z-5.582
G01 X11.7 Y14.699 Z-5.854
G01 X11.7 Y15.199 Z-6.095
G01 X11.7 Y15.699 Z-6.309
G01 X11.7 Y16.099 Z-6.462
G01 X11.7 Y16.499 Z-6.598
G01 X11.7 Y17.199 Z-6.793
G01 X11.7 Y17.899 Z-6.949
G01 X11.7 Y18.199 Z-6.999
G01 X11.7 Y21.799 Z-6.999
G01 X11.7 Y22.299 Z-6.907
G01 X11.7 Y22.999 Z-6.741
G01 X11.7 Y23.699 Z-6.533
G01 X11.7 Y24.299 Z-6.31
G01 X11.7 Y24.799 Z-6.096
G01 X11.7 Y25.299 Z-5.854
G01 X11.7 Y25.699 Z-5.639
G01 X11.7 Y26.099 Z-5.401
G01 X11.7 Y26.699 Z-5.011
G01 X11.7 Y27.399 Z-4.481
G01 X11.7 Y27.999 Z-3.955
G01 X11.7 Y28.299 Z-3.663
G01 X11.999 Y28.299 Z-3.959
G01 X12.599 Y28.299 Z-4.482
G01 X13.299 Y28.299 Z-5.009
G01 X13.899 Y28.299 Z-5.402
G01 X14.399 Y28.299 Z-5.696
G01 X14.999 Y28.299 Z-6.005
G01 X15.599 Y28.299 Z-6.27
G01 X15.999 Y28.299 Z-6.427
G01 X16.499 Y28.299 Z-6.598
G01 X17.199 Y28.299 Z-6.794
G01 X17.899 Y28.299 Z-6.95
G01 X18.199 Y28.299 Z-7
G01 X21.799 Y28.299 Z-7
G01 X22.199 Y28.299 Z-6.93
G01 X22.899 Y28.299 Z-6.769
G01 X23.699 Y28.299 Z-6.534
G01 X24.299 Y28.299 Z-6.311
G01 X24.799 Y28.299 Z-6.097
G01 X25.299 Y28.299 Z-5.855
G01 X25.699 Y28.299 Z-5.64
G01 X26.199 Y28.299 Z-5.344
G01 X26.799 Y28.299 Z-4.942
G01 X27.299 Y28.299 Z-4.562
G01 X27.599 Y28.299 Z-4.313
G01 X28.199 Y28.299 Z-3.764
G01 X28.299 Y28.299 Z-3.666
G01 X28.499 Y28.499 Z-3.26
G01 X28.832 Y28.832 Z-2.488
G01 X29.032 Y29.032 Z-1.975
G01 X29.299 Y29.299 Z-1.201 F50
G01 X29.299 Y29.099 Z-1.506 F100
G01 X29.299 Y28.699 Z-2.059
G01 X29.299 Y28.199 Z-2.651
G01 X29.299 Y27.599 Z-3.271
G01 X29.299 Y27.099 Z-3.718
G01 X29.299 Y26.799 Z-3.964
G01 X29.299 Y26.199 Z-4.411
G01 X29.299 Y25.499 Z-4.851
G01 X29.299 Y25.199 Z-5.025
G01 X29.299 Y24.499 Z-5.37
G01 X29.299 Y23.999 Z-5.585
G01 X29.299 Y23.499 Z-5.766
G01 X29.299 Y22.799 Z-5.982
G01 X29.299 Y22.099 Z-6.146
G01 X29.299 Y21.399 Z-6.258
G01 X29.299 Y20.799 Z-6.32
G01 X29.299 Y19.999 Z-6.354
G01 X29.299 Y19.199 Z-6.319
G01 X29.299 Y18.499 Z-6.245
G01 X29.299 Y17.799 Z-6.127
G01 X29.299 Y17.099 Z-5.954
G01 X29.299 Y16.299 Z-5.698
G01 X29.299 Y15.799 Z-5.502
G01 X29.299 Y15.299 Z-5.274
G01 X29.299 Y14.699 Z-4.97
G01 X29.299 Y13.899 Z-4.479
G01 X29.299 Y13.299 Z-4.04
G01 X29.299 Y12.999 Z-3.801
G01 X29.299 Y12.499 Z-3.365
G01 X29.299 Y11.899 Z-2.756
G01 X29.299 Y11.599 Z-2.416
G01 X29.299 Y11.299 Z-2.058
G01 X29.299 Y10.799 Z-1.36
G01 X29.299 Y10.7 Z-1.199
G01 X28.899 Y10.7 Z-1.785
G01 X28.599 Y10.7 Z-2.173
G01 X28.099 Y10.7 Z-2.759
G01 X27.399 Y10.7 Z-3.459
G01 X26.899 Y10.7 Z-3.886
G01 X26.399 Y10.7 Z-4.27
G01 X25.899 Y10.7 Z-4.61
G01 X25.399 Y10.7 Z-4.912
G01 X24.899 Y10.7 Z-5.181
G01 X24.499 Y10.7 Z-5.372
G01 X23.999 Y10.7 Z-5.584
G01 X23.499 Y10.7 Z-5.765
G01 X22.799 Y10.7 Z-5.981
G01 X22.199 Y10.7 Z-6.127
G01 X21.399 Y10.7 Z-6.257
G01 X20.799 Y10.7 Z-6.319
G01 X20.199 Y10.7 Z-6.346
G01 X19.599 Y10.7 Z-6.34
G01 X18.999 Y10.7 Z-6.301
G01 X18.399 Y10.7 Z-6.23
G01 X17.699 Y10.7 Z-6.104
G01 X17.099 Y10.7 Z-5.953
G01 X16.299 Y10.7 Z-5.697
G01 X15.699 Y10.7 Z-5.459
G01 X14.999 Y10.7 Z-5.126
G01 X14.499 Y10.7 Z-4.85
G01 X13.899 Y10.7 Z-4.477
G01 X13.299 Y10.7 Z-4.039
G01 X12.999 Y10.7 Z-3.804
G01 X12.399 Y10.7 Z-3.269
G01 X11.799 Y10.7 Z-2.647
G01 X11.299 Y10.7 Z-2.051
G01 X10.799 Y10.7 Z-1.365
G01 X10.7 Y10.7 Z-1.202
G01 X10.7 Y10.899 Z-1.5
G01 X10.7 Y11.299 Z-2.049
G01 X10.7 Y11.799 Z-2.649
G01 X10.7 Y12.399 Z-3.269
G01 X10.7 Y13.099 Z-3.889
G01 X10.7 Y13.899 Z-4.478
G01 X10.7 Y14.599 Z-4.907
G01 X10.7 Y14.999 Z-5.129
G01 X10.7 Y15.799 Z-5.5
G01 X10.7 Y16.299 Z-5.697
G01 X10.7 Y17.099 Z-5.953
G01 X10.7 Y17.799 Z-6.126
G01 X10.7 Y18.599 Z-6.257
G01 X10.7 Y19.199 Z-6.319
G01 X10.7 Y19.899 Z-6.347
G01 X10.7 Y20.499 Z-6.336
G01 X10.7 Y21.099 Z-6.291
G01 X10.7 Y21.699 Z-6.214
G01 X10.7 Y22.299 Z-6.104
G01 X10.7 Y22.899 Z-5.953
G01 X10.7 Y23.699 Z-5.697
G01 X10.7 Y24.199 Z-5.501
G01 X10.7 Y24.999 Z-5.129
G01 X10.7 Y25.599 Z-4.793
G01 X10.7 Y26.199 Z-4.41
G01 X10.7 Y26.899 Z-3.89
G01 X10.7 Y27.599 Z-3.27
G01 X10.7 Y28.199 Z-2.65
G01 X10.7 Y28.699 Z-2.05
G01 X10.7 Y29.199 Z-1.36
G01 X10.7 Y29.299 Z-1.204
G01 X10.799 Y29.299 Z-1.367
G01 X11.299 Y29.299 Z-2.052
G01 X11.799 Y29.299 Z-2.648
G01 X12.399 Y29.299 Z-3.27
G01 X12.999 Y29.299 Z-3.805
G01 X13.599 Y29.299 Z-4.264
G01 X13.999 Y29.299 Z-4.544
G01 X14.599 Y29.299 Z-4.911
G01 X15.099 Y29.299 Z-5.178
G01 X15.699 Y29.299 Z-5.46
G01 X16.299 Y29.299 Z-5.698
G01 X17.099 Y29.299 Z-5.954
G01 X17.799 Y29.299 Z-6.127
G01 X18.599 Y29.299 Z-6.258
G01 X19.199 Y29.299 Z-6.319
G01 X19.799 Y29.299 Z-6.347
G01 X20.399 Y29.299 Z-6.341
G01 X20.999 Y29.299 Z-6.302
G01 X21.599 Y29.299 Z-6.231
G01 X22.299 Y29.299 Z-6.105
G01 X22.899 Y29.299 Z-5.954
G01 X23.699 Y29.299 Z-5.698
G01 X24.299 Y29.299 Z-5.462
G01 X24.899 Y29.299 Z-5.182
G01 X25.299 Y29.299 Z-4.97
G01 X25.699 Y29.299 Z-4.736
G01 X26.199 Y29.299 Z-4.41
G01 X26.599 Y29.299 Z-4.122
G01 X27.099 Y29.299 Z-3.723
G01 X27.499 Y29.299 Z-3.37
G01 X28.199 Y29.299 Z-2.657
G01 X28.799 Y29.299 Z-1.923
G01 X29.199 Y29.299 Z-1.359
G01 X29.299 Y29.299 Z-1.201
G01 X29.432 Y29.432 Z-0.776 F50
G01 X29.632 Y29.632 Z-0.049
G01 X29.699 Y29.699 Z0 F100
G01 X30.299 Y30.299 Z0
G01 X30.299 Y28.999 Z0
G01 X30.299 Y28.899 Z-0.078
G01 X30.299 Y28.499 Z-0.74
G01 X30.299 Y27.999 Z-1.448
G01 X30.299 Y27.499 Z-2.042
G01 X30.299 Y26.899 Z-2.653
G01 X30.299 Y26.499 Z-3.005
G01 X30.299 Y26.099 Z-3.328
G01 X30.299 Y25.499 Z-3.754
G01 X30.299 Y25.099 Z-4
G01 X30.299 Y24.499 Z-4.33
G01 X30.299 Y23.999 Z-4.565
G01 X30.299 Y23.499 Z-4.765
G01 X30.299 Y22.799 Z-5.004
G01 X30.299 Y22.199 Z-5.158
G01 X30.299 Y21.499 Z-5.288
G01 X30.299 Y20.899 Z-5.36
G01 X30.299 Y20.399 Z-5.394
G01 X30.299 Y19.899 Z-5.406
G01 X30.299 Y19.199 Z-5.37
G01 X30.299 Y18.599 Z-5.302
G01 X30.299 Y18.099 Z-5.217
G01 X30.299 Y17.699 Z-5.135
G01 X30.299 Y17.099 Z-4.974
G01 X30.299 Y16.299 Z-4.689
G01 X30.299 Y15.799 Z-4.475
G01 X30.299 Y15.299 Z-4.224
G01 X30.299 Y14.699 Z-3.882
G01 X30.299 Y14.199 Z-3.545
G01 X30.299 Y13.799 Z-3.25
G01 X30.299 Y13.299 Z-2.833
G01 X30.299 Y12.999 Z-2.552
G01 X30.299 Y12.499 Z-2.041
G01 X30.299 Y11.999 Z-1.446
G01 X30.299 Y11.499 Z-0.739
G01 X30.299 Y11.099 Z-0.076
G01 X30.299 Y10.999 Z0
G01 X30.299 Y9.7 Z0
G01 X28.999 Y9.7 Z0
G01 X28.899 Y9.7 Z-0.076
G01 X28.499 Y9.7 Z-0.745
G01 X27.999 Y9.7 Z-1.441
G01 X27.499 Y9.7 Z-2.039
G01 X27.099 Y9.7 Z-2.454
G01 X26.699 Y9.7 Z-2.837
G01 X26.199 Y9.7 Z-3.252
G01 X25.799 Y9.7 Z-3.549
G01 X25.299 Y9.7 Z-3.881
G01 X24.899 Y9.7 Z-4.117
G01 X24.499 Y9.7 Z-4.332
G01 X23.999 Y9.7 Z-4.567
G01 X23.499 Y9.7 Z-4.768
G01 X22.999 Y9.7 Z-4.941
G01 X22.599 Y9.7 Z-5.06
G01 X22.099 Y9.7 Z-5.18
G01 X21.299 Y9.7 Z-5.315
G01 X20.599 Y9.7 Z-5.383
G01 X19.899 Y9.7 Z-5.4
G01 X19.299 Y9.7 Z-5.376
G01 X18.699 Y9.7 Z-5.315
G01 X18.099 Y9.7 Z-5.217
G01 X17.499 Y9.7 Z-5.085
G01 X16.899 Y9.7 Z-4.907
G01 X16.299 Y9.7 Z-4.686
G01 X15.799 Y9.7 Z-4.48
G01 X15.099 Y9.7 Z-4.112
G01 X14.599 Y9.7 Z-3.818
G01 X13.899 Y9.7 Z-3.326
G01 X13.499 Y9.7 Z-3.002
G01 X13.099 Y9.7 Z-2.655
G01 X12.399 Y9.7 Z-1.927
G01 X11.899 Y9.7 Z-1.312
G01 X11.499 Y9.7 Z-0.735
G01 X11.099 Y9.7 Z-0.075
G01 X10.999 Y9.7 Z0
G01 X9.7 Y9.7 Z0
G01 X9.7 Y10.999 Z0
G01 X9.7 Y11.099 Z-0.075
G01 X9.7 Y11.499 Z-0.739
G01 X9.7 Y11.899 Z-1.307
G01 X9.7 Y12.299 Z-1.804
G01 X9.7 Y12.599 Z-2.148
G01 X9.7 Y13.099 Z-2.652
G01 X9.7 Y13.699 Z-3.169
G01 X9.7 Y14.199 Z-3.546
G01 X9.7 Y14.799 Z-3.944
G01 X9.7 Y15.499 Z-4.33
G01 X9.7 Y15.999 Z-4.563
G01 X9.7 Y16.599 Z-4.8
G01 X9.7 Y16.899 Z-4.905
G01 X9.7 Y17.499 Z-5.087
G01 X9.7 Y18.199 Z-5.24
G01 X9.7 Y18.499 Z-5.292
G01 X9.7 Y19.199 Z-5.373
G01 X9.7 Y19.799 Z-5.404
G01 X9.7 Y20.399 Z-5.398
G01 X9.7 Y21.099 Z-5.344
G01 X9.7 Y21.699 Z-5.26
G01 X9.7 Y22.299 Z-5.134
G01 X9.7 Y22.699 Z-5.031
G01 X9.7 Y23.299 Z-4.837
G01 X9.7 Y23.999 Z-4.564
G01 X9.7 Y24.499 Z-4.33
G01 X9.7 Y25.199 Z-3.944
G01 X9.7 Y25.899 Z-3.473
G01 X9.7 Y26.299 Z-3.17
G01 X9.7 Y26.899 Z-2.653
G01 X9.7 Y27.399 Z-2.149
G01 X9.7 Y27.799 Z-1.686
G01 X9.7 Y28.099 Z-1.309
G01 X9.7 Y28.499 Z-0.74
G01 X9.7 Y28.799 Z-0.247
G01 X9.7 Y28.899 Z-0.077
G01 X9.7 Y28.999 Z0
G01 X9.7 Y30.299 Z0
G01 X10.999 Y30.299 Z0
G01 X11.099 Y30.299 Z-0.077
G01 X11.499 Y30.299 Z-0.737
G01 X11.899 Y30.299 Z-1.314
G01 X12.499 Y30.299 Z-2.046
G01 X13.199 Y30.299 Z-2.747
G01 X13.799 Y30.299 Z-3.25
G01 X14.299 Y30.299 Z-3.614
G01 X14.699 Y30.299 Z-3.887
G01 X15.399 Y30.299 Z-4.275
G01 X15.899 Y30.299 Z-4.523
G01 X16.599 Y30.299 Z-4.801
G01 X17.099 Y30.299 Z-4.971
G01 X17.599 Y30.299 Z-5.112
G01 X18.299 Y30.299 Z-5.255
G01 X18.899 Y30.299 Z-5.34
G01 X19.499 Y30.299 Z-5.389
G01 X20.099 Y30.299 Z-5.402
G01 X20.699 Y30.299 Z-5.379
G01 X21.399 Y30.299 Z-5.303
G01 X22.199 Y30.299 Z-5.161
G01 X22.799 Y30.299 Z-5.006
G01 X23.399 Y30.299 Z-4.806
G01 X23.799 Y30.299 Z-4.653
G01 X24.299 Y30.299 Z-4.432
G01 X24.799 Y30.299 Z-4.174
G01 X25.299 Y30.299 Z-3.882
G01 X25.599 Y30.299 Z-3.689
G01 X26.099 Y30.299 Z-3.329
G01 X26.399 Y30.299 Z-3.093
G01 X26.799 Y30.299 Z-2.745
G01 X27.299 Y30.299 Z-2.252
G01 X27.599 Y30.299 Z-1.924
G01 X27.999 Y30.299 Z-1.442
G01 X28.499 Y30.299 Z-0.747
G01 X28.899 Y30.299 Z-0.078
G01 X28.999 Y30.299 Z0
G01 X30.299 Y30.299 Z0
G01 X31.299 Y31.299 Z0
G01 X31.299 Y27.699 Z0
G01 X31.299 Y27.599 Z-0.063
G01 X31.299 Y27.199 Z-0.637
G01 X31.299 Y26.699 Z-1.235
G01 X31.299 Y26.399 Z-1.555
G01 X31.299 Y25.899 Z-2.036
G01 X31.299 Y25.299 Z-2.504
G01 X31.299 Y24.999 Z-2.722
G01 X31.299 Y24.399 Z-3.087
G01 X31.299 Y23.999 Z-3.31
G01 X31.299 Y23.299 Z-3.615
G01 X31.299 Y22.899 Z-3.768
G01 X31.299 Y22.299 Z-3.955
G01 X31.299 Y21.599 Z-4.107
G01 X31.299 Y20.999 Z-4.194
G01 X31.299 Y20.499 Z-4.238
G01 X31.299 Y19.899 Z-4.256
G01 X31.299 Y19.199 Z-4.216
G01 X31.299 Y18.599 Z-4.14
G01 X31.299 Y18.199 Z-4.068
G01 X31.299 Y17.599 Z-3.927
G01 X31.299 Y16.999 Z-3.732
G01 X31.299 Y16.399 Z-3.488
G01 X31.299 Y15.999 Z-3.309
G01 X31.299 Y15.299 Z-2.909
G01 X31.299 Y14.999 Z-2.722
G01 X31.299 Y14.399 Z-2.273
G01 X31.299 Y14.099 Z-2.035
G01 X31.299 Y13.499 Z-1.451
G01 X31.299 Y13.199 Z-1.121
G01 X31.299 Y12.799 Z-0.636
G01 X31.299 Y12.399 Z-0.062
G01 X31.299 Y12.299 Z0
G01 X31.299 Y8.7 Z0
G01 X27.699 Y8.7 Z0
G01 X27.599 Y8.7 Z-0.062
G01 X27.199 Y8.7 Z-0.629
G01 X26.699 Y8.7 Z-1.238
G01 X26.499 Y8.7 Z-1.45
G01 X25.999 Y8.7 Z-1.939
G01 X25.399 Y8.7 Z-2.432
G01 X24.899 Y8.7 Z-2.786
G01 X24.499 Y8.7 Z-3.026
G01 X23.999 Y8.7 Z-3.309
G01 X23.199 Y8.7 Z-3.656
G01 X22.499 Y8.7 Z-3.9
G01 X21.699 Y8.7 Z-4.087
G01 X20.999 Y8.7 Z-4.194
G01 X20.399 Y8.7 Z-4.244
G01 X19.699 Y8.7 Z-4.247
G01 X18.999 Y8.7 Z-4.194
G01 X18.399 Y8.7 Z-4.106
G01 X17.799 Y8.7 Z-3.978
G01 X17.199 Y8.7 Z-3.802
G01 X16.499 Y8.7 Z-3.531
G01 X15.999 Y8.7 Z-3.308
G01 X15.399 Y8.7 Z-2.969
G01 X14.899 Y8.7 Z-2.657
G01 X14.099 Y8.7 Z-2.029
G01 X13.499 Y8.7 Z-1.454
G01 X12.899 Y8.7 Z-0.764
G01 X12.399 Y8.7 Z-0.06
G01 X12.299 Y8.7 Z0
G01 X8.7 Y8.7 Z0
G01 X8.7 Y12.299 Z0
G01 X8.7 Y12.399 Z-0.06
G01 X8.7 Y12.899 Z-0.757
G01 X8.7 Y13.399 Z-1.355
G01 X8.7 Y13.999 Z-1.934
G01 X8.7 Y14.399 Z-2.273
G01 X8.7 Y14.899 Z-2.651
G01 X8.7 Y15.499 Z-3.028
G01 X8.7 Y16.099 Z-3.355
G01 X8.7 Y16.799 Z-3.653
G01 X8.7 Y17.499 Z-3.896
G01 X8.7 Y18.199 Z-4.072
G01 X8.7 Y18.699 Z-4.158
G01 X8.7 Y19.099 Z-4.211
G01 X8.7 Y19.699 Z-4.253
G01 X8.7 Y20.399 Z-4.249
G01 X8.7 Y21.099 Z-4.188
G01 X8.7 Y21.799 Z-4.072
G01 X8.7 Y22.599 Z-3.868
G01 X8.7 Y23.299 Z-3.617
G01 X8.7 Y23.999 Z-3.308
G01 X8.7 Y24.699 Z-2.909
G01 X8.7 Y25.199 Z-2.582
G01 X8.7 Y25.699 Z-2.194
G01 X8.7 Y25.999 Z-1.935
G01 X8.7 Y26.599 Z-1.356
G01 X8.7 Y27.099 Z-0.759
G01 X8.7 Y27.599 Z-0.062
G01 X8.7 Y27.699 Z0
G01 X8.7 Y31.299 Z0
G01 X12.299 Y31.299 Z0
G01 X12.399 Y31.299 Z-0.062
G01 X12.899 Y31.299 Z-0.766
G01 X13.499 Y31.299 Z-1.455
G01 X14.099 Y31.299 Z-2.03
G01 X14.899 Y31.299 Z-2.658
G01 X15.599 Y31.299 Z-3.086
G01 X16.099 Y31.299 Z-3.357
G01 X16.799 Y31.299 Z-3.653
G01 X17.299 Y31.299 Z-3.835
G01 X17.899 Y31.299 Z-4.003
G01 X18.599 Y31.299 Z-4.14
G01 X19.199 Y31.299 Z-4.215
G01 X19.799 Y31.299 Z-4.25
G01 X20.399 Y31.299 Z-4.245
G01 X21.099 Y31.299 Z-4.185
G01 X21.799 Y31.299 Z-4.07
G01 X22.499 Y31.299 Z-3.901
G01 X23.299 Y31.299 Z-3.616
G01 X23.999 Y31.299 Z-3.311
G01 X24.799 Y31.299 Z-2.851
G01 X25.099 Y31.299 Z-2.651
G01 X25.599 Y31.299 Z-2.273
G01 X25.999 Y31.299 Z-1.94
G01 X26.599 Y31.299 Z-1.351
G01 X26.899 Y31.299 Z-1.002
G01 X27.199 Y31.299 Z-0.631
G01 X27.599 Y31.299 Z-0.064
G01 X27.699 Y31.299 Z0
G01 X31.299 Y31.299 Z0
G01 X32.3 Y32.3 Z0
G01 X32.3 Y25.9 Z0
G01 X32.3 Y25.3 Z-0.646
G01 X32.3 Y24.8 Z-1.083
G01 X32.3 Y24.4 Z-1.403
G01 X32.3 Y23.8 Z-1.777
G01 X32.3 Y23.3 Z-2.054
G01 X32.3 Y22.6 Z-2.344
G01 X32.3 Y22.1 Z-2.508
G01 X32.3 Y21.6 Z-2.643
G01 X32.3 Y21 Z-2.748
G01 X32.3 Y20.2 Z-2.812
G01 X32.3 Y19.9 Z-2.817
G01 X32.3 Y19.4 Z-2.785
G01 X32.3 Y18.9 Z-2.733
G01 X32.3 Y18.3 Z-2.622
G01 X32.3 Y17.6 Z-2.415
G01 X32.3 Y17.1 Z-2.226
G01 X32.3 Y16.6 Z-2.007
G01 X32.3 Y16 Z-1.657
G01 X32.3 Y15.5 Z-1.326
G01 X32.3 Y15 Z-0.913
G01 X32.3 Y14.7 Z-0.646
G01 X32.3 Y14.4 Z-0.329
G01 X32.3 Y14.1 Z0
G01 X32.3 Y7.7 Z0
G01 X25.9 Y7.7 Z0
G01 X25.5 Y7.7 Z-0.438
G01 X25.2 Y7.7 Z-0.736
G01 X24.8 Y7.7 Z-1.084
G01 X24.4 Y7.7 Z-1.396
G01 X24.1 Y7.7 Z-1.594
G01 X23.5 Y7.7 Z-1.951
G01 X22.9 Y7.7 Z-2.23
G01 X22.1 Y7.7 Z-2.512
G01 X21.5 Y7.7 Z-2.668
G01 X20.8 Y7.7 Z-2.771
G01 X20.1 Y7.7 Z-2.811
G01 X19.4 Y7.7 Z-2.788
G01 X18.7 Y7.7 Z-2.701
G01 X18.1 Y7.7 Z-2.572
G01 X17.5 Y7.7 Z-2.383
G01 X16.7 Y7.7 Z-2.053
G01 X16.1 Y7.7 Z-1.723
G01 X15.5 Y7.7 Z-1.327
G01 X14.8 Y7.7 Z-0.744
G01 X14.3 Y7.7 Z-0.22
G01 X14.1 Y7.7 Z0
G01 X7.7 Y7.7 Z0
G01 X7.7 Y14.1 Z0
G01 X7.7 Y14.6 Z-0.537
G01 X7.7 Y14.9 Z-0.831
G01 X7.7 Y15.4 Z-1.246
G01 X7.7 Y15.8 Z-1.531
G01 X7.7 Y16.3 Z-1.839
G01 X7.7 Y16.8 Z-2.097
G01 X7.7 Y17.1 Z-2.228
G01 X7.7 Y17.6 Z-2.413
G01 X7.7 Y18.1 Z-2.567
G01 X7.7 Y18.7 Z-2.704
G01 X7.7 Y19.3 Z-2.784
G01 X7.7 Y19.9 Z-2.814
G01 X7.7 Y20.4 Z-2.803
G01 X7.7 Y20.8 Z-2.776
G01 X7.7 Y21.4 Z-2.685
G01 X7.7 Y22.1 Z-2.513
G01 X7.7 Y22.7 Z-2.305
G01 X7.7 Y23.1 Z-2.145
G01 X7.7 Y23.6 Z-1.894
G01 X7.7 Y24.1 Z-1.596
G01 X7.7 Y24.5 Z-1.322
G01 X7.7 Y24.9 Z-1.003
G01 X7.7 Y25.2 Z-0.74
G01 X7.7 Y25.7 Z-0.222
G01 X7.7 Y25.9 Z0
G01 X7.7 Y32.3 Z0
G01 X14.1 Y32.3 Z0
G01 X14.7 Y32.3 Z-0.648
G01 X14.9 Y32.3 Z-0.829
G01 X15.5 Y32.3 Z-1.327
G01 X16.1 Y32.3 Z-1.723
G01 X16.7 Y32.3 Z-2.053
G01 X17.5 Y32.3 Z-2.383
G01 X18.2 Y32.3 Z-2.598
G01 X18.8 Y32.3 Z-2.72
G01 X19.5 Y32.3 Z-2.796
G01 X20.2 Y32.3 Z-2.809
G01 X20.9 Y32.3 Z-2.759
G01 X21.6 Y32.3 Z-2.643
G01 X22.2 Y32.3 Z-2.483
G01 X22.9 Y32.3 Z-2.23
G01 X23.5 Y32.3 Z-1.951
G01 X24.2 Y32.3 Z-1.534
G01 X24.5 Y32.3 Z-1.321
G01 X25 Y32.3 Z-0.916
G01 X25.3 Y32.3 Z-0.641
G01 X25.7 Y32.3 Z-0.221
G01 X25.9 Y32.3 Z0
G01 X32.3 Y32.3 Z0
G01 X33.3 Y33.3 Z0
G01 X33.3 Y23.1 Z0
G01 X33.3 Y23 Z-0.017
G01 X33.3 Y22.6 Z-0.234
G01 X33.3 Y22.1 Z-0.464
G01 X33.3 Y21.4 Z-0.701
G01 X33.3 Y20.7 Z-0.825
G01 X33.3 Y20 Z-0.875
G01 X33.3 Y19.3 Z-0.825
G01 X33.3 Y18.6 Z-0.701
G01 X33.3 Y17.9 Z-0.464
G01 X33.3 Y17.3 Z-0.182
G01 X33.3 Y17 Z-0.017
G01 X33.3 Y16.9 Z0
G01 X33.3 Y6.7 Z0
G01 X23.1 Y6.7 Z0
G01 X23 Y6.7 Z-0.018
G01 X22.5 Y6.7 Z-0.281
G01 X22.2 Y6.7 Z-0.421
G01 X21.5 Y6.7 Z-0.671
G01 X20.9 Y6.7 Z-0.798
G01 X20.2 Y6.7 Z-0.864
G01 X19.5 Y6.7 Z-0.846
G01 X18.8 Y6.7 Z-0.745
G01 X18.2 Y6.7 Z-0.573
G01 X17.9 Y6.7 Z-0.458
G01 X17.4 Y6.7 Z-0.235
G01 X17 Y6.7 Z-0.017
G01 X16.9 Y6.7 Z0
G01 X6.7 Y6.7 Z0
G01 X6.7 Y16.9 Z0
G01 X6.7 Y17 Z-0.018
G01 X6.7 Y17.5 Z-0.285
G01 X6.7 Y17.8 Z-0.416
G01 X6.7 Y18.3 Z-0.611
G01 X6.7 Y18.9 Z-0.763
G01 X6.7 Y19.6 Z-0.853
G01 X6.7 Y20.2 Z-0.861
G01 X6.7 Y20.5 Z-0.843
G01 X6.7 Y21.1 Z-0.763
G01 X6.7 Y21.7 Z-0.611
G01 X6.7 Y22.4 Z-0.331
G01 X6.7 Y22.9 Z-0.076
G01 X6.7 Y23 Z-0.018
G01 X6.7 Y23.1 Z0
G01 X6.7 Y33.3 Z0
G01 X16.9 Y33.3 Z0
G01 X17 Y33.3 Z-0.017
G01 X17.4 Y33.3 Z-0.235
G01 X18.1 Y33.3 Z-0.542
G01 X18.7 Y33.3 Z-0.72
G01 X18.9 Y33.3 Z-0.76
G01 X19.5 Y33.3 Z-0.846
G01 X20.2 Y33.3 Z-0.864
G01 X20.9 Y33.3 Z-0.798
G01 X21.6 Y33.3 Z-0.643
G01 X22.3 Y33.3 Z-0.377
G01 X22.9 Y33.3 Z-0.077
G01 X23 Y33.3 Z-0.018
G01 X23.1 Y33.3 Z0
G01 X33.3 Y33.3 Z0
G01 X34.3 Y34.3 Z0
G01 X34.3 Y5.7 Z0
G01 X5.7 Y5.7 Z0
G01 X5.7 Y34.3 Z0
G01 X34.3 Y34.3 Z0
G01 X35.3 Y35.3 Z0
G01 X35.3 Y4.7 Z0
G01 X4.7 Y4.7 Z0
G01 X4.7 Y35.3 Z0
G01 X35.3 Y35.3 Z0
G00 Z5
G01 X20.299 Y20.299
G01 Z-5
G01 X20.299 Y20.299 Z-8 F50
G01 X20.299 Y19.7 Z-8 F100
G01 X19.7 Y19.7 Z-8
G01 X19.7 Y20.299 Z-8
G01 X20.299 Y20.299 Z-8
G01 X21.299 Y21.299 Z-8
G01 X21.299 Y18.7 Z-8
G01 X18.7 Y18.7 Z-8
G01 X18.7 Y21.299 Z-8
G01 X21.299 Y21.299 Z-8
G01 X22.299 Y22.299 Z-8
G01 X22.299 Y17.7 Z-8
G01 X17.7 Y17.7 Z-8
G01 X17.7 Y22.299 Z-8
G01 X22.299 Y22.299 Z-8
G01 X23.299 Y23.299 Z-8
G01 X23.299 Y16.7 Z-8
G01 X16.7 Y16.7 Z-8
G01 X16.7 Y23.299 Z-8
G01 X23.299 Y23.299 Z-8
G01 X24.299 Y24.299 Z-8
G01 X24.299 Y15.7 Z-8
G01 X15.7 Y15.7 Z-8
G01 X15.7 Y24.299 Z-8
G01 X24.299 Y24.299 Z-8
G01 X24.899 Y24.899 Z-8
G01 X24.965 Y24.965 Z-7.975
G01 X25.299 Y25.299 Z-7.69
G01 X25.299 Y24.699 Z-7.939
G01 X25.299 Y24.599 Z-7.978
G01 X25.299 Y24.499 Z-8
G01 X25.299 Y15.499 Z-8
G01 X25.299 Y15.399 Z-7.978
G01 X25.299 Y14.799 Z-7.733
G01 X25.299 Y14.7 Z-7.69
G01 X24.599 Y14.7 Z-7.977
G01 X24.499 Y14.7 Z-8
G01 X15.499 Y14.7 Z-8
G01 X15.399 Y14.7 Z-7.976
G01 X14.799 Y14.7 Z-7.732
G01 X14.7 Y14.7 Z-7.687
G01 X14.7 Y15.299 Z-7.936
G01 X14.7 Y15.399 Z-7.974
G01 X14.7 Y15.499 Z-8
G01 X14.7 Y24.499 Z-8
G01 X14.7 Y24.599 Z-7.974
G01 X14.7 Y25.199 Z-7.733
G01 X14.7 Y25.299 Z-7.688
G01 X15.299 Y25.299 Z-7.938
G01 X15.399 Y25.299 Z-7.976
G01 X15.499 Y25.299 Z-8
G01 X24.499 Y25.299 Z-8
G01 X24.599 Y25.299 Z-7.977
G01 X25.299 Y25.299 Z-7.69
G01 X25.765 Y25.765 Z-7.25
G01 X26.232 Y26.232 Z-6.756
G01 X26.299 Y26.299 Z-6.678
G01 X26.299 Y25.699 Z-7.001
G01 X26.299 Y25.099 Z-7.282
G01 X26.299 Y24.499 Z-7.531
G01 X26.299 Y23.799 Z-7.775
G01 X26.299 Y23.399 Z-7.894
G01 X26.299 Y22.999 Z-8
G01 X26.299 Y16.999 Z-8
G01 X26.299 Y16.299 Z-7.806
G01 X26.299 Y15.799 Z-7.64
G01 X26.299 Y15.299 Z-7.45
G01 X26.299 Y14.599 Z-7.146
G01 X26.299 Y13.999 Z-6.844
G01 X26.299 Y13.7 Z-6.678
G01 X25.699 Y13.7 Z-7
G01 X25.099 Y13.7 Z-7.282
G01 X24.599 Y13.7 Z-7.49
G01 X23.899 Y13.7 Z-7.743
G01 X23.299 Y13.7 Z-7.92
G01 X22.999 Y13.7 Z-7.996
G01 X16.999 Y13.7 Z-7.999
G01 X16.299 Y13.7 Z-7.807
G01 X15.699 Y13.7 Z-7.604
G01 X15.199 Y13.7 Z-7.409
G01 X14.599 Y13.7 Z-7.141
G01 X14.199 Y13.7 Z-6.949
G01 X13.7 Y13.7 Z-6.677
G01 X13.7 Y14.299 Z-7
G01 X13.7 Y15.099 Z-7.366
G01 X13.7 Y15.399 Z-7.491
G01 X13.7 Y15.899 Z-7.674
G01 X13.7 Y16.399 Z-7.835
G01 X13.7 Y16.999 Z-8
G01 X13.7 Y22.999 Z-8
G01 X13.7 Y23.699 Z-7.805
G01 X13.7 Y24.399 Z-7.567
G01 X13.7 Y24.799 Z-7.41
G01 X13.7 Y25.599 Z-7.048
G01 X13.7 Y26.199 Z-6.736
G01 X13.7 Y26.299 Z-6.678
G01 X14.299 Y26.299 Z-7
G01 X15.099 Y26.299 Z-7.368
G01 X15.599 Y26.299 Z-7.567
G01 X16.099 Y26.299 Z-7.742
G01 X16.799 Y26.299 Z-7.949
G01 X16.999 Y26.299 Z-8
G01 X22.999 Y26.299 Z-7.996
G01 X23.599 Y26.299 Z-7.836
G01 X24.199 Y26.299 Z-7.64
G01 X24.899 Y26.299 Z-7.37
G01 X25.499 Y26.299 Z-7.098
G01 X25.999 Y26.299 Z-6.844
G01 X26.299 Y26.299 Z-6.678
G01 X26.699 Y26.699 Z-6.199
G01 X27.032 Y27.032 Z-5.762
G01 X27.299 Y27.299 Z-5.383
G01 X27.299 Y26.799 Z-5.732
G01 X27.299 Y26.299 Z-6.047
G01 X27.299 Y25.699 Z-6.387
G01 X27.299 Y25.099 Z-6.682
G01 X27.299 Y24.599 Z-6.9
G01 X27.299 Y24.099 Z-7.091
G01 X27.299 Y23.499 Z-7.29
G01 X27.299 Y22.799 Z-7.48
G01 X27.299 Y22.199 Z-7.606
G01 X27.299 Y21.699 Z-7.687
G01 X27.299 Y20.899 Z-7.775
G01 X27.299 Y20.099 Z-7.81
G01 X27.299 Y19.599 Z-7.802
G01 X27.299 Y18.899 Z-7.755
G01 X27.299 Y18.099 Z-7.661
G01 X27.299 Y17.399 Z-7.524
G01 X27.299 Y16.999 Z-7.43
G01 X27.299 Y16.399 Z-7.258
G01 X27.299 Y15.699 Z-7.02
G01 X27.299 Y15.099 Z-6.772
G01 X27.299 Y14.599 Z-6.538
G01 X27.299 Y14.099 Z-6.277
G01 X27.299 Y13.699 Z-6.047
G01 X27.299 Y13.199 Z-5.731
G01 X27.299 Y12.7 Z-5.382
G01 X26.799 Y12.7 Z-5.731
G01 X26.299 Y12.7 Z-6.046
G01 X25.699 Y12.7 Z-6.386
G01 X25.099 Y12.7 Z-6.682
G01 X24.599 Y12.7 Z-6.899
G01 X24.099 Y12.7 Z-7.088
G01 X23.399 Y12.7 Z-7.316
G01 X22.699 Y12.7 Z-7.503
G01 X22.099 Y12.7 Z-7.622
G01 X21.299 Y12.7 Z-7.736
G01 X20.599 Y12.7 Z-7.792
G01 X19.999 Y12.7 Z-7.807
G01 X19.399 Y12.7 Z-7.792
G01 X18.799 Y12.7 Z-7.745
G01 X17.999 Y12.7 Z-7.643
G01 X17.299 Y12.7 Z-7.501
G01 X16.799 Y12.7 Z-7.376
G01 X16.099 Y12.7 Z-7.161
G01 X15.499 Y12.7 Z-6.94
G01 X14.999 Y12.7 Z-6.726
G01 X14.399 Y12.7 Z-6.437
G01 X13.799 Y12.7 Z-6.106
G01 X13.299 Y12.7 Z-5.796
G01 X12.899 Y12.7 Z-5.523
G01 X12.7 Y12.7 Z-5.375
G01 X12.7 Y13.199 Z-5.73
G01 X12.7 Y13.699 Z-6.046
G01 X12.7 Y14.299 Z-6.386
G01 X12.7 Y14.899 Z-6.681
G01 X12.7 Y15.399 Z-6.899
G01 X12.7 Y15.899 Z-7.088
G01 X12.7 Y16.599 Z-7.315
G01 X12.7 Y17.099 Z-7.453
G01 X12.7 Y17.699 Z-7.587
G01 X12.7 Y18.399 Z-7.698
G01 X12.7 Y18.999 Z-7.764
G01 X12.7 Y19.599 Z-7.8
G01 X12.7 Y20.199 Z-7.805
G01 X12.7 Y20.699 Z-7.787
G01 X12.7 Y21.399 Z-7.723
G01 X12.7 Y22.199 Z-7.607
G01 X12.7 Y22.799 Z-7.478
G01 X12.7 Y23.299 Z-7.346
G01 X12.7 Y23.999 Z-7.123
G01 X12.7 Y24.499 Z-6.94
G01 X12.7 Y24.999 Z-6.727
G01 X12.7 Y25.599 Z-6.438
G01 X12.7 Y26.199 Z-6.107
G01 X12.7 Y26.699 Z-5.797
G01 X12.7 Y27.099 Z-5.523
G01 X12.7 Y27.299 Z-5.375
G01 X13.099 Y27.299 Z-5.665
G01 X13.599 Y27.299 Z-5.986
G01 X14.099 Y27.299 Z-6.277
G01 X14.699 Y27.299 Z-6.588
G01 X15.299 Y27.299 Z-6.859
G01 X15.799 Y27.299 Z-7.055
G01 X16.399 Y27.299 Z-7.258
G01 X16.999 Y27.299 Z-7.431
G01 X17.699 Y27.299 Z-7.587
G01 X18.099 Y27.299 Z-7.658
G01 X18.899 Y27.299 Z-7.757
G01 X19.599 Y27.299 Z-7.803
G01 X20.299 Y27.299 Z-7.804
G01 X20.899 Y27.299 Z-7.773
G01 X21.499 Y27.299 Z-7.712
G01 X22.299 Y27.299 Z-7.588
G01 X22.899 Y27.299 Z-7.455
G01 X23.599 Y27.299 Z-7.255
G01 X24.399 Y27.299 Z-6.981
G01 X24.999 Y27.299 Z-6.727
G01 X25.599 Y27.299 Z-6.438
G01 X26.199 Y27.299 Z-6.107
G01 X26.699 Y27.299 Z-5.797
G01 X27.199 Y27.299 Z-5.455
G01 X27.299 Y27.299 Z-5.383
G01 X27.699 Y27.699 Z-4.758
G01 X27.965 Y27.965 Z-4.294
G01 X28.232 Y28.232 Z-3.8
G01 X28.299 Y28.299 Z-3.666
G01 X28.299 Y27.999 Z-3.958
G01 X28.299 Y27.299 Z-4.561
G01 X28.299 Y26.699 Z-5.009
G01 X28.299 Y25.999 Z-5.465
G01 X28.299 Y25.399 Z-5.804
G01 X28.299 Y24.899 Z-6.051
G01 X28.299 Y24.399 Z-6.27
G01 X28.299 Y23.999 Z-6.427
G01 X28.299 Y23.499 Z-6.599
G01 X28.299 Y22.799 Z-6.794
G01 X28.299 Y22.099 Z-6.95
G01 X28.299 Y21.399 Z-7.058
G01 X28.299 Y20.699 Z-7.12
G01 X28.299 Y19.999 Z-7.146
G01 X28.299 Y19.199 Z-7.115
G01 X28.299 Y18.399 Z-7.033
G01 X28.299 Y17.699 Z-6.908
G01 X28.299 Y16.999 Z-6.742
G01 X28.299 Y16.299 Z-6.534
G01 X28.299 Y15.699 Z-6.31
G01 X28.299 Y15.199 Z-6.096
G01 X28.299 Y14.699 Z-5.854
G01 X28.299 Y14.199 Z-5.583
G01 X28.299 Y13.699 Z-5.274
G01 X28.299 Y13.199 Z-4.937
G01 X28.299 Y12.699 Z-4.56
G01 X28.299 Y11.999 Z-3.957
G01 X28.299 Y11.7 Z-3.665
G01 X27.999 Y11.7 Z-3.954
G01 X27.399 Y11.7 Z-4.482
G01 X26.999 Y11.7 Z-4.794
G01 X26.499 Y11.7 Z-5.148
G01 X25.899 Y11.7 Z-5.526
G01 X25.299 Y11.7 Z-5.854
G01 X24.799 Y11.7 Z-6.096
G01 X24.299 Y11.7 Z-6.31
G01 X23.899 Y11.7 Z-6.462
G01 X23.499 Y11.7 Z-6.598
G01 X22.799 Y11.7 Z-6.793
G01 X22.099 Y11.7 Z-6.949
G01 X21.399 Y11.7 Z-7.058
G01 X20.699 Y11.7 Z-7.119
G01 X19.999 Y11.7 Z-7.143
G01 X19.399 Y11.7 Z-7.127
G01 X18.899 Y11.7 Z-7.09
G01 X18.399 Y11.7 Z-7.032
G01 X17.799 Y11.7 Z-6.929
G01 X17.099 Y11.7 Z-6.768
G01 X16.299 Y11.7 Z-6.533
G01 X15.699 Y11.7 Z-6.309
G01 X15.199 Y11.7 Z-6.095
G01 X14.699 Y11.7 Z-5.854
G01 X14.299 Y11.7 Z-5.639
G01 X13.799 Y11.7 Z-5.339
G01 X13.299 Y11.7 Z-5.008
G01 X12.599 Y11.7 Z-4.481
G01 X11.999 Y11.7 Z-3.959
G01 X11.7 Y11.7 Z-3.662
G01 X11.7 Y12.099 Z-4.046
G01 X11.7 Y12.699 Z-4.56
G01 X11.7 Y13.399 Z-5.082
G01 X11.7 Y14.199 Z-5.582
G01 X11.7 Y14.699 Z-5.854
G01 X11.7 Y15.199 Z-6.095
G01 X11.7 Y15.699 Z-6.309
G01 X11.7 Y16.099 Z-6.462
G01 X11.7 Y16.499 Z-6.598
G01 X11.7 Y17.199 Z-6.793
G01 X11.7 Y17.899 Z-6.949
G01 X11.7 Y18.599 Z-7.059
G01 X11.7 Y19.299 Z-7.122
G01 X11.7 Y19.899 Z-7.144
G01 X11.7 Y20.499 Z-7.133
G01 X11.7 Y21.099 Z-7.09
G01 X11.7 Y21.599 Z-7.032
G01 X11.7 Y22.199 Z-6.929
G01 X11.7 Y22.899 Z-6.768
G01 X11.7 Y23.699 Z-6.533
G01 X11.7 Y24.299 Z-6.31
G01 X11.7 Y24.799 Z-6.096
G01 X11.7 Y25.299 Z-5.854
G01 X11.7 Y25.699 Z-5.639
G01 X11.7 Y26.099 Z-5.401
G01 X11.7 Y26.699 Z-5.011
G01 X11.7 Y27.399 Z-4.481
G01 X11.7 Y27.999 Z-3.955
G01 X11.7 Y28.299 Z-3.663
G01 X11.999 Y28.299 Z-3.959
G01 X12.599 Y28.299 Z-4.482
G01 X13.299 Y28.299 Z-5.009
G01 X13.899 Y28.299 Z-5.402
G01 X14.399 Y28.299 Z-5.696
G01 X14.999 Y28.299 Z-6.005
G01 X15.599 Y28.299 Z-6.27
G01 X15.999 Y28.299 Z-6.427
G01 X16.499 Y28.299 Z-6.598
G01 X17.199 Y28.299 Z-6.794
G01 X17.899 Y28.299 Z-6.95
G01 X18.599 Y28.299 Z-7.059
G01 X19.299 Y28.299 Z-7.123
G01 X19.899 Y28.299 Z-7.144
G01 X20.399 Y28.299 Z-7.135
G01 X20.999 Y28.299 Z-7.099
G01 X21.699 Y28.299 Z-7.017
G01 X22.299 Y28.299 Z-6.908
G01 X22.999 Y28.299 Z-6.742
G01 X23.699 Y28.299 Z-6.534
G01 X24.299 Y28.299 Z-6.311
G01 X24.799 Y28.299 Z-6.097
G01 X25.299 Y28.299 Z-5.855
G01 X25.699 Y28.299 Z-5.64
G01 X26.199 Y28.299 Z-5.344
G01 X26.799 Y28.299 Z-4.942
G01 X27.299 Y28.299 Z-4.562
G01 X27.599 Y28.299 Z-4.313
G01 X28.199 Y28.299 Z-3.764
G01 X28.299 Y28.299 Z-3.666
G01 X28.499 Y28.499 Z-3.26
G01 X28.832 Y28.832 Z-2.488
G01 X29.032 Y29.032 Z-1.975
G01 X29.299 Y29.299 Z-1.201 F50
G01 X29.299 Y29.099 Z-1.506 F100
G01 X29.299 Y28.699 Z-2.059
G01 X29.299 Y28.199 Z-2.651
G01 X29.299 Y27.599 Z-3.271
G01 X29.299 Y27.099 Z-3.718
G01 X29.299 Y26.799 Z-3.964
G01 X29.299 Y26.199 Z-4.411
G01 X29.299 Y25.499 Z-4.851
G01 X29.299 Y25.199 Z-5.025
G01 X29.299 Y24.499 Z-5.37
G01 X29.299 Y23.999 Z-5.585
G01 X29.299 Y23.499 Z-5.766
G01 X29.299 Y22.799 Z-5.982
G01 X29.299 Y22.099 Z-6.146
G01 X29.299 Y21.399 Z-6.258
G01 X29.299 Y20.799 Z-6.32
G01 X29.299 Y19.999 Z-6.354
G01 X29.299 Y19.199 Z-6.319
G01 X29.299 Y18.499 Z-6.245
G01 X29.299 Y17.799 Z-6.127
G01 X29.299 Y17.099 Z-5.954
G01 X29.299 Y16.299 Z-5.698
G01 X29.299 Y15.799 Z-5.502
G01 X29.299 Y15.299 Z-5.274
G01 X29.299 Y14.699 Z-4.97
G01 X29.299 Y13.899 Z-4.479
G01 X29.299 Y13.299 Z-4.04
G01 X29.299 Y12.999 Z-3.801
G01 X29.299 Y12.499 Z-3.365
G01 X29.299 Y11.899 Z-2.756
G01 X29.299 Y11.599 Z-2.416
G01 X29.299 Y11.299 Z-2.058
G01 X29.299 Y10.799 Z-1.36
G01 X29.299 Y10.7 Z-1.199
G01 X28.899 Y10.7 Z-1.785
G01 X28.599 Y10.7 Z-2.173
G01 X28.099 Y10.7 Z-2.759
G01 X27.399 Y10.7 Z-3.459
G01 X26.899 Y10.7 Z-3.886
G01 X26.399 Y10.7 Z-4.27
G01 X25.899 Y10.7 Z-4.61
G01 X25.399 Y10.7 Z-4.912
G01 X24.899 Y10.7 Z-5.181
G01 X24.499 Y10.7 Z-5.372
G01 X23.999 Y10.7 Z-5.584
G01 X23.499 Y10.7 Z-5.765
G01 X22.799 Y10.7 Z-5.981
G01 X22.199 Y10.7 Z-6.127
G01 X21.399 Y10.7 Z-6.257
G01 X20.799 Y10.7 Z-6.319
G01 X20.199 Y10.7 Z-6.346
G01 X19.599 Y10.7 Z-6.34
G01 X18.999 Y10.7 Z-6.301
G01 X18.399 Y10.7 Z-6.23
G01 X17.699 Y10.7 Z-6.104
G01 X17.099 Y10.7 Z-5.953
G01 X16.299 Y10.7 Z-5.697
G01 X15.699 Y10.7 Z-5.459
G01 X14.999 Y10.7 Z-5.126
G01 X14.499 Y10.7 Z-4.85
G01 X13.899 Y10.7 Z-4.477
G01 X13.299 Y10.7 Z-4.039
G01 X12.999 Y10.7 Z-3.804
G01 X12.399 Y10.7 Z-3.269
G01 X11.799 Y10.7 Z-2.647
G01 X11.299 Y10.7 Z-2.051
G01 X10.799 Y10.7 Z-1.365
G01 X10.7 Y10.7 Z-1.202
G01 X10.7 Y10.899 Z-1.5
G01 X10.7 Y11.299 Z-2.049
G01 X10.7 Y11.799 Z-2.649
G01 X10.7 Y12.399 Z-3.269
G01 X10.7 Y13.099 Z-3.889
G01 X10.7 Y13.899 Z-4.478
G01 X10.7 Y14.599 Z-4.907
G01 X10.7 Y14.999 Z-5.129
G01 X10.7 Y15.799 Z-5.5
G01 X10.7 Y16.299 Z-5.697
G01 X10.7 Y17.099 Z-5.953
G01 X10.7 Y17.799 Z-6.126
G01 X10.7 Y18.599 Z-6.257
G01 X10.7 Y19.199 Z-6.319
G01 X10.7 Y19.899 Z-6.347
G01 X10.7 Y20.499 Z-6.336
G01 X10.7 Y21.099 Z-6.291
G01 X10.7 Y21.699 Z-6.214
G01 X10.7 Y22.299 Z-6.104
G01 X10.7 Y22.899 Z-5.953
G01 X10.7 Y23.699 Z-5.697
G01 X10.7 Y24.199 Z-5.501
G01 X10.7 Y24.999 Z-5.129
G01 X10.7 Y25.599 Z-4.793
G01 X10.7 Y26.199 Z-4.41
G01 X10.7 Y26.899 Z-3.89
G01 X10.7 Y27.599 Z-3.27
G01 X10.7 Y28.199 Z-2.65
G01 X10.7 Y28.699 Z-2.05
G01 X10.7 Y29.199 Z-1.36
G01 X10.7 Y29.299 Z-1.204
G01 X10.799 Y29.299 Z-1.367
G01 X11.299 Y29.299 Z-2.052
G01 X11.799 Y29.299 Z-2.648
G01 X12.399 Y29.299 Z-3.27
G01 X12.999 Y29.299 Z-3.805
G01 X13.599 Y29.299 Z-4.264
G01 X13.999 Y29.299 Z-4.544
G01 X14.599 Y29.299 Z-4.911
G01 X15.099 Y29.299 Z-5.178
G01 X15.699 Y29.299 Z-5.46
G01 X16.299 Y29.299 Z-5.698
G01 X17.099 Y29.299 Z-5.954
G01 X17.799 Y29.299 Z-6.127
G01 X18.599 Y29.299 Z-6.258
G01 X19.199 Y29.299 Z-6.319
G01 X19.799 Y29.299 Z-6.347
G01 X20.399 Y29.299 Z-6.341
G01 X20.999 Y29.299 Z-6.302
G01 X21.599 Y29.299 Z-6.231
G01 X22.299 Y29.299 Z-6.105
G01 X22.899 Y29.299 Z-5.954
G01 X23.699 Y29.299 Z-5.698
G01 X24.299 Y29.299 Z-5.462
G01 X24.899 Y29.299 Z-5.182
G01 X25.299 Y29.299 Z-4.97
G01 X25.699 Y29.299 Z-4.736
G01 X26.199 Y29.299 Z-4.41
G01 X26.599 Y29.299 Z-4.122
G01 X27.099 Y29.299 Z-3.723
G01 X27.499 Y29.299 Z-3.37
G01 X28.199 Y29.299 Z-2.657
G01 X28.799 Y29.299 Z-1.923
G01 X29.199 Y29.299 Z-1.359
G01 X29.299 Y29.299 Z-1.201
G01 X29.432 Y29.432 Z-0.776 F50
G01 X29.632 Y29.632 Z-0.049
G01 X29.699 Y29.699 Z0 F100
G01 X30.299 Y30.299 Z0
G01 X30.299 Y28.999 Z0
G01 X30.299 Y28.899 Z-0.078
G01 X30.299 Y28.499 Z-0.74
