(Created with emc2b post processor 2014/08/11 13:28)
(tool change to 3.2 mm Ball End Mill)
(T1 M06 G43)
(G17 G90 G21)
(G00 Z5 S7000 M03)
G01 X20.2 Y20.2
G01 Z2
G01 X20.2 Y20.2 Z-9.993 F50
G01 X20.2 Y19.8 Z-9.994 F100
G01 X19.8 Y19.8 Z-9.994
G01 X19.8 Y20.2 Z-9.994
G01 X20.2 Y20.2 Z-9.993
G01 X20.666 Y20.666 Z-9.962
G01 X21.066 Y21.066 Z-9.911
G01 X21.2 Y21.2 Z-9.889
G01 X21.2 Y20.5 Z-9.932
G01 X21.2 Y19.9 Z-9.943
G01 X21.2 Y19.1 Z-9.912
G01 X21.2 Y18.8 Z-9.889
G01 X20.5 Y18.8 Z-9.936
G01 X19.7 Y18.8 Z-9.941
G01 X19.1 Y18.8 Z-9.912
G01 X18.8 Y18.8 Z-9.888
G01 X18.8 Y19.5 Z-9.936
G01 X18.8 Y20.3 Z-9.941
G01 X18.8 Y20.9 Z-9.912
G01 X18.8 Y21.2 Z-9.888
G01 X19.5 Y21.2 Z-9.936
G01 X20.2 Y21.2 Z-9.942
G01 X20.7 Y21.2 Z-9.925
G01 X21.2 Y21.2 Z-9.889
G01 X21.6 Y21.6 Z-9.803
G01 X22 Y22 Z-9.694
G01 X22.2 Y22.2 Z-9.631
G01 X22.2 Y21.5 Z-9.73
G01 X22.2 Y20.8 Z-9.791
G01 X22.2 Y20.1 Z-9.816
G01 X22.2 Y19.5 Z-9.807
G01 X22.2 Y18.8 Z-9.761
G01 X22.2 Y18.1 Z-9.678
G01 X22.2 Y17.8 Z-9.631
G01 X21.5 Y17.8 Z-9.731
G01 X20.8 Y17.8 Z-9.793
G01 X20 Y17.8 Z-9.813
G01 X19.7 Y17.8 Z-9.812
G01 X19.1 Y17.8 Z-9.786
G01 X18.4 Y17.8 Z-9.719
G01 X17.8 Y17.8 Z-9.631
G01 X17.8 Y18.5 Z-9.73
G01 X17.8 Y19.2 Z-9.791
G01 X17.8 Y19.9 Z-9.816
G01 X17.8 Y20.5 Z-9.807
G01 X17.8 Y21.2 Z-9.761
G01 X17.8 Y21.9 Z-9.678
G01 X17.8 Y22.2 Z-9.631
G01 X18.5 Y22.2 Z-9.731
G01 X19.2 Y22.2 Z-9.793
G01 X20 Y22.2 Z-9.813
G01 X20.8 Y22.2 Z-9.793
G01 X21.5 Y22.2 Z-9.731
G01 X22.1 Y22.2 Z-9.648
G01 X22.2 Y22.2 Z-9.631
G01 X22.6 Y22.6 Z-9.483
G01 X23.066 Y23.066 Z-9.276
G01 X23.2 Y23.2 Z-9.209
G01 X23.2 Y22.6 Z-9.347
G01 X23.2 Y22 Z-9.454
G01 X23.2 Y21.3 Z-9.544
G01 X23.2 Y20.4 Z-9.605
G01 X23.2 Y19.7 Z-9.607
G01 X23.2 Y19.2 Z-9.584
G01 X23.2 Y18.6 Z-9.534
G01 X23.2 Y17.9 Z-9.439
G01 X23.2 Y17.2 Z-9.302
G01 X23.2 Y16.8 Z-9.209
G01 X22.5 Y16.8 Z-9.366
G01 X22 Y16.8 Z-9.456
G01 X21.4 Y16.8 Z-9.533
G01 X20.7 Y16.8 Z-9.589
G01 X20.2 Y16.8 Z-9.606
G01 X19.6 Y16.8 Z-9.604
G01 X19 Y16.8 Z-9.57
G01 X18.2 Y16.8 Z-9.486
G01 X17.6 Y16.8 Z-9.385
G01 X17 Y16.8 Z-9.258
G01 X16.8 Y16.8 Z-9.209
G01 X16.8 Y17.5 Z-9.366
G01 X16.8 Y18 Z-9.454
G01 X16.8 Y18.7 Z-9.544
G01 X16.8 Y19.5 Z-9.601
G01 X16.8 Y20.2 Z-9.609
G01 X16.8 Y20.8 Z-9.584
G01 X16.8 Y21.5 Z-9.523
G01 X16.8 Y22.2 Z-9.424
G01 X16.8 Y22.9 Z-9.281
G01 X16.8 Y23.2 Z-9.209
G01 X17.5 Y23.2 Z-9.366
G01 X18 Y23.2 Z-9.456
G01 X18.6 Y23.2 Z-9.533
G01 X19.2 Y23.2 Z-9.585
G01 X19.8 Y23.2 Z-9.606
G01 X20.5 Y23.2 Z-9.6
G01 X21.1 Y23.2 Z-9.561
G01 X21.8 Y23.2 Z-9.486
G01 X22.4 Y23.2 Z-9.385
G01 X23.1 Y23.2 Z-9.235
G01 X23.2 Y23.2 Z-9.209
G01 X23.733 Y23.733 Z-8.913
G01 X24.133 Y24.133 Z-8.655
G01 X24.2 Y24.2 Z-8.608
G01 X24.2 Y23.5 Z-8.83
G01 X24.2 Y22.8 Z-9.01
G01 X24.2 Y22.3 Z-9.111
G01 X24.2 Y21.6 Z-9.221
G01 X24.2 Y20.9 Z-9.29
G01 X24.2 Y20.1 Z-9.322
G01 X24.2 Y19.5 Z-9.311
G01 X24.2 Y19 Z-9.282
G01 X24.2 Y18.2 Z-9.193
G01 X24.2 Y17.4 Z-9.054
G01 X24.2 Y16.7 Z-8.886
G01 X24.2 Y16 Z-8.677
G01 X24.2 Y15.8 Z-8.608
G01 X23.6 Y15.8 Z-8.801
G01 X23 Y15.8 Z-8.963
G01 X22.3 Y15.8 Z-9.113
G01 X21.8 Y15.8 Z-9.193
G01 X21.2 Y15.8 Z-9.264
G01 X20.5 Y15.8 Z-9.31
G01 X20 Y15.8 Z-9.32
G01 X19.6 Y15.8 Z-9.314
G01 X19.1 Y15.8 Z-9.288
G01 X18.5 Y15.8 Z-9.233
G01 X17.8 Y15.8 Z-9.13
G01 X17.1 Y15.8 Z-8.988
G01 X16.4 Y15.8 Z-8.802
G01 X15.9 Y15.8 Z-8.643
G01 X15.8 Y15.8 Z-8.609
G01 X15.8 Y16.3 Z-8.77
G01 X15.8 Y17.1 Z-8.988
G01 X15.8 Y17.7 Z-9.111
G01 X15.8 Y18.4 Z-9.221
G01 X15.8 Y19.1 Z-9.29
G01 X15.8 Y19.9 Z-9.323
G01 X15.8 Y20.5 Z-9.311
G01 X15.8 Y21 Z-9.282
G01 X15.8 Y21.8 Z-9.193
G01 X15.8 Y22.6 Z-9.054
G01 X15.8 Y23.1 Z-8.936
G01 X15.8 Y23.9 Z-8.71
G01 X15.8 Y24.2 Z-8.609
G01 X16.3 Y24.2 Z-8.772
G01 X17 Y24.2 Z-8.963
G01 X17.7 Y24.2 Z-9.113
G01 X18.2 Y24.2 Z-9.193
G01 X18.8 Y24.2 Z-9.264
G01 X19.5 Y24.2 Z-9.31
G01 X20 Y24.2 Z-9.32
G01 X20.4 Y24.2 Z-9.314
G01 X20.9 Y24.2 Z-9.288
G01 X21.5 Y24.2 Z-9.233
G01 X22.2 Y24.2 Z-9.13
G01 X22.9 Y24.2 Z-8.988
G01 X23.6 Y24.2 Z-8.801
G01 X24.2 Y24.2 Z-8.608
G01 X24.6 Y24.6 Z-8.312
G01 X25.066 Y25.066 Z-7.921
G01 X25.2 Y25.2 Z-7.798
G01 X25.2 Y24.6 Z-8.057
G01 X25.2 Y24 Z-8.281
G01 X25.2 Y23.4 Z-8.47
G01 X25.2 Y22.8 Z-8.625
G01 X25.2 Y22.2 Z-8.75
G01 X25.2 Y21.6 Z-8.842
G01 X25.2 Y20.9 Z-8.914
G01 X25.2 Y20.3 Z-8.943
G01 X25.2 Y19.8 Z-8.945
G01 X25.2 Y19.3 Z-8.927
G01 X25.2 Y18.6 Z-8.868
G01 X25.2 Y17.9 Z-8.767
G01 X25.2 Y17.3 Z-8.648
G01 X25.2 Y16.7 Z-8.498
G01 X25.2 Y16.1 Z-8.315
G01 X25.2 Y15.5 Z-8.097
G01 X25.2 Y14.9 Z-7.844
G01 X25.2 Y14.8 Z-7.798
G01 X24.6 Y14.8 Z-8.059
G01 X24 Y14.8 Z-8.28
G01 X23.4 Y14.8 Z-8.469
G01 X22.8 Y14.8 Z-8.625
G01 X22.2 Y14.8 Z-8.749
G01 X21.7 Y14.8 Z-8.826
G01 X21.1 Y14.8 Z-8.898
G01 X20.4 Y14.8 Z-8.941
G01 X19.8 Y14.8 Z-8.945
G01 X19.2 Y14.8 Z-8.92
G01 X18.5 Y14.8 Z-8.855
G01 X17.9 Y14.8 Z-8.767
G01 X17.2 Y14.8 Z-8.625
G01 X16.5 Y14.8 Z-8.44
G01 X15.9 Y14.8 Z-8.248
G01 X15.2 Y14.8 Z-7.976
G01 X14.8 Y14.8 Z-7.799
G01 X14.8 Y15.4 Z-8.059
G01 X14.8 Y16.2 Z-8.344
G01 X14.8 Y16.6 Z-8.467
G01 X14.8 Y17.4 Z-8.671
G01 X14.8 Y18.1 Z-8.8
G01 X14.8 Y18.8 Z-8.889
G01 X14.8 Y19.5 Z-8.937
G01 X14.8 Y20.2 Z-8.945
G01 X14.8 Y20.8 Z-8.92
G01 X14.8 Y21.4 Z-8.867
G01 X14.8 Y22 Z-8.783
G01 X14.8 Y22.6 Z-8.671
G01 X14.8 Y23.4 Z-8.467
G01 X14.8 Y23.9 Z-8.311
G01 X14.8 Y24.6 Z-8.059
G01 X14.8 Y25.2 Z-7.799
G01 X15.4 Y25.2 Z-8.057
G01 X16 Y25.2 Z-8.282
G01 X16.7 Y25.2 Z-8.497
G01 X17.2 Y25.2 Z-8.625
G01 X17.9 Y25.2 Z-8.767
G01 X18.6 Y25.2 Z-8.868
G01 X19.3 Y25.2 Z-8.927
G01 X20 Y25.2 Z-8.948
G01 X20.7 Y25.2 Z-8.927
G01 X21.3 Y25.2 Z-8.878
G01 X22.1 Y25.2 Z-8.766
G01 X22.6 Y25.2 Z-8.669
G01 X23.3 Y25.2 Z-8.498
G01 X23.9 Y25.2 Z-8.314
G01 X24.4 Y25.2 Z-8.135
G01 X25 Y25.2 Z-7.89
G01 X25.2 Y25.2 Z-7.798
G01 X25.533 Y25.533 Z-7.474
G01 X25.933 Y25.933 Z-7.043
G01 X26.2 Y26.2 Z-6.732
G01 X26.2 Y25.6 Z-7.073
G01 X26.2 Y25 Z-7.374
G01 X26.2 Y24.5 Z-7.591
G01 X26.2 Y24 Z-7.781
G01 X26.2 Y23.4 Z-7.979
G01 X26.2 Y22.8 Z-8.142
G01 X26.2 Y22.3 Z-8.251
G01 X26.2 Y21.7 Z-8.354
G01 X26.2 Y21 Z-8.435
G01 X26.2 Y20.4 Z-8.467
G01 X26.2 Y19.9 Z-8.475
G01 X26.2 Y19.2 Z-8.448
G01 X26.2 Y18.7 Z-8.404
G01 X26.2 Y18.2 Z-8.339
G01 X26.2 Y17.6 Z-8.231
G01 X26.2 Y17 Z-8.092
G01 X26.2 Y16.4 Z-7.916
G01 X26.2 Y15.7 Z-7.671
G01 X26.2 Y15.2 Z-7.463
G01 X26.2 Y14.6 Z-7.179
G01 X26.2 Y14 Z-6.849
G01 X26.2 Y13.8 Z-6.732
G01 X25.6 Y13.8 Z-7.073
G01 X25 Y13.8 Z-7.374
G01 X24.4 Y13.8 Z-7.631
G01 X23.9 Y13.8 Z-7.817
G01 X23.3 Y13.8 Z-8.009
G01 X22.7 Y13.8 Z-8.163
G01 X22 Y13.8 Z-8.304
G01 X21.3 Y13.8 Z-8.406
G01 X20.6 Y13.8 Z-8.46
G01 X20 Y13.8 Z-8.476
G01 X19.4 Y13.8 Z-8.461
G01 X18.7 Y13.8 Z-8.406
G01 X18 Y13.8 Z-8.306
G01 X17.4 Y13.8 Z-8.188
G01 X16.8 Y13.8 Z-8.037
G01 X16.3 Y13.8 Z-7.884
G01 X15.7 Y13.8 Z-7.67
G01 X15.1 Y13.8 Z-7.419
G01 X14.5 Y13.8 Z-7.127
G01 X14 Y13.8 Z-6.849
G01 X13.8 Y13.8 Z-6.732
G01 X13.8 Y14.4 Z-7.073
G01 X13.8 Y15 Z-7.373
G01 X13.8 Y15.8 Z-7.707
G01 X13.8 Y16.4 Z-7.919
G01 X13.8 Y17 Z-8.09
G01 X13.8 Y17.7 Z-8.252
G01 X13.8 Y18.4 Z-8.369
G01 X13.8 Y19.1 Z-8.442
G01 X13.8 Y19.7 Z-8.472
G01 X13.8 Y20.3 Z-8.472
G01 X13.8 Y20.9 Z-8.442
G01 X13.8 Y21.6 Z-8.369
G01 X13.8 Y22.3 Z-8.252
G01 X13.8 Y23 Z-8.09
G01 X13.8 Y23.6 Z-7.919
G01 X13.8 Y24.2 Z-7.707
G01 X13.8 Y25 Z-7.373
G01 X13.8 Y25.6 Z-7.073
G01 X13.8 Y26.2 Z-6.732
G01 X14.4 Y26.2 Z-7.073
G01 X15 Y26.2 Z-7.373
G01 X15.5 Y26.2 Z-7.59
G01 X16.1 Y26.2 Z-7.818
G01 X16.7 Y26.2 Z-8.008
G01 X17.2 Y26.2 Z-8.141
G01 X17.9 Y26.2 Z-8.29
G01 X18.6 Y26.2 Z-8.394
G01 X19.3 Y26.2 Z-8.456
G01 X19.9 Y26.2 Z-8.476
G01 X20.5 Y26.2 Z-8.465
G01 X21 Y26.2 Z-8.433
G01 X21.4 Y26.2 Z-8.393
G01 X22.1 Y26.2 Z-8.285
G01 X22.8 Y26.2 Z-8.14
G01 X23.4 Y26.2 Z-7.978
G01 X23.9 Y26.2 Z-7.817
G01 X24.4 Y26.2 Z-7.631
G01 X25 Y26.2 Z-7.374
G01 X25.6 Y26.2 Z-7.073
G01 X26.2 Y26.2 Z-6.732
G01 X26.6 Y26.6 Z-6.211
G01 X26.933 Y26.933 Z-5.729
G01 X27.2 Y27.2 Z-5.306
G01 X27.2 Y26.8 Z-5.621
G01 X27.2 Y26.1 Z-6.11
G01 X27.2 Y25.6 Z-6.412
G01 X27.2 Y25.1 Z-6.68
G01 X27.2 Y24.6 Z-6.918
G01 X27.2 Y24 Z-7.168
G01 X27.2 Y23.4 Z-7.373
G01 X27.2 Y22.9 Z-7.518
G01 X27.2 Y22.4 Z-7.64
G01 X27.2 Y21.7 Z-7.77
G01 X27.2 Y20.9 Z-7.858
G01 X27.2 Y20.2 Z-7.894
G01 X27.2 Y19.9 Z-7.897
G01 X27.2 Y19.2 Z-7.865
G01 X27.2 Y18.7 Z-7.819
G01 X27.2 Y18.2 Z-7.753
G01 X27.2 Y17.6 Z-7.64
G01 X27.2 Y17.1 Z-7.518
G01 X27.2 Y16.4 Z-7.31
G01 X27.2 Y15.8 Z-7.088
G01 X27.2 Y15.3 Z-6.873
G01 X27.2 Y14.7 Z-6.578
G01 X27.2 Y14.2 Z-6.294
G01 X27.2 Y13.8 Z-6.043
G01 X27.2 Y13.1 Z-5.548
G01 X27.2 Y12.8 Z-5.306
G01 X26.7 Y12.8 Z-5.696
G01 X26.2 Y12.8 Z-6.044
G01 X25.6 Y12.8 Z-6.412
G01 X25.1 Y12.8 Z-6.68
G01 X24.6 Y12.8 Z-6.918
G01 X24 Y12.8 Z-7.168
G01 X23.4 Y12.8 Z-7.372
G01 X22.8 Y12.8 Z-7.541
G01 X22.1 Y12.8 Z-7.702
G01 X21.4 Y12.8 Z-7.808
G01 X20.8 Y12.8 Z-7.866
G01 X20.2 Y12.8 Z-7.892
G01 X19.6 Y12.8 Z-7.886
G01 X19 Y12.8 Z-7.849
G01 X18.5 Y12.8 Z-7.794
G01 X18.1 Y12.8 Z-7.738
G01 X17.4 Y12.8 Z-7.595
G01 X16.7 Y12.8 Z-7.404
G01 X16.2 Y12.8 Z-7.24
G01 X15.8 Y12.8 Z-7.088
G01 X15.3 Y12.8 Z-6.873
G01 X14.7 Y12.8 Z-6.578
G01 X14.2 Y12.8 Z-6.294
G01 X13.8 Y12.8 Z-6.043
G01 X13.1 Y12.8 Z-5.544
G01 X12.8 Y12.8 Z-5.301
G01 X12.8 Y13.3 Z-5.692
G01 X12.8 Y13.9 Z-6.11
G01 X12.8 Y14.4 Z-6.412
G01 X12.8 Y14.9 Z-6.68
G01 X12.8 Y15.4 Z-6.918
G01 X12.8 Y16 Z-7.168
G01 X12.8 Y16.6 Z-7.372
G01 X12.8 Y17.3 Z-7.572
G01 X12.8 Y18 Z-7.721
G01 X12.8 Y18.7 Z-7.82
G01 X12.8 Y19.3 Z-7.873
G01 X12.8 Y19.9 Z-7.893
G01 X12.8 Y20.5 Z-7.882
G01 X12.8 Y21.1 Z-7.84
G01 X12.8 Y21.6 Z-7.781
G01 X12.8 Y22.1 Z-7.701
G01 X12.8 Y22.8 Z-7.547
G01 X12.8 Y23.6 Z-7.31
G01 X12.8 Y24.2 Z-7.088
G01 X12.8 Y24.7 Z-6.873
G01 X12.8 Y25.3 Z-6.578
G01 X12.8 Y25.8 Z-6.294
G01 X12.8 Y26.2 Z-6.043
G01 X12.8 Y26.8 Z-5.619
G01 X12.8 Y27.2 Z-5.301
G01 X13.2 Y27.2 Z-5.619
G01 X13.9 Y27.2 Z-6.11
G01 X14.4 Y27.2 Z-6.412
G01 X14.9 Y27.2 Z-6.68
G01 X15.4 Y27.2 Z-6.918
G01 X16 Y27.2 Z-7.168
G01 X16.6 Y27.2 Z-7.373
G01 X17.3 Y27.2 Z-7.572
G01 X17.9 Y27.2 Z-7.7
G01 X18.3 Y27.2 Z-7.768
G01 X18.9 Y27.2 Z-7.841
G01 X19.5 Y27.2 Z-7.883
G01 X20.1 Y27.2 Z-7.893
G01 X20.7 Y27.2 Z-7.872
G01 X21.3 Y27.2 Z-7.819
G01 X21.8 Y27.2 Z-7.751
G01 X22.2 Y27.2 Z-7.68
G01 X22.8 Y27.2 Z-7.541
G01 X23.5 Y27.2 Z-7.342
G01 X24.1 Y27.2 Z-7.128
G01 X24.6 Y27.2 Z-6.918
G01 X25.1 Y27.2 Z-6.68
G01 X25.7 Y27.2 Z-6.355
G01 X26.2 Y27.2 Z-6.044
G01 X26.7 Y27.2 Z-5.696
G01 X27.2 Y27.2 Z-5.306
G01 X27.533 Y27.533 Z-4.717
G01 X27.733 Y27.733 Z-4.332
G01 X27.933 Y27.933 Z-3.92
G01 X28.2 Y28.2 Z-3.303
G01 X28.2 Y27.9 Z-3.65
G01 X28.2 Y27.5 Z-4.079
G01 X28.2 Y27 Z-4.551
G01 X28.2 Y26.3 Z-5.117
G01 X28.2 Y25.6 Z-5.591
G01 X28.2 Y25.1 Z-5.881
G01 X28.2 Y24.6 Z-6.144
G01 X28.2 Y23.8 Z-6.489
G01 X28.2 Y23.1 Z-6.726
G01 X28.2 Y22.4 Z-6.918
G01 X28.2 Y21.7 Z-7.054
G01 X28.2 Y21 Z-7.143
G01 X28.2 Y20.3 Z-7.187
G01 X28.2 Y19.9 Z-7.194
G01 X28.2 Y19.2 Z-7.16
G01 X28.2 Y18.6 Z-7.096
G01 X28.2 Y18.1 Z-7.019
G01 X28.2 Y17.6 Z-6.918
G01 X28.2 Y17 Z-6.757
G01 X28.2 Y16.3 Z-6.528
G01 X28.2 Y15.5 Z-6.189
G01 X28.2 Y15 Z-5.936
G01 X28.2 Y14.5 Z-5.652
G01 X28.2 Y13.9 Z-5.257
G01 X28.2 Y13.6 Z-5.041
G01 X28.2 Y13 Z-4.551
G01 X28.2 Y12.5 Z-4.079
G01 X28.2 Y12 Z-3.539
G01 X28.2 Y11.8 Z-3.303
G01 X28.1 Y11.8 Z-3.431
G01 X27.5 Y11.8 Z-4.079
G01 X27 Y11.8 Z-4.55
G01 X26.6 Y11.8 Z-4.886
G01 X26.1 Y11.8 Z-5.262
G01 X25.6 Y11.8 Z-5.592
G01 X25.1 Y11.8 Z-5.885
G01 X24.6 Y11.8 Z-6.144
G01 X23.8 Y11.8 Z-6.489
G01 X23.1 Y11.8 Z-6.726
G01 X22.5 Y11.8 Z-6.892
G01 X22.2 Y11.8 Z-6.963
G01 X21.6 Y11.8 Z-7.07
G01 X21 Y11.8 Z-7.143
G01 X20.3 Y11.8 Z-7.186
G01 X19.6 Y11.8 Z-7.183
G01 X19 Y11.8 Z-7.143
G01 X18.3 Y11.8 Z-7.054
G01 X17.6 Y11.8 Z-6.918
G01 X16.9 Y11.8 Z-6.726
G01 X16.2 Y11.8 Z-6.489
G01 X15.4 Y11.8 Z-6.144
G01 X14.8 Y11.8 Z-5.825
G01 X14.3 Y11.8 Z-5.528
G01 X13.7 Y11.8 Z-5.114
G01 X13.2 Y11.8 Z-4.719
G01 X13 Y11.8 Z-4.555
G01 X12.4 Y11.8 Z-3.978
G01 X11.9 Y11.8 Z-3.424
G01 X11.8 Y11.8 Z-3.3
G01 X11.8 Y12.1 Z-3.654
G01 X11.8 Y12.6 Z-4.178
G01 X11.8 Y13.1 Z-4.637
G01 X11.8 Y13.7 Z-5.118
G01 X11.8 Y14.4 Z-5.592
G01 X11.8 Y15 Z-5.936
G01 X11.8 Y15.5 Z-6.189
G01 X11.8 Y16.3 Z-6.528
G01 X11.8 Y17.1 Z-6.786
G01 X11.8 Y17.8 Z-6.963
G01 X11.8 Y18.5 Z-7.083
G01 X11.8 Y19.1 Z-7.152
G01 X11.8 Y19.7 Z-7.186
G01 X11.8 Y20.4 Z-7.183
G01 X11.8 Y21 Z-7.143
G01 X11.8 Y21.7 Z-7.054
G01 X11.8 Y22.4 Z-6.918
G01 X11.8 Y23 Z-6.757
G01 X11.8 Y23.7 Z-6.528
G01 X11.8 Y24.5 Z-6.189
G01 X11.8 Y25 Z-5.936
G01 X11.8 Y25.7 Z-5.531
G01 X11.8 Y26.4 Z-5.041
G01 X11.8 Y27 Z-4.551
G01 X11.8 Y27.5 Z-4.079
G01 X11.8 Y28 Z-3.543
G01 X11.8 Y28.2 Z-3.3
G01 X12.1 Y28.2 Z-3.652
G01 X12.5 Y28.2 Z-4.079
G01 X13 Y28.2 Z-4.555
G01 X13.6 Y28.2 Z-5.04
G01 X14.1 Y28.2 Z-5.393
G01 X14.5 Y28.2 Z-5.654
G01 X15.1 Y28.2 Z-5.989
G01 X15.5 Y28.2 Z-6.189
G01 X16.3 Y28.2 Z-6.528
G01 X17.1 Y28.2 Z-6.786
G01 X17.7 Y28.2 Z-6.944
G01 X18.4 Y28.2 Z-7.07
G01 X19 Y28.2 Z-7.143
G01 X19.7 Y28.2 Z-7.186
G01 X20.4 Y28.2 Z-7.183
G01 X21 Y28.2 Z-7.143
G01 X21.7 Y28.2 Z-7.054
G01 X22.4 Y28.2 Z-6.918
G01 X23.1 Y28.2 Z-6.726
G01 X23.8 Y28.2 Z-6.489
G01 X24.6 Y28.2 Z-6.144
G01 X25.2 Y28.2 Z-5.829
G01 X25.6 Y28.2 Z-5.592
G01 X26.1 Y28.2 Z-5.262
G01 X26.6 Y28.2 Z-4.886
G01 X27 Y28.2 Z-4.55
G01 X27.5 Y28.2 Z-4.079
G01 X28.1 Y28.2 Z-3.431
G01 X28.2 Y28.2 Z-3.303
G01 X28.4 Y28.4 Z-2.787
G01 X28.6 Y28.6 Z-2.211 F50
G01 X28.8 Y28.8 Z-1.556
G01 X29 Y29 Z-0.849
G01 X29.066 Y29.066 Z-0.693 F100
G01 X29.133 Y29.133 Z-0.57
G01 X29.2 Y29.2 Z-0.467
G01 X29.2 Y29 Z-0.628
G01 X29.2 Y28.9 Z-0.727
G01 X29.2 Y28.8 Z-0.843
G01 X29.2 Y28.7 Z-0.989
G01 X29.2 Y28.3 Z-1.694
G01 X29.2 Y27.9 Z-2.297
G01 X29.2 Y27.4 Z-2.925
G01 X29.2 Y26.9 Z-3.47
G01 X29.2 Y26.4 Z-3.937
G01 X29.2 Y25.8 Z-4.417
G01 X29.2 Y25.6 Z-4.57
G01 X29.2 Y24.8 Z-5.074
G01 X29.2 Y24.1 Z-5.428
G01 X29.2 Y23.8 Z-5.568
G01 X29.2 Y23.1 Z-5.828
G01 X29.2 Y22.4 Z-6.039
G01 X29.2 Y21.7 Z-6.186
G01 X29.2 Y21.1 Z-6.272
G01 X29.2 Y20.5 Z-6.321
G01 X29.2 Y19.9 Z-6.337
G01 X29.2 Y19.2 Z-6.301
G01 X29.2 Y18.7 Z-6.247
G01 X29.2 Y18.1 Z-6.148
G01 X29.2 Y17.6 Z-6.039
G01 X29.2 Y16.9 Z-5.828
G01 X29.2 Y16.2 Z-5.568
G01 X29.2 Y15.5 Z-5.231
G01 X29.2 Y15.2 Z-5.074
G01 X29.2 Y14.4 Z-4.57
G01 X29.2 Y13.7 Z-4.024
G01 X29.2 Y13.2 Z-3.567
G01 X29.2 Y12.8 Z-3.149
G01 X29.2 Y12.5 Z-2.807
G01 X29.2 Y12.1 Z-2.297
G01 X29.2 Y11.7 Z-1.694
G01 X29.2 Y11.3 Z-0.989
G01 X29.2 Y11.2 Z-0.843
G01 X29.2 Y11.1 Z-0.727
G01 X29.2 Y10.9 Z-0.542
G01 X29.2 Y10.8 Z-0.467
G01 X29 Y10.8 Z-0.628
G01 X28.9 Y10.8 Z-0.727
G01 X28.8 Y10.8 Z-0.843
G01 X28.7 Y10.8 Z-0.989
G01 X28.3 Y10.8 Z-1.695
G01 X27.8 Y10.8 Z-2.428
G01 X27.3 Y10.8 Z-3.039
G01 X26.8 Y10.8 Z-3.572
G01 X26.4 Y10.8 Z-3.941
G01 X26 Y10.8 Z-4.271
G01 X25.5 Y10.8 Z-4.635
G01 X25.1 Y10.8 Z-4.895
G01 X24.6 Y10.8 Z-5.183
G01 X24.1 Y10.8 Z-5.433
G01 X23.6 Y10.8 Z-5.649
G01 X23.2 Y10.8 Z-5.798
G01 X22.7 Y10.8 Z-5.956
G01 X22.2 Y10.8 Z-6.085
G01 X21.6 Y10.8 Z-6.202
G01 X21 Y10.8 Z-6.283
G01 X20.4 Y10.8 Z-6.327
G01 X19.7 Y10.8 Z-6.33
G01 X19.1 Y10.8 Z-6.292
G01 X18.5 Y10.8 Z-6.217
G01 X18 Y10.8 Z-6.127
G01 X17.6 Y10.8 Z-6.039
G01 X16.9 Y10.8 Z-5.827
G01 X16.4 Y10.8 Z-5.645
G01 X16 Y10.8 Z-5.477
G01 X15.4 Y10.8 Z-5.179
G01 X15 Y10.8 Z-4.955
G01 X14.4 Y10.8 Z-4.566
G01 X13.9 Y10.8 Z-4.184
G01 X13.6 Y10.8 Z-3.938
G01 X13.1 Y10.8 Z-3.475
G01 X12.5 Y10.8 Z-2.813
G01 X12.1 Y10.8 Z-2.291
G01 X11.8 Y10.8 Z-1.845
G01 X11.6 Y10.8 Z-1.516
G01 X11.3 Y10.8 Z-0.989
G01 X11.2 Y10.8 Z-0.843
G01 X11.1 Y10.8 Z-0.727
G01 X10.9 Y10.8 Z-0.542
G01 X10.8 Y10.8 Z-0.467
G01 X10.8 Y11 Z-0.628
G01 X10.8 Y11.1 Z-0.727
G01 X10.8 Y11.2 Z-0.843
G01 X10.8 Y11.3 Z-0.989
G01 X10.8 Y11.7 Z-1.69
G01 X10.8 Y12.1 Z-2.29
G01 X10.8 Y12.6 Z-2.93
G01 X10.8 Y13.1 Z-3.47
G01 X10.8 Y13.7 Z-4.024
G01 X10.8 Y14.2 Z-4.418
G01 X10.8 Y14.7 Z-4.766
G01 X10.8 Y15.3 Z-5.129
G01 X10.8 Y16 Z-5.475
G01 X10.8 Y16.5 Z-5.685
G01 X10.8 Y17.2 Z-5.927
G01 X10.8 Y17.7 Z-6.064
G01 X10.8 Y18.4 Z-6.202
G01 X10.8 Y19 Z-6.283
G01 X10.8 Y19.6 Z-6.327
G01 X10.8 Y20.2 Z-6.333
G01 X10.8 Y20.8 Z-6.301
G01 X10.8 Y21.3 Z-6.247
G01 X10.8 Y21.9 Z-6.148
G01 X10.8 Y22.5 Z-6.012
G01 X10.8 Y23 Z-5.861
G01 X10.8 Y23.7 Z-5.606
G01 X10.8 Y24.2 Z-5.382
G01 X10.8 Y24.8 Z-5.074
G01 X10.8 Y25.4 Z-4.699
G01 X10.8 Y25.8 Z-4.418
G01 X10.8 Y26.4 Z-3.938
G01 X10.8 Y27 Z-3.369
G01 X10.8 Y27.4 Z-2.93
G01 X10.8 Y27.9 Z-2.29
G01 X10.8 Y28.3 Z-1.69
G01 X10.8 Y28.7 Z-0.989
G01 X10.8 Y28.8 Z-0.843
G01 X10.8 Y28.9 Z-0.727
G01 X10.8 Y29.1 Z-0.542
G01 X10.8 Y29.2 Z-0.467
G01 X11 Y29.2 Z-0.628
G01 X11.1 Y29.2 Z-0.727
G01 X11.2 Y29.2 Z-0.843
G01 X11.3 Y29.2 Z-0.989
G01 X11.7 Y29.2 Z-1.689
G01 X12 Y29.2 Z-2.147
G01 X12.2 Y29.2 Z-2.422
G01 X12.6 Y29.2 Z-2.929
G01 X13.1 Y29.2 Z-3.475
G01 X13.7 Y29.2 Z-4.024
G01 X14.2 Y29.2 Z-4.417
G01 X14.5 Y29.2 Z-4.635
G01 X15.1 Y29.2 Z-5.013
G01 X15.6 Y29.2 Z-5.283
G01 X16.1 Y29.2 Z-5.522
G01 X16.7 Y29.2 Z-5.758
G01 X17.2 Y29.2 Z-5.923
G01 X17.7 Y29.2 Z-6.064
G01 X18.3 Y29.2 Z-6.186
G01 X19 Y29.2 Z-6.283
G01 X19.6 Y29.2 Z-6.327
G01 X20.3 Y29.2 Z-6.33
G01 X20.9 Y29.2 Z-6.292
G01 X21.5 Y29.2 Z-6.217
G01 X22 Y29.2 Z-6.127
G01 X22.4 Y29.2 Z-6.04
G01 X23 Y29.2 Z-5.863
G01 X23.4 Y29.2 Z-5.726
G01 X23.9 Y29.2 Z-5.522
G01 X24.4 Y29.2 Z-5.286
G01 X24.9 Y29.2 Z-5.016
G01 X25.4 Y29.2 Z-4.704
G01 X25.9 Y29.2 Z-4.346
G01 X26.3 Y29.2 Z-4.025
G01 X26.7 Y29.2 Z-3.668
G01 X27.1 Y29.2 Z-3.259
G01 X27.5 Y29.2 Z-2.805
G01 X27.9 Y29.2 Z-2.294
G01 X28.3 Y29.2 Z-1.695
G01 X28.8 Y29.2 Z-0.843
G01 X28.9 Y29.2 Z-0.727
G01 X29.1 Y29.2 Z-0.542
G01 X29.2 Y29.2 Z-0.467
G01 X29.333 Y29.333 Z-0.306
G01 X29.466 Y29.466 Z-0.188
G01 X29.6 Y29.6 Z-0.102
G01 X29.733 Y29.733 Z-0.044
G01 X29.866 Y29.866 Z-0.011
G01 X30.066 Y30.066 Z0
G01 X30.2 Y30.2 Z0
G01 X30.2 Y29.6 Z-0.005
G01 X30.2 Y29.3 Z-0.036
G01 X30.2 Y29 Z-0.093
G01 X30.2 Y28.7 Z-0.178
G01 X30.2 Y28.4 Z-0.296
G01 X30.2 Y28.1 Z-0.453
G01 X30.2 Y27.9 Z-0.588
G01 X30.2 Y27.7 Z-0.758
G01 X30.2 Y27.6 Z-0.866
G01 X30.2 Y27.5 Z-0.993
G01 X30.2 Y27.1 Z-1.596
G01 X30.2 Y26.8 Z-1.994
G01 X30.2 Y26.5 Z-2.356
G01 X30.2 Y26 Z-2.881
G01 X30.2 Y25.4 Z-3.398
G01 X30.2 Y25.1 Z-3.626
G01 X30.2 Y24.6 Z-3.963
G01 X30.2 Y24.2 Z-4.198
G01 X30.2 Y23.7 Z-4.452
G01 X30.2 Y23.3 Z-4.633
G01 X30.2 Y22.6 Z-4.883
G01 X30.2 Y22 Z-5.05
G01 X30.2 Y21.7 Z-5.115
G01 X30.2 Y21.1 Z-5.212
G01 X30.2 Y20.5 Z-5.267
G01 X30.2 Y19.9 Z-5.283
G01 X30.2 Y19.3 Z-5.253
G01 X30.2 Y18.7 Z-5.185
G01 X30.2 Y18.1 Z-5.076
G01 X30.2 Y17.5 Z-4.914
G01 X30.2 Y16.9 Z-4.707
G01 X30.2 Y16.6 Z-4.592
G01 X30.2 Y16 Z-4.303
G01 X30.2 Y15.6 Z-4.084
G01 X30.2 Y15.1 Z-3.765
G01 X30.2 Y14.7 Z-3.478
G01 X30.2 Y14.2 Z-3.057
G01 X30.2 Y13.9 Z-2.782
G01 X30.2 Y13.4 Z-2.24
G01 X30.2 Y13 Z-1.735
G01 X30.2 Y12.7 Z-1.3
G01 X30.2 Y12.5 Z-0.993
G01 X30.2 Y12.4 Z-0.866
G01 X30.2 Y12.3 Z-0.758
G01 X30.2 Y12.1 Z-0.588
G01 X30.2 Y11.9 Z-0.453
G01 X30.2 Y11.6 Z-0.296
G01 X30.2 Y11.3 Z-0.178
G01 X30.2 Y11 Z-0.093
G01 X30.2 Y10.7 Z-0.036
G01 X30.2 Y10.4 Z-0.005
G01 X30.2 Y9.8 Z0
G01 X29.6 Y9.8 Z-0.005
G01 X29.3 Y9.8 Z-0.036
G01 X29 Y9.8 Z-0.093
G01 X28.7 Y9.8 Z-0.178
G01 X28.4 Y9.8 Z-0.296
G01 X28.1 Y9.8 Z-0.453
G01 X27.9 Y9.8 Z-0.588
G01 X27.7 Y9.8 Z-0.758
G01 X27.6 Y9.8 Z-0.866
G01 X27.5 Y9.8 Z-0.993
G01 X27 Y9.8 Z-1.735
G01 X26.7 Y9.8 Z-2.119
G01 X26.4 Y9.8 Z-2.462
G01 X26.1 Y9.8 Z-2.778
G01 X25.6 Y9.8 Z-3.235
G01 X25.1 Y9.8 Z-3.631
G01 X24.7 Y9.8 Z-3.9
G01 X24.2 Y9.8 Z-4.203
G01 X23.5 Y9.8 Z-4.552
G01 X22.8 Y9.8 Z-4.817
G01 X22.1 Y9.8 Z-5.028
G01 X21.5 Y9.8 Z-5.154
G01 X20.8 Y9.8 Z-5.244
G01 X20.2 Y9.8 Z-5.279
G01 X19.6 Y9.8 Z-5.272
G01 X19 Y9.8 Z-5.224
G01 X18.4 Y9.8 Z-5.135
G01 X17.8 Y9.8 Z-5.001
G01 X17.1 Y9.8 Z-4.781
G01 X16.6 Y9.8 Z-4.589
G01 X16.1 Y9.8 Z-4.355
G01 X15.6 Y9.8 Z-4.085
G01 X15.2 Y9.8 Z-3.834
G01 X14.7 Y9.8 Z-3.483
G01 X14 Y9.8 Z-2.88
G01 X13.4 Y9.8 Z-2.245
G01 X12.9 Y9.8 Z-1.603
G01 X12.5 Y9.8 Z-0.993
G01 X12.4 Y9.8 Z-0.866
G01 X12.3 Y9.8 Z-0.758
G01 X12.1 Y9.8 Z-0.588
G01 X11.8 Y9.8 Z-0.395
G01 X11.5 Y9.8 Z-0.253
G01 X11.2 Y9.8 Z-0.146
G01 X10.9 Y9.8 Z-0.071
G01 X10.6 Y9.8 Z-0.023
G01 X10.3 Y9.8 Z-0.001
G01 X9.8 Y9.8 Z0
G01 X9.8 Y10.4 Z-0.005
G01 X9.8 Y10.7 Z-0.036
G01 X9.8 Y11 Z-0.093
G01 X9.8 Y11.3 Z-0.178
G01 X9.8 Y11.6 Z-0.296
G01 X9.8 Y11.9 Z-0.453
G01 X9.8 Y12.1 Z-0.588
G01 X9.8 Y12.3 Z-0.758
G01 X9.8 Y12.4 Z-0.866
G01 X9.8 Y12.5 Z-0.993
G01 X9.8 Y13 Z-1.741
G01 X9.8 Y13.4 Z-2.245
G01 X9.8 Y13.9 Z-2.775
G01 X9.8 Y14.2 Z-3.059
G01 X9.8 Y14.6 Z-3.403
G01 X9.8 Y15.2 Z-3.834
G01 X9.8 Y15.6 Z-4.084
G01 X9.8 Y16 Z-4.301
G01 X9.8 Y16.4 Z-4.503
G01 X9.8 Y17 Z-4.746
G01 X9.8 Y17.6 Z-4.944
G01 X9.8 Y18.3 Z-5.117
G01 X9.8 Y18.8 Z-5.201
G01 X9.8 Y19.3 Z-5.256
G01 X9.8 Y19.8 Z-5.284
G01 X9.8 Y20.4 Z-5.277
G01 X9.8 Y21 Z-5.228
G01 X9.8 Y21.5 Z-5.154
G01 X9.8 Y21.9 Z-5.076
G01 X9.8 Y22.5 Z-4.914
G01 X9.8 Y23.2 Z-4.669
G01 X9.8 Y23.7 Z-4.456
G01 X9.8 Y24.4 Z-4.084
G01 X9.8 Y24.9 Z-3.766
G01 X9.8 Y25.4 Z-3.403
G01 X9.8 Y25.9 Z-2.969
G01 X9.8 Y26.3 Z-2.57
G01 X9.8 Y26.6 Z-2.245
G01 X9.8 Y27 Z-1.741
G01 X9.8 Y27.6 Z-0.866
G01 X9.8 Y27.7 Z-0.758
G01 X9.8 Y27.9 Z-0.588
G01 X9.8 Y28.2 Z-0.395
G01 X9.8 Y28.5 Z-0.253
G01 X9.8 Y28.8 Z-0.146
G01 X9.8 Y29.1 Z-0.071
G01 X9.8 Y29.4 Z-0.023
G01 X9.8 Y29.7 Z-0.001
G01 X9.8 Y30.2 Z0
G01 X10.4 Y30.2 Z-0.005
G01 X10.7 Y30.2 Z-0.036
G01 X11 Y30.2 Z-0.093
G01 X11.3 Y30.2 Z-0.178
G01 X11.6 Y30.2 Z-0.296
G01 X11.9 Y30.2 Z-0.453
G01 X12.1 Y30.2 Z-0.588
G01 X12.3 Y30.2 Z-0.758
G01 X12.4 Y30.2 Z-0.866
G01 X12.5 Y30.2 Z-0.993
G01 X13 Y30.2 Z-1.739
G01 X13.5 Y30.2 Z-2.361
G01 X14.1 Y30.2 Z-2.973
G01 X14.7 Y30.2 Z-3.483
G01 X15.3 Y30.2 Z-3.899
G01 X15.7 Y30.2 Z-4.144
G01 X16.3 Y30.2 Z-4.454
G01 X16.8 Y30.2 Z-4.672
G01 X17.4 Y30.2 Z-4.882
G01 X17.9 Y30.2 Z-5.028
G01 X18.5 Y30.2 Z-5.154
G01 X19.1 Y30.2 Z-5.235
G01 X19.7 Y30.2 Z-5.276
G01 X20.3 Y30.2 Z-5.276
G01 X21 Y30.2 Z-5.223
G01 X21.6 Y30.2 Z-5.135
G01 X22.2 Y30.2 Z-5.001
G01 X22.9 Y30.2 Z-4.782
G01 X23.6 Y30.2 Z-4.504
G01 X24.3 Y30.2 Z-4.147
G01 X24.9 Y30.2 Z-3.771
G01 X25.2 Y30.2 Z-3.556
G01 X25.6 Y30.2 Z-3.235
G01 X26.1 Y30.2 Z-2.778
G01 X26.5 Y30.2 Z-2.354
G01 X26.8 Y30.2 Z-1.997
G01 X27.1 Y30.2 Z-1.594
G01 X27.5 Y30.2 Z-0.993
G01 X27.6 Y30.2 Z-0.866
G01 X27.7 Y30.2 Z-0.758
G01 X27.9 Y30.2 Z-0.588
G01 X28.1 Y30.2 Z-0.453
G01 X28.4 Y30.2 Z-0.296
G01 X28.7 Y30.2 Z-0.178
G01 X29 Y30.2 Z-0.093
G01 X29.3 Y30.2 Z-0.036
G01 X29.6 Y30.2 Z-0.005
G01 X30.2 Y30.2 Z0
G01 X31.2 Y31.2 Z0
G01 X31.2 Y28.4 Z-0.006
G01 X31.2 Y28 Z-0.045
G01 X31.2 Y27.6 Z-0.119
G01 X31.2 Y27.2 Z-0.229
G01 X31.2 Y26.8 Z-0.382
G01 X31.2 Y26.5 Z-0.532
G01 X31.2 Y26.3 Z-0.654
G01 X31.2 Y26.1 Z-0.803
G01 X31.2 Y26 Z-0.892
G01 X31.2 Y25.9 Z-0.997
G01 X31.2 Y25.4 Z-1.579
G01 X31.2 Y25.2 Z-1.788
G01 X31.2 Y24.7 Z-2.255
G01 X31.2 Y24.1 Z-2.693
G01 X31.2 Y23.7 Z-2.952
G01 X31.2 Y23.1 Z-3.257
G01 X31.2 Y22.7 Z-3.437
G01 X31.2 Y22.1 Z-3.64
G01 X31.2 Y21.6 Z-3.767
G01 X31.2 Y21.2 Z-3.848
G01 X31.2 Y20.6 Z-3.925
G01 X31.2 Y19.9 Z-3.95
G01 X31.2 Y19.3 Z-3.916
G01 X31.2 Y18.7 Z-3.831
G01 X31.2 Y18.1 Z-3.694
G01 X31.2 Y17.7 Z-3.577
G01 X31.2 Y17.2 Z-3.398
G01 X31.2 Y16.6 Z-3.109
G01 X31.2 Y16.2 Z-2.894
G01 X31.2 Y15.6 Z-2.48
G01 X31.2 Y15.3 Z-2.255
G01 X31.2 Y14.8 Z-1.788
G01 X31.2 Y14.5 Z-1.469
G01 X31.2 Y14 Z-0.892
G01 X31.2 Y13.8 Z-0.726
G01 X31.2 Y13.6 Z-0.59
G01 X31.2 Y13.3 Z-0.428
G01 X31.2 Y13 Z-0.301
G01 X31.2 Y12.7 Z-0.198
G01 X31.2 Y12.3 Z-0.097
G01 X31.2 Y11.9 Z-0.032
G01 X31.2 Y11.5 Z-0.002
G01 X31.2 Y8.8 Z0
G01 X28.4 Y8.8 Z-0.006
G01 X28 Y8.8 Z-0.045
G01 X27.6 Y8.8 Z-0.119
G01 X27.2 Y8.8 Z-0.229
G01 X26.8 Y8.8 Z-0.382
G01 X26.5 Y8.8 Z-0.532
G01 X26.3 Y8.8 Z-0.654
G01 X26.1 Y8.8 Z-0.803
G01 X26 Y8.8 Z-0.892
G01 X25.9 Y8.8 Z-0.997
G01 X25.4 Y8.8 Z-1.579
G01 X25.2 Y8.8 Z-1.792
G01 X24.6 Y8.8 Z-2.332
G01 X23.9 Y8.8 Z-2.833
G01 X23.2 Y8.8 Z-3.211
G01 X22.6 Y8.8 Z-3.477
G01 X22 Y8.8 Z-3.669
G01 X21.3 Y8.8 Z-3.832
G01 X20.6 Y8.8 Z-3.925
G01 X19.9 Y8.8 Z-3.948
G01 X19.3 Y8.8 Z-3.915
G01 X18.7 Y8.8 Z-3.83
G01 X18.1 Y8.8 Z-3.694
G01 X17.6 Y8.8 Z-3.546
G01 X17.1 Y8.8 Z-3.351
G01 X16.4 Y8.8 Z-3.007
G01 X16.1 Y8.8 Z-2.825
G01 X15.7 Y8.8 Z-2.554
G01 X15.2 Y8.8 Z-2.164
G01 X14.7 Y8.8 Z-1.691
G01 X14.4 Y8.8 Z-1.355
G01 X14 Y8.8 Z-0.892
G01 X13.8 Y8.8 Z-0.726
G01 X13.6 Y8.8 Z-0.59
G01 X13.3 Y8.8 Z-0.428
G01 X13 Y8.8 Z-0.301
G01 X12.7 Y8.8 Z-0.198
G01 X12.3 Y8.8 Z-0.097
G01 X11.9 Y8.8 Z-0.032
G01 X11.5 Y8.8 Z-0.002
G01 X8.8 Y8.8 Z0
G01 X8.8 Y11.6 Z-0.006
G01 X8.8 Y12 Z-0.045
G01 X8.8 Y12.4 Z-0.119
G01 X8.8 Y12.8 Z-0.229
G01 X8.8 Y13.2 Z-0.382
G01 X8.8 Y13.5 Z-0.532
G01 X8.8 Y13.7 Z-0.654
G01 X8.8 Y13.9 Z-0.803
G01 X8.8 Y14 Z-0.892
G01 X8.8 Y14.1 Z-0.997
G01 X8.8 Y14.7 Z-1.698
G01 X8.8 Y15.3 Z-2.246
G01 X8.8 Y15.7 Z-2.555
G01 X8.8 Y16.1 Z-2.827
G01 X8.8 Y16.6 Z-3.111
G01 X8.8 Y17 Z-3.306
G01 X8.8 Y17.5 Z-3.513
G01 X8.8 Y18.2 Z-3.721
G01 X8.8 Y18.8 Z-3.849
G01 X8.8 Y19.4 Z-3.928
G01 X8.8 Y20 Z-3.953
G01 X8.8 Y20.6 Z-3.928
G01 X8.8 Y21.2 Z-3.849
G01 X8.8 Y21.9 Z-3.696
G01 X8.8 Y22.6 Z-3.474
G01 X8.8 Y23.1 Z-3.26
G01 X8.8 Y23.5 Z-3.059
G01 X8.8 Y23.9 Z-2.827
G01 X8.8 Y24.3 Z-2.555
G01 X8.8 Y24.7 Z-2.246
G01 X8.8 Y25.1 Z-1.886
G01 X8.8 Y25.3 Z-1.698
G01 X8.8 Y26 Z-0.892
G01 X8.8 Y26.2 Z-0.726
G01 X8.8 Y26.4 Z-0.59
G01 X8.8 Y26.7 Z-0.428
G01 X8.8 Y27 Z-0.301
G01 X8.8 Y27.3 Z-0.198
G01 X8.8 Y27.7 Z-0.097
G01 X8.8 Y28.1 Z-0.032
G01 X8.8 Y28.5 Z-0.002
G01 X8.8 Y31.2 Z0
G01 X11.6 Y31.2 Z-0.006
G01 X12 Y31.2 Z-0.045
G01 X12.4 Y31.2 Z-0.119
G01 X12.8 Y31.2 Z-0.229
G01 X13.2 Y31.2 Z-0.382
G01 X13.5 Y31.2 Z-0.532
G01 X13.7 Y31.2 Z-0.654
G01 X13.9 Y31.2 Z-0.803
G01 X14 Y31.2 Z-0.892
G01 X14.1 Y31.2 Z-0.997
G01 X14.6 Y31.2 Z-1.586
G01 X15.1 Y31.2 Z-2.073
G01 X15.4 Y31.2 Z-2.328
G01 X15.8 Y31.2 Z-2.628
G01 X16.3 Y31.2 Z-2.948
G01 X16.7 Y31.2 Z-3.158
G01 X17.1 Y31.2 Z-3.351
G01 X17.6 Y31.2 Z-3.546
G01 X18.2 Y31.2 Z-3.723
G01 X18.8 Y31.2 Z-3.849
G01 X19.5 Y31.2 Z-3.93
G01 X20.1 Y31.2 Z-3.948
G01 X20.7 Y31.2 Z-3.915
G01 X21.3 Y31.2 Z-3.832
G01 X22 Y31.2 Z-3.669
G01 X22.7 Y31.2 Z-3.438
G01 X23.3 Y31.2 Z-3.163
G01 X23.9 Y31.2 Z-2.833
G01 X24.6 Y31.2 Z-2.332
G01 X25.2 Y31.2 Z-1.792
G01 X25.4 Y31.2 Z-1.579
G01 X26 Y31.2 Z-0.892
G01 X26.2 Y31.2 Z-0.726
G01 X26.4 Y31.2 Z-0.59
G01 X26.7 Y31.2 Z-0.428
G01 X27 Y31.2 Z-0.301
G01 X27.3 Y31.2 Z-0.198
G01 X27.7 Y31.2 Z-0.097
G01 X28.1 Y31.2 Z-0.032
G01 X28.5 Y31.2 Z-0.002
G01 X31.2 Y31.2 Z0
G01 X32.2 Y32.2 Z0
G01 X32.2 Y26.822 Z-0.008
G01 X32.2 Y26.324 Z-0.05
G01 X32.2 Y25.826 Z-0.125
G01 X32.2 Y25.228 Z-0.255
G01 X32.2 Y24.73 Z-0.398
G01 X32.2 Y24.232 Z-0.573
G01 X32.2 Y23.834 Z-0.745
G01 X32.2 Y23.535 Z-0.9
G01 X32.2 Y22.838 Z-1.342
G01 X32.2 Y22.539 Z-1.515
G01 X32.2 Y22.041 Z-1.741
G01 X32.2 Y21.742 Z-1.846
G01 X32.2 Y21.244 Z-1.984
G01 X32.2 Y20.846 Z-2.064
G01 X32.2 Y20.248 Z-2.126
G01 X32.2 Y19.95 Z-2.138
G01 X32.2 Y19.452 Z-2.099
G01 X32.2 Y18.954 Z-2.028
G01 X32.2 Y18.456 Z-1.905
G01 X32.2 Y18.057 Z-1.781
G01 X32.2 Y17.56 Z-1.563
G01 X32.2 Y17.261 Z-1.401
G01 X32.2 Y16.862 Z-1.158
G01 X32.2 Y16.464 Z-0.9
G01 X32.2 Y16.066 Z-0.699
G01 X32.2 Y15.667 Z-0.536
G01 X32.2 Y15.169 Z-0.367
G01 X32.2 Y14.572 Z-0.207
G01 X32.2 Y14.074 Z-0.108
G01 X32.2 Y13.576 Z-0.039
G01 X32.2 Y13.078 Z-0.004
G01 X32.2 Y7.8 Z0
G01 X26.822 Y7.8 Z-0.008
G01 X26.324 Y7.8 Z-0.05
G01 X25.826 Y7.8 Z-0.125
G01 X25.228 Y7.8 Z-0.255
G01 X24.73 Y7.8 Z-0.398
G01 X24.232 Y7.8 Z-0.573
G01 X23.834 Y7.8 Z-0.745
G01 X23.535 Y7.8 Z-0.9
G01 X22.738 Y7.8 Z-1.404
G01 X22.141 Y7.8 Z-1.704
G01 X21.444 Y7.8 Z-1.938
G01 X20.746 Y7.8 Z-2.077
G01 X20.149 Y7.8 Z-2.13
G01 X19.452 Y7.8 Z-2.101
G01 X18.854 Y7.8 Z-2.009
G01 X18.157 Y7.8 Z-1.813
G01 X17.659 Y7.8 Z-1.615
G01 X17.46 Y7.8 Z-1.511
G01 X16.962 Y7.8 Z-1.224
G01 X16.464 Y7.8 Z-0.9
G01 X16.066 Y7.8 Z-0.699
G01 X15.667 Y7.8 Z-0.536
G01 X15.169 Y7.8 Z-0.367
G01 X14.671 Y7.8 Z-0.23
G01 X14.173 Y7.8 Z-0.125
G01 X13.675 Y7.8 Z-0.05
G01 X13.177 Y7.8 Z-0.008
G01 X7.8 Y7.8 Z0
G01 X7.8 Y13.177 Z-0.008
G01 X7.8 Y13.675 Z-0.05
G01 X7.8 Y14.173 Z-0.125
G01 X7.8 Y14.771 Z-0.255
G01 X7.8 Y15.269 Z-0.398
G01 X7.8 Y15.767 Z-0.573
G01 X7.8 Y16.165 Z-0.745
G01 X7.8 Y16.464 Z-0.9
G01 X7.8 Y17.161 Z-1.345
G01 X7.8 Y17.759 Z-1.666
G01 X7.8 Y18.356 Z-1.879
G01 X7.8 Y18.755 Z-1.984
G01 X7.8 Y19.253 Z-2.079
G01 X7.8 Y19.551 Z-2.109
G01 X7.8 Y20.049 Z-2.13
G01 X7.8 Y20.647 Z-2.091
G01 X7.8 Y21.145 Z-2.008
G01 X7.8 Y21.643 Z-1.879
G01 X7.8 Y22.24 Z-1.666
G01 X7.8 Y22.937 Z-1.286
G01 X7.8 Y23.535 Z-0.9
G01 X7.8 Y23.933 Z-0.699
G01 X7.8 Y24.332 Z-0.536
G01 X7.8 Y24.83 Z-0.367
G01 X7.8 Y25.328 Z-0.23
G01 X7.8 Y25.826 Z-0.125
G01 X7.8 Y26.324 Z-0.05
G01 X7.8 Y26.822 Z-0.008
G01 X7.8 Y32.2 Z0
G01 X13.177 Y32.2 Z-0.008
G01 X13.675 Y32.2 Z-0.05
G01 X14.173 Y32.2 Z-0.125
G01 X14.771 Y32.2 Z-0.255
G01 X15.269 Y32.2 Z-0.398
G01 X15.767 Y32.2 Z-0.573
G01 X16.265 Y32.2 Z-0.794
G01 X16.564 Y32.2 Z-0.96
G01 X17.062 Y32.2 Z-1.284
G01 X17.659 Y32.2 Z-1.615
G01 X18.257 Y32.2 Z-1.849
G01 X18.954 Y32.2 Z-2.027
G01 X19.551 Y32.2 Z-2.112
G01 X20.149 Y32.2 Z-2.13
G01 X20.846 Y32.2 Z-2.063
G01 X21.444 Y32.2 Z-1.938
G01 X22.141 Y32.2 Z-1.704
G01 X22.738 Y32.2 Z-1.404
G01 X23.336 Y32.2 Z-1.027
G01 X23.535 Y32.2 Z-0.9
G01 X23.933 Y32.2 Z-0.699
G01 X24.332 Y32.2 Z-0.536
G01 X24.83 Y32.2 Z-0.367
G01 X25.427 Y32.2 Z-0.207
G01 X25.925 Y32.2 Z-0.108
G01 X26.423 Y32.2 Z-0.039
G01 X26.921 Y32.2 Z-0.004
G01 X32.2 Y32.2 Z0
G01 X33.2 Y33.2 Z0
G01 X33.2 Y24.632 Z-0.007
G01 X33.2 Y23.735 Z-0.056
G01 X33.2 Y21.245 Z-0.265
G01 X33.2 Y20.348 Z-0.303
G01 X33.2 Y19.551 Z-0.3
G01 X33.2 Y18.655 Z-0.259
G01 X33.2 Y17.16 Z-0.133
G01 X33.2 Y15.965 Z-0.036
G01 X33.2 Y15.168 Z-0.002
G01 X33.2 Y6.8 Z0
G01 X24.632 Y6.8 Z-0.007
G01 X23.735 Y6.8 Z-0.056
G01 X21.245 Y6.8 Z-0.265
G01 X20.348 Y6.8 Z-0.303
G01 X19.551 Y6.8 Z-0.3
G01 X18.655 Y6.8 Z-0.259
G01 X17.16 Y6.8 Z-0.133
G01 X15.965 Y6.8 Z-0.036
G01 X15.168 Y6.8 Z-0.002
G01 X6.8 Y6.8 Z0
G01 X6.8 Y15.367 Z-0.007
G01 X6.8 Y16.264 Z-0.056
G01 X6.8 Y18.754 Z-0.265
G01 X6.8 Y19.651 Z-0.303
G01 X6.8 Y20.448 Z-0.3
G01 X6.8 Y21.344 Z-0.259
G01 X6.8 Y22.839 Z-0.133
G01 X6.8 Y24.034 Z-0.036
G01 X6.8 Y24.831 Z-0.002
G01 X6.8 Y33.2 Z0
G01 X15.367 Y33.2 Z-0.007
G01 X16.264 Y33.2 Z-0.056
G01 X18.754 Y33.2 Z-0.265
G01 X19.651 Y33.2 Z-0.303
G01 X20.448 Y33.2 Z-0.3
G01 X21.344 Y33.2 Z-0.259
G01 X22.839 Y33.2 Z-0.133
G01 X24.034 Y33.2 Z-0.036
G01 X24.831 Y33.2 Z-0.002
G01 X33.2 Y33.2 Z0
G01 X34.2 Y34.2 Z0
G01 X34.2 Y5.8 Z0
G01 X5.8 Y5.8 Z0
G01 X5.8 Y34.2 Z0
G01 X34.2 Y34.2 Z0
G00 Z5
(T0 M06 M02)
