( PCB Hatches )
( Generated by Rapid-PCB.com )
( Material Size)
( X= 160.000, Y= 100.000, Z= 1.580)
()
G00
G17
G21
G40
G49
G54
G80
G90
G94
G00 F1000 Z3.000
M03 S9000
G00 F1000 X15.500 Y45.500
G00 F1000 Z0
G01 F100 Z-0.1
G01 F100 X15.500 Y44.750
G01 F100 X26.215 Y44.750
G01 F100 X26.728 Y45.263
G01 F100 X26.887 Y45.378
G01 F100 X27.078 Y45.464
G01 F100 X27.249 Y45.500
G01 F100 X15.500 Y45.500
G00 F1000 Z3.000
G00 F1000 X36.417 Y45.500
G00 F1000 Z0
G01 F100 Z-0.1
G01 F100 X36.588 Y45.464
G01 F100 X36.779 Y45.378
G01 F100 X36.938 Y45.263
G01 F100 X37.451 Y44.750
G01 F100 X72.500 Y44.750
G01 F100 X72.500 Y45.500
G01 F100 X36.417 Y45.500
G00 F1000 Z3.000
G00 F1000 X15.500 Y44.000
G00 F1000 Z0
G01 F100 Z-0.1
G01 F100 X15.500 Y43.250
G01 F100 X25.118 Y43.250
G01 F100 X25.137 Y43.449
G01 F100 X25.202 Y43.648
G01 F100 X25.307 Y43.829
G01 F100 X25.421 Y43.956
G01 F100 X25.465 Y44.000
G01 F100 X15.500 Y44.000
G00 F1000 Z3.000
G00 F1000 X38.201 Y44.000
G00 F1000 Z0
G01 F100 Z-0.1
G01 F100 X38.951 Y43.250
G01 F100 X61.150 Y43.250
G01 F100 X61.248 Y43.294
G01 F100 X61.533 Y43.354
G01 F100 X61.824 Y43.354
G01 F100 X62.108 Y43.294
G01 F100 X62.206 Y43.250
G01 F100 X72.500 Y43.250
G01 F100 X72.500 Y44.000
G01 F100 X38.201 Y44.000
G00 F1000 Z3.000
G00 F1000 X27.804 Y43.513
G00 F1000 Z0
G01 F100 Z-0.1
G01 F100 X27.541 Y43.250
G01 F100 X36.125 Y43.250
G01 F100 X35.862 Y43.513
G01 F100 X27.804 Y43.513
G00 F1000 Z3.000
G00 F1000 X15.500 Y42.500
G00 F1000 Z0
G01 F100 Z-0.1
G01 F100 X15.500 Y41.750
G01 F100 X24.691 Y41.750
G01 F100 X24.932 Y42.017
G01 F100 X25.118 Y42.153
G01 F100 X25.118 Y42.500
G01 F100 X15.500 Y42.500
G00 F1000 Z3.000
G00 F1000 X27.118 Y42.500
G00 F1000 Z0
G01 F100 Z-0.1
G01 F100 X27.118 Y42.153
G01 F100 X27.304 Y42.017
G01 F100 X27.545 Y41.750
G01 F100 X29.428 Y41.750
G01 F100 X29.428 Y42.470
G01 F100 X32.968 Y42.470
G01 F100 X32.968 Y41.750
G01 F100 X37.625 Y41.750
G01 F100 X36.875 Y42.500
G01 F100 X27.118 Y42.500
G00 F1000 Z3.000
G00 F1000 X39.701 Y42.500
G00 F1000 Z0
G01 F100 Z-0.1
G01 F100 X40.451 Y41.750
G01 F100 X60.045 Y41.750
G01 F100 X60.289 Y41.994
G01 F100 X60.317 Y42.259
G01 F100 X60.395 Y42.500
G01 F100 X39.701 Y42.500
G00 F1000 Z3.000
G00 F1000 X62.961 Y42.500
G00 F1000 Z0
G01 F100 Z-0.1
G01 F100 X63.039 Y42.259
G01 F100 X63.070 Y41.970
G01 F100 X63.047 Y41.750
G01 F100 X72.500 Y41.750
G01 F100 X72.500 Y42.500
G01 F100 X62.961 Y42.500
G00 F1000 Z3.000
G00 F1000 X15.500 Y41.000
G00 F1000 Z0
G01 F100 Z-0.1
G01 F100 X15.500 Y40.250
G01 F100 X24.255 Y40.250
G01 F100 X24.379 Y40.375
G01 F100 X24.345 Y40.700
G01 F100 X24.377 Y41.000
G01 F100 X15.500 Y41.000
G00 F1000 Z3.000
G00 F1000 X27.859 Y41.000
G00 F1000 Z0
G01 F100 Z-0.1
G01 F100 X27.891 Y40.700
G01 F100 X27.852 Y40.331
G01 F100 X27.826 Y40.250
G01 F100 X29.335 Y40.250
G01 F100 X29.428 Y40.343
G01 F100 X29.428 Y41.000
G01 F100 X27.859 Y41.000
G00 F1000 Z3.000
G00 F1000 X32.968 Y41.000
G00 F1000 Z0
G01 F100 Z-0.1
G01 F100 X32.968 Y40.250
G01 F100 X34.440 Y40.250
G01 F100 X34.507 Y40.298
G01 F100 X34.698 Y40.384
G01 F100 X34.903 Y40.427
G01 F100 X37.653 Y40.427
G01 F100 X37.858 Y40.384
G01 F100 X38.049 Y40.298
G01 F100 X38.116 Y40.250
G01 F100 X39.125 Y40.250
G01 F100 X38.375 Y41.000
G01 F100 X32.968 Y41.000
G00 F1000 Z3.000
G00 F1000 X41.201 Y41.000
G00 F1000 Z0
G01 F100 Z-0.1
G01 F100 X41.951 Y40.250
G01 F100 X58.545 Y40.250
G01 F100 X59.295 Y41.000
G01 F100 X41.201 Y41.000
G00 F1000 Z3.000
G00 F1000 X62.667 Y41.000
G00 F1000 Z0
G01 F100 Z-0.1
G01 F100 X62.609 Y40.936
G01 F100 X62.374 Y40.765
G01 F100 X62.108 Y40.646
G01 F100 X61.824 Y40.586
G01 F100 X61.707 Y40.586
G01 F100 X61.371 Y40.250
G01 F100 X72.500 Y40.250
G01 F100 X72.500 Y41.000
G01 F100 X62.667 Y41.000
G00 F1000 Z3.000
G00 F1000 X15.500 Y39.500
G00 F1000 Z0
G01 F100 Z-0.1
G01 F100 X15.500 Y38.750
G01 F100 X22.755 Y38.750
G01 F100 X23.505 Y39.500
G01 F100 X15.500 Y39.500
G00 F1000 Z3.000
G00 F1000 X27.410 Y39.500
G00 F1000 Z0
G01 F100 Z-0.1
G01 F100 X27.304 Y39.383
G01 F100 X27.004 Y39.165
G01 F100 X26.666 Y39.014
G01 F100 X26.303 Y38.937
G01 F100 X25.933 Y38.937
G01 F100 X25.797 Y38.966
G01 F100 X25.581 Y38.750
G01 F100 X27.835 Y38.750
G01 F100 X28.585 Y39.500
G01 F100 X27.410 Y39.500
G00 F1000 Z3.000
G00 F1000 X32.968 Y39.500
G00 F1000 Z0
G01 F100 Z-0.1
G01 F100 X32.968 Y38.930
G01 F100 X30.841 Y38.930
G01 F100 X30.661 Y38.750
G01 F100 X32.915 Y38.750
G01 F100 X33.665 Y39.500
G01 F100 X32.968 Y39.500
G00 F1000 Z3.000
G00 F1000 X38.891 Y39.500
G00 F1000 Z0
G01 F100 Z-0.1
G01 F100 X39.641 Y38.750
G01 F100 X40.625 Y38.750
G01 F100 X39.875 Y39.500
G01 F100 X38.891 Y39.500
G00 F1000 Z3.000
G00 F1000 X42.701 Y39.500
G00 F1000 Z0
G01 F100 Z-0.1
G01 F100 X43.451 Y38.750
G01 F100 X46.669 Y38.750
G01 F100 X46.736 Y38.866
G01 F100 X46.904 Y39.053
G01 F100 X47.107 Y39.200
G01 F100 X47.337 Y39.303
G01 F100 X47.582 Y39.355
G01 F100 X47.834 Y39.355
G01 F100 X48.079 Y39.303
G01 F100 X48.309 Y39.200
G01 F100 X48.512 Y39.053
G01 F100 X48.680 Y38.866
G01 F100 X48.747 Y38.750
G01 F100 X49.437 Y38.750
G01 F100 X49.577 Y38.905
G01 F100 X49.747 Y39.028
G01 F100 X49.938 Y39.114
G01 F100 X50.143 Y39.157
G01 F100 X52.128 Y39.157
G01 F100 X52.187 Y39.200
G01 F100 X52.417 Y39.303
G01 F100 X52.662 Y39.355
G01 F100 X52.914 Y39.355
G01 F100 X53.159 Y39.303
G01 F100 X53.389 Y39.200
G01 F100 X53.448 Y39.157
G01 F100 X57.452 Y39.157
G01 F100 X57.795 Y39.500
G01 F100 X42.701 Y39.500
G00 F1000 Z3.000
G00 F1000 X60.621 Y39.500
G00 F1000 Z0
G01 F100 Z-0.1
G01 F100 X59.871 Y38.750
G01 F100 X72.500 Y38.750
G01 F100 X72.500 Y39.500
G01 F100 X60.621 Y39.500
G00 F1000 Z3.000
G00 F1000 X15.500 Y38.000
G00 F1000 Z0
G01 F100 Z-0.1
G01 F100 X15.500 Y37.250
G01 F100 X21.255 Y37.250
G01 F100 X22.005 Y38.000
G01 F100 X15.500 Y38.000
G00 F1000 Z3.000
G00 F1000 X24.831 Y38.000
G00 F1000 Z0
G01 F100 Z-0.1
G01 F100 X24.081 Y37.250
G01 F100 X26.456 Y37.250
G01 F100 X26.472 Y37.298
G01 F100 X26.577 Y37.479
G01 F100 X26.691 Y37.606
G01 F100 X27.085 Y38.000
G01 F100 X24.831 Y38.000
G00 F1000 Z3.000
G00 F1000 X29.911 Y38.000
G00 F1000 Z0
G01 F100 Z-0.1
G01 F100 X29.161 Y37.250
G01 F100 X31.415 Y37.250
G01 F100 X32.165 Y38.000
G01 F100 X29.911 Y38.000
G00 F1000 Z3.000
G00 F1000 X34.991 Y38.000
G00 F1000 Z0
G01 F100 Z-0.1
G01 F100 X34.241 Y37.250
G01 F100 X35.006 Y37.250
G01 F100 X35.065 Y37.430
G01 F100 X35.203 Y37.671
G01 F100 X35.389 Y37.877
G01 F100 X35.558 Y38.000
G01 F100 X34.991 Y38.000
G00 F1000 Z3.000
G00 F1000 X36.998 Y38.000
G00 F1000 Z0
G01 F100 Z-0.1
G01 F100 X37.167 Y37.877
G01 F100 X37.353 Y37.671
G01 F100 X37.491 Y37.430
G01 F100 X37.550 Y37.250
G01 F100 X38.315 Y37.250
G01 F100 X37.565 Y38.000
G01 F100 X36.998 Y38.000
G00 F1000 Z3.000
G00 F1000 X40.391 Y38.000
G00 F1000 Z0
G01 F100 Z-0.1
G01 F100 X41.141 Y37.250
G01 F100 X42.125 Y37.250
G01 F100 X41.375 Y38.000
G01 F100 X40.391 Y38.000
G00 F1000 Z3.000
G00 F1000 X44.618 Y38.000
G00 F1000 Z0
G01 F100 Z-0.1
G01 F100 X44.773 Y37.887
G01 F100 X46.540 Y37.887
G01 F100 X46.524 Y38.000
G01 F100 X44.618 Y38.000
G00 F1000 Z3.000
G00 F1000 X48.893 Y38.000
G00 F1000 Z0
G01 F100 Z-0.1
G01 F100 X48.883 Y37.910
G01 F100 X48.805 Y37.671
G01 F100 X48.708 Y37.503
G01 F100 X48.708 Y37.250
G01 F100 X49.248 Y37.250
G01 F100 X49.248 Y38.000
G01 F100 X48.893 Y38.000
G00 F1000 Z3.000
G00 F1000 X59.121 Y38.000
G00 F1000 Z0
G01 F100 Z-0.1
G01 F100 X58.528 Y37.407
G01 F100 X58.369 Y37.292
G01 F100 X58.276 Y37.250
G01 F100 X60.340 Y37.250
G01 F100 X60.407 Y37.456
G01 F100 X60.552 Y37.708
G01 F100 X60.747 Y37.924
G01 F100 X60.851 Y38.000
G01 F100 X59.121 Y38.000
G00 F1000 Z3.000
G00 F1000 X62.505 Y38.000
G00 F1000 Z0
G01 F100 Z-0.1
G01 F100 X62.609 Y37.924
G01 F100 X62.804 Y37.708
G01 F100 X62.949 Y37.456
G01 F100 X63.016 Y37.250
G01 F100 X72.500 Y37.250
G01 F100 X72.500 Y38.000
G01 F100 X62.505 Y38.000
G00 F1000 Z3.000
G00 F1000 X15.500 Y36.500
G00 F1000 Z0
G01 F100 Z-0.1
G01 F100 X15.500 Y35.750
G01 F100 X18.506 Y35.750
G01 F100 X18.506 Y36.500
G01 F100 X15.500 Y36.500
G00 F1000 Z3.000
G00 F1000 X23.331 Y36.500
G00 F1000 Z0
G01 F100 Z-0.1
G01 F100 X22.581 Y35.750
G01 F100 X26.388 Y35.750
G01 F100 X26.388 Y36.500
G01 F100 X23.331 Y36.500
G00 F1000 Z3.000
G00 F1000 X28.411 Y36.500
G00 F1000 Z0
G01 F100 Z-0.1
G01 F100 X28.388 Y36.477
G01 F100 X28.388 Y35.750
G01 F100 X30.209 Y35.750
G01 F100 X30.217 Y35.828
G01 F100 X30.282 Y36.028
G01 F100 X30.387 Y36.209
G01 F100 X30.501 Y36.336
G01 F100 X30.665 Y36.500
G01 F100 X28.411 Y36.500
G00 F1000 Z3.000
G00 F1000 X33.491 Y36.500
G00 F1000 Z0
G01 F100 Z-0.1
G01 F100 X32.741 Y35.750
G01 F100 X34.976 Y35.750
G01 F100 X35.272 Y36.033
G01 F100 X35.203 Y36.109
G01 F100 X35.065 Y36.350
G01 F100 X35.016 Y36.500
G01 F100 X33.491 Y36.500
G00 F1000 Z3.000
G00 F1000 X37.540 Y36.500
G00 F1000 Z0
G01 F100 Z-0.1
G01 F100 X37.491 Y36.350
G01 F100 X37.353 Y36.109
G01 F100 X37.278 Y36.026
G01 F100 X37.278 Y35.750
G01 F100 X39.815 Y35.750
G01 F100 X39.065 Y36.500
G01 F100 X37.540 Y36.500
G00 F1000 Z3.000
G00 F1000 X41.891 Y36.500
G00 F1000 Z0
G01 F100 Z-0.1
G01 F100 X42.055 Y36.336
G01 F100 X42.169 Y36.209
G01 F100 X42.274 Y36.028
G01 F100 X42.339 Y35.828
G01 F100 X42.347 Y35.750
G01 F100 X42.898 Y35.750
G01 F100 X42.898 Y36.026
G01 F100 X42.823 Y36.109
G01 F100 X42.685 Y36.350
G01 F100 X42.636 Y36.500
G01 F100 X41.891 Y36.500
G00 F1000 Z3.000
G00 F1000 X48.708 Y36.500
G00 F1000 Z0
G01 F100 Z-0.1
G01 F100 X48.708 Y36.277
G01 F100 X48.805 Y36.109
G01 F100 X48.883 Y35.870
G01 F100 X48.896 Y35.750
G01 F100 X49.248 Y35.750
G01 F100 X49.248 Y36.500
G01 F100 X48.708 Y36.500
G00 F1000 Z3.000
G00 F1000 X51.248 Y36.500
G00 F1000 Z0
G01 F100 Z-0.1
G01 F100 X51.248 Y35.750
G01 F100 X51.600 Y35.750
G01 F100 X51.613 Y35.870
G01 F100 X51.691 Y36.109
G01 F100 X51.816 Y36.326
G01 F100 X51.973 Y36.500
G01 F100 X51.248 Y36.500
G00 F1000 Z3.000
G00 F1000 X53.603 Y36.500
G00 F1000 Z0
G01 F100 Z-0.1
G01 F100 X53.760 Y36.326
G01 F100 X53.885 Y36.109
G01 F100 X53.963 Y35.870
G01 F100 X53.976 Y35.750
G01 F100 X59.125 Y35.750
G01 F100 X59.875 Y36.500
G01 F100 X53.603 Y36.500
G00 F1000 Z3.000
G00 F1000 X63.007 Y36.500
G00 F1000 Z0
G01 F100 Z-0.1
G01 F100 X62.949 Y36.324
G01 F100 X62.804 Y36.072
G01 F100 X62.609 Y35.856
G01 F100 X62.464 Y35.750
G01 F100 X72.500 Y35.750
G01 F100 X72.500 Y36.500
G01 F100 X63.007 Y36.500
G00 F1000 Z3.000
G00 F1000 X44.898 Y35.893
G00 F1000 Z0
G01 F100 Z-0.1
G01 F100 X44.898 Y35.750
G01 F100 X46.520 Y35.750
G01 F100 X46.533 Y35.870
G01 F100 X44.898 Y35.893
G00 F1000 Z3.000
G00 F1000 X15.500 Y35.000
G00 F1000 Z0
G01 F100 Z-0.1
G01 F100 X15.500 Y34.250
G01 F100 X19.303 Y34.250
G01 F100 X19.377 Y34.283
G01 F100 X19.636 Y34.338
G01 F100 X19.900 Y34.338
G01 F100 X20.159 Y34.283
G01 F100 X20.233 Y34.250
G01 F100 X24.605 Y34.250
G01 F100 X25.355 Y35.000
G01 F100 X21.831 Y35.000
G01 F100 X21.698 Y34.867
G01 F100 X21.539 Y34.752
G01 F100 X21.348 Y34.666
G01 F100 X21.143 Y34.623
G01 F100 X21.030 Y34.623
G01 F100 X21.030 Y34.358
G01 F100 X18.506 Y34.358
G01 F100 X18.506 Y35.000
G01 F100 X15.500 Y35.000
G00 F1000 Z3.000
G00 F1000 X28.538 Y35.000
G00 F1000 Z0
G01 F100 Z-0.1
G01 F100 X28.601 Y34.890
G01 F100 X28.687 Y34.626
G01 F100 X28.716 Y34.350
G01 F100 X28.706 Y34.250
G01 F100 X30.198 Y34.250
G01 F100 X30.198 Y35.000
G01 F100 X28.538 Y35.000
G00 F1000 Z3.000
G00 F1000 X32.198 Y35.000
G00 F1000 Z0
G01 F100 Z-0.1
G01 F100 X32.198 Y34.250
G01 F100 X33.690 Y34.250
G01 F100 X33.680 Y34.350
G01 F100 X33.709 Y34.626
G01 F100 X33.795 Y34.890
G01 F100 X33.858 Y35.000
G01 F100 X32.198 Y35.000
G00 F1000 Z3.000
G00 F1000 X37.062 Y35.000
G00 F1000 Z0
G01 F100 Z-0.1
G01 F100 X36.975 Y34.904
G01 F100 X36.326 Y34.255
G01 F100 X40.040 Y34.250
G01 F100 X40.030 Y34.350
G01 F100 X40.059 Y34.626
G01 F100 X40.145 Y34.890
G01 F100 X40.208 Y35.000
G01 F100 X37.062 Y35.000
G00 F1000 Z3.000
G00 F1000 X42.508 Y35.000
G00 F1000 Z0
G01 F100 Z-0.1
G01 F100 X42.571 Y34.890
G01 F100 X42.657 Y34.626
G01 F100 X42.686 Y34.350
G01 F100 X42.676 Y34.250
G01 F100 X42.898 Y34.250
G01 F100 X42.898 Y35.000
G01 F100 X42.508 Y35.000
G00 F1000 Z3.000
G00 F1000 X44.898 Y35.000
G00 F1000 Z0
G01 F100 Z-0.1
G01 F100 X44.898 Y34.250
G01 F100 X49.248 Y34.250
G01 F100 X49.248 Y35.000
G01 F100 X48.730 Y35.000
G01 F100 X48.680 Y34.914
G01 F100 X48.512 Y34.727
G01 F100 X48.309 Y34.580
G01 F100 X48.079 Y34.477
G01 F100 X47.834 Y34.425
G01 F100 X47.582 Y34.425
G01 F100 X47.337 Y34.477
G01 F100 X47.107 Y34.580
G01 F100 X46.904 Y34.727
G01 F100 X46.736 Y34.914
G01 F100 X46.687 Y35.000
G01 F100 X44.898 Y35.000
G00 F1000 Z3.000
G00 F1000 X51.248 Y35.000
G00 F1000 Z0
G01 F100 Z-0.1
G01 F100 X51.248 Y34.250
G01 F100 X51.796 Y34.250
G01 F100 X51.788 Y34.324
G01 F100 X51.788 Y34.963
G01 F100 X51.767 Y35.000
G01 F100 X51.248 Y35.000
G00 F1000 Z3.000
G00 F1000 X53.809 Y35.000
G00 F1000 Z0
G01 F100 Z-0.1
G01 F100 X53.788 Y34.963
G01 F100 X53.788 Y34.763
G01 F100 X54.301 Y34.250
G01 F100 X57.625 Y34.250
G01 F100 X58.375 Y35.000
G01 F100 X53.809 Y35.000
G00 F1000 Z3.000
G00 F1000 X61.201 Y35.000
G00 F1000 Z0
G01 F100 Z-0.1
G01 F100 X60.451 Y34.250
G01 F100 X70.103 Y34.250
G01 F100 X70.177 Y34.283
G01 F100 X70.436 Y34.338
G01 F100 X70.700 Y34.338
G01 F100 X70.959 Y34.283
G01 F100 X71.033 Y34.250
G01 F100 X72.500 Y34.250
G01 F100 X72.500 Y35.000
G01 F100 X61.201 Y35.000
G00 F1000 Z3.000
G00 F1000 X15.500 Y33.500
G00 F1000 Z0
G01 F100 Z-0.1
G01 F100 X15.500 Y32.750
G01 F100 X18.553 Y32.750
G01 F100 X18.531 Y32.817
G01 F100 X18.503 Y33.080
G01 F100 X18.531 Y33.343
G01 F100 X18.582 Y33.500
G01 F100 X15.500 Y33.500
G00 F1000 Z3.000
G00 F1000 X20.954 Y33.500
G00 F1000 Z0
G01 F100 Z-0.1
G01 F100 X21.005 Y33.343
G01 F100 X21.033 Y33.080
G01 F100 X21.005 Y32.817
G01 F100 X20.983 Y32.750
G01 F100 X23.105 Y32.750
G01 F100 X23.855 Y33.500
G01 F100 X20.954 Y33.500
G00 F1000 Z3.000
G00 F1000 X28.400 Y33.500
G00 F1000 Z0
G01 F100 Z-0.1
G01 F100 X28.277 Y33.363
G01 F100 X28.052 Y33.200
G01 F100 X27.799 Y33.087
G01 F100 X27.527 Y33.029
G01 F100 X27.249 Y33.029
G01 F100 X26.978 Y33.087
G01 F100 X26.724 Y33.200
G01 F100 X26.525 Y33.344
G01 F100 X25.931 Y32.750
G01 F100 X28.317 Y32.750
G01 F100 X28.348 Y32.764
G01 F100 X28.553 Y32.807
G01 F100 X30.198 Y32.807
G01 F100 X30.198 Y33.500
G01 F100 X28.400 Y33.500
G00 F1000 Z3.000
G00 F1000 X32.198 Y33.500
G00 F1000 Z0
G01 F100 Z-0.1
G01 F100 X32.198 Y32.807
G01 F100 X32.573 Y32.807
G01 F100 X32.778 Y32.764
G01 F100 X32.809 Y32.750
G01 F100 X34.008 Y32.750
G01 F100 X34.008 Y33.486
G01 F100 X32.198 Y33.500
G00 F1000 Z3.000
G00 F1000 X36.020 Y33.500
G00 F1000 Z0
G01 F100 Z-0.1
G01 F100 X36.008 Y32.750
G01 F100 X42.898 Y32.750
G01 F100 X42.898 Y33.500
G01 F100 X42.370 Y33.500
G01 F100 X42.247 Y33.363
G01 F100 X42.022 Y33.200
G01 F100 X41.769 Y33.087
G01 F100 X41.497 Y33.029
G01 F100 X41.219 Y33.029
G01 F100 X40.948 Y33.087
G01 F100 X40.694 Y33.200
G01 F100 X40.469 Y33.363
G01 F100 X40.346 Y33.500
G01 F100 X36.020 Y33.500
G00 F1000 Z3.000
G00 F1000 X44.898 Y33.500
G00 F1000 Z0
G01 F100 Z-0.1
G01 F100 X44.898 Y32.750
G01 F100 X46.692 Y32.750
G01 F100 X46.777 Y32.844
G01 F100 X47.012 Y33.015
G01 F100 X47.278 Y33.134
G01 F100 X47.563 Y33.194
G01 F100 X47.854 Y33.194
G01 F100 X48.138 Y33.134
G01 F100 X48.404 Y33.015
G01 F100 X48.639 Y32.844
G01 F100 X48.673 Y32.807
G01 F100 X49.248 Y32.807
G01 F100 X49.248 Y33.500
G01 F100 X44.898 Y33.500
G00 F1000 Z3.000
G00 F1000 X51.248 Y33.500
G00 F1000 Z0
G01 F100 Z-0.1
G01 F100 X51.248 Y32.807
G01 F100 X51.623 Y32.807
G01 F100 X51.828 Y32.764
G01 F100 X51.859 Y32.750
G01 F100 X52.975 Y32.750
G01 F100 X52.225 Y33.500
G01 F100 X51.248 Y33.500
G00 F1000 Z3.000
G00 F1000 X54.967 Y33.500
G00 F1000 Z0
G01 F100 Z-0.1
G01 F100 X55.039 Y33.288
G01 F100 X55.058 Y33.106
G01 F100 X55.058 Y32.807
G01 F100 X56.868 Y32.807
G01 F100 X56.868 Y33.106
G01 F100 X56.887 Y33.288
G01 F100 X56.952 Y33.488
G01 F100 X54.967 Y33.500
G00 F1000 Z3.000
G00 F1000 X59.701 Y33.500
G00 F1000 Z0
G01 F100 Z-0.1
G01 F100 X58.951 Y32.750
G01 F100 X61.205 Y32.750
G01 F100 X61.955 Y33.500
G01 F100 X59.701 Y33.500
G00 F1000 Z3.000
G00 F1000 X71.754 Y33.500
G00 F1000 Z0
G01 F100 Z-0.1
G01 F100 X71.805 Y33.343
G01 F100 X71.833 Y33.080
G01 F100 X71.805 Y32.817
G01 F100 X71.783 Y32.750
G01 F100 X72.500 Y32.750
G01 F100 X72.500 Y33.500
G01 F100 X71.754 Y33.500
G00 F1000 Z3.000
G00 F1000 X15.500 Y32.000
G00 F1000 Z0
G01 F100 Z-0.1
G01 F100 X15.500 Y31.250
G01 F100 X18.768 Y31.250
G01 F100 X18.768 Y32.000
G01 F100 X15.500 Y32.000
G00 F1000 Z3.000
G00 F1000 X20.777 Y32.000
G00 F1000 Z0
G01 F100 Z-0.1
G01 F100 X20.775 Y31.250
G01 F100 X22.578 Y31.250
G01 F100 X22.578 Y31.836
G01 F100 X22.595 Y32.000
G01 F100 X20.777 Y32.000
G00 F1000 Z3.000
G00 F1000 X25.181 Y32.000
G00 F1000 Z0
G01 F100 Z-0.1
G01 F100 X24.578 Y31.397
G01 F100 X24.578 Y31.250
G01 F100 X25.003 Y31.250
G01 F100 X25.043 Y31.321
G01 F100 X25.229 Y31.527
G01 F100 X25.454 Y31.690
G01 F100 X25.707 Y31.803
G01 F100 X25.979 Y31.861
G01 F100 X26.257 Y31.861
G01 F100 X26.529 Y31.803
G01 F100 X26.782 Y31.690
G01 F100 X26.981 Y31.546
G01 F100 X27.435 Y32.000
G01 F100 X25.181 Y32.000
G00 F1000 Z3.000
G00 F1000 X33.451 Y32.000
G00 F1000 Z0
G01 F100 Z-0.1
G01 F100 X33.468 Y31.836
G01 F100 X33.468 Y31.250
G01 F100 X34.008 Y31.250
G01 F100 X34.008 Y32.000
G01 F100 X33.451 Y32.000
G00 F1000 Z3.000
G00 F1000 X36.008 Y32.000
G00 F1000 Z0
G01 F100 Z-0.1
G01 F100 X36.008 Y31.250
G01 F100 X42.898 Y31.250
G01 F100 X42.898 Y32.000
G01 F100 X36.008 Y32.000
G00 F1000 Z3.000
G00 F1000 X44.898 Y32.000
G00 F1000 Z0
G01 F100 Z-0.1
G01 F100 X44.898 Y31.250
G01 F100 X46.435 Y31.250
G01 F100 X46.347 Y31.521
G01 F100 X46.316 Y31.810
G01 F100 X46.336 Y32.000
G01 F100 X44.898 Y32.000
G00 F1000 Z3.000
G00 F1000 X52.501 Y32.000
G00 F1000 Z0
G01 F100 Z-0.1
G01 F100 X52.518 Y31.836
G01 F100 X52.518 Y31.250
G01 F100 X53.058 Y31.250
G01 F100 X53.058 Y32.000
G01 F100 X52.501 Y32.000
G00 F1000 Z3.000
G00 F1000 X59.240 Y32.000
G00 F1000 Z0
G01 F100 Z-0.1
G01 F100 X59.260 Y31.810
G01 F100 X59.229 Y31.521
G01 F100 X59.141 Y31.250
G01 F100 X59.705 Y31.250
G01 F100 X60.455 Y32.000
G01 F100 X59.240 Y32.000
G00 F1000 Z3.000
G00 F1000 X63.281 Y32.000
G00 F1000 Z0
G01 F100 Z-0.1
G01 F100 X62.812 Y31.531
G01 F100 X62.843 Y31.537
G01 F100 X69.801 Y31.537
G01 F100 X69.936 Y31.635
G01 F100 X70.177 Y31.743
G01 F100 X70.436 Y31.798
G01 F100 X70.700 Y31.798
G01 F100 X70.959 Y31.743
G01 F100 X71.200 Y31.635
G01 F100 X71.414 Y31.480
G01 F100 X71.591 Y31.283
G01 F100 X71.611 Y31.250
G01 F100 X72.500 Y31.250
G01 F100 X72.500 Y32.000
G01 F100 X71.222 Y32.000
G01 F100 X71.200 Y31.985
G01 F100 X70.959 Y31.877
G01 F100 X70.700 Y31.822
G01 F100 X70.436 Y31.822
G01 F100 X70.177 Y31.877
G01 F100 X69.936 Y31.985
G01 F100 X69.915 Y32.000
G01 F100 X63.281 Y32.000
G00 F1000 Z3.000
G00 F1000 X15.500 Y30.500
G00 F1000 Z0
G01 F100 Z-0.1
G01 F100 X15.500 Y29.750
G01 F100 X18.768 Y29.750
G01 F100 X18.768 Y30.500
G01 F100 X15.500 Y30.500
G00 F1000 Z3.000
G00 F1000 X20.773 Y30.500
G00 F1000 Z0
G01 F100 Z-0.1
G01 F100 X20.772 Y29.750
G01 F100 X22.578 Y29.750
G01 F100 X22.578 Y30.500
G01 F100 X20.773 Y30.500
G00 F1000 Z3.000
G00 F1000 X24.578 Y30.500
G00 F1000 Z0
G01 F100 Z-0.1
G01 F100 X24.578 Y29.750
G01 F100 X25.052 Y29.750
G01 F100 X24.905 Y30.000
G01 F100 X24.819 Y30.264
G01 F100 X24.794 Y30.500
G01 F100 X24.578 Y30.500
G00 F1000 Z3.000
G00 F1000 X31.215 Y30.500
G00 F1000 Z0
G01 F100 Z-0.1
G01 F100 X31.215 Y29.923
G01 F100 X31.289 Y30.150
G01 F100 X31.424 Y30.384
G01 F100 X31.468 Y30.433
G01 F100 X31.468 Y30.500
G01 F100 X31.215 Y30.500
G00 F1000 Z3.000
G00 F1000 X33.468 Y30.500
G00 F1000 Z0
G01 F100 Z-0.1
G01 F100 X33.468 Y30.433
G01 F100 X33.512 Y30.384
G01 F100 X33.647 Y30.150
G01 F100 X33.730 Y29.894
G01 F100 X33.738 Y29.818
G01 F100 X33.746 Y29.894
G01 F100 X33.829 Y30.150
G01 F100 X33.964 Y30.384
G01 F100 X34.008 Y30.433
G01 F100 X34.008 Y30.500
G01 F100 X33.468 Y30.500
G00 F1000 Z3.000
G00 F1000 X36.008 Y30.500
G00 F1000 Z0
G01 F100 Z-0.1
G01 F100 X36.008 Y30.433
G01 F100 X36.052 Y30.384
G01 F100 X36.187 Y30.150
G01 F100 X36.270 Y29.894
G01 F100 X36.278 Y29.818
G01 F100 X36.286 Y29.894
G01 F100 X36.369 Y30.150
G01 F100 X36.504 Y30.384
G01 F100 X36.609 Y30.500
G01 F100 X36.008 Y30.500
G00 F1000 Z3.000
G00 F1000 X38.487 Y30.500
G00 F1000 Z0
G01 F100 Z-0.1
G01 F100 X38.592 Y30.384
G01 F100 X38.647 Y30.288
G01 F100 X42.898 Y30.270
G01 F100 X42.898 Y30.500
G01 F100 X38.487 Y30.500
G00 F1000 Z3.000
G00 F1000 X44.898 Y30.500
G00 F1000 Z0
G01 F100 Z-0.1
G01 F100 X44.898 Y30.267
G01 F100 X45.273 Y30.267
G01 F100 X45.478 Y30.224
G01 F100 X45.669 Y30.138
G01 F100 X45.839 Y30.015
G01 F100 X45.979 Y29.859
G01 F100 X46.042 Y29.750
G01 F100 X50.518 Y29.750
G01 F100 X50.518 Y30.500
G01 F100 X48.169 Y30.500
G01 F100 X48.138 Y30.486
G01 F100 X47.854 Y30.426
G01 F100 X47.563 Y30.426
G01 F100 X47.278 Y30.486
G01 F100 X47.247 Y30.500
G01 F100 X44.898 Y30.500
G00 F1000 Z3.000
G00 F1000 X52.518 Y30.500
G00 F1000 Z0
G01 F100 Z-0.1
G01 F100 X52.518 Y29.750
G01 F100 X53.058 Y29.750
G01 F100 X53.058 Y30.500
G01 F100 X52.518 Y30.500
G00 F1000 Z3.000
G00 F1000 X55.058 Y30.500
G00 F1000 Z0
G01 F100 Z-0.1
G01 F100 X55.058 Y29.750
G01 F100 X58.264 Y29.750
G01 F100 X58.327 Y29.859
G01 F100 X58.441 Y29.986
G01 F100 X58.955 Y30.500
G01 F100 X58.329 Y30.500
G01 F100 X58.298 Y30.486
G01 F100 X58.014 Y30.426
G01 F100 X57.723 Y30.426
G01 F100 X57.438 Y30.486
G01 F100 X57.407 Y30.500
G01 F100 X55.058 Y30.500
G00 F1000 Z3.000
G00 F1000 X71.829 Y30.500
G00 F1000 Z0
G01 F100 Z-0.1
G01 F100 X71.805 Y30.277
G01 F100 X71.723 Y30.026
G01 F100 X71.591 Y29.797
G01 F100 X71.549 Y29.750
G01 F100 X72.500 Y29.750
G01 F100 X72.500 Y30.500
G01 F100 X71.829 Y30.500
G00 F1000 Z3.000
G00 F1000 X28.641 Y30.379
G00 F1000 Z0
G01 F100 Z-0.1
G01 F100 X28.048 Y29.787
G01 F100 X27.997 Y29.750
G01 F100 X28.641 Y29.750
G01 F100 X28.641 Y30.379
G00 F1000 Z3.000
G00 F1000 X15.500 Y29.000
G00 F1000 Z0
G01 F100 Z-0.1
G01 F100 X15.500 Y28.250
G01 F100 X18.570 Y28.250
G01 F100 X18.570 Y28.564
G01 F100 X18.768 Y28.564
G01 F100 X18.768 Y29.000
G01 F100 X15.500 Y29.000
G00 F1000 Z3.000
G00 F1000 X20.770 Y29.000
G00 F1000 Z0
G01 F100 Z-0.1
G01 F100 X20.769 Y28.564
G01 F100 X20.966 Y28.564
G01 F100 X20.966 Y28.250
G01 F100 X23.185 Y28.250
G01 F100 X22.881 Y28.554
G01 F100 X22.767 Y28.681
G01 F100 X22.662 Y28.862
G01 F100 X22.617 Y29.000
G01 F100 X20.770 Y29.000
G00 F1000 Z3.000
G00 F1000 X25.261 Y29.000
G00 F1000 Z0
G01 F100 Z-0.1
G01 F100 X26.011 Y28.250
G01 F100 X28.641 Y28.250
G01 F100 X28.641 Y29.000
G01 F100 X25.261 Y29.000
G00 F1000 Z3.000
G00 F1000 X46.168 Y29.000
G00 F1000 Z0
G01 F100 Z-0.1
G01 F100 X46.168 Y28.250
G01 F100 X47.691 Y28.250
G01 F100 X47.691 Y28.382
G01 F100 X47.716 Y28.624
G01 F100 X47.799 Y28.880
G01 F100 X47.868 Y29.000
G01 F100 X46.168 Y29.000
G00 F1000 Z3.000
G00 F1000 X50.088 Y29.000
G00 F1000 Z0
G01 F100 Z-0.1
G01 F100 X50.157 Y28.880
G01 F100 X50.240 Y28.624
G01 F100 X50.248 Y28.548
G01 F100 X50.256 Y28.624
G01 F100 X50.339 Y28.880
G01 F100 X50.408 Y29.000
G01 F100 X50.088 Y29.000
G00 F1000 Z3.000
G00 F1000 X52.628 Y29.000
G00 F1000 Z0
G01 F100 Z-0.1
G01 F100 X52.697 Y28.880
G01 F100 X52.780 Y28.624
G01 F100 X52.788 Y28.548
G01 F100 X52.796 Y28.624
G01 F100 X52.879 Y28.880
G01 F100 X52.948 Y29.000
G01 F100 X52.628 Y29.000
G00 F1000 Z3.000
G00 F1000 X55.168 Y29.000
G00 F1000 Z0
G01 F100 Z-0.1
G01 F100 X55.237 Y28.880
G01 F100 X55.320 Y28.624
G01 F100 X55.328 Y28.548
G01 F100 X55.336 Y28.624
G01 F100 X55.419 Y28.880
G01 F100 X55.488 Y29.000
G01 F100 X55.168 Y29.000
G00 F1000 Z3.000
G00 F1000 X57.708 Y29.000
G00 F1000 Z0
G01 F100 Z-0.1
G01 F100 X57.777 Y28.880
G01 F100 X57.860 Y28.624
G01 F100 X57.868 Y28.548
G01 F100 X57.876 Y28.624
G01 F100 X57.959 Y28.880
G01 F100 X58.028 Y29.000
G01 F100 X57.708 Y29.000
G00 F1000 Z3.000
G00 F1000 X60.281 Y29.000
G00 F1000 Z0
G01 F100 Z-0.1
G01 F100 X60.260 Y28.979
G01 F100 X60.317 Y28.880
G01 F100 X60.400 Y28.624
G01 F100 X60.408 Y28.548
G01 F100 X60.416 Y28.624
G01 F100 X60.499 Y28.880
G01 F100 X60.568 Y29.000
G01 F100 X60.281 Y29.000
G00 F1000 Z3.000
G00 F1000 X62.821 Y29.000
G00 F1000 Z0
G01 F100 Z-0.1
G01 F100 X62.800 Y28.979
G01 F100 X62.857 Y28.880
G01 F100 X62.940 Y28.624
G01 F100 X62.948 Y28.548
G01 F100 X62.956 Y28.624
G01 F100 X63.039 Y28.880
G01 F100 X63.108 Y29.000
G01 F100 X62.821 Y29.000
G00 F1000 Z3.000
G00 F1000 X69.392 Y29.000
G00 F1000 Z0
G01 F100 Z-0.1
G01 F100 X69.802 Y28.998
G01 F100 X69.392 Y29.000
G00 F1000 Z3.000
G00 F1000 X71.332 Y29.000
G00 F1000 Z0
G01 F100 Z-0.1
G01 F100 X71.414 Y28.940
G01 F100 X71.591 Y28.743
G01 F100 X71.723 Y28.514
G01 F100 X71.805 Y28.263
G01 F100 X72.500 Y28.250
G01 F100 X72.500 Y29.000
G01 F100 X71.332 Y29.000
G00 F1000 Z3.000
G00 F1000 X36.278 Y28.722
G00 F1000 Z0
G01 F100 Z-0.1
G01 F100 X36.270 Y28.646
G01 F100 X36.187 Y28.390
G01 F100 X36.106 Y28.250
G01 F100 X36.450 Y28.250
G01 F100 X36.369 Y28.390
G01 F100 X36.286 Y28.646
G01 F100 X36.278 Y28.722
G00 F1000 Z3.000
G00 F1000 X33.738 Y28.722
G00 F1000 Z0
G01 F100 Z-0.1
G01 F100 X33.730 Y28.646
G01 F100 X33.647 Y28.390
G01 F100 X33.566 Y28.250
G01 F100 X33.910 Y28.250
G01 F100 X33.829 Y28.390
G01 F100 X33.746 Y28.646
G01 F100 X33.738 Y28.722
G00 F1000 Z3.000
G00 F1000 X31.215 Y28.617
G00 F1000 Z0
G01 F100 Z-0.1
G01 F100 X31.215 Y28.250
G01 F100 X31.370 Y28.250
G01 F100 X31.289 Y28.390
G01 F100 X31.215 Y28.617
G00 F1000 Z3.000
G00 F1000 X38.659 Y28.273
G00 F1000 Z0
G01 F100 Z-0.1
G01 F100 X38.646 Y28.250
G01 F100 X44.168 Y28.250
G01 F100 X38.659 Y28.273
G00 F1000 Z3.000
G00 F1000 X15.500 Y27.500
G00 F1000 Z0
G01 F100 Z-0.1
G01 F100 X15.500 Y26.750
G01 F100 X17.105 Y26.750
G01 F100 X17.855 Y27.500
G01 F100 X15.500 Y27.500
G00 F1000 Z3.000
G00 F1000 X20.966 Y27.500
G00 F1000 Z0
G01 F100 Z-0.1
G01 F100 X20.966 Y26.750
G01 F100 X24.685 Y26.750
G01 F100 X23.935 Y27.500
G01 F100 X20.966 Y27.500
G00 F1000 Z3.000
G00 F1000 X26.761 Y27.500
G00 F1000 Z0
G01 F100 Z-0.1
G01 F100 X27.511 Y26.750
G01 F100 X28.928 Y26.750
G01 F100 X28.928 Y27.500
G01 F100 X26.761 Y27.500
G00 F1000 Z3.000
G00 F1000 X30.928 Y27.500
G00 F1000 Z0
G01 F100 Z-0.1
G01 F100 X30.928 Y27.143
G01 F100 X31.321 Y26.750
G01 F100 X40.032 Y26.750
G01 F100 X40.059 Y27.006
G01 F100 X40.145 Y27.270
G01 F100 X40.277 Y27.500
G01 F100 X30.928 Y27.500
G00 F1000 Z3.000
G00 F1000 X42.439 Y27.500
G00 F1000 Z0
G01 F100 Z-0.1
G01 F100 X42.571 Y27.270
G01 F100 X42.657 Y27.006
G01 F100 X42.684 Y26.750
G01 F100 X43.969 Y26.750
G01 F100 X43.993 Y26.980
G01 F100 X44.071 Y27.219
G01 F100 X44.168 Y27.387
G01 F100 X44.168 Y27.500
G01 F100 X42.439 Y27.500
G00 F1000 Z3.000
G00 F1000 X71.728 Y27.500
G00 F1000 Z0
G01 F100 Z-0.1
G01 F100 X71.591 Y27.257
G01 F100 X71.414 Y27.060
G01 F100 X71.200 Y26.905
G01 F100 X70.959 Y26.797
G01 F100 X70.737 Y26.750
G01 F100 X72.500 Y26.750
G01 F100 X72.500 Y27.500
G01 F100 X71.728 Y27.500
G00 F1000 Z3.000
G00 F1000 X62.948 Y27.452
G00 F1000 Z0
G01 F100 Z-0.1
G01 F100 X62.940 Y27.376
G01 F100 X62.857 Y27.120
G01 F100 X62.722 Y26.886
G01 F100 X62.599 Y26.750
G01 F100 X63.297 Y26.750
G01 F100 X63.174 Y26.886
G01 F100 X63.039 Y27.120
G01 F100 X62.956 Y27.376
G01 F100 X62.948 Y27.452
G00 F1000 Z3.000
G00 F1000 X60.408 Y27.452
G00 F1000 Z0
G01 F100 Z-0.1
G01 F100 X60.400 Y27.376
G01 F100 X60.317 Y27.120
G01 F100 X60.182 Y26.886
G01 F100 X60.059 Y26.750
G01 F100 X60.757 Y26.750
G01 F100 X60.634 Y26.886
G01 F100 X60.499 Y27.120
G01 F100 X60.416 Y27.376
G01 F100 X60.408 Y27.452
G00 F1000 Z3.000
G00 F1000 X57.868 Y27.452
G00 F1000 Z0
G01 F100 Z-0.1
G01 F100 X57.860 Y27.376
G01 F100 X57.777 Y27.120
G01 F100 X57.642 Y26.886
G01 F100 X57.519 Y26.750
G01 F100 X58.217 Y26.750
G01 F100 X58.094 Y26.886
G01 F100 X57.959 Y27.120
G01 F100 X57.876 Y27.376
G01 F100 X57.868 Y27.452
G00 F1000 Z3.000
G00 F1000 X55.328 Y27.452
G00 F1000 Z0
G01 F100 Z-0.1
G01 F100 X55.320 Y27.376
G01 F100 X55.237 Y27.120
G01 F100 X55.102 Y26.886
G01 F100 X54.979 Y26.750
G01 F100 X55.677 Y26.750
G01 F100 X55.554 Y26.886
G01 F100 X55.419 Y27.120
G01 F100 X55.336 Y27.376
G01 F100 X55.328 Y27.452
G00 F1000 Z3.000
G00 F1000 X52.788 Y27.452
G00 F1000 Z0
G01 F100 Z-0.1
G01 F100 X52.780 Y27.376
G01 F100 X52.697 Y27.120
G01 F100 X52.562 Y26.886
G01 F100 X52.439 Y26.750
G01 F100 X53.137 Y26.750
G01 F100 X53.014 Y26.886
G01 F100 X52.879 Y27.120
G01 F100 X52.796 Y27.376
G01 F100 X52.788 Y27.452
G00 F1000 Z3.000
G00 F1000 X50.248 Y27.452
G00 F1000 Z0
G01 F100 Z-0.1
G01 F100 X50.240 Y27.376
G01 F100 X50.157 Y27.120
G01 F100 X50.022 Y26.886
G01 F100 X49.899 Y26.750
G01 F100 X50.597 Y26.750
G01 F100 X50.474 Y26.886
G01 F100 X50.339 Y27.120
G01 F100 X50.256 Y27.376
G01 F100 X50.248 Y27.452
G00 F1000 Z3.000
G00 F1000 X65.329 Y27.003
G00 F1000 Z0
G01 F100 Z-0.1
G01 F100 X65.262 Y26.886
G01 F100 X65.139 Y26.750
G01 F100 X70.399 Y26.750
G01 F100 X70.177 Y26.797
G01 F100 X69.936 Y26.905
G01 F100 X69.801 Y27.003
G01 F100 X65.329 Y27.003
G00 F1000 Z3.000
G00 F1000 X15.500 Y26.000
G00 F1000 Z0
G01 F100 Z-0.1
G01 F100 X15.500 Y25.250
G01 F100 X16.228 Y25.250
G01 F100 X16.228 Y25.486
G01 F100 X16.247 Y25.669
G01 F100 X16.312 Y25.868
G01 F100 X16.388 Y26.000
G01 F100 X15.500 Y26.000
G00 F1000 Z3.000
G00 F1000 X19.181 Y26.000
G00 F1000 Z0
G01 F100 Z-0.1
G01 F100 X18.431 Y25.250
G01 F100 X26.185 Y25.250
G01 F100 X25.435 Y26.000
G01 F100 X19.181 Y26.000
G00 F1000 Z3.000
G00 F1000 X28.261 Y26.000
G00 F1000 Z0
G01 F100 Z-0.1
G01 F100 X29.011 Y25.250
G01 F100 X29.995 Y25.250
G01 F100 X29.245 Y26.000
G01 F100 X28.261 Y26.000
G00 F1000 Z3.000
G00 F1000 X42.462 Y26.000
G00 F1000 Z0
G01 F100 Z-0.1
G01 F100 X42.433 Y25.949
G01 F100 X42.358 Y25.867
G01 F100 X42.358 Y25.250
G01 F100 X66.405 Y25.250
G01 F100 X67.155 Y26.000
G01 F100 X48.391 Y26.000
G01 F100 X48.368 Y25.977
G01 F100 X48.209 Y25.862
G01 F100 X48.018 Y25.776
G01 F100 X47.813 Y25.733
G01 F100 X45.828 Y25.733
G01 F100 X45.769 Y25.690
G01 F100 X45.539 Y25.588
G01 F100 X45.294 Y25.535
G01 F100 X45.042 Y25.535
G01 F100 X44.797 Y25.588
G01 F100 X44.567 Y25.690
G01 F100 X44.364 Y25.837
G01 F100 X44.218 Y26.000
G01 F100 X42.462 Y26.000
G00 F1000 Z3.000
G00 F1000 X71.709 Y26.000
G00 F1000 Z0
G01 F100 Z-0.1
G01 F100 X71.723 Y25.974
G01 F100 X71.805 Y25.723
G01 F100 X71.833 Y25.460
G01 F100 X71.811 Y25.250
G01 F100 X72.500 Y25.250
G01 F100 X72.500 Y26.000
G01 F100 X71.709 Y26.000
G00 F1000 Z3.000
G00 F1000 X15.500 Y24.500
G00 F1000 Z0
G01 F100 Z-0.1
G01 F100 X15.500 Y23.750
G01 F100 X16.228 Y23.750
G01 F100 X16.228 Y24.500
G01 F100 X15.500 Y24.500
G00 F1000 Z3.000
G00 F1000 X18.228 Y24.500
G00 F1000 Z0
G01 F100 Z-0.1
G01 F100 X18.228 Y23.750
G01 F100 X18.587 Y23.750
G01 F100 X18.593 Y23.805
G01 F100 X18.671 Y24.044
G01 F100 X18.796 Y24.261
G01 F100 X18.964 Y24.448
G01 F100 X19.036 Y24.500
G01 F100 X18.228 Y24.500
G00 F1000 Z3.000
G00 F1000 X25.812 Y24.500
G00 F1000 Z0
G01 F100 Z-0.1
G01 F100 X25.984 Y24.423
G01 F100 X26.143 Y24.308
G01 F100 X26.210 Y24.241
G01 F100 X26.251 Y24.242
G01 F100 X26.529 Y24.183
G01 F100 X26.782 Y24.070
G01 F100 X27.007 Y23.907
G01 F100 X27.148 Y23.750
G01 F100 X27.685 Y23.750
G01 F100 X26.935 Y24.500
G01 F100 X25.812 Y24.500
G00 F1000 Z3.000
G00 F1000 X29.761 Y24.500
G00 F1000 Z0
G01 F100 Z-0.1
G01 F100 X30.511 Y23.750
G01 F100 X40.245 Y23.750
G01 F100 X40.183 Y23.940
G01 F100 X40.157 Y24.190
G01 F100 X40.183 Y24.440
G01 F100 X31.093 Y24.463
G01 F100 X30.918 Y24.500
G01 F100 X29.761 Y24.500
G00 F1000 Z3.000
G00 F1000 X42.513 Y24.500
G00 F1000 Z0
G01 F100 Z-0.1
G01 F100 X42.533 Y24.440
G01 F100 X42.559 Y24.190
G01 F100 X42.533 Y23.940
G01 F100 X42.471 Y23.750
G01 F100 X44.585 Y23.750
G01 F100 X45.335 Y24.500
G01 F100 X42.513 Y24.500
G00 F1000 Z3.000
G00 F1000 X51.351 Y24.500
G00 F1000 Z0
G01 F100 Z-0.1
G01 F100 X52.101 Y23.750
G01 F100 X64.905 Y23.750
G01 F100 X65.655 Y24.500
G01 F100 X51.351 Y24.500
G00 F1000 Z3.000
G00 F1000 X71.387 Y24.500
G00 F1000 Z0
G01 F100 Z-0.1
G01 F100 X71.200 Y24.365
G01 F100 X70.959 Y24.257
G01 F100 X70.700 Y24.202
G01 F100 X70.436 Y24.202
G01 F100 X70.177 Y24.257
G01 F100 X69.936 Y24.365
G01 F100 X69.801 Y24.463
G01 F100 X68.444 Y24.463
G01 F100 X67.731 Y23.750
G01 F100 X69.306 Y23.750
G01 F100 X69.306 Y24.182
G01 F100 X71.830 Y24.182
G01 F100 X71.830 Y23.750
G01 F100 X72.500 Y23.750
G01 F100 X72.500 Y24.500
G01 F100 X71.387 Y24.500
G00 F1000 Z3.000
G00 F1000 X15.500 Y23.000
G00 F1000 Z0
G01 F100 Z-0.1
G01 F100 X15.500 Y22.250
G01 F100 X16.228 Y22.250
G01 F100 X16.228 Y23.000
G01 F100 X15.500 Y23.000
G00 F1000 Z3.000
G00 F1000 X18.228 Y23.000
G00 F1000 Z0
G01 F100 Z-0.1
G01 F100 X18.228 Y22.250
G01 F100 X24.980 Y22.250
G01 F100 X24.905 Y22.380
G01 F100 X24.847 Y22.558
G01 F100 X20.428 Y22.558
G01 F100 X20.369 Y22.515
G01 F100 X20.139 Y22.413
G01 F100 X19.894 Y22.360
G01 F100 X19.642 Y22.360
G01 F100 X19.397 Y22.413
G01 F100 X19.167 Y22.515
G01 F100 X18.964 Y22.662
G01 F100 X18.796 Y22.849
G01 F100 X18.709 Y23.000
G01 F100 X18.228 Y23.000
G00 F1000 Z3.000
G00 F1000 X27.438 Y23.000
G00 F1000 Z0
G01 F100 Z-0.1
G01 F100 X27.446 Y22.920
G01 F100 X27.417 Y22.644
G01 F100 X27.331 Y22.380
G01 F100 X27.257 Y22.250
G01 F100 X28.664 Y22.250
G01 F100 X28.749 Y22.530
G01 F100 X28.806 Y22.629
G01 F100 X28.435 Y23.000
G01 F100 X27.438 Y23.000
G00 F1000 Z3.000
G00 F1000 X30.922 Y23.000
G00 F1000 Z0
G01 F100 Z-0.1
G01 F100 X30.928 Y22.946
G01 F100 X30.928 Y22.813
G01 F100 X30.972 Y22.764
G01 F100 X31.107 Y22.530
G01 F100 X31.190 Y22.274
G01 F100 X31.204 Y22.250
G01 F100 X31.289 Y22.530
G01 F100 X31.424 Y22.764
G01 F100 X31.605 Y22.964
G01 F100 X31.654 Y23.000
G01 F100 X30.922 Y23.000
G00 F1000 Z3.000
G00 F1000 X33.282 Y23.000
G00 F1000 Z0
G01 F100 Z-0.1
G01 F100 X33.331 Y22.964
G01 F100 X33.512 Y22.764
G01 F100 X33.647 Y22.530
G01 F100 X33.730 Y22.274
G01 F100 X33.744 Y22.250
G01 F100 X33.829 Y22.530
G01 F100 X33.964 Y22.764
G01 F100 X34.145 Y22.964
G01 F100 X34.194 Y23.000
G01 F100 X33.282 Y23.000
G00 F1000 Z3.000
G00 F1000 X35.822 Y23.000
G00 F1000 Z0
G01 F100 Z-0.1
G01 F100 X35.871 Y22.964
G01 F100 X36.052 Y22.764
G01 F100 X36.187 Y22.530
G01 F100 X36.270 Y22.274
G01 F100 X36.284 Y22.250
G01 F100 X36.369 Y22.530
G01 F100 X36.504 Y22.764
G01 F100 X36.685 Y22.964
G01 F100 X36.734 Y23.000
G01 F100 X35.822 Y23.000
G00 F1000 Z3.000
G00 F1000 X38.362 Y23.000
G00 F1000 Z0
G01 F100 Z-0.1
G01 F100 X38.411 Y22.964
G01 F100 X38.592 Y22.764
G01 F100 X38.727 Y22.530
G01 F100 X38.810 Y22.274
G01 F100 X39.286 Y22.250
G01 F100 X39.417 Y22.395
G01 F100 X39.587 Y22.518
G01 F100 X39.778 Y22.604
G01 F100 X39.983 Y22.647
G01 F100 X44.168 Y22.647
G01 F100 X44.168 Y22.946
G01 F100 X44.174 Y23.000
G01 F100 X41.506 Y23.000
G01 F100 X41.232 Y22.995
G01 F100 X38.362 Y23.000
G00 F1000 Z3.000
G00 F1000 X46.661 Y23.000
G00 F1000 Z0
G01 F100 Z-0.1
G01 F100 X46.168 Y22.507
G01 F100 X46.168 Y22.307
G01 F100 X46.201 Y22.250
G01 F100 X50.518 Y22.250
G01 F100 X50.518 Y22.507
G01 F100 X50.025 Y23.000
G01 F100 X46.661 Y23.000
G00 F1000 Z3.000
G00 F1000 X52.512 Y23.000
G00 F1000 Z0
G01 F100 Z-0.1
G01 F100 X52.518 Y22.946
G01 F100 X52.518 Y22.250
G01 F100 X63.416 Y22.250
G01 F100 X63.521 Y22.366
G01 F100 X64.155 Y23.000
G01 F100 X52.512 Y23.000
G00 F1000 Z3.000
G00 F1000 X66.981 Y23.000
G00 F1000 Z0
G01 F100 Z-0.1
G01 F100 X66.231 Y22.250
G01 F100 X69.306 Y22.250
G01 F100 X69.306 Y23.000
G01 F100 X66.981 Y23.000
G00 F1000 Z3.000
G00 F1000 X71.830 Y23.000
G00 F1000 Z0
G01 F100 Z-0.1
G01 F100 X71.830 Y22.250
G01 F100 X72.500 Y22.250
G01 F100 X72.500 Y23.000
G01 F100 X71.830 Y23.000
G00 F1000 Z3.000
G00 F1000 X15.500 Y21.500
G00 F1000 Z0
G01 F100 Z-0.1
G01 F100 X15.500 Y20.750
G01 F100 X16.228 Y20.750
G01 F100 X16.228 Y21.500
G01 F100 X15.500 Y21.500
G00 F1000 Z3.000
G00 F1000 X18.228 Y21.500
G00 F1000 Z0
G01 F100 Z-0.1
G01 F100 X18.228 Y20.793
G01 F100 X18.271 Y20.750
G01 F100 X28.761 Y20.750
G01 F100 X28.666 Y21.026
G01 F100 X28.641 Y21.268
G01 F100 X28.641 Y21.500
G01 F100 X18.228 Y21.500
G00 F1000 Z3.000
G00 F1000 X38.835 Y21.500
G00 F1000 Z0
G01 F100 Z-0.1
G01 F100 X38.835 Y21.268
G01 F100 X38.810 Y21.026
G01 F100 X38.727 Y20.770
G01 F100 X39.045 Y20.750
G01 F100 X39.088 Y20.793
G01 F100 X39.088 Y21.500
G01 F100 X38.835 Y21.500
G00 F1000 Z3.000
G00 F1000 X46.354 Y21.500
G00 F1000 Z0
G01 F100 Z-0.1
G01 F100 X46.343 Y21.400
G01 F100 X46.265 Y21.161
G01 F100 X46.140 Y20.944
G01 F100 X45.972 Y20.757
G01 F100 X47.691 Y20.750
G01 F100 X47.716 Y21.004
G01 F100 X47.799 Y21.260
G01 F100 X47.934 Y21.494
G01 F100 X46.354 Y21.500
G00 F1000 Z3.000
G00 F1000 X50.016 Y21.500
G00 F1000 Z0
G01 F100 Z-0.1
G01 F100 X50.157 Y21.260
G01 F100 X50.240 Y21.004
G01 F100 X50.248 Y20.928
G01 F100 X50.256 Y21.004
G01 F100 X50.339 Y21.260
G01 F100 X50.474 Y21.494
G01 F100 X50.016 Y21.500
G00 F1000 Z3.000
G00 F1000 X52.556 Y21.500
G00 F1000 Z0
G01 F100 Z-0.1
G01 F100 X52.621 Y21.392
G01 F100 X52.951 Y21.385
G01 F100 X53.014 Y21.494
G01 F100 X52.556 Y21.500
G00 F1000 Z3.000
G00 F1000 X55.096 Y21.500
G00 F1000 Z0
G01 F100 Z-0.1
G01 F100 X55.161 Y21.392
G01 F100 X55.491 Y21.385
G01 F100 X55.554 Y21.494
G01 F100 X55.096 Y21.500
G00 F1000 Z3.000
G00 F1000 X57.636 Y21.500
G00 F1000 Z0
G01 F100 Z-0.1
G01 F100 X57.701 Y21.392
G01 F100 X58.031 Y21.385
G01 F100 X58.094 Y21.494
G01 F100 X57.636 Y21.500
G00 F1000 Z3.000
G00 F1000 X60.176 Y21.500
G00 F1000 Z0
G01 F100 Z-0.1
G01 F100 X60.317 Y21.260
G01 F100 X60.400 Y21.004
G01 F100 X60.408 Y20.928
G01 F100 X60.416 Y21.004
G01 F100 X60.499 Y21.260
G01 F100 X60.634 Y21.494
G01 F100 X60.176 Y21.500
G00 F1000 Z3.000
G00 F1000 X62.716 Y21.500
G00 F1000 Z0
G01 F100 Z-0.1
G01 F100 X62.857 Y21.260
G01 F100 X62.931 Y21.033
G01 F100 X62.931 Y21.500
G01 F100 X62.716 Y21.500
G00 F1000 Z3.000
G00 F1000 X65.505 Y21.500
G00 F1000 Z0
G01 F100 Z-0.1
G01 F100 X65.505 Y20.750
G01 F100 X68.255 Y20.750
G01 F100 X69.005 Y21.500
G01 F100 X65.505 Y21.500
G00 F1000 Z3.000
G00 F1000 X71.555 Y21.500
G00 F1000 Z0
G01 F100 Z-0.1
G01 F100 X71.549 Y21.442
G01 F100 X71.484 Y21.242
G01 F100 X71.379 Y21.061
G01 F100 X71.265 Y20.934
G01 F100 X71.081 Y20.750
G01 F100 X72.500 Y20.750
G01 F100 X72.500 Y21.500
G01 F100 X71.555 Y21.500
G00 F1000 Z3.000
G00 F1000 X36.278 Y21.102
G00 F1000 Z0
G01 F100 Z-0.1
G01 F100 X36.270 Y21.026
G01 F100 X36.187 Y20.770
G01 F100 X36.381 Y20.750
G01 F100 X36.286 Y21.026
G01 F100 X36.278 Y21.102
G00 F1000 Z3.000
G00 F1000 X33.738 Y21.102
G00 F1000 Z0
G01 F100 Z-0.1
G01 F100 X33.730 Y21.026
G01 F100 X33.647 Y20.770
G01 F100 X33.841 Y20.750
G01 F100 X33.746 Y21.026
G01 F100 X33.738 Y21.102
G00 F1000 Z3.000
G00 F1000 X31.198 Y21.102
G00 F1000 Z0
G01 F100 Z-0.1
G01 F100 X31.190 Y21.026
G01 F100 X31.107 Y20.770
G01 F100 X31.301 Y20.750
G01 F100 X31.206 Y21.026
G01 F100 X31.198 Y21.102
G00 F1000 Z3.000
G00 F1000 X15.500 Y20.000
G00 F1000 Z0
G01 F100 Z-0.1
G01 F100 X15.500 Y19.250
G01 F100 X16.945 Y19.250
G01 F100 X16.530 Y19.664
G01 F100 X16.417 Y19.791
G01 F100 X16.312 Y19.972
G01 F100 X16.303 Y20.000
G01 F100 X15.500 Y20.000
G00 F1000 Z3.000
G00 F1000 X19.474 Y20.000
G00 F1000 Z0
G01 F100 Z-0.1
G01 F100 X19.573 Y19.891
G01 F100 X19.711 Y19.650
G01 F100 X19.797 Y19.386
G01 F100 X19.812 Y19.250
G01 F100 X24.805 Y19.250
G01 F100 X24.819 Y19.386
G01 F100 X24.905 Y19.650
G01 F100 X25.043 Y19.891
G01 F100 X25.142 Y20.000
G01 F100 X19.474 Y20.000
G00 F1000 Z3.000
G00 F1000 X65.505 Y20.000
G00 F1000 Z0
G01 F100 Z-0.1
G01 F100 X65.505 Y19.250
G01 F100 X66.755 Y19.250
G01 F100 X67.505 Y20.000
G01 F100 X65.505 Y20.000
G00 F1000 Z3.000
G00 F1000 X70.331 Y20.000
G00 F1000 Z0
G01 F100 Z-0.1
G01 F100 X69.581 Y19.250
G01 F100 X72.500 Y19.250
G01 F100 X72.500 Y20.000
G01 F100 X70.331 Y20.000
G00 F1000 Z3.000
G00 F1000 X60.408 Y19.832
G00 F1000 Z0
G01 F100 Z-0.1
G01 F100 X60.400 Y19.756
G01 F100 X60.317 Y19.500
G01 F100 X60.182 Y19.266
G01 F100 X60.649 Y19.250
G01 F100 X60.499 Y19.500
G01 F100 X60.416 Y19.756
G01 F100 X60.408 Y19.832
G00 F1000 Z3.000
G00 F1000 X50.248 Y19.832
G00 F1000 Z0
G01 F100 Z-0.1
G01 F100 X50.240 Y19.756
G01 F100 X50.157 Y19.500
G01 F100 X50.022 Y19.266
G01 F100 X50.489 Y19.250
G01 F100 X50.339 Y19.500
G01 F100 X50.256 Y19.756
G01 F100 X50.248 Y19.832
G00 F1000 Z3.000
G00 F1000 X62.931 Y19.727
G00 F1000 Z0
G01 F100 Z-0.1
G01 F100 X62.857 Y19.500
G01 F100 X62.722 Y19.266
G01 F100 X62.931 Y19.250
G01 F100 X62.931 Y19.727
G00 F1000 Z3.000
G00 F1000 X57.705 Y19.375
G00 F1000 Z0
G01 F100 Z-0.1
G01 F100 X57.642 Y19.266
G01 F100 X58.109 Y19.250
G01 F100 X58.035 Y19.368
G01 F100 X57.705 Y19.375
G00 F1000 Z3.000
G00 F1000 X55.165 Y19.375
G00 F1000 Z0
G01 F100 Z-0.1
G01 F100 X55.102 Y19.266
G01 F100 X55.569 Y19.250
G01 F100 X55.495 Y19.368
G01 F100 X55.165 Y19.375
G00 F1000 Z3.000
G00 F1000 X52.625 Y19.375
G00 F1000 Z0
G01 F100 Z-0.1
G01 F100 X52.562 Y19.266
G01 F100 X53.029 Y19.250
G01 F100 X52.955 Y19.368
G01 F100 X52.625 Y19.375
G00 F1000 Z3.000
G00 F1000 X15.500 Y18.500
G00 F1000 Z0
G01 F100 Z-0.1
G01 F100 X15.500 Y17.750
G01 F100 X60.685 Y17.750
G01 F100 X60.678 Y17.814
G01 F100 X60.678 Y18.500
G01 F100 X48.511 Y18.500
G01 F100 X48.368 Y18.357
G01 F100 X48.209 Y18.242
G01 F100 X48.018 Y18.156
G01 F100 X47.813 Y18.113
G01 F100 X42.018 Y18.113
G01 F100 X41.959 Y18.070
G01 F100 X41.729 Y17.968
G01 F100 X41.484 Y17.915
G01 F100 X41.232 Y17.915
G01 F100 X40.987 Y17.968
G01 F100 X40.757 Y18.070
G01 F100 X40.554 Y18.217
G01 F100 X40.386 Y18.404
G01 F100 X40.331 Y18.500
G01 F100 X39.621 Y18.500
G01 F100 X39.478 Y18.357
G01 F100 X39.319 Y18.242
G01 F100 X39.128 Y18.156
G01 F100 X38.923 Y18.113
G01 F100 X26.993 Y18.113
G01 F100 X26.782 Y17.960
G01 F100 X26.529 Y17.847
G01 F100 X26.257 Y17.789
G01 F100 X25.979 Y17.789
G01 F100 X25.707 Y17.847
G01 F100 X25.454 Y17.960
G01 F100 X25.229 Y18.123
G01 F100 X25.043 Y18.329
G01 F100 X24.945 Y18.500
G01 F100 X19.671 Y18.500
G01 F100 X19.573 Y18.329
G01 F100 X19.387 Y18.123
G01 F100 X19.162 Y17.960
G01 F100 X18.909 Y17.847
G01 F100 X18.637 Y17.789
G01 F100 X18.359 Y17.789
G01 F100 X18.088 Y17.847
G01 F100 X17.834 Y17.960
G01 F100 X17.609 Y18.123
G01 F100 X17.423 Y18.329
G01 F100 X17.325 Y18.500
G01 F100 X15.500 Y18.500
G00 F1000 Z3.000
G00 F1000 X68.831 Y18.500
G00 F1000 Z0
G01 F100 Z-0.1
G01 F100 X68.081 Y17.750
G01 F100 X72.500 Y17.750
G01 F100 X72.500 Y18.500
G01 F100 X68.831 Y18.500
G00 F1000 Z3.000
G00 F1000 X15.500 Y46.000
G00 F1000 Z0
G01 F100 Z-0.1
G01 F100 X15.500 Y17.000
G01 F100 X61.138 Y17.000
G01 F100 X61.007 Y17.095
G01 F100 X60.867 Y17.251
G01 F100 X60.762 Y17.432
G01 F100 X60.697 Y17.632
G01 F100 X60.678 Y17.814
G01 F100 X60.678 Y19.217
G01 F100 X60.634 Y19.266
G01 F100 X60.499 Y19.500
G01 F100 X60.416 Y19.756
G01 F100 X60.408 Y19.832
G01 F100 X60.400 Y19.756
G01 F100 X60.317 Y19.500
G01 F100 X60.182 Y19.266
G01 F100 X60.001 Y19.066
G01 F100 X59.783 Y18.907
G01 F100 X59.537 Y18.797
G01 F100 X59.273 Y18.741
G01 F100 X59.003 Y18.741
G01 F100 X58.739 Y18.797
G01 F100 X58.493 Y18.907
G01 F100 X58.275 Y19.066
G01 F100 X58.094 Y19.266
G01 F100 X58.035 Y19.368
G01 F100 X57.705 Y19.375
G01 F100 X57.642 Y19.266
G01 F100 X57.461 Y19.066
G01 F100 X57.243 Y18.907
G01 F100 X56.997 Y18.797
G01 F100 X56.733 Y18.741
G01 F100 X56.463 Y18.741
G01 F100 X56.199 Y18.797
G01 F100 X55.953 Y18.907
G01 F100 X55.735 Y19.066
G01 F100 X55.554 Y19.266
G01 F100 X55.495 Y19.368
G01 F100 X55.165 Y19.375
G01 F100 X55.102 Y19.266
G01 F100 X54.921 Y19.066
G01 F100 X54.703 Y18.907
G01 F100 X54.457 Y18.797
G01 F100 X54.193 Y18.741
G01 F100 X53.923 Y18.741
G01 F100 X53.659 Y18.797
G01 F100 X53.413 Y18.907
G01 F100 X53.195 Y19.066
G01 F100 X53.014 Y19.266
G01 F100 X52.955 Y19.368
G01 F100 X52.625 Y19.375
G01 F100 X52.562 Y19.266
G01 F100 X52.381 Y19.066
G01 F100 X52.163 Y18.907
G01 F100 X51.917 Y18.797
G01 F100 X51.653 Y18.741
G01 F100 X51.383 Y18.741
G01 F100 X51.119 Y18.797
G01 F100 X50.873 Y18.907
G01 F100 X50.655 Y19.066
G01 F100 X50.474 Y19.266
G01 F100 X50.339 Y19.500
G01 F100 X50.256 Y19.756
G01 F100 X50.248 Y19.832
G01 F100 X50.240 Y19.756
G01 F100 X50.157 Y19.500
G01 F100 X50.022 Y19.266
G01 F100 X49.841 Y19.066
G01 F100 X49.623 Y18.907
G01 F100 X49.377 Y18.797
G01 F100 X49.113 Y18.741
G01 F100 X48.843 Y18.741
G01 F100 X48.768 Y18.757
G01 F100 X48.368 Y18.357
G01 F100 X48.209 Y18.242
G01 F100 X48.018 Y18.156
G01 F100 X47.813 Y18.113
G01 F100 X42.018 Y18.113
G01 F100 X41.959 Y18.070
G01 F100 X41.729 Y17.968
G01 F100 X41.484 Y17.915
G01 F100 X41.232 Y17.915
G01 F100 X40.987 Y17.968
G01 F100 X40.757 Y18.070
G01 F100 X40.554 Y18.217
G01 F100 X40.386 Y18.404
G01 F100 X40.261 Y18.621
G01 F100 X40.183 Y18.860
G01 F100 X40.164 Y19.043
G01 F100 X39.478 Y18.357
G01 F100 X39.319 Y18.242
G01 F100 X39.128 Y18.156
G01 F100 X38.923 Y18.113
G01 F100 X26.993 Y18.113
G01 F100 X26.782 Y17.960
G01 F100 X26.529 Y17.847
G01 F100 X26.257 Y17.789
G01 F100 X25.979 Y17.789
G01 F100 X25.707 Y17.847
G01 F100 X25.454 Y17.960
G01 F100 X25.229 Y18.123
G01 F100 X25.043 Y18.329
G01 F100 X24.905 Y18.570
G01 F100 X24.819 Y18.834
G01 F100 X24.790 Y19.110
G01 F100 X24.819 Y19.386
G01 F100 X24.905 Y19.650
G01 F100 X25.043 Y19.891
G01 F100 X25.229 Y20.097
G01 F100 X25.454 Y20.260
G01 F100 X25.707 Y20.373
G01 F100 X25.979 Y20.431
G01 F100 X26.257 Y20.431
G01 F100 X26.529 Y20.373
G01 F100 X26.782 Y20.260
G01 F100 X26.993 Y20.107
G01 F100 X28.928 Y20.107
G01 F100 X28.928 Y20.487
G01 F100 X28.884 Y20.536
G01 F100 X28.749 Y20.770
G01 F100 X28.666 Y21.026
G01 F100 X28.641 Y21.268
G01 F100 X28.641 Y22.032
G01 F100 X28.666 Y22.274
G01 F100 X28.749 Y22.530
G01 F100 X28.806 Y22.629
G01 F100 X22.881 Y28.554
G01 F100 X22.767 Y28.681
G01 F100 X22.662 Y28.862
G01 F100 X22.597 Y29.062
G01 F100 X22.578 Y29.244
G01 F100 X22.578 Y31.836
G01 F100 X22.597 Y32.019
G01 F100 X22.662 Y32.218
G01 F100 X22.767 Y32.399
G01 F100 X22.881 Y32.526
G01 F100 X25.458 Y35.103
G01 F100 X25.617 Y35.218
G01 F100 X25.808 Y35.304
G01 F100 X26.013 Y35.347
G01 F100 X26.388 Y35.347
G01 F100 X26.388 Y36.916
G01 F100 X26.407 Y37.099
G01 F100 X26.472 Y37.298
G01 F100 X26.577 Y37.479
G01 F100 X26.691 Y37.606
G01 F100 X29.428 Y40.343
G01 F100 X29.428 Y42.470
G01 F100 X32.968 Y42.470
G01 F100 X32.968 Y38.930
G01 F100 X30.841 Y38.930
G01 F100 X28.388 Y36.477
G01 F100 X28.388 Y35.214
G01 F100 X28.463 Y35.131
G01 F100 X28.601 Y34.890
G01 F100 X28.687 Y34.626
G01 F100 X28.716 Y34.350
G01 F100 X28.687 Y34.074
G01 F100 X28.601 Y33.810
G01 F100 X28.463 Y33.569
G01 F100 X28.277 Y33.363
G01 F100 X28.052 Y33.200
G01 F100 X27.799 Y33.087
G01 F100 X27.527 Y33.029
G01 F100 X27.249 Y33.029
G01 F100 X26.978 Y33.087
G01 F100 X26.724 Y33.200
G01 F100 X26.525 Y33.344
G01 F100 X24.578 Y31.397
G01 F100 X24.578 Y29.683
G01 F100 X30.625 Y23.636
G01 F100 X30.739 Y23.509
G01 F100 X30.844 Y23.328
G01 F100 X30.909 Y23.129
G01 F100 X30.928 Y22.946
G01 F100 X30.928 Y22.813
G01 F100 X30.972 Y22.764
G01 F100 X31.107 Y22.530
G01 F100 X31.190 Y22.274
G01 F100 X31.198 Y22.198
G01 F100 X31.206 Y22.274
G01 F100 X31.289 Y22.530
G01 F100 X31.424 Y22.764
G01 F100 X31.605 Y22.964
G01 F100 X31.823 Y23.123
G01 F100 X32.069 Y23.233
G01 F100 X32.333 Y23.289
G01 F100 X32.603 Y23.289
G01 F100 X32.867 Y23.233
G01 F100 X33.113 Y23.123
G01 F100 X33.331 Y22.964
G01 F100 X33.512 Y22.764
G01 F100 X33.647 Y22.530
G01 F100 X33.730 Y22.274
G01 F100 X33.738 Y22.198
G01 F100 X33.746 Y22.274
G01 F100 X33.829 Y22.530
G01 F100 X33.964 Y22.764
G01 F100 X34.145 Y22.964
G01 F100 X34.363 Y23.123
G01 F100 X34.609 Y23.233
G01 F100 X34.873 Y23.289
G01 F100 X35.143 Y23.289
G01 F100 X35.407 Y23.233
G01 F100 X35.653 Y23.123
G01 F100 X35.871 Y22.964
G01 F100 X36.052 Y22.764
G01 F100 X36.187 Y22.530
G01 F100 X36.270 Y22.274
G01 F100 X36.278 Y22.198
G01 F100 X36.286 Y22.274
G01 F100 X36.369 Y22.530
G01 F100 X36.504 Y22.764
G01 F100 X36.685 Y22.964
G01 F100 X36.903 Y23.123
G01 F100 X37.149 Y23.233
G01 F100 X37.413 Y23.289
G01 F100 X37.683 Y23.289
G01 F100 X37.947 Y23.233
G01 F100 X38.193 Y23.123
G01 F100 X38.411 Y22.964
G01 F100 X38.592 Y22.764
G01 F100 X38.727 Y22.530
G01 F100 X38.810 Y22.274
G01 F100 X38.835 Y22.032
G01 F100 X38.835 Y21.268
G01 F100 X38.810 Y21.026
G01 F100 X38.727 Y20.770
G01 F100 X38.592 Y20.536
G01 F100 X38.411 Y20.336
G01 F100 X38.193 Y20.177
G01 F100 X38.036 Y20.107
G01 F100 X38.402 Y20.107
G01 F100 X39.088 Y20.793
G01 F100 X39.088 Y21.676
G01 F100 X39.107 Y21.858
G01 F100 X39.172 Y22.058
G01 F100 X39.277 Y22.239
G01 F100 X39.417 Y22.395
G01 F100 X39.587 Y22.518
G01 F100 X39.778 Y22.604
G01 F100 X39.983 Y22.647
G01 F100 X44.168 Y22.647
G01 F100 X44.168 Y22.946
G01 F100 X44.187 Y23.129
G01 F100 X44.252 Y23.328
G01 F100 X44.357 Y23.509
G01 F100 X44.471 Y23.636
G01 F100 X45.778 Y24.943
G01 F100 X45.937 Y25.058
G01 F100 X46.128 Y25.144
G01 F100 X46.333 Y25.187
G01 F100 X50.353 Y25.187
G01 F100 X50.558 Y25.144
G01 F100 X50.749 Y25.058
G01 F100 X50.908 Y24.943
G01 F100 X52.215 Y23.636
G01 F100 X52.329 Y23.509
G01 F100 X52.434 Y23.328
G01 F100 X52.499 Y23.129
G01 F100 X52.518 Y22.946
G01 F100 X52.518 Y21.543
G01 F100 X52.562 Y21.494
G01 F100 X52.621 Y21.392
G01 F100 X52.951 Y21.385
G01 F100 X53.014 Y21.494
G01 F100 X53.195 Y21.694
G01 F100 X53.413 Y21.853
G01 F100 X53.659 Y21.963
G01 F100 X53.923 Y22.019
G01 F100 X54.193 Y22.019
G01 F100 X54.457 Y21.963
G01 F100 X54.703 Y21.853
G01 F100 X54.921 Y21.694
G01 F100 X55.102 Y21.494
G01 F100 X55.161 Y21.392
G01 F100 X55.491 Y21.385
G01 F100 X55.554 Y21.494
G01 F100 X55.735 Y21.694
G01 F100 X55.953 Y21.853
G01 F100 X56.199 Y21.963
G01 F100 X56.463 Y22.019
G01 F100 X56.733 Y22.019
G01 F100 X56.997 Y21.963
G01 F100 X57.243 Y21.853
G01 F100 X57.461 Y21.694
G01 F100 X57.642 Y21.494
G01 F100 X57.701 Y21.392
G01 F100 X58.031 Y21.385
G01 F100 X58.094 Y21.494
G01 F100 X58.275 Y21.694
G01 F100 X58.493 Y21.853
G01 F100 X58.739 Y21.963
G01 F100 X59.003 Y22.019
G01 F100 X59.273 Y22.019
G01 F100 X59.537 Y21.963
G01 F100 X59.783 Y21.853
G01 F100 X60.001 Y21.694
G01 F100 X60.182 Y21.494
G01 F100 X60.317 Y21.260
G01 F100 X60.400 Y21.004
G01 F100 X60.408 Y20.928
G01 F100 X60.416 Y21.004
G01 F100 X60.499 Y21.260
G01 F100 X60.634 Y21.494
G01 F100 X60.815 Y21.694
G01 F100 X61.033 Y21.853
G01 F100 X61.279 Y21.963
G01 F100 X61.543 Y22.019
G01 F100 X61.813 Y22.019
G01 F100 X62.077 Y21.963
G01 F100 X62.323 Y21.853
G01 F100 X62.541 Y21.694
G01 F100 X62.722 Y21.494
G01 F100 X62.857 Y21.260
G01 F100 X62.931 Y21.033
G01 F100 X62.931 Y22.023
G01 F100 X63.291 Y22.023
G01 F100 X63.302 Y22.058
G01 F100 X63.407 Y22.239
G01 F100 X63.521 Y22.366
G01 F100 X67.368 Y26.213
G01 F100 X67.527 Y26.328
G01 F100 X67.718 Y26.414
G01 F100 X67.923 Y26.457
G01 F100 X69.801 Y26.457
G01 F100 X69.936 Y26.555
G01 F100 X70.177 Y26.663
G01 F100 X70.436 Y26.718
G01 F100 X70.700 Y26.718
G01 F100 X70.959 Y26.663
G01 F100 X71.200 Y26.555
G01 F100 X71.414 Y26.400
G01 F100 X71.591 Y26.203
G01 F100 X71.723 Y25.974
G01 F100 X71.805 Y25.723
G01 F100 X71.833 Y25.460
G01 F100 X71.805 Y25.197
G01 F100 X71.723 Y24.946
G01 F100 X71.591 Y24.717
G01 F100 X71.414 Y24.520
G01 F100 X71.200 Y24.365
G01 F100 X70.959 Y24.257
G01 F100 X70.700 Y24.202
G01 F100 X70.436 Y24.202
G01 F100 X70.177 Y24.257
G01 F100 X69.936 Y24.365
G01 F100 X69.801 Y24.463
G01 F100 X68.444 Y24.463
G01 F100 X65.505 Y21.524
G01 F100 X65.505 Y18.837
G01 F100 X66.342 Y18.837
G01 F100 X69.306 Y21.801
G01 F100 X69.306 Y24.182
G01 F100 X71.830 Y24.182
G01 F100 X71.830 Y21.658
G01 F100 X71.568 Y21.658
G01 F100 X71.568 Y21.624
G01 F100 X71.549 Y21.442
G01 F100 X71.484 Y21.242
G01 F100 X71.379 Y21.061
G01 F100 X71.265 Y20.934
G01 F100 X67.418 Y17.087
G01 F100 X67.299 Y17.000
G01 F100 X72.500 Y17.000
G01 F100 X72.500 Y46.000
G01 F100 X15.500 Y46.000
G00 F1000 Z3.000
G00 F1000 X27.283 Y45.507
G00 F1000 Z0
G01 F100 Z-0.1
G01 F100 X36.383 Y45.507
G01 F100 X36.588 Y45.464
G01 F100 X36.779 Y45.378
G01 F100 X36.938 Y45.263
G01 F100 X43.990 Y38.211
G01 F100 X44.031 Y38.212
G01 F100 X44.309 Y38.153
G01 F100 X44.562 Y38.040
G01 F100 X44.773 Y37.887
G01 F100 X46.540 Y37.887
G01 F100 X46.507 Y38.160
G01 F100 X46.533 Y38.410
G01 F100 X46.611 Y38.649
G01 F100 X46.736 Y38.866
G01 F100 X46.904 Y39.053
G01 F100 X47.107 Y39.200
G01 F100 X47.337 Y39.303
G01 F100 X47.582 Y39.355
G01 F100 X47.834 Y39.355
G01 F100 X48.079 Y39.303
G01 F100 X48.309 Y39.200
G01 F100 X48.512 Y39.053
G01 F100 X48.680 Y38.866
G01 F100 X48.805 Y38.649
G01 F100 X48.883 Y38.410
G01 F100 X48.909 Y38.160
G01 F100 X48.883 Y37.910
G01 F100 X48.805 Y37.671
G01 F100 X48.708 Y37.503
G01 F100 X48.708 Y36.277
G01 F100 X48.805 Y36.109
G01 F100 X48.883 Y35.870
G01 F100 X48.909 Y35.620
G01 F100 X48.883 Y35.370
G01 F100 X48.805 Y35.131
G01 F100 X48.680 Y34.914
G01 F100 X48.512 Y34.727
G01 F100 X48.309 Y34.580
G01 F100 X48.079 Y34.477
G01 F100 X47.834 Y34.425
G01 F100 X47.582 Y34.425
G01 F100 X47.337 Y34.477
G01 F100 X47.107 Y34.580
G01 F100 X46.904 Y34.727
G01 F100 X46.736 Y34.914
G01 F100 X46.611 Y35.131
G01 F100 X46.533 Y35.370
G01 F100 X46.507 Y35.620
G01 F100 X46.533 Y35.870
G01 F100 X44.898 Y35.893
G01 F100 X44.898 Y30.267
G01 F100 X45.273 Y30.267
G01 F100 X45.478 Y30.224
G01 F100 X45.669 Y30.138
G01 F100 X45.839 Y30.015
G01 F100 X45.979 Y29.859
G01 F100 X46.084 Y29.678
G01 F100 X46.149 Y29.479
G01 F100 X46.168 Y29.296
G01 F100 X46.168 Y27.727
G01 F100 X47.292 Y27.727
G01 F100 X47.691 Y28.126
G01 F100 X47.691 Y28.382
G01 F100 X47.716 Y28.624
G01 F100 X47.799 Y28.880
G01 F100 X47.934 Y29.114
G01 F100 X48.115 Y29.314
G01 F100 X48.333 Y29.473
G01 F100 X48.579 Y29.583
G01 F100 X48.843 Y29.639
G01 F100 X49.113 Y29.639
G01 F100 X49.377 Y29.583
G01 F100 X49.623 Y29.473
G01 F100 X49.841 Y29.314
G01 F100 X50.022 Y29.114
G01 F100 X50.157 Y28.880
G01 F100 X50.240 Y28.624
G01 F100 X50.248 Y28.548
G01 F100 X50.256 Y28.624
G01 F100 X50.339 Y28.880
G01 F100 X50.474 Y29.114
G01 F100 X50.518 Y29.163
G01 F100 X50.518 Y30.813
G01 F100 X48.673 Y30.813
G01 F100 X48.639 Y30.776
G01 F100 X48.404 Y30.605
G01 F100 X48.138 Y30.486
G01 F100 X47.854 Y30.426
G01 F100 X47.563 Y30.426
G01 F100 X47.278 Y30.486
G01 F100 X47.012 Y30.605
G01 F100 X46.777 Y30.776
G01 F100 X46.582 Y30.992
G01 F100 X46.437 Y31.244
G01 F100 X46.347 Y31.521
G01 F100 X46.316 Y31.810
G01 F100 X46.347 Y32.099
G01 F100 X46.437 Y32.376
G01 F100 X46.582 Y32.628
G01 F100 X46.777 Y32.844
G01 F100 X47.012 Y33.015
G01 F100 X47.278 Y33.134
G01 F100 X47.563 Y33.194
G01 F100 X47.854 Y33.194
G01 F100 X48.138 Y33.134
G01 F100 X48.404 Y33.015
G01 F100 X48.639 Y32.844
G01 F100 X48.673 Y32.807
G01 F100 X49.248 Y32.807
G01 F100 X49.248 Y38.186
G01 F100 X49.267 Y38.369
G01 F100 X49.332 Y38.568
G01 F100 X49.437 Y38.749
G01 F100 X49.577 Y38.905
G01 F100 X49.747 Y39.028
G01 F100 X49.938 Y39.114
G01 F100 X50.143 Y39.157
G01 F100 X52.128 Y39.157
G01 F100 X52.187 Y39.200
G01 F100 X52.417 Y39.303
G01 F100 X52.662 Y39.355
G01 F100 X52.914 Y39.355
G01 F100 X53.159 Y39.303
G01 F100 X53.389 Y39.200
G01 F100 X53.448 Y39.157
G01 F100 X57.452 Y39.157
G01 F100 X60.289 Y41.994
G01 F100 X60.317 Y42.259
G01 F100 X60.407 Y42.536
G01 F100 X60.552 Y42.788
G01 F100 X60.747 Y43.004
G01 F100 X60.982 Y43.175
G01 F100 X61.248 Y43.294
G01 F100 X61.533 Y43.354
G01 F100 X61.824 Y43.354
G01 F100 X62.108 Y43.294
G01 F100 X62.374 Y43.175
G01 F100 X62.609 Y43.004
G01 F100 X62.804 Y42.788
G01 F100 X62.949 Y42.536
G01 F100 X63.039 Y42.259
G01 F100 X63.070 Y41.970
G01 F100 X63.039 Y41.681
G01 F100 X62.949 Y41.404
G01 F100 X62.804 Y41.152
G01 F100 X62.609 Y40.936
G01 F100 X62.374 Y40.765
G01 F100 X62.108 Y40.646
G01 F100 X61.824 Y40.586
G01 F100 X61.707 Y40.586
G01 F100 X58.528 Y37.407
G01 F100 X58.369 Y37.292
G01 F100 X58.178 Y37.206
G01 F100 X57.973 Y37.163
G01 F100 X53.448 Y37.163
G01 F100 X53.389 Y37.120
G01 F100 X53.159 Y37.017
G01 F100 X52.914 Y36.965
G01 F100 X52.662 Y36.965
G01 F100 X52.417 Y37.017
G01 F100 X52.187 Y37.120
G01 F100 X52.128 Y37.163
G01 F100 X51.248 Y37.163
G01 F100 X51.248 Y32.807
G01 F100 X51.623 Y32.807
G01 F100 X51.828 Y32.764
G01 F100 X52.019 Y32.678
G01 F100 X52.189 Y32.555
G01 F100 X52.329 Y32.399
G01 F100 X52.434 Y32.218
G01 F100 X52.499 Y32.019
G01 F100 X52.518 Y31.836
G01 F100 X52.518 Y29.163
G01 F100 X52.562 Y29.114
G01 F100 X52.697 Y28.880
G01 F100 X52.780 Y28.624
G01 F100 X52.788 Y28.548
G01 F100 X52.796 Y28.624
G01 F100 X52.879 Y28.880
G01 F100 X53.014 Y29.114
G01 F100 X53.058 Y29.163
G01 F100 X53.058 Y32.667
G01 F100 X52.091 Y33.634
G01 F100 X51.977 Y33.761
G01 F100 X51.872 Y33.942
G01 F100 X51.807 Y34.142
G01 F100 X51.788 Y34.324
G01 F100 X51.788 Y34.963
G01 F100 X51.691 Y35.131
G01 F100 X51.613 Y35.370
G01 F100 X51.587 Y35.620
G01 F100 X51.613 Y35.870
G01 F100 X51.691 Y36.109
G01 F100 X51.816 Y36.326
G01 F100 X51.984 Y36.513
G01 F100 X52.187 Y36.660
G01 F100 X52.417 Y36.763
G01 F100 X52.662 Y36.815
G01 F100 X52.914 Y36.815
G01 F100 X53.159 Y36.763
G01 F100 X53.389 Y36.660
G01 F100 X53.592 Y36.513
G01 F100 X53.760 Y36.326
G01 F100 X53.885 Y36.109
G01 F100 X53.963 Y35.870
G01 F100 X53.989 Y35.620
G01 F100 X53.963 Y35.370
G01 F100 X53.885 Y35.131
G01 F100 X53.788 Y34.963
G01 F100 X53.788 Y34.763
G01 F100 X54.755 Y33.796
G01 F100 X54.869 Y33.669
G01 F100 X54.974 Y33.488
G01 F100 X55.039 Y33.288
G01 F100 X55.058 Y33.106
G01 F100 X55.058 Y32.807
G01 F100 X56.868 Y32.807
G01 F100 X56.868 Y33.106
G01 F100 X56.887 Y33.288
G01 F100 X56.952 Y33.488
G01 F100 X57.057 Y33.669
G01 F100 X57.171 Y33.796
G01 F100 X60.289 Y36.914
G01 F100 X60.317 Y37.179
G01 F100 X60.407 Y37.456
G01 F100 X60.552 Y37.708
G01 F100 X60.747 Y37.924
G01 F100 X60.982 Y38.095
G01 F100 X61.248 Y38.214
G01 F100 X61.533 Y38.274
G01 F100 X61.824 Y38.274
G01 F100 X62.108 Y38.214
G01 F100 X62.374 Y38.095
G01 F100 X62.609 Y37.924
G01 F100 X62.804 Y37.708
G01 F100 X62.949 Y37.456
G01 F100 X63.039 Y37.179
G01 F100 X63.070 Y36.890
G01 F100 X63.039 Y36.601
G01 F100 X62.949 Y36.324
G01 F100 X62.804 Y36.072
G01 F100 X62.609 Y35.856
G01 F100 X62.374 Y35.685
G01 F100 X62.108 Y35.566
G01 F100 X61.824 Y35.506
G01 F100 X61.707 Y35.506
G01 F100 X58.916 Y32.715
G01 F100 X58.994 Y32.628
G01 F100 X59.139 Y32.376
G01 F100 X59.229 Y32.099
G01 F100 X59.260 Y31.810
G01 F100 X59.229 Y31.521
G01 F100 X59.139 Y31.244
G01 F100 X58.994 Y30.992
G01 F100 X58.799 Y30.776
G01 F100 X58.564 Y30.605
G01 F100 X58.298 Y30.486
G01 F100 X58.014 Y30.426
G01 F100 X57.723 Y30.426
G01 F100 X57.438 Y30.486
G01 F100 X57.172 Y30.605
G01 F100 X56.937 Y30.776
G01 F100 X56.903 Y30.813
G01 F100 X55.058 Y30.813
G01 F100 X55.058 Y29.163
G01 F100 X55.102 Y29.114
G01 F100 X55.237 Y28.880
G01 F100 X55.320 Y28.624
G01 F100 X55.328 Y28.548
G01 F100 X55.336 Y28.624
G01 F100 X55.419 Y28.880
G01 F100 X55.554 Y29.114
G01 F100 X55.735 Y29.314
G01 F100 X55.953 Y29.473
G01 F100 X56.199 Y29.583
G01 F100 X56.463 Y29.639
G01 F100 X56.733 Y29.639
G01 F100 X56.997 Y29.583
G01 F100 X57.243 Y29.473
G01 F100 X57.461 Y29.314
G01 F100 X57.642 Y29.114
G01 F100 X57.777 Y28.880
G01 F100 X57.860 Y28.624
G01 F100 X57.868 Y28.548
G01 F100 X57.876 Y28.624
G01 F100 X57.959 Y28.880
G01 F100 X58.094 Y29.114
G01 F100 X58.138 Y29.163
G01 F100 X58.138 Y29.296
G01 F100 X58.157 Y29.479
G01 F100 X58.222 Y29.678
G01 F100 X58.327 Y29.859
G01 F100 X58.441 Y29.986
G01 F100 X62.288 Y33.833
G01 F100 X62.447 Y33.948
G01 F100 X62.638 Y34.034
G01 F100 X62.843 Y34.077
G01 F100 X69.801 Y34.077
G01 F100 X69.936 Y34.175
G01 F100 X70.177 Y34.283
G01 F100 X70.436 Y34.338
G01 F100 X70.700 Y34.338
G01 F100 X70.959 Y34.283
G01 F100 X71.200 Y34.175
G01 F100 X71.414 Y34.020
G01 F100 X71.591 Y33.823
G01 F100 X71.723 Y33.594
G01 F100 X71.805 Y33.343
G01 F100 X71.833 Y33.080
G01 F100 X71.805 Y32.817
G01 F100 X71.723 Y32.566
G01 F100 X71.591 Y32.337
G01 F100 X71.414 Y32.140
G01 F100 X71.200 Y31.985
G01 F100 X70.959 Y31.877
G01 F100 X70.700 Y31.822
G01 F100 X70.436 Y31.822
G01 F100 X70.177 Y31.877
G01 F100 X69.936 Y31.985
G01 F100 X69.801 Y32.083
G01 F100 X63.364 Y32.083
G01 F100 X62.812 Y31.531
G01 F100 X62.843 Y31.537
G01 F100 X69.801 Y31.537
G01 F100 X69.936 Y31.635
G01 F100 X70.177 Y31.743
G01 F100 X70.436 Y31.798
G01 F100 X70.700 Y31.798
G01 F100 X70.959 Y31.743
G01 F100 X71.200 Y31.635
G01 F100 X71.414 Y31.480
G01 F100 X71.591 Y31.283
G01 F100 X71.723 Y31.054
G01 F100 X71.805 Y30.803
G01 F100 X71.833 Y30.540
G01 F100 X71.805 Y30.277
G01 F100 X71.723 Y30.026
G01 F100 X71.591 Y29.797
G01 F100 X71.414 Y29.600
G01 F100 X71.200 Y29.445
G01 F100 X70.959 Y29.337
G01 F100 X70.700 Y29.282
G01 F100 X70.436 Y29.282
G01 F100 X70.177 Y29.337
G01 F100 X69.936 Y29.445
G01 F100 X69.801 Y29.543
G01 F100 X64.706 Y29.543
G01 F100 X64.863 Y29.473
G01 F100 X65.081 Y29.314
G01 F100 X65.262 Y29.114
G01 F100 X65.317 Y29.018
G01 F100 X69.802 Y28.998
G01 F100 X69.936 Y29.095
G01 F100 X70.177 Y29.203
G01 F100 X70.436 Y29.258
G01 F100 X70.700 Y29.258
G01 F100 X70.959 Y29.203
G01 F100 X71.200 Y29.095
G01 F100 X71.414 Y28.940
G01 F100 X71.591 Y28.743
G01 F100 X71.723 Y28.514
G01 F100 X71.805 Y28.263
G01 F100 X71.833 Y28.000
G01 F100 X71.805 Y27.737
G01 F100 X71.723 Y27.486
G01 F100 X71.591 Y27.257
G01 F100 X71.414 Y27.060
G01 F100 X71.200 Y26.905
G01 F100 X70.959 Y26.797
G01 F100 X70.700 Y26.742
G01 F100 X70.436 Y26.742
G01 F100 X70.177 Y26.797
G01 F100 X69.936 Y26.905
G01 F100 X69.801 Y27.003
G01 F100 X65.329 Y27.003
G01 F100 X65.262 Y26.886
G01 F100 X65.081 Y26.686
G01 F100 X64.863 Y26.527
G01 F100 X64.617 Y26.417
G01 F100 X64.353 Y26.361
G01 F100 X64.083 Y26.361
G01 F100 X63.819 Y26.417
G01 F100 X63.573 Y26.527
G01 F100 X63.355 Y26.686
G01 F100 X63.174 Y26.886
G01 F100 X63.039 Y27.120
G01 F100 X62.956 Y27.376
G01 F100 X62.948 Y27.452
G01 F100 X62.940 Y27.376
G01 F100 X62.857 Y27.120
G01 F100 X62.722 Y26.886
G01 F100 X62.541 Y26.686
G01 F100 X62.323 Y26.527
G01 F100 X62.077 Y26.417
G01 F100 X61.813 Y26.361
G01 F100 X61.543 Y26.361
G01 F100 X61.279 Y26.417
G01 F100 X61.033 Y26.527
G01 F100 X60.815 Y26.686
G01 F100 X60.634 Y26.886
G01 F100 X60.499 Y27.120
G01 F100 X60.416 Y27.376
G01 F100 X60.408 Y27.452
G01 F100 X60.400 Y27.376
G01 F100 X60.317 Y27.120
G01 F100 X60.182 Y26.886
G01 F100 X60.001 Y26.686
G01 F100 X59.783 Y26.527
G01 F100 X59.537 Y26.417
G01 F100 X59.273 Y26.361
G01 F100 X59.003 Y26.361
G01 F100 X58.739 Y26.417
G01 F100 X58.493 Y26.527
G01 F100 X58.275 Y26.686
G01 F100 X58.094 Y26.886
G01 F100 X57.959 Y27.120
G01 F100 X57.876 Y27.376
G01 F100 X57.868 Y27.452
G01 F100 X57.860 Y27.376
G01 F100 X57.777 Y27.120
G01 F100 X57.642 Y26.886
G01 F100 X57.461 Y26.686
G01 F100 X57.243 Y26.527
G01 F100 X56.997 Y26.417
G01 F100 X56.733 Y26.361
G01 F100 X56.463 Y26.361
G01 F100 X56.199 Y26.417
G01 F100 X55.953 Y26.527
G01 F100 X55.735 Y26.686
G01 F100 X55.554 Y26.886
G01 F100 X55.419 Y27.120
G01 F100 X55.336 Y27.376
G01 F100 X55.328 Y27.452
G01 F100 X55.320 Y27.376
G01 F100 X55.237 Y27.120
G01 F100 X55.102 Y26.886
G01 F100 X54.921 Y26.686
G01 F100 X54.703 Y26.527
G01 F100 X54.457 Y26.417
G01 F100 X54.193 Y26.361
G01 F100 X53.923 Y26.361
G01 F100 X53.659 Y26.417
G01 F100 X53.413 Y26.527
G01 F100 X53.195 Y26.686
G01 F100 X53.014 Y26.886
G01 F100 X52.879 Y27.120
G01 F100 X52.796 Y27.376
G01 F100 X52.788 Y27.452
G01 F100 X52.780 Y27.376
G01 F100 X52.697 Y27.120
G01 F100 X52.562 Y26.886
G01 F100 X52.381 Y26.686
G01 F100 X52.163 Y26.527
G01 F100 X51.917 Y26.417
G01 F100 X51.653 Y26.361
G01 F100 X51.383 Y26.361
G01 F100 X51.119 Y26.417
G01 F100 X50.873 Y26.527
G01 F100 X50.655 Y26.686
G01 F100 X50.474 Y26.886
G01 F100 X50.339 Y27.120
G01 F100 X50.256 Y27.376
G01 F100 X50.248 Y27.452
G01 F100 X50.240 Y27.376
G01 F100 X50.157 Y27.120
G01 F100 X50.022 Y26.886
G01 F100 X49.841 Y26.686
G01 F100 X49.623 Y26.527
G01 F100 X49.377 Y26.417
G01 F100 X49.113 Y26.361
G01 F100 X48.843 Y26.361
G01 F100 X48.768 Y26.377
G01 F100 X48.368 Y25.977
G01 F100 X48.209 Y25.862
G01 F100 X48.018 Y25.776
G01 F100 X47.813 Y25.733
G01 F100 X45.828 Y25.733
G01 F100 X45.769 Y25.690
G01 F100 X45.539 Y25.588
G01 F100 X45.294 Y25.535
G01 F100 X45.042 Y25.535
G01 F100 X44.797 Y25.588
G01 F100 X44.567 Y25.690
G01 F100 X44.364 Y25.837
G01 F100 X44.196 Y26.024
G01 F100 X44.071 Y26.241
G01 F100 X43.993 Y26.480
G01 F100 X43.967 Y26.730
G01 F100 X43.993 Y26.980
G01 F100 X44.071 Y27.219
G01 F100 X44.168 Y27.387
G01 F100 X44.168 Y28.273
G01 F100 X38.659 Y28.273
G01 F100 X38.592 Y28.156
G01 F100 X38.411 Y27.956
G01 F100 X38.193 Y27.797
G01 F100 X37.947 Y27.687
G01 F100 X37.683 Y27.631
G01 F100 X37.413 Y27.631
G01 F100 X37.149 Y27.687
G01 F100 X36.903 Y27.797
G01 F100 X36.685 Y27.956
G01 F100 X36.504 Y28.156
G01 F100 X36.369 Y28.390
G01 F100 X36.286 Y28.646
G01 F100 X36.278 Y28.722
G01 F100 X36.270 Y28.646
G01 F100 X36.187 Y28.390
G01 F100 X36.052 Y28.156
G01 F100 X35.871 Y27.956
G01 F100 X35.653 Y27.797
G01 F100 X35.407 Y27.687
G01 F100 X35.143 Y27.631
G01 F100 X34.873 Y27.631
G01 F100 X34.609 Y27.687
G01 F100 X34.363 Y27.797
G01 F100 X34.145 Y27.956
G01 F100 X33.964 Y28.156
G01 F100 X33.829 Y28.390
G01 F100 X33.746 Y28.646
G01 F100 X33.738 Y28.722
G01 F100 X33.730 Y28.646
G01 F100 X33.647 Y28.390
G01 F100 X33.512 Y28.156
G01 F100 X33.331 Y27.956
G01 F100 X33.113 Y27.797
G01 F100 X32.867 Y27.687
G01 F100 X32.603 Y27.631
G01 F100 X32.333 Y27.631
G01 F100 X32.069 Y27.687
G01 F100 X31.823 Y27.797
G01 F100 X31.605 Y27.956
G01 F100 X31.424 Y28.156
G01 F100 X31.289 Y28.390
G01 F100 X31.215 Y28.617
G01 F100 X31.215 Y27.627
G01 F100 X30.928 Y27.627
G01 F100 X30.928 Y27.143
G01 F100 X31.614 Y26.457
G01 F100 X40.058 Y26.457
G01 F100 X40.030 Y26.730
G01 F100 X40.059 Y27.006
G01 F100 X40.145 Y27.270
G01 F100 X40.283 Y27.511
G01 F100 X40.469 Y27.717
G01 F100 X40.694 Y27.880
G01 F100 X40.948 Y27.993
G01 F100 X41.219 Y28.051
G01 F100 X41.497 Y28.051
G01 F100 X41.769 Y27.993
G01 F100 X42.022 Y27.880
G01 F100 X42.247 Y27.717
G01 F100 X42.433 Y27.511
G01 F100 X42.571 Y27.270
G01 F100 X42.657 Y27.006
G01 F100 X42.686 Y26.730
G01 F100 X42.657 Y26.454
G01 F100 X42.571 Y26.190
G01 F100 X42.433 Y25.949
G01 F100 X42.358 Y25.867
G01 F100 X42.358 Y24.847
G01 F100 X42.455 Y24.679
G01 F100 X42.533 Y24.440
G01 F100 X42.559 Y24.190
G01 F100 X42.533 Y23.940
G01 F100 X42.455 Y23.701
G01 F100 X42.330 Y23.484
G01 F100 X42.162 Y23.297
G01 F100 X41.959 Y23.150
G01 F100 X41.729 Y23.047
G01 F100 X41.484 Y22.995
G01 F100 X41.232 Y22.995
G01 F100 X40.987 Y23.047
G01 F100 X40.757 Y23.150
G01 F100 X40.554 Y23.297
G01 F100 X40.386 Y23.484
G01 F100 X40.261 Y23.701
G01 F100 X40.183 Y23.940
G01 F100 X40.157 Y24.190
G01 F100 X40.183 Y24.440
G01 F100 X31.093 Y24.463
G01 F100 X30.888 Y24.506
G01 F100 X30.697 Y24.592
G01 F100 X30.538 Y24.707
G01 F100 X29.231 Y26.014
G01 F100 X29.117 Y26.141
G01 F100 X29.012 Y26.322
G01 F100 X28.947 Y26.521
G01 F100 X28.928 Y26.704
G01 F100 X28.928 Y27.627
G01 F100 X28.641 Y27.627
G01 F100 X28.641 Y30.379
G01 F100 X28.048 Y29.787
G01 F100 X27.889 Y29.672
G01 F100 X27.698 Y29.586
G01 F100 X27.493 Y29.543
G01 F100 X26.993 Y29.543
G01 F100 X26.782 Y29.390
G01 F100 X26.529 Y29.277
G01 F100 X26.257 Y29.219
G01 F100 X25.979 Y29.219
G01 F100 X25.707 Y29.277
G01 F100 X25.454 Y29.390
G01 F100 X25.229 Y29.553
G01 F100 X25.043 Y29.759
G01 F100 X24.905 Y30.000
G01 F100 X24.819 Y30.264
G01 F100 X24.790 Y30.540
G01 F100 X24.819 Y30.816
G01 F100 X24.905 Y31.080
G01 F100 X25.043 Y31.321
G01 F100 X25.229 Y31.527
G01 F100 X25.454 Y31.690
G01 F100 X25.707 Y31.803
G01 F100 X25.979 Y31.861
G01 F100 X26.257 Y31.861
G01 F100 X26.529 Y31.803
G01 F100 X26.782 Y31.690
G01 F100 X26.981 Y31.546
G01 F100 X27.998 Y32.563
G01 F100 X28.157 Y32.678
G01 F100 X28.348 Y32.764
G01 F100 X28.553 Y32.807
G01 F100 X30.198 Y32.807
G01 F100 X30.198 Y35.646
G01 F100 X30.217 Y35.828
G01 F100 X30.282 Y36.028
G01 F100 X30.387 Y36.209
G01 F100 X30.501 Y36.336
G01 F100 X34.348 Y40.183
G01 F100 X34.507 Y40.298
G01 F100 X34.698 Y40.384
G01 F100 X34.903 Y40.427
G01 F100 X37.653 Y40.427
G01 F100 X37.858 Y40.384
G01 F100 X38.049 Y40.298
G01 F100 X38.208 Y40.183
G01 F100 X42.055 Y36.336
G01 F100 X42.169 Y36.209
G01 F100 X42.274 Y36.028
G01 F100 X42.339 Y35.828
G01 F100 X42.358 Y35.646
G01 F100 X42.358 Y35.214
G01 F100 X42.433 Y35.131
G01 F100 X42.571 Y34.890
G01 F100 X42.657 Y34.626
G01 F100 X42.686 Y34.350
G01 F100 X42.657 Y34.074
G01 F100 X42.571 Y33.810
G01 F100 X42.433 Y33.569
G01 F100 X42.247 Y33.363
G01 F100 X42.022 Y33.200
G01 F100 X41.769 Y33.087
G01 F100 X41.497 Y33.029
G01 F100 X41.219 Y33.029
G01 F100 X40.948 Y33.087
G01 F100 X40.694 Y33.200
G01 F100 X40.469 Y33.363
G01 F100 X40.283 Y33.569
G01 F100 X40.145 Y33.810
G01 F100 X40.059 Y34.074
G01 F100 X40.030 Y34.350
G01 F100 X40.059 Y34.626
G01 F100 X40.145 Y34.890
G01 F100 X40.283 Y35.131
G01 F100 X40.355 Y35.210
G01 F100 X37.132 Y38.433
G01 F100 X35.424 Y38.433
G01 F100 X32.198 Y35.207
G01 F100 X32.198 Y32.807
G01 F100 X32.573 Y32.807
G01 F100 X32.778 Y32.764
G01 F100 X32.969 Y32.678
G01 F100 X33.139 Y32.555
G01 F100 X33.279 Y32.399
G01 F100 X33.384 Y32.218
G01 F100 X33.449 Y32.019
G01 F100 X33.468 Y31.836
G01 F100 X33.468 Y30.433
G01 F100 X33.512 Y30.384
G01 F100 X33.647 Y30.150
G01 F100 X33.730 Y29.894
G01 F100 X33.738 Y29.818
G01 F100 X33.746 Y29.894
G01 F100 X33.829 Y30.150
G01 F100 X33.964 Y30.384
G01 F100 X34.008 Y30.433
G01 F100 X34.008 Y33.486
G01 F100 X33.933 Y33.569
G01 F100 X33.795 Y33.810
G01 F100 X33.709 Y34.074
G01 F100 X33.680 Y34.350
G01 F100 X33.709 Y34.626
G01 F100 X33.795 Y34.890
G01 F100 X33.933 Y35.131
G01 F100 X34.119 Y35.337
G01 F100 X34.344 Y35.500
G01 F100 X34.598 Y35.613
G01 F100 X34.869 Y35.671
G01 F100 X35.272 Y36.033
G01 F100 X35.203 Y36.109
G01 F100 X35.065 Y36.350
G01 F100 X34.979 Y36.614
G01 F100 X34.950 Y36.890
G01 F100 X34.979 Y37.166
G01 F100 X35.065 Y37.430
G01 F100 X35.203 Y37.671
G01 F100 X35.389 Y37.877
G01 F100 X35.614 Y38.040
G01 F100 X35.867 Y38.153
G01 F100 X36.139 Y38.211
G01 F100 X36.417 Y38.211
G01 F100 X36.689 Y38.153
G01 F100 X36.942 Y38.040
G01 F100 X37.167 Y37.877
G01 F100 X37.353 Y37.671
G01 F100 X37.491 Y37.430
G01 F100 X37.577 Y37.166
G01 F100 X37.606 Y36.890
G01 F100 X37.577 Y36.614
G01 F100 X37.491 Y36.350
G01 F100 X37.353 Y36.109
G01 F100 X37.278 Y36.026
G01 F100 X37.278 Y35.594
G01 F100 X37.259 Y35.412
G01 F100 X37.194 Y35.212
G01 F100 X37.089 Y35.031
G01 F100 X36.975 Y34.904
G01 F100 X36.326 Y34.255
G01 F100 X36.307 Y34.074
G01 F100 X36.221 Y33.810
G01 F100 X36.083 Y33.569
G01 F100 X36.008 Y33.486
G01 F100 X36.008 Y30.433
G01 F100 X36.052 Y30.384
G01 F100 X36.187 Y30.150
G01 F100 X36.270 Y29.894
G01 F100 X36.278 Y29.818
G01 F100 X36.286 Y29.894
G01 F100 X36.369 Y30.150
G01 F100 X36.504 Y30.384
G01 F100 X36.685 Y30.584
G01 F100 X36.903 Y30.743
G01 F100 X37.149 Y30.853
G01 F100 X37.413 Y30.909
G01 F100 X37.683 Y30.909
G01 F100 X37.947 Y30.853
G01 F100 X38.193 Y30.743
G01 F100 X38.411 Y30.584
G01 F100 X38.592 Y30.384
G01 F100 X38.647 Y30.288
G01 F100 X42.898 Y30.270
G01 F100 X42.898 Y36.026
G01 F100 X42.823 Y36.109
G01 F100 X42.685 Y36.350
G01 F100 X42.599 Y36.614
G01 F100 X42.580 Y36.795
G01 F100 X35.862 Y43.513
G01 F100 X27.804 Y43.513
G01 F100 X27.118 Y42.827
G01 F100 X27.118 Y42.153
G01 F100 X27.304 Y42.017
G01 F100 X27.552 Y41.742
G01 F100 X27.738 Y41.421
G01 F100 X27.852 Y41.069
G01 F100 X27.891 Y40.700
G01 F100 X27.852 Y40.331
G01 F100 X27.738 Y39.979
G01 F100 X27.552 Y39.658
G01 F100 X27.304 Y39.383
G01 F100 X27.004 Y39.165
G01 F100 X26.666 Y39.014
G01 F100 X26.303 Y38.937
G01 F100 X25.933 Y38.937
G01 F100 X25.797 Y38.966
G01 F100 X21.698 Y34.867
G01 F100 X21.539 Y34.752
G01 F100 X21.348 Y34.666
G01 F100 X21.143 Y34.623
G01 F100 X21.030 Y34.623
G01 F100 X21.030 Y34.358
G01 F100 X18.506 Y34.358
G01 F100 X18.506 Y36.882
G01 F100 X20.887 Y36.882
G01 F100 X24.379 Y40.375
G01 F100 X24.345 Y40.700
G01 F100 X24.384 Y41.069
G01 F100 X24.498 Y41.421
G01 F100 X24.684 Y41.742
G01 F100 X24.932 Y42.017
G01 F100 X25.118 Y42.153
G01 F100 X25.118 Y43.266
G01 F100 X25.137 Y43.449
G01 F100 X25.202 Y43.648
G01 F100 X25.307 Y43.829
G01 F100 X25.421 Y43.956
G01 F100 X26.728 Y45.263
G01 F100 X26.887 Y45.378
G01 F100 X27.078 Y45.464
G01 F100 X27.283 Y45.507
G00 F1000 Z3.000
G00 F1000 X19.636 Y34.338
G00 F1000 Z0
G01 F100 Z-0.1
G01 F100 X19.900 Y34.338
G01 F100 X20.159 Y34.283
G01 F100 X20.400 Y34.175
G01 F100 X20.614 Y34.020
G01 F100 X20.791 Y33.823
G01 F100 X20.923 Y33.594
G01 F100 X21.005 Y33.343
G01 F100 X21.033 Y33.080
G01 F100 X21.005 Y32.817
G01 F100 X20.923 Y32.566
G01 F100 X20.791 Y32.337
G01 F100 X20.769 Y28.564
G01 F100 X20.966 Y28.564
G01 F100 X20.966 Y26.167
G01 F100 X19.348 Y26.167
G01 F100 X18.228 Y25.047
G01 F100 X18.228 Y20.793
G01 F100 X18.590 Y20.431
G01 F100 X18.631 Y20.432
G01 F100 X18.909 Y20.373
G01 F100 X19.162 Y20.260
G01 F100 X19.387 Y20.097
G01 F100 X19.573 Y19.891
G01 F100 X19.711 Y19.650
G01 F100 X19.797 Y19.386
G01 F100 X19.826 Y19.110
G01 F100 X19.797 Y18.834
G01 F100 X19.711 Y18.570
G01 F100 X19.573 Y18.329
G01 F100 X19.387 Y18.123
G01 F100 X19.162 Y17.960
G01 F100 X18.909 Y17.847
G01 F100 X18.637 Y17.789
G01 F100 X18.359 Y17.789
G01 F100 X18.088 Y17.847
G01 F100 X17.834 Y17.960
G01 F100 X17.609 Y18.123
G01 F100 X17.423 Y18.329
G01 F100 X17.285 Y18.570
G01 F100 X17.199 Y18.834
G01 F100 X17.180 Y19.015
G01 F100 X16.530 Y19.664
G01 F100 X16.417 Y19.791
G01 F100 X16.312 Y19.972
G01 F100 X16.247 Y20.172
G01 F100 X16.228 Y20.354
G01 F100 X16.228 Y25.486
G01 F100 X16.247 Y25.669
G01 F100 X16.312 Y25.868
G01 F100 X16.417 Y26.049
G01 F100 X16.531 Y26.176
G01 F100 X18.473 Y28.118
G01 F100 X18.570 Y28.188
G01 F100 X18.570 Y28.564
G01 F100 X18.768 Y28.564
G01 F100 X18.768 Y32.310
G01 F100 X18.747 Y32.333
G01 F100 X18.613 Y32.566
G01 F100 X18.531 Y32.817
G01 F100 X18.503 Y33.080
G01 F100 X18.531 Y33.343
G01 F100 X18.613 Y33.594
G01 F100 X18.745 Y33.823
G01 F100 X18.922 Y34.020
G01 F100 X19.136 Y34.175
G01 F100 X19.377 Y34.283
G01 F100 X19.636 Y34.338
G00 F1000 Z3.000
G00 F1000 X31.215 Y30.813
G00 F1000 Z0
G01 F100 Z-0.1
G01 F100 X31.215 Y29.923
G01 F100 X31.289 Y30.150
G01 F100 X31.424 Y30.384
G01 F100 X31.468 Y30.433
G01 F100 X31.468 Y30.813
G01 F100 X31.215 Y30.813
G00 F1000 Z3.000
G00 F1000 X63.364 Y29.543
G00 F1000 Z0
G01 F100 Z-0.1
G01 F100 X62.800 Y28.979
G01 F100 X62.857 Y28.880
G01 F100 X62.940 Y28.624
G01 F100 X62.948 Y28.548
G01 F100 X62.956 Y28.624
G01 F100 X63.039 Y28.880
G01 F100 X63.174 Y29.114
G01 F100 X63.355 Y29.314
G01 F100 X63.573 Y29.473
G01 F100 X63.730 Y29.543
G01 F100 X63.364 Y29.543
G00 F1000 Z3.000
G00 F1000 X60.690 Y29.409
G00 F1000 Z0
G01 F100 Z-0.1
G01 F100 X60.260 Y28.979
G01 F100 X60.317 Y28.880
G01 F100 X60.400 Y28.624
G01 F100 X60.408 Y28.548
G01 F100 X60.416 Y28.624
G01 F100 X60.499 Y28.880
G01 F100 X60.634 Y29.114
G01 F100 X60.678 Y29.163
G01 F100 X60.678 Y29.296
G01 F100 X60.690 Y29.409
G00 F1000 Z3.000
G00 F1000 X19.642 Y24.750
G00 F1000 Z0
G01 F100 Z-0.1
G01 F100 X19.894 Y24.750
G01 F100 X20.139 Y24.698
G01 F100 X20.369 Y24.595
G01 F100 X20.428 Y24.552
G01 F100 X25.588 Y24.552
G01 F100 X25.793 Y24.509
G01 F100 X25.984 Y24.423
G01 F100 X26.143 Y24.308
G01 F100 X26.210 Y24.241
G01 F100 X26.251 Y24.242
G01 F100 X26.529 Y24.183
G01 F100 X26.782 Y24.070
G01 F100 X27.007 Y23.907
G01 F100 X27.193 Y23.701
G01 F100 X27.331 Y23.460
G01 F100 X27.417 Y23.196
G01 F100 X27.446 Y22.920
G01 F100 X27.417 Y22.644
G01 F100 X27.331 Y22.380
G01 F100 X27.193 Y22.139
G01 F100 X27.007 Y21.933
G01 F100 X26.782 Y21.770
G01 F100 X26.529 Y21.657
G01 F100 X26.257 Y21.599
G01 F100 X25.979 Y21.599
G01 F100 X25.707 Y21.657
G01 F100 X25.454 Y21.770
G01 F100 X25.229 Y21.933
G01 F100 X25.043 Y22.139
G01 F100 X24.905 Y22.380
G01 F100 X24.847 Y22.558
G01 F100 X20.428 Y22.558
G01 F100 X20.369 Y22.515
G01 F100 X20.139 Y22.413
G01 F100 X19.894 Y22.360
G01 F100 X19.642 Y22.360
G01 F100 X19.397 Y22.413
G01 F100 X19.167 Y22.515
G01 F100 X18.964 Y22.662
G01 F100 X18.796 Y22.849
G01 F100 X18.671 Y23.066
G01 F100 X18.593 Y23.305
G01 F100 X18.567 Y23.555
G01 F100 X18.593 Y23.805
G01 F100 X18.671 Y24.044
G01 F100 X18.796 Y24.261
G01 F100 X18.964 Y24.448
G01 F100 X19.167 Y24.595
G01 F100 X19.397 Y24.698
G01 F100 X19.642 Y24.750
G00 F1000 Z3.000
G00 F1000 X46.854 Y23.193
G00 F1000 Z0
G01 F100 Z-0.1
G01 F100 X46.168 Y22.507
G01 F100 X46.168 Y22.307
G01 F100 X46.265 Y22.139
G01 F100 X46.343 Y21.900
G01 F100 X46.369 Y21.650
G01 F100 X46.343 Y21.400
G01 F100 X46.265 Y21.161
G01 F100 X46.140 Y20.944
G01 F100 X45.972 Y20.757
G01 F100 X45.769 Y20.610
G01 F100 X45.539 Y20.508
G01 F100 X45.294 Y20.455
G01 F100 X45.042 Y20.455
G01 F100 X44.797 Y20.508
G01 F100 X44.567 Y20.610
G01 F100 X44.508 Y20.653
G01 F100 X41.088 Y20.653
G01 F100 X41.088 Y20.354
G01 F100 X41.079 Y20.272
G01 F100 X41.232 Y20.305
G01 F100 X41.484 Y20.305
G01 F100 X41.729 Y20.253
G01 F100 X41.959 Y20.150
G01 F100 X42.018 Y20.107
G01 F100 X47.292 Y20.107
G01 F100 X47.691 Y20.506
G01 F100 X47.691 Y20.762
G01 F100 X47.716 Y21.004
G01 F100 X47.799 Y21.260
G01 F100 X47.934 Y21.494
G01 F100 X48.115 Y21.694
G01 F100 X48.333 Y21.853
G01 F100 X48.579 Y21.963
G01 F100 X48.843 Y22.019
G01 F100 X49.113 Y22.019
G01 F100 X49.377 Y21.963
G01 F100 X49.623 Y21.853
G01 F100 X49.841 Y21.694
G01 F100 X50.022 Y21.494
G01 F100 X50.157 Y21.260
G01 F100 X50.240 Y21.004
G01 F100 X50.248 Y20.928
G01 F100 X50.256 Y21.004
G01 F100 X50.339 Y21.260
G01 F100 X50.474 Y21.494
G01 F100 X50.518 Y21.543
G01 F100 X50.518 Y22.507
G01 F100 X49.832 Y23.193
G01 F100 X46.854 Y23.193
G00 F1000 Z3.000
G00 F1000 X36.278 Y21.102
G00 F1000 Z0
G01 F100 Z-0.1
G01 F100 X36.270 Y21.026
G01 F100 X36.187 Y20.770
G01 F100 X36.052 Y20.536
G01 F100 X35.871 Y20.336
G01 F100 X35.653 Y20.177
G01 F100 X35.496 Y20.107
G01 F100 X37.060 Y20.107
G01 F100 X36.903 Y20.177
G01 F100 X36.685 Y20.336
G01 F100 X36.504 Y20.536
G01 F100 X36.369 Y20.770
G01 F100 X36.286 Y21.026
G01 F100 X36.278 Y21.102
G00 F1000 Z3.000
G00 F1000 X33.738 Y21.102
G00 F1000 Z0
G01 F100 Z-0.1
G01 F100 X33.730 Y21.026
G01 F100 X33.647 Y20.770
G01 F100 X33.512 Y20.536
G01 F100 X33.331 Y20.336
G01 F100 X33.113 Y20.177
G01 F100 X32.956 Y20.107
G01 F100 X34.520 Y20.107
G01 F100 X34.363 Y20.177
G01 F100 X34.145 Y20.336
G01 F100 X33.964 Y20.536
G01 F100 X33.829 Y20.770
G01 F100 X33.746 Y21.026
G01 F100 X33.738 Y21.102
G00 F1000 Z3.000
G00 F1000 X31.198 Y21.102
G00 F1000 Z0
G01 F100 Z-0.1
G01 F100 X31.190 Y21.026
G01 F100 X31.107 Y20.770
G01 F100 X30.972 Y20.536
G01 F100 X30.928 Y20.487
G01 F100 X30.928 Y20.107
G01 F100 X31.980 Y20.107
G01 F100 X31.823 Y20.177
G01 F100 X31.605 Y20.336
G01 F100 X31.424 Y20.536
G01 F100 X31.289 Y20.770
G01 F100 X31.206 Y21.026
G01 F100 X31.198 Y21.102
G00 F1000 Z3.000
G00 F1000 X62.931 Y19.727
G00 F1000 Z0
G01 F100 Z-0.1
G01 F100 X62.857 Y19.500
G01 F100 X62.722 Y19.266
G01 F100 X62.678 Y19.217
G01 F100 X62.678 Y18.837
G01 F100 X62.931 Y18.837
G01 F100 X62.931 Y19.727
G00 F1000 Z3.000
G00 F1000 Z3.000
G00 F1000 X0.000 Y0.000
M05
M30
%
