( PCB Contour )
( Generated by Rapid-PCB.com )
( Material Size)
( X= 160.000, Y= 100.000, Z= 1.580)
()
G00
G17
G21
G40
G49
G54
G80
G90
G94
G00 F3000 Z3.000
M03 S9000
G00 F3000 X27.327 Y45.092
G00 F1500 Z0
G01 F300 Z-0.060
G01 F300 X27.207 Y45.066
G01 F300 X27.096 Y45.017
G01 F300 X26.998 Y44.946
G01 F300 X25.722 Y43.670
G01 F300 X25.645 Y43.584
G01 F300 X25.584 Y43.478
G01 F300 X25.546 Y43.362
G01 F300 X25.534 Y43.244
G01 F300 X25.534 Y41.915
G01 F300 X25.441 Y41.873
G01 F300 X25.211 Y41.707
G01 F300 X25.022 Y41.496
G01 F300 X24.880 Y41.251
G01 F300 X24.793 Y40.982
G01 F300 X24.763 Y40.700
G01 F300 X24.793 Y40.418
G01 F300 X24.846 Y40.254
G01 F300 X20.794 Y36.202
G01 F300 X20.614 Y36.202
G01 F300 X20.614 Y36.467
G01 F300 X18.922 Y36.467
G01 F300 X18.922 Y34.773
G01 F300 X20.614 Y34.773
G01 F300 X20.614 Y35.038
G01 F300 X21.099 Y35.038
G01 F300 X21.219 Y35.064
G01 F300 X21.331 Y35.113
G01 F300 X21.428 Y35.184
G01 F300 X25.669 Y39.425
G01 F300 X25.699 Y39.411
G01 F300 X25.976 Y39.352
G01 F300 X26.260 Y39.352
G01 F300 X26.537 Y39.411
G01 F300 X26.796 Y39.527
G01 F300 X27.025 Y39.693
G01 F300 X27.214 Y39.904
G01 F300 X27.356 Y40.149
G01 F300 X27.443 Y40.418
G01 F300 X27.473 Y40.700
G01 F300 X27.443 Y40.982
G01 F300 X27.356 Y41.251
G01 F300 X27.214 Y41.496
G01 F300 X27.025 Y41.707
G01 F300 X26.796 Y41.873
G01 F300 X26.703 Y41.915
G01 F300 X26.703 Y42.999
G01 F300 X27.632 Y43.928
G01 F300 X36.034 Y43.928
G01 F300 X42.996 Y36.967
G01 F300 X42.988 Y36.890
G01 F300 X43.007 Y36.701
G01 F300 X43.066 Y36.520
G01 F300 X43.161 Y36.355
G01 F300 X43.289 Y36.213
G01 F300 X43.314 Y36.195
G01 F300 X43.314 Y29.852
G01 F300 X38.380 Y29.873
G01 F300 X38.345 Y29.980
G01 F300 X38.254 Y30.138
G01 F300 X38.132 Y30.274
G01 F300 X37.984 Y30.381
G01 F300 X37.818 Y30.455
G01 F300 X37.639 Y30.493
G01 F300 X37.457 Y30.493
G01 F300 X37.278 Y30.455
G01 F300 X37.112 Y30.381
G01 F300 X36.964 Y30.274
G01 F300 X36.842 Y30.138
G01 F300 X36.751 Y29.980
G01 F300 X36.695 Y29.807
G01 F300 X36.676 Y29.630
G01 F300 X36.676 Y28.910
G01 F300 X36.695 Y28.733
G01 F300 X36.751 Y28.560
G01 F300 X36.842 Y28.402
G01 F300 X36.964 Y28.266
G01 F300 X37.112 Y28.159
G01 F300 X37.278 Y28.085
G01 F300 X37.457 Y28.047
G01 F300 X37.639 Y28.047
G01 F300 X37.818 Y28.085
G01 F300 X37.984 Y28.159
G01 F300 X38.132 Y28.266
G01 F300 X38.254 Y28.402
G01 F300 X38.346 Y28.561
G01 F300 X38.384 Y28.688
G01 F300 X44.584 Y28.688
G01 F300 X44.584 Y27.245
G01 F300 X44.534 Y27.191
G01 F300 X44.452 Y27.049
G01 F300 X44.402 Y26.893
G01 F300 X44.385 Y26.730
G01 F300 X44.402 Y26.567
G01 F300 X44.452 Y26.411
G01 F300 X44.534 Y26.270
G01 F300 X44.644 Y26.148
G01 F300 X44.776 Y26.052
G01 F300 X44.926 Y25.985
G01 F300 X45.086 Y25.951
G01 F300 X45.250 Y25.951
G01 F300 X45.410 Y25.985
G01 F300 X45.560 Y26.052
G01 F300 X45.692 Y26.148
G01 F300 X45.693 Y26.148
G01 F300 X47.769 Y26.148
G01 F300 X47.889 Y26.174
G01 F300 X48.001 Y26.223
G01 F300 X48.098 Y26.294
G01 F300 X48.646 Y26.843
G01 F300 X48.708 Y26.815
G01 F300 X48.887 Y26.777
G01 F300 X49.069 Y26.777
G01 F300 X49.248 Y26.815
G01 F300 X49.414 Y26.889
G01 F300 X49.562 Y26.996
G01 F300 X49.684 Y27.132
G01 F300 X49.775 Y27.290
G01 F300 X49.831 Y27.463
G01 F300 X49.850 Y27.640
G01 F300 X49.850 Y28.360
G01 F300 X49.831 Y28.537
G01 F300 X49.775 Y28.710
G01 F300 X49.684 Y28.868
G01 F300 X49.562 Y29.004
G01 F300 X49.414 Y29.111
G01 F300 X49.248 Y29.185
G01 F300 X49.069 Y29.223
G01 F300 X48.887 Y29.223
G01 F300 X48.708 Y29.185
G01 F300 X48.542 Y29.111
G01 F300 X48.394 Y29.004
G01 F300 X48.272 Y28.868
G01 F300 X48.181 Y28.710
G01 F300 X48.125 Y28.537
G01 F300 X48.106 Y28.360
G01 F300 X48.106 Y27.954
G01 F300 X47.464 Y27.312
G01 F300 X45.753 Y27.312
G01 F300 X45.753 Y29.274
G01 F300 X45.740 Y29.392
G01 F300 X45.702 Y29.508
G01 F300 X45.641 Y29.614
G01 F300 X45.559 Y29.705
G01 F300 X45.461 Y29.777
G01 F300 X45.349 Y29.826
G01 F300 X45.229 Y29.852
G01 F300 X44.483 Y29.852
G01 F300 X44.483 Y36.195
G01 F300 X44.507 Y36.213
G01 F300 X44.593 Y36.308
G01 F300 X47.123 Y36.308
G01 F300 X47.123 Y36.135
G01 F300 X47.074 Y36.081
G01 F300 X46.992 Y35.939
G01 F300 X46.942 Y35.783
G01 F300 X46.925 Y35.620
G01 F300 X46.942 Y35.457
G01 F300 X46.992 Y35.301
G01 F300 X47.074 Y35.160
G01 F300 X47.184 Y35.038
G01 F300 X47.316 Y34.942
G01 F300 X47.466 Y34.875
G01 F300 X47.626 Y34.841
G01 F300 X47.790 Y34.841
G01 F300 X47.950 Y34.875
G01 F300 X48.100 Y34.942
G01 F300 X48.232 Y35.038
G01 F300 X48.342 Y35.160
G01 F300 X48.424 Y35.301
G01 F300 X48.474 Y35.457
G01 F300 X48.492 Y35.620
G01 F300 X48.474 Y35.783
G01 F300 X48.424 Y35.939
G01 F300 X48.342 Y36.081
G01 F300 X48.293 Y36.135
G01 F300 X48.293 Y37.645
G01 F300 X48.342 Y37.700
G01 F300 X48.424 Y37.841
G01 F300 X48.474 Y37.997
G01 F300 X48.492 Y38.160
G01 F300 X48.474 Y38.323
G01 F300 X48.424 Y38.479
G01 F300 X48.342 Y38.620
G01 F300 X48.232 Y38.742
G01 F300 X48.100 Y38.839
G01 F300 X47.950 Y38.905
G01 F300 X47.790 Y38.939
G01 F300 X47.626 Y38.939
G01 F300 X47.466 Y38.905
G01 F300 X47.316 Y38.839
G01 F300 X47.184 Y38.742
G01 F300 X47.074 Y38.620
G01 F300 X46.992 Y38.479
G01 F300 X46.942 Y38.323
G01 F300 X46.925 Y38.160
G01 F300 X46.942 Y37.997
G01 F300 X46.992 Y37.841
G01 F300 X47.074 Y37.700
G01 F300 X47.123 Y37.645
G01 F300 X47.123 Y37.472
G01 F300 X44.593 Y37.472
G01 F300 X44.507 Y37.567
G01 F300 X44.353 Y37.678
G01 F300 X44.179 Y37.756
G01 F300 X43.992 Y37.796
G01 F300 X43.822 Y37.791
G01 F300 X36.668 Y44.946
G01 F300 X36.571 Y45.017
G01 F300 X36.459 Y45.066
G01 F300 X36.339 Y45.092
G01 F300 X27.327 Y45.092
G00 F3000 Z3.000
G00 F3000 X61.576 Y42.939
G00 F1500 Z0
G01 F300 Z-0.060
G01 F300 X61.377 Y42.896
G01 F300 X61.191 Y42.814
G01 F300 X61.026 Y42.694
G01 F300 X60.890 Y42.543
G01 F300 X60.788 Y42.366
G01 F300 X60.725 Y42.172
G01 F300 X60.704 Y41.970
G01 F300 X60.718 Y41.836
G01 F300 X57.624 Y38.742
G01 F300 X53.313 Y38.742
G01 F300 X53.312 Y38.742
G01 F300 X53.180 Y38.839
G01 F300 X53.030 Y38.905
G01 F300 X52.870 Y38.939
G01 F300 X52.706 Y38.939
G01 F300 X52.546 Y38.905
G01 F300 X52.396 Y38.839
G01 F300 X52.264 Y38.742
G01 F300 X52.263 Y38.742
G01 F300 X50.187 Y38.742
G01 F300 X50.067 Y38.716
G01 F300 X49.956 Y38.667
G01 F300 X49.857 Y38.595
G01 F300 X49.775 Y38.504
G01 F300 X49.714 Y38.398
G01 F300 X49.676 Y38.282
G01 F300 X49.663 Y38.164
G01 F300 X49.663 Y32.392
G01 F300 X48.488 Y32.392
G01 F300 X48.360 Y32.534
G01 F300 X48.195 Y32.654
G01 F300 X48.009 Y32.736
G01 F300 X47.810 Y32.779
G01 F300 X47.606 Y32.779
G01 F300 X47.407 Y32.736
G01 F300 X47.221 Y32.654
G01 F300 X47.056 Y32.534
G01 F300 X46.920 Y32.383
G01 F300 X46.818 Y32.206
G01 F300 X46.755 Y32.013
G01 F300 X46.734 Y31.810
G01 F300 X46.755 Y31.608
G01 F300 X46.818 Y31.414
G01 F300 X46.920 Y31.238
G01 F300 X47.056 Y31.086
G01 F300 X47.221 Y30.966
G01 F300 X47.407 Y30.884
G01 F300 X47.606 Y30.841
G01 F300 X47.810 Y30.841
G01 F300 X48.009 Y30.884
G01 F300 X48.195 Y30.966
G01 F300 X48.360 Y31.086
G01 F300 X48.488 Y31.228
G01 F300 X50.934 Y31.228
G01 F300 X50.934 Y29.003
G01 F300 X50.812 Y28.868
G01 F300 X50.721 Y28.710
G01 F300 X50.665 Y28.537
G01 F300 X50.646 Y28.360
G01 F300 X50.646 Y27.640
G01 F300 X50.665 Y27.463
G01 F300 X50.721 Y27.290
G01 F300 X50.812 Y27.132
G01 F300 X50.934 Y26.996
G01 F300 X51.082 Y26.889
G01 F300 X51.248 Y26.815
G01 F300 X51.427 Y26.777
G01 F300 X51.609 Y26.777
G01 F300 X51.788 Y26.815
G01 F300 X51.954 Y26.889
G01 F300 X52.102 Y26.996
G01 F300 X52.224 Y27.132
G01 F300 X52.315 Y27.290
G01 F300 X52.371 Y27.463
G01 F300 X52.390 Y27.640
G01 F300 X52.390 Y28.360
G01 F300 X52.371 Y28.537
G01 F300 X52.315 Y28.710
G01 F300 X52.224 Y28.868
G01 F300 X52.102 Y29.003
G01 F300 X52.102 Y31.814
G01 F300 X52.090 Y31.932
G01 F300 X52.052 Y32.048
G01 F300 X51.991 Y32.154
G01 F300 X51.909 Y32.245
G01 F300 X51.811 Y32.317
G01 F300 X51.699 Y32.366
G01 F300 X51.579 Y32.392
G01 F300 X50.833 Y32.392
G01 F300 X50.833 Y37.578
G01 F300 X52.263 Y37.578
G01 F300 X52.264 Y37.578
G01 F300 X52.396 Y37.482
G01 F300 X52.546 Y37.415
G01 F300 X52.706 Y37.381
G01 F300 X52.870 Y37.381
G01 F300 X53.030 Y37.415
G01 F300 X53.180 Y37.482
G01 F300 X53.312 Y37.578
G01 F300 X53.313 Y37.578
G01 F300 X57.929 Y37.578
G01 F300 X58.049 Y37.604
G01 F300 X58.161 Y37.653
G01 F300 X58.258 Y37.724
G01 F300 X61.542 Y41.009
G01 F300 X61.576 Y41.001
G01 F300 X61.780 Y41.001
G01 F300 X61.979 Y41.044
G01 F300 X62.165 Y41.127
G01 F300 X62.330 Y41.246
G01 F300 X62.466 Y41.398
G01 F300 X62.568 Y41.574
G01 F300 X62.631 Y41.768
G01 F300 X62.652 Y41.970
G01 F300 X62.631 Y42.172
G01 F300 X62.568 Y42.366
G01 F300 X62.466 Y42.543
G01 F300 X62.330 Y42.694
G01 F300 X62.165 Y42.814
G01 F300 X61.979 Y42.896
G01 F300 X61.780 Y42.939
G01 F300 X61.576 Y42.939
G00 F3000 Z3.000
G00 F3000 X29.844 Y42.055
G00 F1500 Z0
G01 F300 Z-0.060
G01 F300 X29.844 Y40.171
G01 F300 X26.992 Y37.320
G01 F300 X26.915 Y37.234
G01 F300 X26.854 Y37.128
G01 F300 X26.816 Y37.012
G01 F300 X26.803 Y36.894
G01 F300 X26.803 Y35.045
G01 F300 X26.779 Y35.027
G01 F300 X26.693 Y34.932
G01 F300 X26.057 Y34.932
G01 F300 X25.937 Y34.906
G01 F300 X25.826 Y34.857
G01 F300 X25.728 Y34.786
G01 F300 X23.182 Y32.240
G01 F300 X23.105 Y32.154
G01 F300 X23.044 Y32.048
G01 F300 X23.006 Y31.932
G01 F300 X22.994 Y31.814
G01 F300 X22.994 Y29.266
G01 F300 X23.006 Y29.148
G01 F300 X23.044 Y29.032
G01 F300 X23.105 Y28.926
G01 F300 X23.182 Y28.840
G01 F300 X29.344 Y22.679
G01 F300 X29.344 Y22.653
G01 F300 X29.222 Y22.518
G01 F300 X29.131 Y22.360
G01 F300 X29.075 Y22.187
G01 F300 X29.056 Y22.010
G01 F300 X29.056 Y21.290
G01 F300 X29.075 Y21.113
G01 F300 X29.131 Y20.940
G01 F300 X29.222 Y20.782
G01 F300 X29.344 Y20.647
G01 F300 X29.344 Y19.692
G01 F300 X26.813 Y19.692
G01 F300 X26.727 Y19.787
G01 F300 X26.573 Y19.899
G01 F300 X26.399 Y19.976
G01 F300 X26.213 Y20.015
G01 F300 X26.023 Y20.015
G01 F300 X25.837 Y19.976
G01 F300 X25.663 Y19.899
G01 F300 X25.509 Y19.787
G01 F300 X25.381 Y19.645
G01 F300 X25.286 Y19.480
G01 F300 X25.227 Y19.299
G01 F300 X25.207 Y19.110
G01 F300 X25.227 Y18.921
G01 F300 X25.286 Y18.740
G01 F300 X25.381 Y18.575
G01 F300 X25.509 Y18.433
G01 F300 X25.663 Y18.322
G01 F300 X25.837 Y18.244
G01 F300 X26.023 Y18.204
G01 F300 X26.213 Y18.204
G01 F300 X26.399 Y18.244
G01 F300 X26.573 Y18.322
G01 F300 X26.727 Y18.433
G01 F300 X26.813 Y18.528
G01 F300 X38.879 Y18.528
G01 F300 X38.999 Y18.554
G01 F300 X39.111 Y18.603
G01 F300 X39.208 Y18.674
G01 F300 X40.484 Y19.950
G01 F300 X40.561 Y20.036
G01 F300 X40.622 Y20.142
G01 F300 X40.660 Y20.258
G01 F300 X40.672 Y20.376
G01 F300 X40.672 Y21.068
G01 F300 X44.643 Y21.068
G01 F300 X44.644 Y21.068
G01 F300 X44.776 Y20.972
G01 F300 X44.926 Y20.905
G01 F300 X45.086 Y20.871
G01 F300 X45.250 Y20.871
G01 F300 X45.410 Y20.905
G01 F300 X45.560 Y20.972
G01 F300 X45.692 Y21.068
G01 F300 X45.802 Y21.190
G01 F300 X45.884 Y21.331
G01 F300 X45.934 Y21.487
G01 F300 X45.952 Y21.650
G01 F300 X45.934 Y21.813
G01 F300 X45.884 Y21.969
G01 F300 X45.802 Y22.111
G01 F300 X45.753 Y22.165
G01 F300 X45.753 Y22.679
G01 F300 X46.682 Y23.608
G01 F300 X50.004 Y23.608
G01 F300 X50.934 Y22.679
G01 F300 X50.934 Y21.383
G01 F300 X50.812 Y21.248
G01 F300 X50.721 Y21.090
G01 F300 X50.665 Y20.917
G01 F300 X50.646 Y20.740
G01 F300 X50.646 Y20.020
G01 F300 X50.665 Y19.843
G01 F300 X50.721 Y19.670
G01 F300 X50.812 Y19.512
G01 F300 X50.934 Y19.376
G01 F300 X51.082 Y19.269
G01 F300 X51.248 Y19.195
G01 F300 X51.427 Y19.157
G01 F300 X51.609 Y19.157
G01 F300 X51.788 Y19.195
G01 F300 X51.954 Y19.269
G01 F300 X52.102 Y19.376
G01 F300 X52.224 Y19.512
G01 F300 X52.316 Y19.671
G01 F300 X52.353 Y19.797
G01 F300 X53.226 Y19.777
G01 F300 X53.261 Y19.670
G01 F300 X53.352 Y19.512
G01 F300 X53.474 Y19.376
G01 F300 X53.622 Y19.269
G01 F300 X53.788 Y19.195
G01 F300 X53.967 Y19.157
G01 F300 X54.149 Y19.157
G01 F300 X54.328 Y19.195
G01 F300 X54.494 Y19.269
G01 F300 X54.642 Y19.376
G01 F300 X54.764 Y19.512
G01 F300 X54.855 Y19.671
G01 F300 X54.893 Y19.797
G01 F300 X55.766 Y19.777
G01 F300 X55.801 Y19.670
G01 F300 X55.892 Y19.512
G01 F300 X56.014 Y19.376
G01 F300 X56.162 Y19.269
G01 F300 X56.328 Y19.195
G01 F300 X56.507 Y19.157
G01 F300 X56.689 Y19.157
G01 F300 X56.868 Y19.195
G01 F300 X57.034 Y19.269
G01 F300 X57.182 Y19.376
G01 F300 X57.304 Y19.512
G01 F300 X57.396 Y19.671
G01 F300 X57.433 Y19.797
G01 F300 X58.306 Y19.777
G01 F300 X58.341 Y19.670
G01 F300 X58.432 Y19.512
G01 F300 X58.554 Y19.376
G01 F300 X58.702 Y19.269
G01 F300 X58.868 Y19.195
G01 F300 X59.047 Y19.157
G01 F300 X59.229 Y19.157
G01 F300 X59.408 Y19.195
G01 F300 X59.574 Y19.269
G01 F300 X59.722 Y19.376
G01 F300 X59.844 Y19.512
G01 F300 X59.935 Y19.670
G01 F300 X59.991 Y19.843
G01 F300 X60.010 Y20.020
G01 F300 X60.010 Y20.740
G01 F300 X59.991 Y20.917
G01 F300 X59.935 Y21.090
G01 F300 X59.844 Y21.248
G01 F300 X59.722 Y21.384
G01 F300 X59.574 Y21.491
G01 F300 X59.408 Y21.565
G01 F300 X59.229 Y21.603
G01 F300 X59.047 Y21.603
G01 F300 X58.868 Y21.565
G01 F300 X58.702 Y21.491
G01 F300 X58.554 Y21.384
G01 F300 X58.432 Y21.248
G01 F300 X58.341 Y21.090
G01 F300 X58.303 Y20.963
G01 F300 X57.430 Y20.983
G01 F300 X57.395 Y21.090
G01 F300 X57.304 Y21.248
G01 F300 X57.182 Y21.384
G01 F300 X57.034 Y21.491
G01 F300 X56.868 Y21.565
G01 F300 X56.689 Y21.603
G01 F300 X56.507 Y21.603
G01 F300 X56.328 Y21.565
G01 F300 X56.162 Y21.491
G01 F300 X56.014 Y21.384
G01 F300 X55.892 Y21.248
G01 F300 X55.800 Y21.090
G01 F300 X55.763 Y20.963
G01 F300 X54.890 Y20.983
G01 F300 X54.855 Y21.090
G01 F300 X54.764 Y21.248
G01 F300 X54.642 Y21.384
G01 F300 X54.494 Y21.491
G01 F300 X54.328 Y21.565
G01 F300 X54.149 Y21.603
G01 F300 X53.967 Y21.603
G01 F300 X53.788 Y21.565
G01 F300 X53.622 Y21.491
G01 F300 X53.474 Y21.384
G01 F300 X53.352 Y21.248
G01 F300 X53.261 Y21.090
G01 F300 X53.223 Y20.963
G01 F300 X52.350 Y20.983
G01 F300 X52.315 Y21.090
G01 F300 X52.224 Y21.248
G01 F300 X52.102 Y21.383
G01 F300 X52.102 Y22.924
G01 F300 X52.090 Y23.042
G01 F300 X52.052 Y23.158
G01 F300 X51.991 Y23.264
G01 F300 X51.914 Y23.350
G01 F300 X50.638 Y24.626
G01 F300 X50.541 Y24.697
G01 F300 X50.429 Y24.746
G01 F300 X50.309 Y24.772
G01 F300 X46.377 Y24.772
G01 F300 X46.257 Y24.746
G01 F300 X46.146 Y24.697
G01 F300 X46.048 Y24.626
G01 F300 X44.772 Y23.350
G01 F300 X44.695 Y23.264
G01 F300 X44.634 Y23.158
G01 F300 X44.596 Y23.042
G01 F300 X44.584 Y22.924
G01 F300 X44.584 Y22.232
G01 F300 X40.027 Y22.232
G01 F300 X39.907 Y22.206
G01 F300 X39.796 Y22.157
G01 F300 X39.697 Y22.085
G01 F300 X39.615 Y21.994
G01 F300 X39.554 Y21.888
G01 F300 X39.516 Y21.772
G01 F300 X39.504 Y21.654
G01 F300 X39.504 Y20.621
G01 F300 X38.574 Y19.692
G01 F300 X30.513 Y19.692
G01 F300 X30.513 Y20.647
G01 F300 X30.634 Y20.782
G01 F300 X30.725 Y20.940
G01 F300 X30.781 Y21.113
G01 F300 X30.800 Y21.290
G01 F300 X30.800 Y22.010
G01 F300 X30.781 Y22.187
G01 F300 X30.725 Y22.360
G01 F300 X30.634 Y22.518
G01 F300 X30.513 Y22.653
G01 F300 X30.513 Y22.924
G01 F300 X30.500 Y23.042
G01 F300 X30.462 Y23.158
G01 F300 X30.401 Y23.264
G01 F300 X30.324 Y23.350
G01 F300 X24.163 Y29.511
G01 F300 X24.163 Y31.569
G01 F300 X26.362 Y33.768
G01 F300 X26.693 Y33.768
G01 F300 X26.779 Y33.673
G01 F300 X26.933 Y33.562
G01 F300 X27.107 Y33.484
G01 F300 X27.293 Y33.445
G01 F300 X27.483 Y33.445
G01 F300 X27.669 Y33.484
G01 F300 X27.843 Y33.562
G01 F300 X27.997 Y33.673
G01 F300 X28.125 Y33.815
G01 F300 X28.220 Y33.980
G01 F300 X28.279 Y34.161
G01 F300 X28.299 Y34.350
G01 F300 X28.279 Y34.539
G01 F300 X28.220 Y34.720
G01 F300 X28.125 Y34.885
G01 F300 X27.997 Y35.027
G01 F300 X27.973 Y35.045
G01 F300 X27.973 Y36.649
G01 F300 X30.669 Y39.346
G01 F300 X32.553 Y39.346
G01 F300 X32.553 Y42.055
G01 F300 X29.844 Y42.055
G00 F3000 Z3.000
G00 F3000 X34.947 Y40.012
G00 F1500 Z0
G01 F300 Z-0.060
G01 F300 X34.827 Y39.986
G01 F300 X34.715 Y39.937
G01 F300 X34.618 Y39.866
G01 F300 X30.802 Y36.050
G01 F300 X30.725 Y35.964
G01 F300 X30.664 Y35.858
G01 F300 X30.626 Y35.742
G01 F300 X30.614 Y35.624
G01 F300 X30.614 Y32.392
G01 F300 X28.597 Y32.392
G01 F300 X28.477 Y32.366
G01 F300 X28.366 Y32.317
G01 F300 X28.268 Y32.246
G01 F300 X27.144 Y31.122
G01 F300 X26.813 Y31.122
G01 F300 X26.727 Y31.217
G01 F300 X26.573 Y31.329
G01 F300 X26.399 Y31.406
G01 F300 X26.213 Y31.446
G01 F300 X26.023 Y31.446
G01 F300 X25.837 Y31.406
G01 F300 X25.663 Y31.329
G01 F300 X25.509 Y31.217
G01 F300 X25.381 Y31.075
G01 F300 X25.286 Y30.910
G01 F300 X25.227 Y30.729
G01 F300 X25.207 Y30.540
G01 F300 X25.227 Y30.351
G01 F300 X25.286 Y30.170
G01 F300 X25.381 Y30.005
G01 F300 X25.509 Y29.863
G01 F300 X25.663 Y29.752
G01 F300 X25.837 Y29.674
G01 F300 X26.023 Y29.635
G01 F300 X26.213 Y29.635
G01 F300 X26.399 Y29.674
G01 F300 X26.573 Y29.752
G01 F300 X26.727 Y29.863
G01 F300 X26.813 Y29.958
G01 F300 X27.449 Y29.958
G01 F300 X27.569 Y29.984
G01 F300 X27.681 Y30.033
G01 F300 X27.778 Y30.104
G01 F300 X28.902 Y31.228
G01 F300 X31.884 Y31.228
G01 F300 X31.884 Y30.273
G01 F300 X31.762 Y30.138
G01 F300 X31.671 Y29.980
G01 F300 X31.615 Y29.807
G01 F300 X31.596 Y29.630
G01 F300 X31.596 Y28.910
G01 F300 X31.615 Y28.733
G01 F300 X31.671 Y28.560
G01 F300 X31.762 Y28.402
G01 F300 X31.884 Y28.266
G01 F300 X32.032 Y28.159
G01 F300 X32.198 Y28.085
G01 F300 X32.377 Y28.047
G01 F300 X32.559 Y28.047
G01 F300 X32.738 Y28.085
G01 F300 X32.904 Y28.159
G01 F300 X33.052 Y28.266
G01 F300 X33.174 Y28.402
G01 F300 X33.265 Y28.560
G01 F300 X33.321 Y28.733
G01 F300 X33.340 Y28.910
G01 F300 X33.340 Y29.630
G01 F300 X33.321 Y29.807
G01 F300 X33.265 Y29.980
G01 F300 X33.174 Y30.138
G01 F300 X33.053 Y30.273
G01 F300 X33.053 Y31.814
G01 F300 X33.040 Y31.932
G01 F300 X33.002 Y32.048
G01 F300 X32.941 Y32.154
G01 F300 X32.859 Y32.245
G01 F300 X32.761 Y32.317
G01 F300 X32.649 Y32.366
G01 F300 X32.529 Y32.392
G01 F300 X31.783 Y32.392
G01 F300 X31.783 Y35.379
G01 F300 X35.252 Y38.848
G01 F300 X37.304 Y38.848
G01 F300 X40.773 Y35.379
G01 F300 X40.773 Y35.045
G01 F300 X40.749 Y35.027
G01 F300 X40.621 Y34.885
G01 F300 X40.526 Y34.720
G01 F300 X40.467 Y34.539
G01 F300 X40.448 Y34.350
G01 F300 X40.467 Y34.161
G01 F300 X40.526 Y33.980
G01 F300 X40.621 Y33.815
G01 F300 X40.749 Y33.673
G01 F300 X40.903 Y33.562
G01 F300 X41.077 Y33.484
G01 F300 X41.263 Y33.445
G01 F300 X41.453 Y33.445
G01 F300 X41.639 Y33.484
G01 F300 X41.813 Y33.562
G01 F300 X41.967 Y33.673
G01 F300 X42.095 Y33.815
G01 F300 X42.190 Y33.980
G01 F300 X42.249 Y34.161
G01 F300 X42.269 Y34.350
G01 F300 X42.249 Y34.539
G01 F300 X42.190 Y34.720
G01 F300 X42.095 Y34.885
G01 F300 X41.967 Y35.027
G01 F300 X41.943 Y35.045
G01 F300 X41.943 Y35.624
G01 F300 X41.930 Y35.742
G01 F300 X41.892 Y35.858
G01 F300 X41.831 Y35.964
G01 F300 X41.754 Y36.050
G01 F300 X37.938 Y39.866
G01 F300 X37.840 Y39.937
G01 F300 X37.729 Y39.986
G01 F300 X37.609 Y40.012
G01 F300 X34.947 Y40.012
G00 F3000 Z3.000
G00 F3000 X61.576 Y37.859
G00 F1500 Z0
G01 F300 Z-0.060
G01 F300 X61.377 Y37.816
G01 F300 X61.191 Y37.733
G01 F300 X61.026 Y37.614
G01 F300 X60.890 Y37.462
G01 F300 X60.788 Y37.286
G01 F300 X60.725 Y37.093
G01 F300 X60.704 Y36.890
G01 F300 X60.718 Y36.756
G01 F300 X57.472 Y33.510
G01 F300 X57.395 Y33.424
G01 F300 X57.334 Y33.318
G01 F300 X57.296 Y33.202
G01 F300 X57.284 Y33.084
G01 F300 X57.284 Y32.583
G01 F300 X57.216 Y32.534
G01 F300 X57.088 Y32.392
G01 F300 X54.643 Y32.392
G01 F300 X54.643 Y33.084
G01 F300 X54.630 Y33.202
G01 F300 X54.592 Y33.318
G01 F300 X54.531 Y33.424
G01 F300 X54.454 Y33.510
G01 F300 X53.373 Y34.591
G01 F300 X53.373 Y35.105
G01 F300 X53.422 Y35.160
G01 F300 X53.504 Y35.301
G01 F300 X53.554 Y35.457
G01 F300 X53.572 Y35.620
G01 F300 X53.554 Y35.783
G01 F300 X53.504 Y35.939
G01 F300 X53.422 Y36.081
G01 F300 X53.312 Y36.202
G01 F300 X53.180 Y36.299
G01 F300 X53.030 Y36.365
G01 F300 X52.870 Y36.399
G01 F300 X52.706 Y36.399
G01 F300 X52.546 Y36.365
G01 F300 X52.396 Y36.299
G01 F300 X52.264 Y36.202
G01 F300 X52.154 Y36.081
G01 F300 X52.072 Y35.939
G01 F300 X52.022 Y35.783
G01 F300 X52.005 Y35.620
G01 F300 X52.022 Y35.457
G01 F300 X52.072 Y35.301
G01 F300 X52.154 Y35.160
G01 F300 X52.204 Y35.105
G01 F300 X52.204 Y34.346
G01 F300 X52.216 Y34.228
G01 F300 X52.254 Y34.112
G01 F300 X52.315 Y34.006
G01 F300 X52.392 Y33.920
G01 F300 X53.474 Y32.839
G01 F300 X53.474 Y29.003
G01 F300 X53.352 Y28.868
G01 F300 X53.261 Y28.710
G01 F300 X53.205 Y28.537
G01 F300 X53.186 Y28.360
G01 F300 X53.186 Y27.640
G01 F300 X53.205 Y27.463
G01 F300 X53.261 Y27.290
G01 F300 X53.352 Y27.132
G01 F300 X53.474 Y26.996
G01 F300 X53.622 Y26.889
G01 F300 X53.788 Y26.815
G01 F300 X53.967 Y26.777
G01 F300 X54.149 Y26.777
G01 F300 X54.328 Y26.815
G01 F300 X54.494 Y26.889
G01 F300 X54.642 Y26.996
G01 F300 X54.764 Y27.132
G01 F300 X54.855 Y27.290
G01 F300 X54.911 Y27.463
G01 F300 X54.930 Y27.640
G01 F300 X54.930 Y28.360
G01 F300 X54.911 Y28.537
G01 F300 X54.855 Y28.710
G01 F300 X54.764 Y28.868
G01 F300 X54.643 Y29.003
G01 F300 X54.643 Y31.228
G01 F300 X57.089 Y31.228
G01 F300 X57.216 Y31.086
G01 F300 X57.381 Y30.966
G01 F300 X57.567 Y30.884
G01 F300 X57.766 Y30.841
G01 F300 X57.970 Y30.841
G01 F300 X58.169 Y30.884
G01 F300 X58.355 Y30.966
G01 F300 X58.520 Y31.086
G01 F300 X58.656 Y31.238
G01 F300 X58.758 Y31.414
G01 F300 X58.821 Y31.608
G01 F300 X58.842 Y31.810
G01 F300 X58.821 Y32.013
G01 F300 X58.758 Y32.206
G01 F300 X58.656 Y32.383
G01 F300 X58.520 Y32.534
G01 F300 X58.453 Y32.583
G01 F300 X58.453 Y32.839
G01 F300 X61.542 Y35.929
G01 F300 X61.576 Y35.921
G01 F300 X61.780 Y35.921
G01 F300 X61.979 Y35.964
G01 F300 X62.165 Y36.047
G01 F300 X62.330 Y36.166
G01 F300 X62.466 Y36.318
G01 F300 X62.568 Y36.494
G01 F300 X62.631 Y36.688
G01 F300 X62.652 Y36.890
G01 F300 X62.631 Y37.093
G01 F300 X62.568 Y37.286
G01 F300 X62.466 Y37.462
G01 F300 X62.330 Y37.614
G01 F300 X62.165 Y37.733
G01 F300 X61.979 Y37.816
G01 F300 X61.780 Y37.859
G01 F300 X61.576 Y37.859
G00 F3000 Z3.000
G00 F3000 X36.183 Y37.796
G00 F1500 Z0
G01 F300 Z-0.060
G01 F300 X35.997 Y37.756
G01 F300 X35.823 Y37.678
G01 F300 X35.669 Y37.567
G01 F300 X35.541 Y37.425
G01 F300 X35.446 Y37.260
G01 F300 X35.387 Y37.079
G01 F300 X35.367 Y36.890
G01 F300 X35.387 Y36.701
G01 F300 X35.446 Y36.520
G01 F300 X35.541 Y36.355
G01 F300 X35.669 Y36.213
G01 F300 X35.694 Y36.195
G01 F300 X35.694 Y35.862
G01 F300 X35.060 Y35.256
G01 F300 X34.913 Y35.256
G01 F300 X34.727 Y35.216
G01 F300 X34.553 Y35.139
G01 F300 X34.399 Y35.027
G01 F300 X34.271 Y34.885
G01 F300 X34.176 Y34.720
G01 F300 X34.117 Y34.539
G01 F300 X34.098 Y34.350
G01 F300 X34.117 Y34.161
G01 F300 X34.176 Y33.980
G01 F300 X34.271 Y33.815
G01 F300 X34.399 Y33.673
G01 F300 X34.424 Y33.655
G01 F300 X34.424 Y30.273
G01 F300 X34.302 Y30.138
G01 F300 X34.211 Y29.980
G01 F300 X34.155 Y29.807
G01 F300 X34.136 Y29.630
G01 F300 X34.136 Y28.910
G01 F300 X34.155 Y28.733
G01 F300 X34.211 Y28.560
G01 F300 X34.302 Y28.402
G01 F300 X34.424 Y28.266
G01 F300 X34.572 Y28.159
G01 F300 X34.738 Y28.085
G01 F300 X34.917 Y28.047
G01 F300 X35.099 Y28.047
G01 F300 X35.278 Y28.085
G01 F300 X35.444 Y28.159
G01 F300 X35.592 Y28.266
G01 F300 X35.714 Y28.402
G01 F300 X35.805 Y28.560
G01 F300 X35.861 Y28.733
G01 F300 X35.880 Y28.910
G01 F300 X35.880 Y29.630
G01 F300 X35.861 Y29.807
G01 F300 X35.805 Y29.980
G01 F300 X35.714 Y30.138
G01 F300 X35.593 Y30.273
G01 F300 X35.593 Y33.655
G01 F300 X35.617 Y33.673
G01 F300 X35.745 Y33.815
G01 F300 X35.840 Y33.980
G01 F300 X35.899 Y34.161
G01 F300 X35.919 Y34.350
G01 F300 X35.910 Y34.427
G01 F300 X36.674 Y35.190
G01 F300 X36.751 Y35.276
G01 F300 X36.812 Y35.382
G01 F300 X36.850 Y35.498
G01 F300 X36.863 Y35.616
G01 F300 X36.863 Y36.195
G01 F300 X36.887 Y36.213
G01 F300 X37.015 Y36.355
G01 F300 X37.110 Y36.520
G01 F300 X37.169 Y36.701
G01 F300 X37.189 Y36.890
G01 F300 X37.169 Y37.079
G01 F300 X37.110 Y37.260
G01 F300 X37.015 Y37.425
G01 F300 X36.887 Y37.567
G01 F300 X36.733 Y37.678
G01 F300 X36.559 Y37.756
G01 F300 X36.373 Y37.796
G01 F300 X36.183 Y37.796
G00 F3000 Z3.000
G00 F3000 X70.480 Y33.922
G00 F1500 Z0
G01 F300 Z-0.060
G01 F300 X70.306 Y33.886
G01 F300 X70.145 Y33.814
G01 F300 X70.001 Y33.709
G01 F300 X69.958 Y33.662
G01 F300 X62.887 Y33.662
G01 F300 X62.767 Y33.636
G01 F300 X62.656 Y33.587
G01 F300 X62.558 Y33.516
G01 F300 X58.742 Y29.700
G01 F300 X58.665 Y29.614
G01 F300 X58.604 Y29.508
G01 F300 X58.566 Y29.392
G01 F300 X58.553 Y29.274
G01 F300 X58.553 Y29.003
G01 F300 X58.432 Y28.868
G01 F300 X58.341 Y28.710
G01 F300 X58.285 Y28.537
G01 F300 X58.266 Y28.360
G01 F300 X58.266 Y27.640
G01 F300 X58.285 Y27.463
G01 F300 X58.341 Y27.290
G01 F300 X58.432 Y27.132
G01 F300 X58.554 Y26.996
G01 F300 X58.702 Y26.889
G01 F300 X58.868 Y26.815
G01 F300 X59.047 Y26.777
G01 F300 X59.229 Y26.777
G01 F300 X59.408 Y26.815
G01 F300 X59.574 Y26.889
G01 F300 X59.722 Y26.996
G01 F300 X59.844 Y27.132
G01 F300 X59.935 Y27.290
G01 F300 X59.991 Y27.463
G01 F300 X60.010 Y27.640
G01 F300 X60.010 Y28.360
G01 F300 X59.991 Y28.537
G01 F300 X59.935 Y28.710
G01 F300 X59.844 Y28.868
G01 F300 X59.723 Y29.003
G01 F300 X59.723 Y29.029
G01 F300 X63.192 Y32.498
G01 F300 X69.958 Y32.498
G01 F300 X70.001 Y32.451
G01 F300 X70.145 Y32.346
G01 F300 X70.306 Y32.275
G01 F300 X70.480 Y32.238
G01 F300 X70.657 Y32.238
G01 F300 X70.830 Y32.275
G01 F300 X70.992 Y32.346
G01 F300 X71.135 Y32.451
G01 F300 X71.253 Y32.582
G01 F300 X71.342 Y32.736
G01 F300 X71.397 Y32.904
G01 F300 X71.415 Y33.080
G01 F300 X71.397 Y33.256
G01 F300 X71.342 Y33.425
G01 F300 X71.253 Y33.578
G01 F300 X71.135 Y33.709
G01 F300 X70.992 Y33.814
G01 F300 X70.830 Y33.886
G01 F300 X70.657 Y33.922
G01 F300 X70.480 Y33.922
G00 F3000 Z3.000
G00 F3000 X19.680 Y33.922
G00 F1500 Z0
G01 F300 Z-0.060
G01 F300 X19.506 Y33.886
G01 F300 X19.345 Y33.814
G01 F300 X19.201 Y33.709
G01 F300 X19.083 Y33.578
G01 F300 X18.994 Y33.425
G01 F300 X18.940 Y33.256
G01 F300 X18.921 Y33.080
G01 F300 X18.940 Y32.904
G01 F300 X18.994 Y32.736
G01 F300 X19.083 Y32.582
G01 F300 X19.184 Y32.473
G01 F300 X19.184 Y28.148
G01 F300 X18.985 Y28.148
G01 F300 X18.985 Y27.928
G01 F300 X18.952 Y27.921
G01 F300 X18.841 Y27.872
G01 F300 X18.743 Y27.801
G01 F300 X16.832 Y25.890
G01 F300 X16.755 Y25.804
G01 F300 X16.694 Y25.698
G01 F300 X16.656 Y25.582
G01 F300 X16.643 Y25.464
G01 F300 X16.643 Y20.376
G01 F300 X16.656 Y20.258
G01 F300 X16.694 Y20.142
G01 F300 X16.755 Y20.036
G01 F300 X16.832 Y19.950
G01 F300 X17.596 Y19.187
G01 F300 X17.588 Y19.110
G01 F300 X17.607 Y18.921
G01 F300 X17.666 Y18.740
G01 F300 X17.761 Y18.575
G01 F300 X17.889 Y18.433
G01 F300 X18.043 Y18.322
G01 F300 X18.217 Y18.244
G01 F300 X18.403 Y18.204
G01 F300 X18.593 Y18.204
G01 F300 X18.779 Y18.244
G01 F300 X18.953 Y18.322
G01 F300 X19.107 Y18.433
G01 F300 X19.235 Y18.575
G01 F300 X19.330 Y18.740
G01 F300 X19.389 Y18.921
G01 F300 X19.409 Y19.110
G01 F300 X19.389 Y19.299
G01 F300 X19.330 Y19.480
G01 F300 X19.235 Y19.645
G01 F300 X19.107 Y19.787
G01 F300 X18.953 Y19.899
G01 F300 X18.779 Y19.976
G01 F300 X18.592 Y20.016
G01 F300 X18.422 Y20.011
G01 F300 X17.813 Y20.621
G01 F300 X17.813 Y25.219
G01 F300 X19.176 Y26.582
G01 F300 X20.551 Y26.582
G01 F300 X20.551 Y28.148
G01 F300 X20.353 Y28.148
G01 F300 X20.362 Y32.481
G01 F300 X20.453 Y32.582
G01 F300 X20.542 Y32.736
G01 F300 X20.597 Y32.904
G01 F300 X20.615 Y33.080
G01 F300 X20.597 Y33.256
G01 F300 X20.542 Y33.425
G01 F300 X20.453 Y33.578
G01 F300 X20.335 Y33.709
G01 F300 X20.192 Y33.814
G01 F300 X20.030 Y33.886
G01 F300 X19.857 Y33.922
G01 F300 X19.680 Y33.922
G00 F3000 Z3.000
G00 F3000 X70.480 Y31.382
G00 F1500 Z0
G01 F300 Z-0.060
G01 F300 X70.306 Y31.346
G01 F300 X70.145 Y31.274
G01 F300 X70.001 Y31.169
G01 F300 X69.958 Y31.122
G01 F300 X62.887 Y31.122
G01 F300 X62.767 Y31.096
G01 F300 X62.656 Y31.047
G01 F300 X62.558 Y30.976
G01 F300 X61.282 Y29.700
G01 F300 X61.205 Y29.614
G01 F300 X61.144 Y29.508
G01 F300 X61.106 Y29.392
G01 F300 X61.094 Y29.274
G01 F300 X61.094 Y29.003
G01 F300 X60.972 Y28.868
G01 F300 X60.881 Y28.710
G01 F300 X60.825 Y28.537
G01 F300 X60.806 Y28.360
G01 F300 X60.806 Y27.640
G01 F300 X60.825 Y27.463
G01 F300 X60.881 Y27.290
G01 F300 X60.972 Y27.132
G01 F300 X61.094 Y26.996
G01 F300 X61.242 Y26.889
G01 F300 X61.408 Y26.815
G01 F300 X61.587 Y26.777
G01 F300 X61.769 Y26.777
G01 F300 X61.948 Y26.815
G01 F300 X62.114 Y26.889
G01 F300 X62.262 Y26.996
G01 F300 X62.384 Y27.132
G01 F300 X62.475 Y27.290
G01 F300 X62.531 Y27.463
G01 F300 X62.550 Y27.640
G01 F300 X62.550 Y28.360
G01 F300 X62.531 Y28.537
G01 F300 X62.475 Y28.710
G01 F300 X62.384 Y28.868
G01 F300 X62.263 Y29.003
G01 F300 X62.263 Y29.029
G01 F300 X63.192 Y29.958
G01 F300 X69.958 Y29.958
G01 F300 X70.001 Y29.911
G01 F300 X70.145 Y29.806
G01 F300 X70.306 Y29.735
G01 F300 X70.480 Y29.698
G01 F300 X70.657 Y29.698
G01 F300 X70.830 Y29.735
G01 F300 X70.992 Y29.806
G01 F300 X71.135 Y29.911
G01 F300 X71.253 Y30.042
G01 F300 X71.342 Y30.196
G01 F300 X71.397 Y30.364
G01 F300 X71.415 Y30.540
G01 F300 X71.397 Y30.716
G01 F300 X71.342 Y30.885
G01 F300 X71.253 Y31.038
G01 F300 X71.135 Y31.169
G01 F300 X70.992 Y31.274
G01 F300 X70.830 Y31.346
G01 F300 X70.657 Y31.382
G01 F300 X70.480 Y31.382
G00 F3000 Z3.000
G00 F3000 X29.056 Y30.498
G00 F1500 Z0
G01 F300 Z-0.060
G01 F300 X29.056 Y28.043
G01 F300 X29.344 Y28.043
G01 F300 X29.344 Y26.726
G01 F300 X29.356 Y26.608
G01 F300 X29.394 Y26.492
G01 F300 X29.455 Y26.386
G01 F300 X29.532 Y26.300
G01 F300 X30.808 Y25.024
G01 F300 X30.905 Y24.953
G01 F300 X31.017 Y24.904
G01 F300 X31.137 Y24.878
G01 F300 X40.773 Y24.878
G01 F300 X40.773 Y24.705
G01 F300 X40.724 Y24.651
G01 F300 X40.642 Y24.509
G01 F300 X40.592 Y24.353
G01 F300 X40.575 Y24.190
G01 F300 X40.592 Y24.027
G01 F300 X40.642 Y23.871
G01 F300 X40.724 Y23.730
G01 F300 X40.834 Y23.608
G01 F300 X40.966 Y23.512
G01 F300 X41.116 Y23.445
G01 F300 X41.276 Y23.411
G01 F300 X41.440 Y23.411
G01 F300 X41.600 Y23.445
G01 F300 X41.750 Y23.512
G01 F300 X41.882 Y23.608
G01 F300 X41.992 Y23.730
G01 F300 X42.074 Y23.871
G01 F300 X42.124 Y24.027
G01 F300 X42.142 Y24.190
G01 F300 X42.124 Y24.353
G01 F300 X42.074 Y24.509
G01 F300 X41.992 Y24.651
G01 F300 X41.943 Y24.705
G01 F300 X41.943 Y26.035
G01 F300 X41.967 Y26.053
G01 F300 X42.095 Y26.195
G01 F300 X42.190 Y26.360
G01 F300 X42.249 Y26.541
G01 F300 X42.269 Y26.730
G01 F300 X42.249 Y26.919
G01 F300 X42.190 Y27.100
G01 F300 X42.095 Y27.265
G01 F300 X41.967 Y27.407
G01 F300 X41.813 Y27.519
G01 F300 X41.639 Y27.596
G01 F300 X41.453 Y27.636
G01 F300 X41.263 Y27.636
G01 F300 X41.077 Y27.596
G01 F300 X40.903 Y27.519
G01 F300 X40.749 Y27.407
G01 F300 X40.621 Y27.265
G01 F300 X40.526 Y27.100
G01 F300 X40.467 Y26.919
G01 F300 X40.448 Y26.730
G01 F300 X40.467 Y26.541
G01 F300 X40.526 Y26.360
G01 F300 X40.621 Y26.195
G01 F300 X40.749 Y26.053
G01 F300 X40.765 Y26.042
G01 F300 X31.442 Y26.042
G01 F300 X30.513 Y26.971
G01 F300 X30.513 Y28.043
G01 F300 X30.800 Y28.043
G01 F300 X30.800 Y30.498
G01 F300 X29.056 Y30.498
G00 F3000 Z3.000
G00 F3000 X64.127 Y29.223
G00 F1500 Z0
G01 F300 Z-0.060
G01 F300 X63.948 Y29.185
G01 F300 X63.782 Y29.111
G01 F300 X63.634 Y29.004
G01 F300 X63.512 Y28.868
G01 F300 X63.421 Y28.710
G01 F300 X63.365 Y28.537
G01 F300 X63.346 Y28.360
G01 F300 X63.346 Y27.640
G01 F300 X63.365 Y27.463
G01 F300 X63.421 Y27.290
G01 F300 X63.512 Y27.132
G01 F300 X63.634 Y26.996
G01 F300 X63.782 Y26.889
G01 F300 X63.948 Y26.815
G01 F300 X64.127 Y26.777
G01 F300 X64.309 Y26.777
G01 F300 X64.488 Y26.815
G01 F300 X64.654 Y26.889
G01 F300 X64.802 Y26.996
G01 F300 X64.924 Y27.132
G01 F300 X65.016 Y27.291
G01 F300 X65.053 Y27.418
G01 F300 X69.958 Y27.418
G01 F300 X70.001 Y27.371
G01 F300 X70.145 Y27.267
G01 F300 X70.306 Y27.195
G01 F300 X70.480 Y27.158
G01 F300 X70.657 Y27.158
G01 F300 X70.830 Y27.195
G01 F300 X70.992 Y27.267
G01 F300 X71.135 Y27.371
G01 F300 X71.253 Y27.502
G01 F300 X71.342 Y27.655
G01 F300 X71.397 Y27.824
G01 F300 X71.415 Y28.000
G01 F300 X71.397 Y28.176
G01 F300 X71.342 Y28.345
G01 F300 X71.253 Y28.498
G01 F300 X71.135 Y28.629
G01 F300 X70.992 Y28.734
G01 F300 X70.830 Y28.806
G01 F300 X70.657 Y28.842
G01 F300 X70.480 Y28.842
G01 F300 X70.306 Y28.806
G01 F300 X70.145 Y28.734
G01 F300 X70.001 Y28.629
G01 F300 X69.959 Y28.582
G01 F300 X65.050 Y28.604
G01 F300 X65.015 Y28.710
G01 F300 X64.924 Y28.868
G01 F300 X64.802 Y29.004
G01 F300 X64.654 Y29.111
G01 F300 X64.488 Y29.185
G01 F300 X64.309 Y29.223
G01 F300 X64.127 Y29.223
G00 F3000 Z3.000
G00 F3000 X56.507 Y29.223
G00 F1500 Z0
G01 F300 Z-0.060
G01 F300 X56.328 Y29.185
G01 F300 X56.162 Y29.111
G01 F300 X56.014 Y29.004
G01 F300 X55.892 Y28.868
G01 F300 X55.801 Y28.710
G01 F300 X55.745 Y28.537
G01 F300 X55.726 Y28.360
G01 F300 X55.726 Y27.640
G01 F300 X55.745 Y27.463
G01 F300 X55.801 Y27.290
G01 F300 X55.892 Y27.132
G01 F300 X56.014 Y26.996
G01 F300 X56.162 Y26.889
G01 F300 X56.328 Y26.815
G01 F300 X56.507 Y26.777
G01 F300 X56.689 Y26.777
G01 F300 X56.868 Y26.815
G01 F300 X57.034 Y26.889
G01 F300 X57.182 Y26.996
G01 F300 X57.304 Y27.132
G01 F300 X57.395 Y27.290
G01 F300 X57.451 Y27.463
G01 F300 X57.470 Y27.640
G01 F300 X57.470 Y28.360
G01 F300 X57.451 Y28.537
G01 F300 X57.395 Y28.710
G01 F300 X57.304 Y28.868
G01 F300 X57.182 Y29.004
G01 F300 X57.034 Y29.111
G01 F300 X56.868 Y29.185
G01 F300 X56.689 Y29.223
G01 F300 X56.507 Y29.223
G00 F3000 Z3.000
G00 F3000 X70.480 Y26.302
G00 F1500 Z0
G01 F300 Z-0.060
G01 F300 X70.306 Y26.266
G01 F300 X70.145 Y26.194
G01 F300 X70.001 Y26.089
G01 F300 X69.958 Y26.042
G01 F300 X67.967 Y26.042
G01 F300 X67.847 Y26.016
G01 F300 X67.736 Y25.967
G01 F300 X67.638 Y25.896
G01 F300 X63.822 Y22.080
G01 F300 X63.745 Y21.994
G01 F300 X63.684 Y21.888
G01 F300 X63.646 Y21.772
G01 F300 X63.634 Y21.654
G01 F300 X63.634 Y21.608
G01 F300 X63.346 Y21.608
G01 F300 X63.346 Y19.152
G01 F300 X65.090 Y19.152
G01 F300 X65.090 Y21.608
G01 F300 X65.001 Y21.608
G01 F300 X68.272 Y24.878
G01 F300 X69.958 Y24.878
G01 F300 X70.001 Y24.831
G01 F300 X70.145 Y24.727
G01 F300 X70.306 Y24.655
G01 F300 X70.480 Y24.618
G01 F300 X70.657 Y24.618
G01 F300 X70.830 Y24.655
G01 F300 X70.992 Y24.727
G01 F300 X71.135 Y24.831
G01 F300 X71.253 Y24.962
G01 F300 X71.342 Y25.116
G01 F300 X71.397 Y25.284
G01 F300 X71.415 Y25.460
G01 F300 X71.397 Y25.636
G01 F300 X71.342 Y25.805
G01 F300 X71.253 Y25.958
G01 F300 X71.135 Y26.089
G01 F300 X70.992 Y26.194
G01 F300 X70.830 Y26.266
G01 F300 X70.657 Y26.302
G01 F300 X70.480 Y26.302
G00 F3000 Z3.000
G00 F3000 X19.686 Y24.334
G00 F1500 Z0
G01 F300 Z-0.060
G01 F300 X19.526 Y24.300
G01 F300 X19.376 Y24.234
G01 F300 X19.244 Y24.137
G01 F300 X19.134 Y24.015
G01 F300 X19.052 Y23.874
G01 F300 X19.002 Y23.718
G01 F300 X18.985 Y23.555
G01 F300 X19.002 Y23.392
G01 F300 X19.052 Y23.236
G01 F300 X19.134 Y23.095
G01 F300 X19.244 Y22.973
G01 F300 X19.376 Y22.877
G01 F300 X19.526 Y22.810
G01 F300 X19.686 Y22.776
G01 F300 X19.850 Y22.776
G01 F300 X20.010 Y22.810
G01 F300 X20.160 Y22.877
G01 F300 X20.292 Y22.973
G01 F300 X20.293 Y22.973
G01 F300 X25.213 Y22.973
G01 F300 X25.207 Y22.920
G01 F300 X25.227 Y22.731
G01 F300 X25.286 Y22.550
G01 F300 X25.381 Y22.385
G01 F300 X25.509 Y22.243
G01 F300 X25.663 Y22.132
G01 F300 X25.837 Y22.054
G01 F300 X26.023 Y22.015
G01 F300 X26.213 Y22.015
G01 F300 X26.399 Y22.054
G01 F300 X26.573 Y22.132
G01 F300 X26.727 Y22.243
G01 F300 X26.855 Y22.385
G01 F300 X26.950 Y22.550
G01 F300 X27.009 Y22.731
G01 F300 X27.029 Y22.920
G01 F300 X27.009 Y23.109
G01 F300 X26.950 Y23.290
G01 F300 X26.855 Y23.455
G01 F300 X26.727 Y23.597
G01 F300 X26.573 Y23.709
G01 F300 X26.399 Y23.786
G01 F300 X26.212 Y23.826
G01 F300 X26.042 Y23.821
G01 F300 X25.873 Y23.991
G01 F300 X25.776 Y24.062
G01 F300 X25.664 Y24.111
G01 F300 X25.544 Y24.137
G01 F300 X20.293 Y24.137
G01 F300 X20.292 Y24.137
G01 F300 X20.160 Y24.234
G01 F300 X20.010 Y24.300
G01 F300 X19.850 Y24.334
G01 F300 X19.686 Y24.334
G00 F3000 Z3.000
G00 F3000 X69.722 Y23.767
G00 F1500 Z0
G01 F300 Z-0.060
G01 F300 X69.722 Y22.074
G01 F300 X69.984 Y22.074
G01 F300 X69.984 Y21.891
G01 F300 X66.514 Y18.422
G01 F300 X62.263 Y18.422
G01 F300 X62.263 Y19.377
G01 F300 X62.384 Y19.512
G01 F300 X62.475 Y19.670
G01 F300 X62.531 Y19.843
G01 F300 X62.550 Y20.020
G01 F300 X62.550 Y20.740
G01 F300 X62.531 Y20.917
G01 F300 X62.475 Y21.090
G01 F300 X62.384 Y21.248
G01 F300 X62.262 Y21.384
G01 F300 X62.114 Y21.491
G01 F300 X61.948 Y21.565
G01 F300 X61.769 Y21.603
G01 F300 X61.587 Y21.603
G01 F300 X61.408 Y21.565
G01 F300 X61.242 Y21.491
G01 F300 X61.094 Y21.384
G01 F300 X60.972 Y21.248
G01 F300 X60.881 Y21.090
G01 F300 X60.825 Y20.917
G01 F300 X60.806 Y20.740
G01 F300 X60.806 Y20.020
G01 F300 X60.825 Y19.843
G01 F300 X60.881 Y19.670
G01 F300 X60.972 Y19.512
G01 F300 X61.094 Y19.377
G01 F300 X61.094 Y17.836
G01 F300 X61.106 Y17.718
G01 F300 X61.144 Y17.602
G01 F300 X61.205 Y17.496
G01 F300 X61.287 Y17.405
G01 F300 X61.386 Y17.333
G01 F300 X61.497 Y17.284
G01 F300 X61.617 Y17.258
G01 F300 X66.819 Y17.258
G01 F300 X66.939 Y17.284
G01 F300 X67.050 Y17.333
G01 F300 X67.148 Y17.404
G01 F300 X70.964 Y21.220
G01 F300 X71.041 Y21.306
G01 F300 X71.102 Y21.412
G01 F300 X71.140 Y21.528
G01 F300 X71.153 Y21.646
G01 F300 X71.153 Y22.074
G01 F300 X71.415 Y22.074
G01 F300 X71.415 Y23.767
G01 F300 X69.722 Y23.767
G00 F3000 Z3.000
G00 F3000 X34.917 Y22.873
G00 F1500 Z0
G01 F300 Z-0.060
G01 F300 X34.738 Y22.835
G01 F300 X34.572 Y22.761
G01 F300 X34.424 Y22.654
G01 F300 X34.302 Y22.518
G01 F300 X34.211 Y22.360
G01 F300 X34.155 Y22.187
G01 F300 X34.136 Y22.010
G01 F300 X34.136 Y21.290
G01 F300 X34.155 Y21.113
G01 F300 X34.211 Y20.940
G01 F300 X34.302 Y20.782
G01 F300 X34.424 Y20.646
G01 F300 X34.572 Y20.539
G01 F300 X34.738 Y20.465
G01 F300 X34.917 Y20.427
G01 F300 X35.099 Y20.427
G01 F300 X35.278 Y20.465
G01 F300 X35.444 Y20.539
G01 F300 X35.592 Y20.646
G01 F300 X35.714 Y20.782
G01 F300 X35.805 Y20.940
G01 F300 X35.861 Y21.113
G01 F300 X35.880 Y21.290
G01 F300 X35.880 Y22.010
G01 F300 X35.861 Y22.187
G01 F300 X35.805 Y22.360
G01 F300 X35.714 Y22.518
G01 F300 X35.592 Y22.654
G01 F300 X35.444 Y22.761
G01 F300 X35.278 Y22.835
G01 F300 X35.099 Y22.873
G01 F300 X34.917 Y22.873
G00 F3000 Z3.000
G00 F3000 X37.457 Y22.873
G00 F1500 Z0
G01 F300 Z-0.060
G01 F300 X37.278 Y22.835
G01 F300 X37.112 Y22.761
G01 F300 X36.964 Y22.654
G01 F300 X36.842 Y22.518
G01 F300 X36.751 Y22.360
G01 F300 X36.695 Y22.187
G01 F300 X36.676 Y22.010
G01 F300 X36.676 Y21.290
G01 F300 X36.695 Y21.113
G01 F300 X36.751 Y20.940
G01 F300 X36.842 Y20.782
G01 F300 X36.964 Y20.646
G01 F300 X37.112 Y20.539
G01 F300 X37.278 Y20.465
G01 F300 X37.457 Y20.427
G01 F300 X37.639 Y20.427
G01 F300 X37.818 Y20.465
G01 F300 X37.984 Y20.539
G01 F300 X38.132 Y20.646
G01 F300 X38.254 Y20.782
G01 F300 X38.345 Y20.940
G01 F300 X38.401 Y21.113
G01 F300 X38.420 Y21.290
G01 F300 X38.420 Y22.010
G01 F300 X38.401 Y22.187
G01 F300 X38.345 Y22.360
G01 F300 X38.254 Y22.518
G01 F300 X38.132 Y22.654
G01 F300 X37.984 Y22.761
G01 F300 X37.818 Y22.835
G01 F300 X37.639 Y22.873
G01 F300 X37.457 Y22.873
G00 F3000 Z3.000
G00 F3000 X32.377 Y22.873
G00 F1500 Z0
G01 F300 Z-0.060
G01 F300 X32.198 Y22.835
G01 F300 X32.032 Y22.761
G01 F300 X31.884 Y22.654
G01 F300 X31.762 Y22.518
G01 F300 X31.671 Y22.360
G01 F300 X31.615 Y22.187
G01 F300 X31.596 Y22.010
G01 F300 X31.596 Y21.290
G01 F300 X31.615 Y21.113
G01 F300 X31.671 Y20.940
G01 F300 X31.762 Y20.782
G01 F300 X31.884 Y20.646
G01 F300 X32.032 Y20.539
G01 F300 X32.198 Y20.465
G01 F300 X32.377 Y20.427
G01 F300 X32.559 Y20.427
G01 F300 X32.738 Y20.465
G01 F300 X32.904 Y20.539
G01 F300 X33.052 Y20.646
G01 F300 X33.174 Y20.782
G01 F300 X33.265 Y20.940
G01 F300 X33.321 Y21.113
G01 F300 X33.340 Y21.290
G01 F300 X33.340 Y22.010
G01 F300 X33.321 Y22.187
G01 F300 X33.265 Y22.360
G01 F300 X33.174 Y22.518
G01 F300 X33.052 Y22.654
G01 F300 X32.904 Y22.761
G01 F300 X32.738 Y22.835
G01 F300 X32.559 Y22.873
G01 F300 X32.377 Y22.873
G00 F3000 Z3.000
G00 F3000 X48.887 Y21.603
G00 F1500 Z0
G01 F300 Z-0.060
G01 F300 X48.708 Y21.565
G01 F300 X48.542 Y21.491
G01 F300 X48.394 Y21.384
G01 F300 X48.272 Y21.248
G01 F300 X48.181 Y21.090
G01 F300 X48.125 Y20.917
G01 F300 X48.106 Y20.740
G01 F300 X48.106 Y20.334
G01 F300 X47.464 Y19.692
G01 F300 X41.883 Y19.692
G01 F300 X41.882 Y19.692
G01 F300 X41.750 Y19.789
G01 F300 X41.600 Y19.855
G01 F300 X41.440 Y19.889
G01 F300 X41.276 Y19.889
G01 F300 X41.116 Y19.855
G01 F300 X40.966 Y19.789
G01 F300 X40.834 Y19.692
G01 F300 X40.724 Y19.571
G01 F300 X40.642 Y19.429
G01 F300 X40.592 Y19.273
G01 F300 X40.575 Y19.110
G01 F300 X40.592 Y18.947
G01 F300 X40.642 Y18.791
G01 F300 X40.724 Y18.649
G01 F300 X40.834 Y18.528
G01 F300 X40.966 Y18.431
G01 F300 X41.116 Y18.365
G01 F300 X41.276 Y18.331
G01 F300 X41.440 Y18.331
G01 F300 X41.600 Y18.365
G01 F300 X41.750 Y18.431
G01 F300 X41.882 Y18.528
G01 F300 X41.883 Y18.528
G01 F300 X47.769 Y18.528
G01 F300 X47.889 Y18.554
G01 F300 X48.001 Y18.603
G01 F300 X48.098 Y18.674
G01 F300 X48.646 Y19.223
G01 F300 X48.708 Y19.195
G01 F300 X48.887 Y19.157
G01 F300 X49.069 Y19.157
G01 F300 X49.248 Y19.195
G01 F300 X49.414 Y19.269
G01 F300 X49.562 Y19.376
G01 F300 X49.684 Y19.512
G01 F300 X49.775 Y19.670
G01 F300 X49.831 Y19.843
G01 F300 X49.850 Y20.020
G01 F300 X49.850 Y20.740
G01 F300 X49.831 Y20.917
G01 F300 X49.775 Y21.090
G01 F300 X49.684 Y21.248
G01 F300 X49.562 Y21.384
G01 F300 X49.414 Y21.491
G01 F300 X49.248 Y21.565
G01 F300 X49.069 Y21.603
G01 F300 X48.887 Y21.603
G00 F3000 Z3.000
G00 F3000 X27.312 Y45.232
G00 F1500 Z0
G01 F300 Z-0.060
G01 F300 X27.164 Y45.200
G01 F300 X27.025 Y45.139
G01 F300 X26.907 Y45.053
G01 F300 X25.620 Y43.766
G01 F300 X25.531 Y43.666
G01 F300 X25.455 Y43.535
G01 F300 X25.408 Y43.391
G01 F300 X25.393 Y43.252
G01 F300 X25.393 Y42.006
G01 F300 X25.370 Y41.995
G01 F300 X25.117 Y41.812
G01 F300 X24.908 Y41.579
G01 F300 X24.752 Y41.308
G01 F300 X24.655 Y41.011
G01 F300 X24.622 Y40.700
G01 F300 X24.655 Y40.389
G01 F300 X24.686 Y40.292
G01 F300 X20.755 Y36.360
G01 F300 X20.755 Y36.607
G01 F300 X18.782 Y36.607
G01 F300 X18.782 Y34.634
G01 F300 X20.755 Y34.634
G01 F300 X20.755 Y34.898
G01 F300 X21.114 Y34.898
G01 F300 X21.262 Y34.930
G01 F300 X21.401 Y34.992
G01 F300 X21.519 Y35.077
G01 F300 X25.708 Y39.266
G01 F300 X25.962 Y39.212
G01 F300 X26.274 Y39.212
G01 F300 X26.580 Y39.278
G01 F300 X26.866 Y39.405
G01 F300 X27.119 Y39.589
G01 F300 X27.328 Y39.821
G01 F300 X27.484 Y40.092
G01 F300 X27.581 Y40.389
G01 F300 X27.614 Y40.700
G01 F300 X27.581 Y41.011
G01 F300 X27.484 Y41.308
G01 F300 X27.328 Y41.579
G01 F300 X27.119 Y41.812
G01 F300 X26.866 Y41.995
G01 F300 X26.843 Y42.006
G01 F300 X26.843 Y42.941
G01 F300 X27.690 Y43.788
G01 F300 X35.976 Y43.788
G01 F300 X42.849 Y36.915
G01 F300 X42.847 Y36.890
G01 F300 X42.870 Y36.671
G01 F300 X42.938 Y36.462
G01 F300 X43.047 Y36.272
G01 F300 X43.174 Y36.132
G01 F300 X43.174 Y29.993
G01 F300 X38.482 Y30.013
G01 F300 X38.474 Y30.038
G01 F300 X38.368 Y30.221
G01 F300 X38.226 Y30.379
G01 F300 X38.055 Y30.503
G01 F300 X37.861 Y30.589
G01 F300 X37.654 Y30.633
G01 F300 X37.442 Y30.633
G01 F300 X37.235 Y30.589
G01 F300 X37.041 Y30.503
G01 F300 X36.870 Y30.379
G01 F300 X36.728 Y30.221
G01 F300 X36.623 Y30.038
G01 F300 X36.557 Y29.836
G01 F300 X36.536 Y29.637
G01 F300 X36.536 Y28.903
G01 F300 X36.557 Y28.704
G01 F300 X36.623 Y28.502
G01 F300 X36.728 Y28.319
G01 F300 X36.870 Y28.162
G01 F300 X37.041 Y28.037
G01 F300 X37.235 Y27.951
G01 F300 X37.442 Y27.907
G01 F300 X37.654 Y27.907
G01 F300 X37.861 Y27.951
G01 F300 X38.055 Y28.037
G01 F300 X38.226 Y28.162
G01 F300 X38.368 Y28.319
G01 F300 X38.475 Y28.505
G01 F300 X38.488 Y28.548
G01 F300 X44.444 Y28.548
G01 F300 X44.444 Y27.299
G01 F300 X44.420 Y27.273
G01 F300 X44.324 Y27.106
G01 F300 X44.264 Y26.922
G01 F300 X44.244 Y26.730
G01 F300 X44.264 Y26.538
G01 F300 X44.324 Y26.354
G01 F300 X44.420 Y26.187
G01 F300 X44.550 Y26.043
G01 F300 X44.706 Y25.930
G01 F300 X44.882 Y25.851
G01 F300 X45.071 Y25.811
G01 F300 X45.265 Y25.811
G01 F300 X45.454 Y25.851
G01 F300 X45.630 Y25.930
G01 F300 X45.738 Y26.008
G01 F300 X47.784 Y26.008
G01 F300 X47.932 Y26.040
G01 F300 X48.071 Y26.102
G01 F300 X48.189 Y26.187
G01 F300 X48.679 Y26.678
G01 F300 X48.872 Y26.637
G01 F300 X49.084 Y26.637
G01 F300 X49.291 Y26.681
G01 F300 X49.485 Y26.767
G01 F300 X49.656 Y26.892
G01 F300 X49.798 Y27.049
G01 F300 X49.904 Y27.232
G01 F300 X49.969 Y27.434
G01 F300 X49.990 Y27.633
G01 F300 X49.990 Y28.367
G01 F300 X49.969 Y28.566
G01 F300 X49.904 Y28.768
G01 F300 X49.798 Y28.951
G01 F300 X49.656 Y29.109
G01 F300 X49.485 Y29.233
G01 F300 X49.291 Y29.319
G01 F300 X49.084 Y29.363
G01 F300 X48.872 Y29.363
G01 F300 X48.665 Y29.319
G01 F300 X48.471 Y29.233
G01 F300 X48.300 Y29.109
G01 F300 X48.158 Y28.951
G01 F300 X48.053 Y28.768
G01 F300 X47.987 Y28.566
G01 F300 X47.966 Y28.367
G01 F300 X47.966 Y28.012
G01 F300 X47.406 Y27.452
G01 F300 X45.893 Y27.452
G01 F300 X45.893 Y29.282
G01 F300 X45.878 Y29.421
G01 F300 X45.831 Y29.565
G01 F300 X45.755 Y29.697
G01 F300 X45.654 Y29.809
G01 F300 X45.531 Y29.899
G01 F300 X45.392 Y29.960
G01 F300 X45.244 Y29.992
G01 F300 X44.623 Y29.992
G01 F300 X44.623 Y36.132
G01 F300 X44.655 Y36.168
G01 F300 X46.965 Y36.168
G01 F300 X46.960 Y36.163
G01 F300 X46.864 Y35.996
G01 F300 X46.804 Y35.812
G01 F300 X46.784 Y35.620
G01 F300 X46.804 Y35.428
G01 F300 X46.864 Y35.244
G01 F300 X46.960 Y35.077
G01 F300 X47.090 Y34.933
G01 F300 X47.246 Y34.820
G01 F300 X47.422 Y34.741
G01 F300 X47.611 Y34.701
G01 F300 X47.805 Y34.701
G01 F300 X47.994 Y34.741
G01 F300 X48.170 Y34.820
G01 F300 X48.326 Y34.933
G01 F300 X48.456 Y35.077
G01 F300 X48.552 Y35.244
G01 F300 X48.612 Y35.428
G01 F300 X48.632 Y35.620
G01 F300 X48.612 Y35.812
G01 F300 X48.552 Y35.996
G01 F300 X48.456 Y36.163
G01 F300 X48.433 Y36.189
G01 F300 X48.433 Y37.591
G01 F300 X48.456 Y37.617
G01 F300 X48.552 Y37.784
G01 F300 X48.612 Y37.968
G01 F300 X48.632 Y38.160
G01 F300 X48.612 Y38.352
G01 F300 X48.552 Y38.536
G01 F300 X48.456 Y38.703
G01 F300 X48.326 Y38.847
G01 F300 X48.170 Y38.960
G01 F300 X47.994 Y39.039
G01 F300 X47.805 Y39.079
G01 F300 X47.611 Y39.079
G01 F300 X47.422 Y39.039
G01 F300 X47.246 Y38.960
G01 F300 X47.090 Y38.847
G01 F300 X46.960 Y38.703
G01 F300 X46.864 Y38.536
G01 F300 X46.804 Y38.352
G01 F300 X46.784 Y38.160
G01 F300 X46.804 Y37.968
G01 F300 X46.864 Y37.784
G01 F300 X46.960 Y37.617
G01 F300 X46.965 Y37.612
G01 F300 X44.655 Y37.612
G01 F300 X44.601 Y37.671
G01 F300 X44.424 Y37.800
G01 F300 X44.223 Y37.890
G01 F300 X44.005 Y37.936
G01 F300 X43.879 Y37.933
G01 F300 X36.759 Y45.053
G01 F300 X36.641 Y45.139
G01 F300 X36.502 Y45.200
G01 F300 X36.354 Y45.232
G01 F300 X27.312 Y45.232
G00 F3000 Z3.000
G00 F3000 X61.562 Y43.079
G00 F1500 Z0
G01 F300 Z-0.060
G01 F300 X61.334 Y43.030
G01 F300 X61.121 Y42.935
G01 F300 X60.932 Y42.798
G01 F300 X60.776 Y42.625
G01 F300 X60.660 Y42.423
G01 F300 X60.588 Y42.202
G01 F300 X60.563 Y41.970
G01 F300 X60.572 Y41.888
G01 F300 X57.566 Y38.882
G01 F300 X53.358 Y38.882
G01 F300 X53.250 Y38.960
G01 F300 X53.074 Y39.039
G01 F300 X52.885 Y39.079
G01 F300 X52.691 Y39.079
G01 F300 X52.502 Y39.039
G01 F300 X52.326 Y38.960
G01 F300 X52.218 Y38.882
G01 F300 X50.172 Y38.882
G01 F300 X50.024 Y38.850
G01 F300 X49.885 Y38.788
G01 F300 X49.762 Y38.699
G01 F300 X49.661 Y38.587
G01 F300 X49.585 Y38.455
G01 F300 X49.538 Y38.311
G01 F300 X49.524 Y38.172
G01 F300 X49.524 Y32.532
G01 F300 X48.550 Y32.532
G01 F300 X48.454 Y32.638
G01 F300 X48.265 Y32.775
G01 F300 X48.053 Y32.870
G01 F300 X47.825 Y32.919
G01 F300 X47.592 Y32.919
G01 F300 X47.364 Y32.870
G01 F300 X47.151 Y32.775
G01 F300 X46.962 Y32.638
G01 F300 X46.806 Y32.465
G01 F300 X46.690 Y32.263
G01 F300 X46.618 Y32.042
G01 F300 X46.593 Y31.810
G01 F300 X46.618 Y31.578
G01 F300 X46.690 Y31.357
G01 F300 X46.806 Y31.155
G01 F300 X46.962 Y30.982
G01 F300 X47.151 Y30.845
G01 F300 X47.364 Y30.750
G01 F300 X47.592 Y30.701
G01 F300 X47.825 Y30.701
G01 F300 X48.053 Y30.750
G01 F300 X48.265 Y30.845
G01 F300 X48.454 Y30.982
G01 F300 X48.550 Y31.088
G01 F300 X50.794 Y31.088
G01 F300 X50.794 Y29.057
G01 F300 X50.698 Y28.951
G01 F300 X50.593 Y28.768
G01 F300 X50.527 Y28.566
G01 F300 X50.506 Y28.367
G01 F300 X50.506 Y27.633
G01 F300 X50.527 Y27.434
G01 F300 X50.593 Y27.232
G01 F300 X50.698 Y27.049
G01 F300 X50.840 Y26.892
G01 F300 X51.011 Y26.767
G01 F300 X51.205 Y26.681
G01 F300 X51.412 Y26.637
G01 F300 X51.624 Y26.637
G01 F300 X51.831 Y26.681
G01 F300 X52.025 Y26.767
G01 F300 X52.196 Y26.892
G01 F300 X52.338 Y27.049
G01 F300 X52.444 Y27.232
G01 F300 X52.509 Y27.434
G01 F300 X52.530 Y27.633
G01 F300 X52.530 Y28.367
G01 F300 X52.509 Y28.566
G01 F300 X52.444 Y28.768
G01 F300 X52.338 Y28.951
G01 F300 X52.242 Y29.057
G01 F300 X52.242 Y31.822
G01 F300 X52.228 Y31.961
G01 F300 X52.181 Y32.105
G01 F300 X52.105 Y32.236
G01 F300 X52.004 Y32.349
G01 F300 X51.881 Y32.439
G01 F300 X51.742 Y32.500
G01 F300 X51.594 Y32.532
G01 F300 X50.973 Y32.532
G01 F300 X50.973 Y37.438
G01 F300 X52.218 Y37.438
G01 F300 X52.326 Y37.360
G01 F300 X52.502 Y37.281
G01 F300 X52.691 Y37.241
G01 F300 X52.885 Y37.241
G01 F300 X53.074 Y37.281
G01 F300 X53.250 Y37.360
G01 F300 X53.358 Y37.438
G01 F300 X57.944 Y37.438
G01 F300 X58.092 Y37.470
G01 F300 X58.231 Y37.532
G01 F300 X58.349 Y37.617
G01 F300 X61.593 Y40.861
G01 F300 X61.795 Y40.861
G01 F300 X62.023 Y40.910
G01 F300 X62.235 Y41.005
G01 F300 X62.424 Y41.142
G01 F300 X62.580 Y41.315
G01 F300 X62.696 Y41.517
G01 F300 X62.768 Y41.738
G01 F300 X62.793 Y41.970
G01 F300 X62.768 Y42.202
G01 F300 X62.696 Y42.423
G01 F300 X62.580 Y42.625
G01 F300 X62.424 Y42.798
G01 F300 X62.235 Y42.935
G01 F300 X62.023 Y43.030
G01 F300 X61.795 Y43.079
G01 F300 X61.562 Y43.079
G00 F3000 Z3.000
G00 F3000 X29.704 Y42.195
G00 F1500 Z0
G01 F300 Z-0.060
G01 F300 X29.704 Y40.229
G01 F300 X26.891 Y37.416
G01 F300 X26.801 Y37.317
G01 F300 X26.725 Y37.185
G01 F300 X26.678 Y37.041
G01 F300 X26.664 Y36.902
G01 F300 X26.664 Y35.108
G01 F300 X26.631 Y35.072
G01 F300 X26.042 Y35.072
G01 F300 X25.894 Y35.040
G01 F300 X25.755 Y34.979
G01 F300 X25.637 Y34.893
G01 F300 X23.081 Y32.336
G01 F300 X22.991 Y32.236
G01 F300 X22.915 Y32.105
G01 F300 X22.868 Y31.961
G01 F300 X22.854 Y31.822
G01 F300 X22.854 Y29.258
G01 F300 X22.868 Y29.119
G01 F300 X22.915 Y28.975
G01 F300 X22.991 Y28.844
G01 F300 X23.081 Y28.744
G01 F300 X29.163 Y22.662
G01 F300 X29.108 Y22.601
G01 F300 X29.003 Y22.418
G01 F300 X28.937 Y22.216
G01 F300 X28.916 Y22.017
G01 F300 X28.916 Y21.283
G01 F300 X28.937 Y21.084
G01 F300 X29.003 Y20.882
G01 F300 X29.108 Y20.699
G01 F300 X29.204 Y20.593
G01 F300 X29.204 Y19.832
G01 F300 X26.875 Y19.832
G01 F300 X26.821 Y19.891
G01 F300 X26.644 Y20.020
G01 F300 X26.443 Y20.110
G01 F300 X26.228 Y20.155
G01 F300 X26.008 Y20.155
G01 F300 X25.793 Y20.110
G01 F300 X25.592 Y20.020
G01 F300 X25.415 Y19.891
G01 F300 X25.268 Y19.728
G01 F300 X25.158 Y19.538
G01 F300 X25.090 Y19.329
G01 F300 X25.067 Y19.110
G01 F300 X25.090 Y18.891
G01 F300 X25.158 Y18.682
G01 F300 X25.268 Y18.492
G01 F300 X25.415 Y18.329
G01 F300 X25.592 Y18.200
G01 F300 X25.793 Y18.110
G01 F300 X26.008 Y18.065
G01 F300 X26.228 Y18.065
G01 F300 X26.443 Y18.110
G01 F300 X26.644 Y18.200
G01 F300 X26.821 Y18.329
G01 F300 X26.875 Y18.388
G01 F300 X38.894 Y18.388
G01 F300 X39.042 Y18.420
G01 F300 X39.181 Y18.482
G01 F300 X39.299 Y18.567
G01 F300 X40.586 Y19.854
G01 F300 X40.675 Y19.954
G01 F300 X40.751 Y20.085
G01 F300 X40.798 Y20.229
G01 F300 X40.813 Y20.368
G01 F300 X40.813 Y20.928
G01 F300 X44.598 Y20.928
G01 F300 X44.706 Y20.850
G01 F300 X44.882 Y20.771
G01 F300 X45.071 Y20.731
G01 F300 X45.265 Y20.731
G01 F300 X45.454 Y20.771
G01 F300 X45.630 Y20.850
G01 F300 X45.786 Y20.963
G01 F300 X45.916 Y21.107
G01 F300 X46.012 Y21.274
G01 F300 X46.072 Y21.458
G01 F300 X46.092 Y21.650
G01 F300 X46.072 Y21.842
G01 F300 X46.012 Y22.026
G01 F300 X45.916 Y22.193
G01 F300 X45.893 Y22.219
G01 F300 X45.893 Y22.621
G01 F300 X46.740 Y23.468
G01 F300 X49.946 Y23.468
G01 F300 X50.794 Y22.621
G01 F300 X50.794 Y21.437
G01 F300 X50.698 Y21.331
G01 F300 X50.593 Y21.148
G01 F300 X50.527 Y20.946
G01 F300 X50.506 Y20.747
G01 F300 X50.506 Y20.013
G01 F300 X50.527 Y19.814
G01 F300 X50.593 Y19.612
G01 F300 X50.698 Y19.429
G01 F300 X50.840 Y19.271
G01 F300 X51.011 Y19.147
G01 F300 X51.205 Y19.061
G01 F300 X51.412 Y19.017
G01 F300 X51.624 Y19.017
G01 F300 X51.831 Y19.061
G01 F300 X52.025 Y19.147
G01 F300 X52.196 Y19.271
G01 F300 X52.338 Y19.429
G01 F300 X52.445 Y19.615
G01 F300 X52.457 Y19.655
G01 F300 X53.124 Y19.640
G01 F300 X53.133 Y19.612
G01 F300 X53.238 Y19.429
G01 F300 X53.380 Y19.271
G01 F300 X53.551 Y19.147
G01 F300 X53.745 Y19.061
G01 F300 X53.952 Y19.017
G01 F300 X54.164 Y19.017
G01 F300 X54.371 Y19.061
G01 F300 X54.565 Y19.147
G01 F300 X54.736 Y19.271
G01 F300 X54.878 Y19.429
G01 F300 X54.985 Y19.615
G01 F300 X54.997 Y19.655
G01 F300 X55.664 Y19.640
G01 F300 X55.672 Y19.612
G01 F300 X55.778 Y19.429
G01 F300 X55.920 Y19.271
G01 F300 X56.091 Y19.147
G01 F300 X56.285 Y19.061
G01 F300 X56.492 Y19.017
G01 F300 X56.704 Y19.017
G01 F300 X56.911 Y19.061
G01 F300 X57.105 Y19.147
G01 F300 X57.276 Y19.271
G01 F300 X57.418 Y19.429
G01 F300 X57.525 Y19.615
G01 F300 X57.537 Y19.655
G01 F300 X58.204 Y19.640
G01 F300 X58.213 Y19.612
G01 F300 X58.318 Y19.429
G01 F300 X58.460 Y19.271
G01 F300 X58.631 Y19.147
G01 F300 X58.825 Y19.061
G01 F300 X59.032 Y19.017
G01 F300 X59.244 Y19.017
G01 F300 X59.451 Y19.061
G01 F300 X59.645 Y19.147
G01 F300 X59.816 Y19.271
G01 F300 X59.958 Y19.429
G01 F300 X60.064 Y19.612
G01 F300 X60.129 Y19.814
G01 F300 X60.150 Y20.013
G01 F300 X60.150 Y20.747
G01 F300 X60.129 Y20.946
G01 F300 X60.064 Y21.148
G01 F300 X59.958 Y21.331
G01 F300 X59.816 Y21.489
G01 F300 X59.645 Y21.613
G01 F300 X59.451 Y21.699
G01 F300 X59.244 Y21.743
G01 F300 X59.032 Y21.743
G01 F300 X58.825 Y21.699
G01 F300 X58.631 Y21.613
G01 F300 X58.460 Y21.489
G01 F300 X58.318 Y21.331
G01 F300 X58.211 Y21.145
G01 F300 X58.199 Y21.105
G01 F300 X57.532 Y21.120
G01 F300 X57.524 Y21.148
G01 F300 X57.418 Y21.331
G01 F300 X57.276 Y21.489
G01 F300 X57.105 Y21.613
G01 F300 X56.911 Y21.699
G01 F300 X56.704 Y21.743
G01 F300 X56.492 Y21.743
G01 F300 X56.285 Y21.699
G01 F300 X56.091 Y21.613
G01 F300 X55.920 Y21.489
G01 F300 X55.778 Y21.331
G01 F300 X55.671 Y21.145
G01 F300 X55.659 Y21.105
G01 F300 X54.992 Y21.120
G01 F300 X54.983 Y21.148
G01 F300 X54.878 Y21.331
G01 F300 X54.736 Y21.489
G01 F300 X54.565 Y21.613
G01 F300 X54.371 Y21.699
G01 F300 X54.164 Y21.743
G01 F300 X53.952 Y21.743
G01 F300 X53.745 Y21.699
G01 F300 X53.551 Y21.613
G01 F300 X53.380 Y21.489
G01 F300 X53.238 Y21.331
G01 F300 X53.131 Y21.145
G01 F300 X53.119 Y21.105
G01 F300 X52.452 Y21.120
G01 F300 X52.444 Y21.148
G01 F300 X52.338 Y21.331
G01 F300 X52.242 Y21.437
G01 F300 X52.242 Y22.932
G01 F300 X52.228 Y23.071
G01 F300 X52.181 Y23.215
G01 F300 X52.105 Y23.347
G01 F300 X52.016 Y23.446
G01 F300 X50.729 Y24.733
G01 F300 X50.611 Y24.819
G01 F300 X50.472 Y24.880
G01 F300 X50.324 Y24.912
G01 F300 X46.362 Y24.912
G01 F300 X46.214 Y24.880
G01 F300 X46.075 Y24.819
G01 F300 X45.957 Y24.733
G01 F300 X44.671 Y23.446
G01 F300 X44.581 Y23.347
G01 F300 X44.505 Y23.215
G01 F300 X44.458 Y23.071
G01 F300 X44.444 Y22.932
G01 F300 X44.444 Y22.372
G01 F300 X40.012 Y22.372
G01 F300 X39.864 Y22.340
G01 F300 X39.725 Y22.279
G01 F300 X39.602 Y22.189
G01 F300 X39.501 Y22.076
G01 F300 X39.425 Y21.945
G01 F300 X39.378 Y21.801
G01 F300 X39.364 Y21.662
G01 F300 X39.364 Y20.679
G01 F300 X38.516 Y19.832
G01 F300 X30.652 Y19.832
G01 F300 X30.652 Y20.593
G01 F300 X30.748 Y20.699
G01 F300 X30.854 Y20.882
G01 F300 X30.919 Y21.084
G01 F300 X30.940 Y21.283
G01 F300 X30.940 Y22.017
G01 F300 X30.919 Y22.216
G01 F300 X30.854 Y22.418
G01 F300 X30.748 Y22.601
G01 F300 X30.652 Y22.707
G01 F300 X30.652 Y22.932
G01 F300 X30.638 Y23.071
G01 F300 X30.591 Y23.215
G01 F300 X30.515 Y23.347
G01 F300 X30.426 Y23.446
G01 F300 X24.303 Y29.569
G01 F300 X24.303 Y31.511
G01 F300 X26.420 Y33.628
G01 F300 X26.631 Y33.628
G01 F300 X26.685 Y33.569
G01 F300 X26.862 Y33.440
G01 F300 X27.063 Y33.350
G01 F300 X27.278 Y33.305
G01 F300 X27.498 Y33.305
G01 F300 X27.713 Y33.350
G01 F300 X27.914 Y33.440
G01 F300 X28.091 Y33.569
G01 F300 X28.239 Y33.732
G01 F300 X28.348 Y33.922
G01 F300 X28.416 Y34.131
G01 F300 X28.439 Y34.350
G01 F300 X28.416 Y34.569
G01 F300 X28.348 Y34.778
G01 F300 X28.239 Y34.968
G01 F300 X28.113 Y35.108
G01 F300 X28.113 Y36.591
G01 F300 X30.727 Y39.206
G01 F300 X32.693 Y39.206
G01 F300 X32.693 Y42.195
G01 F300 X29.704 Y42.195
G00 F3000 Z3.000
G00 F3000 X34.932 Y40.152
G00 F1500 Z0
G01 F300 Z-0.060
G01 F300 X34.784 Y40.120
G01 F300 X34.645 Y40.059
G01 F300 X34.527 Y39.973
G01 F300 X30.701 Y36.146
G01 F300 X30.611 Y36.047
G01 F300 X30.535 Y35.915
G01 F300 X30.488 Y35.771
G01 F300 X30.474 Y35.632
G01 F300 X30.474 Y32.532
G01 F300 X28.582 Y32.532
G01 F300 X28.434 Y32.500
G01 F300 X28.295 Y32.439
G01 F300 X28.177 Y32.353
G01 F300 X27.086 Y31.262
G01 F300 X26.875 Y31.262
G01 F300 X26.821 Y31.321
G01 F300 X26.644 Y31.450
G01 F300 X26.443 Y31.540
G01 F300 X26.228 Y31.586
G01 F300 X26.008 Y31.586
G01 F300 X25.793 Y31.540
G01 F300 X25.592 Y31.450
G01 F300 X25.415 Y31.321
G01 F300 X25.268 Y31.158
G01 F300 X25.158 Y30.968
G01 F300 X25.090 Y30.759
G01 F300 X25.067 Y30.540
G01 F300 X25.090 Y30.321
G01 F300 X25.158 Y30.112
G01 F300 X25.268 Y29.922
G01 F300 X25.415 Y29.759
G01 F300 X25.592 Y29.630
G01 F300 X25.793 Y29.540
G01 F300 X26.008 Y29.495
G01 F300 X26.228 Y29.495
G01 F300 X26.443 Y29.540
G01 F300 X26.644 Y29.630
G01 F300 X26.821 Y29.759
G01 F300 X26.875 Y29.818
G01 F300 X27.464 Y29.818
G01 F300 X27.612 Y29.850
G01 F300 X27.751 Y29.912
G01 F300 X27.869 Y29.997
G01 F300 X28.960 Y31.088
G01 F300 X31.744 Y31.088
G01 F300 X31.744 Y30.327
G01 F300 X31.648 Y30.221
G01 F300 X31.543 Y30.038
G01 F300 X31.477 Y29.836
G01 F300 X31.456 Y29.637
G01 F300 X31.456 Y28.903
G01 F300 X31.477 Y28.704
G01 F300 X31.543 Y28.502
G01 F300 X31.648 Y28.319
G01 F300 X31.790 Y28.162
G01 F300 X31.961 Y28.037
G01 F300 X32.155 Y27.951
G01 F300 X32.362 Y27.907
G01 F300 X32.574 Y27.907
G01 F300 X32.781 Y27.951
G01 F300 X32.975 Y28.037
G01 F300 X33.146 Y28.162
G01 F300 X33.288 Y28.319
G01 F300 X33.394 Y28.502
G01 F300 X33.459 Y28.704
G01 F300 X33.480 Y28.903
G01 F300 X33.480 Y29.637
G01 F300 X33.459 Y29.836
G01 F300 X33.394 Y30.038
G01 F300 X33.288 Y30.221
G01 F300 X33.193 Y30.327
G01 F300 X33.193 Y31.822
G01 F300 X33.178 Y31.961
G01 F300 X33.131 Y32.105
G01 F300 X33.055 Y32.236
G01 F300 X32.954 Y32.349
G01 F300 X32.831 Y32.439
G01 F300 X32.692 Y32.500
G01 F300 X32.544 Y32.532
G01 F300 X31.923 Y32.532
G01 F300 X31.923 Y35.321
G01 F300 X35.310 Y38.708
G01 F300 X37.246 Y38.708
G01 F300 X40.634 Y35.321
G01 F300 X40.634 Y35.108
G01 F300 X40.508 Y34.968
G01 F300 X40.398 Y34.778
G01 F300 X40.330 Y34.569
G01 F300 X40.307 Y34.350
G01 F300 X40.330 Y34.131
G01 F300 X40.398 Y33.922
G01 F300 X40.508 Y33.732
G01 F300 X40.655 Y33.569
G01 F300 X40.832 Y33.440
G01 F300 X41.033 Y33.350
G01 F300 X41.248 Y33.305
G01 F300 X41.468 Y33.305
G01 F300 X41.683 Y33.350
G01 F300 X41.884 Y33.440
G01 F300 X42.061 Y33.569
G01 F300 X42.209 Y33.732
G01 F300 X42.318 Y33.922
G01 F300 X42.386 Y34.131
G01 F300 X42.409 Y34.350
G01 F300 X42.386 Y34.569
G01 F300 X42.318 Y34.778
G01 F300 X42.209 Y34.968
G01 F300 X42.083 Y35.108
G01 F300 X42.083 Y35.632
G01 F300 X42.068 Y35.771
G01 F300 X42.021 Y35.915
G01 F300 X41.945 Y36.047
G01 F300 X41.855 Y36.146
G01 F300 X38.029 Y39.973
G01 F300 X37.911 Y40.059
G01 F300 X37.772 Y40.120
G01 F300 X37.624 Y40.152
G01 F300 X34.932 Y40.152
G00 F3000 Z3.000
G00 F3000 X61.562 Y37.999
G00 F1500 Z0
G01 F300 Z-0.060
G01 F300 X61.334 Y37.950
G01 F300 X61.121 Y37.855
G01 F300 X60.932 Y37.718
G01 F300 X60.776 Y37.545
G01 F300 X60.660 Y37.343
G01 F300 X60.588 Y37.122
G01 F300 X60.563 Y36.890
G01 F300 X60.572 Y36.808
G01 F300 X57.370 Y33.606
G01 F300 X57.281 Y33.507
G01 F300 X57.205 Y33.375
G01 F300 X57.158 Y33.231
G01 F300 X57.144 Y33.092
G01 F300 X57.144 Y32.654
G01 F300 X57.122 Y32.638
G01 F300 X57.026 Y32.532
G01 F300 X54.783 Y32.532
G01 F300 X54.783 Y33.092
G01 F300 X54.768 Y33.231
G01 F300 X54.721 Y33.375
G01 F300 X54.645 Y33.507
G01 F300 X54.556 Y33.606
G01 F300 X53.513 Y34.649
G01 F300 X53.513 Y35.051
G01 F300 X53.536 Y35.077
G01 F300 X53.632 Y35.244
G01 F300 X53.692 Y35.428
G01 F300 X53.712 Y35.620
G01 F300 X53.692 Y35.812
G01 F300 X53.632 Y35.996
G01 F300 X53.536 Y36.163
G01 F300 X53.406 Y36.307
G01 F300 X53.250 Y36.420
G01 F300 X53.074 Y36.499
G01 F300 X52.885 Y36.539
G01 F300 X52.691 Y36.539
G01 F300 X52.502 Y36.499
G01 F300 X52.326 Y36.420
G01 F300 X52.170 Y36.307
G01 F300 X52.040 Y36.163
G01 F300 X51.944 Y35.996
G01 F300 X51.884 Y35.812
G01 F300 X51.864 Y35.620
G01 F300 X51.884 Y35.428
G01 F300 X51.944 Y35.244
G01 F300 X52.040 Y35.077
G01 F300 X52.064 Y35.051
G01 F300 X52.064 Y34.338
G01 F300 X52.078 Y34.199
G01 F300 X52.125 Y34.055
G01 F300 X52.201 Y33.924
G01 F300 X52.291 Y33.824
G01 F300 X53.334 Y32.781
G01 F300 X53.334 Y29.057
G01 F300 X53.238 Y28.951
G01 F300 X53.133 Y28.768
G01 F300 X53.067 Y28.566
G01 F300 X53.046 Y28.367
G01 F300 X53.046 Y27.633
G01 F300 X53.067 Y27.434
G01 F300 X53.133 Y27.232
G01 F300 X53.238 Y27.049
G01 F300 X53.380 Y26.892
G01 F300 X53.551 Y26.767
G01 F300 X53.745 Y26.681
G01 F300 X53.952 Y26.637
G01 F300 X54.164 Y26.637
G01 F300 X54.371 Y26.681
G01 F300 X54.565 Y26.767
G01 F300 X54.736 Y26.892
G01 F300 X54.878 Y27.049
G01 F300 X54.983 Y27.232
G01 F300 X55.049 Y27.434
G01 F300 X55.070 Y27.633
G01 F300 X55.070 Y28.367
G01 F300 X55.049 Y28.566
G01 F300 X54.983 Y28.768
G01 F300 X54.878 Y28.951
G01 F300 X54.783 Y29.057
G01 F300 X54.783 Y31.088
G01 F300 X57.026 Y31.088
G01 F300 X57.122 Y30.982
G01 F300 X57.311 Y30.845
G01 F300 X57.524 Y30.750
G01 F300 X57.752 Y30.701
G01 F300 X57.985 Y30.701
G01 F300 X58.213 Y30.750
G01 F300 X58.425 Y30.845
G01 F300 X58.614 Y30.982
G01 F300 X58.770 Y31.155
G01 F300 X58.886 Y31.357
G01 F300 X58.958 Y31.578
G01 F300 X58.983 Y31.810
G01 F300 X58.958 Y32.042
G01 F300 X58.886 Y32.263
G01 F300 X58.770 Y32.465
G01 F300 X58.614 Y32.638
G01 F300 X58.593 Y32.654
G01 F300 X58.593 Y32.781
G01 F300 X61.593 Y35.781
G01 F300 X61.795 Y35.781
G01 F300 X62.023 Y35.830
G01 F300 X62.235 Y35.925
G01 F300 X62.424 Y36.062
G01 F300 X62.580 Y36.235
G01 F300 X62.696 Y36.437
G01 F300 X62.768 Y36.658
G01 F300 X62.793 Y36.890
G01 F300 X62.768 Y37.122
G01 F300 X62.696 Y37.343
G01 F300 X62.580 Y37.545
G01 F300 X62.424 Y37.718
G01 F300 X62.235 Y37.855
G01 F300 X62.023 Y37.950
G01 F300 X61.795 Y37.999
G01 F300 X61.562 Y37.999
G00 F3000 Z3.000
G00 F3000 X36.168 Y37.936
G00 F1500 Z0
G01 F300 Z-0.060
G01 F300 X35.953 Y37.890
G01 F300 X35.752 Y37.800
G01 F300 X35.575 Y37.671
G01 F300 X35.428 Y37.508
G01 F300 X35.318 Y37.318
G01 F300 X35.250 Y37.109
G01 F300 X35.227 Y36.890
G01 F300 X35.250 Y36.671
G01 F300 X35.318 Y36.462
G01 F300 X35.428 Y36.272
G01 F300 X35.553 Y36.132
G01 F300 X35.553 Y35.922
G01 F300 X35.004 Y35.395
G01 F300 X34.898 Y35.395
G01 F300 X34.683 Y35.350
G01 F300 X34.482 Y35.260
G01 F300 X34.305 Y35.131
G01 F300 X34.157 Y34.968
G01 F300 X34.048 Y34.778
G01 F300 X33.980 Y34.569
G01 F300 X33.957 Y34.350
G01 F300 X33.980 Y34.131
G01 F300 X34.048 Y33.922
G01 F300 X34.157 Y33.732
G01 F300 X34.284 Y33.592
G01 F300 X34.284 Y30.327
G01 F300 X34.188 Y30.221
G01 F300 X34.083 Y30.038
G01 F300 X34.017 Y29.836
G01 F300 X33.996 Y29.637
G01 F300 X33.996 Y28.903
G01 F300 X34.017 Y28.704
G01 F300 X34.083 Y28.502
G01 F300 X34.188 Y28.319
G01 F300 X34.330 Y28.162
G01 F300 X34.501 Y28.037
G01 F300 X34.695 Y27.951
G01 F300 X34.902 Y27.907
G01 F300 X35.114 Y27.907
G01 F300 X35.321 Y27.951
G01 F300 X35.515 Y28.037
G01 F300 X35.686 Y28.162
G01 F300 X35.828 Y28.319
G01 F300 X35.934 Y28.502
G01 F300 X35.999 Y28.704
G01 F300 X36.020 Y28.903
G01 F300 X36.020 Y29.637
G01 F300 X35.999 Y29.836
G01 F300 X35.934 Y30.038
G01 F300 X35.828 Y30.221
G01 F300 X35.733 Y30.327
G01 F300 X35.733 Y33.592
G01 F300 X35.858 Y33.732
G01 F300 X35.968 Y33.922
G01 F300 X36.036 Y34.131
G01 F300 X36.059 Y34.350
G01 F300 X36.057 Y34.375
G01 F300 X36.776 Y35.094
G01 F300 X36.865 Y35.194
G01 F300 X36.941 Y35.325
G01 F300 X36.988 Y35.469
G01 F300 X37.003 Y35.608
G01 F300 X37.003 Y36.132
G01 F300 X37.129 Y36.272
G01 F300 X37.238 Y36.462
G01 F300 X37.306 Y36.671
G01 F300 X37.329 Y36.890
G01 F300 X37.306 Y37.109
G01 F300 X37.238 Y37.318
G01 F300 X37.129 Y37.508
G01 F300 X36.981 Y37.671
G01 F300 X36.804 Y37.800
G01 F300 X36.603 Y37.890
G01 F300 X36.388 Y37.936
G01 F300 X36.168 Y37.936
G00 F3000 Z3.000
G00 F3000 X19.665 Y34.062
G00 F1500 Z0
G01 F300 Z-0.060
G01 F300 X19.463 Y34.019
G01 F300 X19.274 Y33.935
G01 F300 X19.107 Y33.814
G01 F300 X18.969 Y33.660
G01 F300 X18.866 Y33.482
G01 F300 X18.802 Y33.285
G01 F300 X18.780 Y33.080
G01 F300 X18.802 Y32.875
G01 F300 X18.866 Y32.678
G01 F300 X18.970 Y32.498
G01 F300 X19.044 Y32.418
G01 F300 X19.044 Y28.288
G01 F300 X18.845 Y28.288
G01 F300 X18.845 Y28.027
G01 F300 X18.770 Y27.994
G01 F300 X18.652 Y27.908
G01 F300 X16.730 Y25.986
G01 F300 X16.641 Y25.887
G01 F300 X16.565 Y25.755
G01 F300 X16.518 Y25.611
G01 F300 X16.504 Y25.472
G01 F300 X16.504 Y20.368
G01 F300 X16.518 Y20.229
G01 F300 X16.565 Y20.085
G01 F300 X16.641 Y19.954
G01 F300 X16.730 Y19.854
G01 F300 X17.449 Y19.135
G01 F300 X17.447 Y19.110
G01 F300 X17.470 Y18.891
G01 F300 X17.538 Y18.682
G01 F300 X17.648 Y18.492
G01 F300 X17.795 Y18.329
G01 F300 X17.972 Y18.200
G01 F300 X18.173 Y18.110
G01 F300 X18.388 Y18.065
G01 F300 X18.608 Y18.065
G01 F300 X18.823 Y18.110
G01 F300 X19.024 Y18.200
G01 F300 X19.201 Y18.329
G01 F300 X19.349 Y18.492
G01 F300 X19.458 Y18.682
G01 F300 X19.526 Y18.891
G01 F300 X19.549 Y19.110
G01 F300 X19.526 Y19.329
G01 F300 X19.458 Y19.538
G01 F300 X19.349 Y19.728
G01 F300 X19.201 Y19.891
G01 F300 X19.024 Y20.020
G01 F300 X18.823 Y20.110
G01 F300 X18.605 Y20.156
G01 F300 X18.479 Y20.153
G01 F300 X17.953 Y20.679
G01 F300 X17.953 Y25.161
G01 F300 X19.234 Y26.442
G01 F300 X20.691 Y26.442
G01 F300 X20.691 Y28.288
G01 F300 X20.493 Y28.288
G01 F300 X20.502 Y32.427
G01 F300 X20.567 Y32.500
G01 F300 X20.670 Y32.678
G01 F300 X20.734 Y32.875
G01 F300 X20.756 Y33.080
G01 F300 X20.734 Y33.285
G01 F300 X20.670 Y33.482
G01 F300 X20.567 Y33.660
G01 F300 X20.429 Y33.814
G01 F300 X20.262 Y33.935
G01 F300 X20.073 Y34.019
G01 F300 X19.871 Y34.062
G01 F300 X19.665 Y34.062
G00 F3000 Z3.000
G00 F3000 X70.465 Y34.062
G00 F1500 Z0
G01 F300 Z-0.060
G01 F300 X70.263 Y34.019
G01 F300 X70.074 Y33.935
G01 F300 X69.907 Y33.814
G01 F300 X69.896 Y33.802
G01 F300 X62.872 Y33.802
G01 F300 X62.724 Y33.770
G01 F300 X62.585 Y33.709
G01 F300 X62.467 Y33.623
G01 F300 X58.641 Y29.796
G01 F300 X58.551 Y29.697
G01 F300 X58.475 Y29.565
G01 F300 X58.428 Y29.421
G01 F300 X58.414 Y29.282
G01 F300 X58.414 Y29.057
G01 F300 X58.318 Y28.951
G01 F300 X58.213 Y28.768
G01 F300 X58.147 Y28.566
G01 F300 X58.126 Y28.367
G01 F300 X58.126 Y27.633
G01 F300 X58.147 Y27.434
G01 F300 X58.213 Y27.232
G01 F300 X58.318 Y27.049
G01 F300 X58.460 Y26.892
G01 F300 X58.631 Y26.767
G01 F300 X58.825 Y26.681
G01 F300 X59.032 Y26.637
G01 F300 X59.244 Y26.637
G01 F300 X59.451 Y26.681
G01 F300 X59.645 Y26.767
G01 F300 X59.816 Y26.892
G01 F300 X59.958 Y27.049
G01 F300 X60.064 Y27.232
G01 F300 X60.129 Y27.434
G01 F300 X60.150 Y27.633
G01 F300 X60.150 Y28.367
G01 F300 X60.129 Y28.566
G01 F300 X60.064 Y28.768
G01 F300 X59.958 Y28.951
G01 F300 X59.903 Y29.012
G01 F300 X63.250 Y32.358
G01 F300 X69.896 Y32.358
G01 F300 X69.907 Y32.346
G01 F300 X70.074 Y32.225
G01 F300 X70.263 Y32.141
G01 F300 X70.465 Y32.098
G01 F300 X70.671 Y32.098
G01 F300 X70.873 Y32.141
G01 F300 X71.062 Y32.225
G01 F300 X71.229 Y32.346
G01 F300 X71.367 Y32.500
G01 F300 X71.470 Y32.678
G01 F300 X71.534 Y32.875
G01 F300 X71.556 Y33.080
G01 F300 X71.534 Y33.285
G01 F300 X71.470 Y33.482
G01 F300 X71.367 Y33.660
G01 F300 X71.229 Y33.814
G01 F300 X71.062 Y33.935
G01 F300 X70.873 Y34.019
G01 F300 X70.671 Y34.062
G01 F300 X70.465 Y34.062
G00 F3000 Z3.000
G00 F3000 X70.465 Y31.522
G00 F1500 Z0
G01 F300 Z-0.060
G01 F300 X70.263 Y31.479
G01 F300 X70.074 Y31.395
G01 F300 X69.907 Y31.274
G01 F300 X69.896 Y31.262
G01 F300 X62.872 Y31.262
G01 F300 X62.724 Y31.230
G01 F300 X62.585 Y31.169
G01 F300 X62.467 Y31.083
G01 F300 X61.181 Y29.796
G01 F300 X61.091 Y29.697
G01 F300 X61.015 Y29.565
G01 F300 X60.968 Y29.421
G01 F300 X60.954 Y29.282
G01 F300 X60.954 Y29.057
G01 F300 X60.858 Y28.951
G01 F300 X60.753 Y28.768
G01 F300 X60.687 Y28.566
G01 F300 X60.666 Y28.367
G01 F300 X60.666 Y27.633
G01 F300 X60.687 Y27.434
G01 F300 X60.753 Y27.232
G01 F300 X60.858 Y27.049
G01 F300 X61.000 Y26.892
G01 F300 X61.171 Y26.767
G01 F300 X61.365 Y26.681
G01 F300 X61.572 Y26.637
G01 F300 X61.784 Y26.637
G01 F300 X61.991 Y26.681
G01 F300 X62.185 Y26.767
G01 F300 X62.356 Y26.892
G01 F300 X62.498 Y27.049
G01 F300 X62.604 Y27.232
G01 F300 X62.669 Y27.434
G01 F300 X62.690 Y27.633
G01 F300 X62.690 Y28.367
G01 F300 X62.669 Y28.566
G01 F300 X62.604 Y28.768
G01 F300 X62.498 Y28.951
G01 F300 X62.443 Y29.012
G01 F300 X63.250 Y29.818
G01 F300 X69.896 Y29.818
G01 F300 X69.907 Y29.806
G01 F300 X70.074 Y29.685
G01 F300 X70.263 Y29.601
G01 F300 X70.465 Y29.558
G01 F300 X70.671 Y29.558
G01 F300 X70.873 Y29.601
G01 F300 X71.062 Y29.685
G01 F300 X71.229 Y29.806
G01 F300 X71.367 Y29.960
G01 F300 X71.470 Y30.138
G01 F300 X71.534 Y30.335
G01 F300 X71.556 Y30.540
G01 F300 X71.534 Y30.745
G01 F300 X71.470 Y30.942
G01 F300 X71.367 Y31.120
G01 F300 X71.229 Y31.274
G01 F300 X71.062 Y31.395
G01 F300 X70.873 Y31.479
G01 F300 X70.671 Y31.522
G01 F300 X70.465 Y31.522
G00 F3000 Z3.000
G00 F3000 X28.916 Y30.638
G00 F1500 Z0
G01 F300 Z-0.060
G01 F300 X28.916 Y27.902
G01 F300 X29.204 Y27.902
G01 F300 X29.204 Y26.718
G01 F300 X29.218 Y26.579
G01 F300 X29.265 Y26.435
G01 F300 X29.341 Y26.303
G01 F300 X29.431 Y26.204
G01 F300 X30.717 Y24.917
G01 F300 X30.835 Y24.832
G01 F300 X30.974 Y24.770
G01 F300 X31.122 Y24.738
G01 F300 X40.615 Y24.738
G01 F300 X40.610 Y24.733
G01 F300 X40.514 Y24.566
G01 F300 X40.454 Y24.382
G01 F300 X40.434 Y24.190
G01 F300 X40.454 Y23.998
G01 F300 X40.514 Y23.814
G01 F300 X40.610 Y23.647
G01 F300 X40.740 Y23.503
G01 F300 X40.896 Y23.390
G01 F300 X41.072 Y23.311
G01 F300 X41.261 Y23.271
G01 F300 X41.455 Y23.271
G01 F300 X41.644 Y23.311
G01 F300 X41.820 Y23.390
G01 F300 X41.976 Y23.503
G01 F300 X42.106 Y23.647
G01 F300 X42.202 Y23.814
G01 F300 X42.262 Y23.998
G01 F300 X42.282 Y24.190
G01 F300 X42.262 Y24.382
G01 F300 X42.202 Y24.566
G01 F300 X42.106 Y24.733
G01 F300 X42.083 Y24.759
G01 F300 X42.083 Y25.972
G01 F300 X42.209 Y26.112
G01 F300 X42.318 Y26.302
G01 F300 X42.386 Y26.511
G01 F300 X42.409 Y26.730
G01 F300 X42.386 Y26.949
G01 F300 X42.318 Y27.158
G01 F300 X42.209 Y27.348
G01 F300 X42.061 Y27.511
G01 F300 X41.884 Y27.640
G01 F300 X41.683 Y27.730
G01 F300 X41.468 Y27.776
G01 F300 X41.248 Y27.776
G01 F300 X41.033 Y27.730
G01 F300 X40.832 Y27.640
G01 F300 X40.655 Y27.511
G01 F300 X40.508 Y27.348
G01 F300 X40.398 Y27.158
G01 F300 X40.330 Y26.949
G01 F300 X40.307 Y26.730
G01 F300 X40.330 Y26.511
G01 F300 X40.398 Y26.302
G01 F300 X40.467 Y26.182
G01 F300 X31.500 Y26.182
G01 F300 X30.652 Y27.029
G01 F300 X30.652 Y27.902
G01 F300 X30.940 Y27.902
G01 F300 X30.940 Y30.638
G01 F300 X28.916 Y30.638
G00 F3000 Z3.000
G00 F3000 X56.492 Y29.363
G00 F1500 Z0
G01 F300 Z-0.060
G01 F300 X56.285 Y29.319
G01 F300 X56.091 Y29.233
G01 F300 X55.920 Y29.109
G01 F300 X55.778 Y28.951
G01 F300 X55.672 Y28.768
G01 F300 X55.607 Y28.566
G01 F300 X55.586 Y28.367
G01 F300 X55.586 Y27.633
G01 F300 X55.607 Y27.434
G01 F300 X55.672 Y27.232
G01 F300 X55.778 Y27.049
G01 F300 X55.920 Y26.892
G01 F300 X56.091 Y26.767
G01 F300 X56.285 Y26.681
G01 F300 X56.492 Y26.637
G01 F300 X56.704 Y26.637
G01 F300 X56.911 Y26.681
G01 F300 X57.105 Y26.767
G01 F300 X57.276 Y26.892
G01 F300 X57.418 Y27.049
G01 F300 X57.524 Y27.232
G01 F300 X57.589 Y27.434
G01 F300 X57.610 Y27.633
G01 F300 X57.610 Y28.367
G01 F300 X57.589 Y28.566
G01 F300 X57.524 Y28.768
G01 F300 X57.418 Y28.951
G01 F300 X57.276 Y29.109
G01 F300 X57.105 Y29.233
G01 F300 X56.911 Y29.319
G01 F300 X56.704 Y29.363
G01 F300 X56.492 Y29.363
G00 F3000 Z3.000
G00 F3000 X64.112 Y29.363
G00 F1500 Z0
G01 F300 Z-0.060
G01 F300 X63.905 Y29.319
G01 F300 X63.711 Y29.233
G01 F300 X63.540 Y29.109
G01 F300 X63.398 Y28.951
G01 F300 X63.293 Y28.768
G01 F300 X63.227 Y28.566
G01 F300 X63.206 Y28.367
G01 F300 X63.206 Y27.633
G01 F300 X63.227 Y27.434
G01 F300 X63.293 Y27.232
G01 F300 X63.398 Y27.049
G01 F300 X63.540 Y26.892
G01 F300 X63.711 Y26.767
G01 F300 X63.905 Y26.681
G01 F300 X64.112 Y26.637
G01 F300 X64.324 Y26.637
G01 F300 X64.531 Y26.681
G01 F300 X64.725 Y26.767
G01 F300 X64.896 Y26.892
G01 F300 X65.038 Y27.049
G01 F300 X65.145 Y27.235
G01 F300 X65.158 Y27.278
G01 F300 X69.896 Y27.278
G01 F300 X69.907 Y27.266
G01 F300 X70.074 Y27.145
G01 F300 X70.263 Y27.061
G01 F300 X70.465 Y27.018
G01 F300 X70.671 Y27.018
G01 F300 X70.873 Y27.061
G01 F300 X71.062 Y27.145
G01 F300 X71.229 Y27.266
G01 F300 X71.367 Y27.420
G01 F300 X71.470 Y27.598
G01 F300 X71.534 Y27.795
G01 F300 X71.556 Y28.000
G01 F300 X71.534 Y28.205
G01 F300 X71.470 Y28.402
G01 F300 X71.367 Y28.581
G01 F300 X71.229 Y28.734
G01 F300 X71.062 Y28.855
G01 F300 X70.873 Y28.939
G01 F300 X70.671 Y28.982
G01 F300 X70.465 Y28.982
G01 F300 X70.263 Y28.939
G01 F300 X70.074 Y28.855
G01 F300 X69.907 Y28.734
G01 F300 X69.897 Y28.722
G01 F300 X65.151 Y28.743
G01 F300 X65.144 Y28.768
G01 F300 X65.038 Y28.951
G01 F300 X64.896 Y29.109
G01 F300 X64.725 Y29.233
G01 F300 X64.531 Y29.319
G01 F300 X64.324 Y29.363
G01 F300 X64.112 Y29.363
G00 F3000 Z3.000
G00 F3000 X70.465 Y26.442
G00 F1500 Z0
G01 F300 Z-0.060
G01 F300 X70.263 Y26.399
G01 F300 X70.074 Y26.315
G01 F300 X69.907 Y26.194
G01 F300 X69.896 Y26.182
G01 F300 X67.952 Y26.182
G01 F300 X67.804 Y26.150
G01 F300 X67.665 Y26.088
G01 F300 X67.547 Y26.003
G01 F300 X63.721 Y22.176
G01 F300 X63.631 Y22.076
G01 F300 X63.555 Y21.945
G01 F300 X63.508 Y21.801
G01 F300 X63.503 Y21.748
G01 F300 X63.206 Y21.748
G01 F300 X63.206 Y19.012
G01 F300 X65.230 Y19.012
G01 F300 X65.230 Y21.638
G01 F300 X68.330 Y24.738
G01 F300 X69.896 Y24.738
G01 F300 X69.907 Y24.726
G01 F300 X70.074 Y24.605
G01 F300 X70.263 Y24.521
G01 F300 X70.465 Y24.478
G01 F300 X70.671 Y24.478
G01 F300 X70.873 Y24.521
G01 F300 X71.062 Y24.605
G01 F300 X71.229 Y24.726
G01 F300 X71.367 Y24.880
G01 F300 X71.470 Y25.058
G01 F300 X71.534 Y25.255
G01 F300 X71.556 Y25.460
G01 F300 X71.534 Y25.665
G01 F300 X71.470 Y25.862
G01 F300 X71.367 Y26.041
G01 F300 X71.229 Y26.194
G01 F300 X71.062 Y26.315
G01 F300 X70.873 Y26.399
G01 F300 X70.671 Y26.442
G01 F300 X70.465 Y26.442
G00 F3000 Z3.000
G00 F3000 X19.671 Y24.474
G00 F1500 Z0
G01 F300 Z-0.060
G01 F300 X19.482 Y24.434
G01 F300 X19.306 Y24.355
G01 F300 X19.150 Y24.242
G01 F300 X19.020 Y24.098
G01 F300 X18.924 Y23.931
G01 F300 X18.864 Y23.747
G01 F300 X18.844 Y23.555
G01 F300 X18.864 Y23.363
G01 F300 X18.924 Y23.179
G01 F300 X19.020 Y23.012
G01 F300 X19.150 Y22.868
G01 F300 X19.306 Y22.755
G01 F300 X19.482 Y22.676
G01 F300 X19.671 Y22.636
G01 F300 X19.865 Y22.636
G01 F300 X20.054 Y22.676
G01 F300 X20.230 Y22.755
G01 F300 X20.338 Y22.833
G01 F300 X25.076 Y22.833
G01 F300 X25.090 Y22.701
G01 F300 X25.158 Y22.492
G01 F300 X25.268 Y22.302
G01 F300 X25.415 Y22.139
G01 F300 X25.592 Y22.010
G01 F300 X25.793 Y21.920
G01 F300 X26.008 Y21.875
G01 F300 X26.228 Y21.875
G01 F300 X26.443 Y21.920
G01 F300 X26.644 Y22.010
G01 F300 X26.821 Y22.139
G01 F300 X26.969 Y22.302
G01 F300 X27.078 Y22.492
G01 F300 X27.146 Y22.701
G01 F300 X27.169 Y22.920
G01 F300 X27.146 Y23.139
G01 F300 X27.078 Y23.348
G01 F300 X26.969 Y23.538
G01 F300 X26.821 Y23.701
G01 F300 X26.644 Y23.830
G01 F300 X26.443 Y23.920
G01 F300 X26.225 Y23.966
G01 F300 X26.099 Y23.963
G01 F300 X25.964 Y24.098
G01 F300 X25.846 Y24.184
G01 F300 X25.707 Y24.245
G01 F300 X25.559 Y24.277
G01 F300 X20.338 Y24.277
G01 F300 X20.230 Y24.355
G01 F300 X20.054 Y24.434
G01 F300 X19.865 Y24.474
G01 F300 X19.671 Y24.474
G00 F3000 Z3.000
G00 F3000 X69.582 Y23.907
G00 F1500 Z0
G01 F300 Z-0.060
G01 F300 X69.582 Y21.934
G01 F300 X69.828 Y21.934
G01 F300 X66.456 Y18.562
G01 F300 X62.403 Y18.562
G01 F300 X62.403 Y19.323
G01 F300 X62.498 Y19.429
G01 F300 X62.604 Y19.612
G01 F300 X62.669 Y19.814
G01 F300 X62.690 Y20.013
G01 F300 X62.690 Y20.747
G01 F300 X62.669 Y20.946
G01 F300 X62.604 Y21.148
G01 F300 X62.498 Y21.331
G01 F300 X62.356 Y21.489
G01 F300 X62.185 Y21.613
G01 F300 X61.991 Y21.699
G01 F300 X61.784 Y21.743
G01 F300 X61.572 Y21.743
G01 F300 X61.365 Y21.699
G01 F300 X61.171 Y21.613
G01 F300 X61.000 Y21.489
G01 F300 X60.858 Y21.331
G01 F300 X60.753 Y21.148
G01 F300 X60.687 Y20.946
G01 F300 X60.666 Y20.747
G01 F300 X60.666 Y20.013
G01 F300 X60.687 Y19.814
G01 F300 X60.753 Y19.612
G01 F300 X60.858 Y19.429
G01 F300 X60.954 Y19.323
G01 F300 X60.954 Y17.828
G01 F300 X60.968 Y17.689
G01 F300 X61.015 Y17.545
G01 F300 X61.091 Y17.413
G01 F300 X61.192 Y17.301
G01 F300 X61.315 Y17.212
G01 F300 X61.454 Y17.150
G01 F300 X61.602 Y17.118
G01 F300 X66.834 Y17.118
G01 F300 X66.982 Y17.150
G01 F300 X67.121 Y17.212
G01 F300 X67.239 Y17.297
G01 F300 X71.066 Y21.124
G01 F300 X71.155 Y21.224
G01 F300 X71.231 Y21.355
G01 F300 X71.278 Y21.499
G01 F300 X71.293 Y21.638
G01 F300 X71.293 Y21.934
G01 F300 X71.555 Y21.934
G01 F300 X71.555 Y23.907
G01 F300 X69.582 Y23.907
G00 F3000 Z3.000
G00 F3000 X32.362 Y23.013
G00 F1500 Z0
G01 F300 Z-0.060
G01 F300 X32.155 Y22.969
G01 F300 X31.961 Y22.883
G01 F300 X31.790 Y22.759
G01 F300 X31.648 Y22.601
G01 F300 X31.543 Y22.418
G01 F300 X31.477 Y22.216
G01 F300 X31.456 Y22.017
G01 F300 X31.456 Y21.283
G01 F300 X31.477 Y21.084
G01 F300 X31.543 Y20.882
G01 F300 X31.648 Y20.699
G01 F300 X31.790 Y20.542
G01 F300 X31.961 Y20.417
G01 F300 X32.155 Y20.331
G01 F300 X32.362 Y20.287
G01 F300 X32.574 Y20.287
G01 F300 X32.781 Y20.331
G01 F300 X32.975 Y20.417
G01 F300 X33.146 Y20.542
G01 F300 X33.288 Y20.699
G01 F300 X33.394 Y20.882
G01 F300 X33.459 Y21.084
G01 F300 X33.480 Y21.283
G01 F300 X33.480 Y22.017
G01 F300 X33.459 Y22.216
G01 F300 X33.394 Y22.418
G01 F300 X33.288 Y22.601
G01 F300 X33.146 Y22.759
G01 F300 X32.975 Y22.883
G01 F300 X32.781 Y22.969
G01 F300 X32.574 Y23.013
G01 F300 X32.362 Y23.013
G00 F3000 Z3.000
G00 F3000 X37.442 Y23.013
G00 F1500 Z0
G01 F300 Z-0.060
G01 F300 X37.235 Y22.969
G01 F300 X37.041 Y22.883
G01 F300 X36.870 Y22.759
G01 F300 X36.728 Y22.601
G01 F300 X36.623 Y22.418
G01 F300 X36.557 Y22.216
G01 F300 X36.536 Y22.017
G01 F300 X36.536 Y21.283
G01 F300 X36.557 Y21.084
G01 F300 X36.623 Y20.882
G01 F300 X36.728 Y20.699
G01 F300 X36.870 Y20.542
G01 F300 X37.041 Y20.417
G01 F300 X37.235 Y20.331
G01 F300 X37.442 Y20.287
G01 F300 X37.654 Y20.287
G01 F300 X37.861 Y20.331
G01 F300 X38.055 Y20.417
G01 F300 X38.226 Y20.542
G01 F300 X38.368 Y20.699
G01 F300 X38.474 Y20.882
G01 F300 X38.539 Y21.084
G01 F300 X38.560 Y21.283
G01 F300 X38.560 Y22.017
G01 F300 X38.539 Y22.216
G01 F300 X38.474 Y22.418
G01 F300 X38.368 Y22.601
G01 F300 X38.226 Y22.759
G01 F300 X38.055 Y22.883
G01 F300 X37.861 Y22.969
G01 F300 X37.654 Y23.013
G01 F300 X37.442 Y23.013
G00 F3000 Z3.000
G00 F3000 X34.902 Y23.013
G00 F1500 Z0
G01 F300 Z-0.060
G01 F300 X34.695 Y22.969
G01 F300 X34.501 Y22.883
G01 F300 X34.330 Y22.759
G01 F300 X34.188 Y22.601
G01 F300 X34.083 Y22.418
G01 F300 X34.017 Y22.216
G01 F300 X33.996 Y22.017
G01 F300 X33.996 Y21.283
G01 F300 X34.017 Y21.084
G01 F300 X34.083 Y20.882
G01 F300 X34.188 Y20.699
G01 F300 X34.330 Y20.542
G01 F300 X34.501 Y20.417
G01 F300 X34.695 Y20.331
G01 F300 X34.902 Y20.287
G01 F300 X35.114 Y20.287
G01 F300 X35.321 Y20.331
G01 F300 X35.515 Y20.417
G01 F300 X35.686 Y20.542
G01 F300 X35.828 Y20.699
G01 F300 X35.934 Y20.882
G01 F300 X35.999 Y21.084
G01 F300 X36.020 Y21.283
G01 F300 X36.020 Y22.017
G01 F300 X35.999 Y22.216
G01 F300 X35.934 Y22.418
G01 F300 X35.828 Y22.601
G01 F300 X35.686 Y22.759
G01 F300 X35.515 Y22.883
G01 F300 X35.321 Y22.969
G01 F300 X35.114 Y23.013
G01 F300 X34.902 Y23.013
G00 F3000 Z3.000
G00 F3000 X48.872 Y21.743
G00 F1500 Z0
G01 F300 Z-0.060
G01 F300 X48.665 Y21.699
G01 F300 X48.471 Y21.613
G01 F300 X48.300 Y21.489
G01 F300 X48.158 Y21.331
G01 F300 X48.053 Y21.148
G01 F300 X47.987 Y20.946
G01 F300 X47.966 Y20.747
G01 F300 X47.966 Y20.392
G01 F300 X47.406 Y19.832
G01 F300 X41.928 Y19.832
G01 F300 X41.820 Y19.910
G01 F300 X41.644 Y19.989
G01 F300 X41.455 Y20.029
G01 F300 X41.261 Y20.029
G01 F300 X41.072 Y19.989
G01 F300 X40.896 Y19.910
G01 F300 X40.740 Y19.797
G01 F300 X40.610 Y19.653
G01 F300 X40.514 Y19.486
G01 F300 X40.454 Y19.302
G01 F300 X40.434 Y19.110
G01 F300 X40.454 Y18.918
G01 F300 X40.514 Y18.734
G01 F300 X40.610 Y18.567
G01 F300 X40.740 Y18.423
G01 F300 X40.896 Y18.310
G01 F300 X41.072 Y18.231
G01 F300 X41.261 Y18.191
G01 F300 X41.455 Y18.191
G01 F300 X41.644 Y18.231
G01 F300 X41.820 Y18.310
G01 F300 X41.928 Y18.388
G01 F300 X47.784 Y18.388
G01 F300 X47.932 Y18.420
G01 F300 X48.071 Y18.482
G01 F300 X48.189 Y18.567
G01 F300 X48.679 Y19.058
G01 F300 X48.872 Y19.017
G01 F300 X49.084 Y19.017
G01 F300 X49.291 Y19.061
G01 F300 X49.485 Y19.147
G01 F300 X49.656 Y19.271
G01 F300 X49.798 Y19.429
G01 F300 X49.904 Y19.612
G01 F300 X49.969 Y19.814
G01 F300 X49.990 Y20.013
G01 F300 X49.990 Y20.747
G01 F300 X49.969 Y20.946
G01 F300 X49.904 Y21.148
G01 F300 X49.798 Y21.331
G01 F300 X49.656 Y21.489
G01 F300 X49.485 Y21.613
G01 F300 X49.291 Y21.699
G01 F300 X49.084 Y21.743
G01 F300 X48.872 Y21.743
G00 F3000 Z3.000
G00 F3000 Z3.000
G00 F3000 X0.000 Y0.000
M05
M30
%